mpan31415/robot-x-ar/study2/data/raw_all_participants/Participant_2-10_1.csv
ParticipantID,Condition,Trial,PostureID,J1,J2,J3,J4,J5,J6,J7,Timestamp,
2-10,C_HumanVertical,1,Q1FrontDown,-47.90158,12.67279,91.69555,-22.15161,-113.5641,142.2906,-44.51877,202408281505593068,
2-10,C_HumanVertical,1,Q1FrontDown,-47.90168,12.67279,91.69757,-22.15055,-113.5577,142.2906,-44.51874,202408281505593344,
2-10,C_HumanVertical,1,Q1FrontDown,-47.90168,12.67279,91.69757,-22.15055,-113.5577,142.2906,-44.51874,202408281505593647,
2-10,C_HumanVertical,1,Q1FrontDown,-47.90421,12.67315,91.70554,-22.15045,-113.5545,142.2861,-44.52043,202408281505593826,
2-10,C_HumanVertical,1,Q1FrontDown,-47.91875,12.6754,91.80588,-22.15047,-113.5167,142.2104,-44.55652,202408281505594026,
2-10,C_HumanVertical,1,Q1FrontDown,-47.91875,12.6754,91.80588,-22.15047,-113.5167,142.2104,-44.55652,202408281505594232,
2-10,C_HumanVertical,1,Q1FrontDown,-47.93021,12.67505,91.90476,-22.15154,-113.4842,142.1325,-44.58578,202408281505594396,
2-10,C_HumanVertical,1,Q1FrontDown,-47.93021,12.67505,91.90476,-22.15154,-113.4842,142.1325,-44.58578,202408281505594583,
2-10,C_HumanVertical,1,Q1FrontDown,-47.93586,12.67422,92.00461,-22.15177,-113.454,142.0679,-44.61073,202408281505594861,
2-10,C_HumanVertical,1,Q1FrontDown,-47.93586,12.67422,92.00461,-22.15177,-113.454,142.0679,-44.61073,202408281505595070,
2-10,C_HumanVertical,1,Q1FrontDown,-47.9364,12.66949,92.08472,-22.15194,-113.4529,142.0101,-44.6363,202408281505595351,
2-10,C_HumanVertical,1,Q1FrontDown,-47.93745,12.66543,92.16044,-22.15042,-113.4523,141.9659,-44.65841,202408281505595660,
2-10,C_HumanVertical,1,Q1FrontDown,-47.93858,12.66144,92.22831,-22.15015,-113.4522,141.9248,-44.67913,202408281505595830,
2-10,C_HumanVertical,1,Q1FrontDown,-47.9383,12.6576,92.29364,-22.15031,-113.4508,141.8731,-44.70976,202408281505596181,
2-10,C_HumanVertical,1,Q1FrontDown,-47.93796,12.65591,92.33758,-22.15132,-113.4505,141.8301,-44.74235,202408281505596464,
2-10,C_HumanVertical,1,Q1FrontDown,-47.93796,12.65591,92.33758,-22.15132,-113.4505,141.8301,-44.74235,202408281505596641,
2-10,C_HumanVertical,1,Q1FrontDown,-47.93818,12.65674,92.36409,-22.15161,-113.4504,141.7952,-44.77264,202408281505596805,
2-10,C_HumanVertical,1,Q1FrontDown,-47.93818,12.65674,92.36409,-22.15161,-113.4504,141.7952,-44.77264,202408281505596983,
2-10,C_HumanVertical,1,Q1FrontDown,-47.93827,12.65817,92.37858,-22.15162,-113.4505,141.7623,-44.80548,202408281505597212,
2-10,C_HumanVertical,1,Q1FrontDown,-47.93852,12.65824,92.38459,-22.15027,-113.4504,141.7328,-44.84098,202408281505597476,
2-10,C_HumanVertical,1,Q1FrontDown,-47.9384,12.65751,92.3913,-22.14993,-113.4499,141.7112,-44.87147,202408281505597703,
2-10,C_HumanVertical,1,Q1FrontDown,-47.9384,12.65751,92.3913,-22.14993,-113.4499,141.7112,-44.87147,202408281505597986,
2-10,C_HumanVertical,1,Q1FrontDown,-47.93813,12.65636,92.40061,-22.15054,-113.4496,141.692,-44.90036,202408281505598159,
2-10,C_HumanVertical,1,Q1FrontDown,-47.93785,12.65625,92.40249,-22.15059,-113.4493,141.6846,-44.9233,202408281505598373,
2-10,C_HumanVertical,1,Q1FrontDown,-47.93785,12.65625,92.40249,-22.15059,-113.4493,141.6846,-44.9233,202408281505598657,
2-10,C_HumanVertical,1,Q1FrontDown,-47.93819,12.65758,92.40362,-22.15082,-113.4484,141.6792,-44.94829,202408281505598975,
2-10,C_HumanVertical,1,Q1FrontDown,-47.93852,12.65914,92.41821,-22.15067,-113.4317,141.66,-44.97816,202408281505599205,
2-10,C_HumanVertical,1,Q1FrontDown,-47.93834,12.65827,92.42529,-22.15068,-113.4112,141.6479,-45.0076,202408281505599472,
2-10,C_HumanVertical,1,Q1FrontDown,-47.93834,12.65827,92.42529,-22.15068,-113.4112,141.6479,-45.0076,202408281505599805,
2-10,C_HumanVertical,1,Q1FrontDown,-47.93808,12.65688,92.43531,-22.15097,-113.39,141.6432,-45.03203,202408281505599979,
2-10,C_HumanVertical,1,Q1FrontDown,-47.93794,12.65486,92.44136,-22.15082,-113.377,141.6362,-45.06163,202408281506000181,
2-10,C_HumanVertical,1,Q1FrontDown,-47.93798,12.6526,92.44405,-22.15037,-113.3614,141.6239,-45.09478,202408281506000543,
2-10,C_HumanVertical,1,Q1FrontDown,-47.93808,12.65278,92.44459,-22.15026,-113.3464,141.6155,-45.1242,202408281506000714,
2-10,C_HumanVertical,1,Q1FrontDown,-47.93808,12.65278,92.44459,-22.15026,-113.3464,141.6155,-45.1242,202408281506001012,
2-10,C_HumanVertical,1,Q1FrontDown,-47.93786,12.6528,92.44501,-22.15041,-113.3388,141.6053,-45.15689,202408281506001315,
2-10,C_HumanVertical,1,Q1FrontDown,-47.93773,12.65257,92.44569,-22.15041,-113.3321,141.5924,-45.19056,202408281506001514,
2-10,C_HumanVertical,1,Q1FrontDown,-47.9377,12.653,92.44604,-22.15075,-113.3247,141.5835,-45.21947,202408281506001816,
2-10,C_HumanVertical,1,Q1FrontDown,-47.93766,12.65333,92.44835,-22.15059,-113.313,141.5782,-45.25029,202408281506002117,
2-10,C_HumanVertical,1,Q1FrontDown,-47.93766,12.65333,92.44835,-22.15059,-113.313,141.5782,-45.25029,202408281506002363,
2-10,C_HumanVertical,1,Q1FrontDown,-47.93742,12.65326,92.45722,-22.15035,-113.2505,141.5764,-45.26817,202408281506002525,
2-10,C_HumanVertical,1,Q1FrontDown,-47.93848,12.6491,92.46696,-22.15035,-113.1478,141.583,-45.27861,202408281506002815,
2-10,C_HumanVertical,1,Q1FrontDown,-47.93848,12.6491,92.46696,-22.15035,-113.1478,141.583,-45.27861,202408281506003009,
2-10,C_HumanVertical,1,Q1FrontDown,-47.93848,12.6491,92.46696,-22.15035,-113.1478,141.583,-45.27861,202408281506003165,
2-10,C_HumanVertical,1,Q1FrontDown,-47.93721,12.6282,92.44774,-22.15059,-112.6169,141.8398,-45.21676,202408281506003479,
2-10,C_HumanVertical,1,Q1FrontDown,-47.93351,12.61094,92.40504,-22.14688,-112.2789,142.1387,-45.1386,202408281506003719,
2-10,C_HumanVertical,1,Q1FrontDown,-47.93351,12.61094,92.40504,-22.14688,-112.2789,142.1387,-45.1386,202408281506003975,
2-10,C_HumanVertical,1,Q1FrontDown,-47.92068,12.59871,92.32232,-22.13177,-112.0001,142.7404,-44.98261,202408281506004146,
2-10,C_HumanVertical,1,Q1FrontDown,-47.92068,12.59871,92.32232,-22.13177,-112.0001,142.7404,-44.98261,202408281506004311,
2-10,C_HumanVertical,1,Q1FrontDown,-47.90985,12.57886,92.26109,-22.11538,-111.7352,143.3028,-44.8534,202408281506004503,
2-10,C_HumanVertical,1,Q1FrontDown,-47.90985,12.57886,92.26109,-22.11538,-111.7352,143.3028,-44.8534,202408281506004732,
2-10,C_HumanVertical,1,Q1FrontDown,-47.89967,12.55657,92.22073,-22.10406,-111.4732,143.8218,-44.74215,202408281506004966,
2-10,C_HumanVertical,1,Q1FrontDown,-47.89179,12.55241,92.22621,-22.16502,-111.4886,143.8327,-44.75165,202408281506005133,
2-10,C_HumanVertical,1,Q1FrontDown,-47.89179,12.55241,92.22621,-22.16502,-111.4886,143.8327,-44.75165,202408281506005303,
2-10,C_HumanVertical,1,Q1FrontDown,-47.88713,12.54821,92.22809,-22.20739,-111.4883,143.8402,-44.75757,202408281506005544,
2-10,C_HumanVertical,1,Q1FrontDown,-47.88609,12.55078,92.22159,-22.24155,-111.4858,143.8768,-44.75725,202408281506005839,
2-10,C_HumanVertical,1,Q1FrontDown,-47.88657,12.56152,92.15736,-22.25493,-111.4795,144.0405,-44.7564,202408281506006186,
2-10,C_HumanVertical,1,Q1FrontDown,-47.88536,12.58355,92.0527,-22.28613,-111.4391,144.2973,-44.74174,202408281506006461,
2-10,C_HumanVertical,1,Q1FrontDown,-47.88536,12.58355,92.0527,-22.28613,-111.4391,144.2973,-44.74174,202408281506006634,
2-10,C_HumanVertical,1,Q1FrontDown,-47.88503,12.60245,91.90048,-22.31681,-111.3869,144.6531,-44.72248,202408281506006842,
2-10,C_HumanVertical,1,Q1FrontDown,-47.88587,12.60336,91.66334,-22.31536,-111.258,145.2291,-44.67154,202408281506007038,
2-10,C_HumanVertical,1,Q1FrontDown,-47.88587,12.60336,91.66334,-22.31536,-111.258,145.2291,-44.67154,202408281506007300,
2-10,C_HumanVertical,1,Q1FrontDown,-47.88592,12.60062,91.4362,-22.30393,-111.0918,145.8646,-44.60644,202408281506007482,
2-10,C_HumanVertical,1,Q1FrontDown,-47.88592,12.60062,91.4362,-22.30393,-111.0918,145.8646,-44.60644,202408281506007660,
2-10,C_HumanVertical,1,Q1FrontDown,-47.88557,12.59122,91.19669,-22.29365,-110.9289,146.619,-44.5281,202408281506007862,
2-10,C_HumanVertical,1,Q1FrontDown,-47.88603,12.56397,90.88647,-22.27979,-110.7212,147.4881,-44.4254,202408281506008146,
2-10,C_HumanVertical,1,Q1FrontDown,-47.88603,12.56397,90.88647,-22.27979,-110.7212,147.4881,-44.4254,202408281506008304,
2-10,C_HumanVertical,1,Q1FrontDown,-47.88611,12.53051,90.59108,-22.27163,-110.5011,148.3718,-44.30724,202408281506008489,
2-10,C_HumanVertical,1,Q1FrontDown,-47.88611,12.53051,90.59108,-22.27163,-110.5011,148.3718,-44.30724,202408281506008713,
2-10,C_HumanVertical,1,Q1FrontDown,-47.88548,12.48469,90.26235,-22.26994,-110.2582,149.3075,-44.19992,202408281506008882,
2-10,C_HumanVertical,1,Q1FrontDown,-47.88585,12.42013,89.94257,-22.26747,-109.9993,150.2464,-44.08282,202408281506009136,
2-10,C_HumanVertical,1,Q1FrontDown,-47.88585,12.42013,89.94257,-22.26747,-109.9993,150.2464,-44.08282,202408281506009301,
2-10,C_HumanVertical,1,Q1FrontDown,-47.88516,12.35876,89.66649,-22.26157,-109.7762,151.1444,-43.96413,202408281506009479,
2-10,C_HumanVertical,1,Q1FrontDown,-47.88516,12.35876,89.66649,-22.26157,-109.7762,151.1444,-43.96413,202408281506009645,
2-10,C_HumanVertical,1,Q1FrontDown,-47.88545,12.28118,89.38792,-22.2569,-109.5582,151.9902,-43.84805,202408281506009835,
2-10,C_HumanVertical,1,Q1FrontDown,-47.88506,12.19209,89.15874,-22.25496,-109.3475,152.7359,-43.74321,202408281506010044,
2-10,C_HumanVertical,1,Q1FrontDown,-47.88506,12.19209,89.15874,-22.25496,-109.3475,152.7359,-43.74321,202408281506010211,
2-10,C_HumanVertical,1,Q1FrontDown,-47.88506,12.19209,89.15874,-22.25496,-109.3475,152.7359,-43.74321,202408281506010491,
2-10,C_HumanVertical,1,Q1FrontDown,-47.87817,12.1418,89.08286,-22.27974,-109.2746,153.1006,-43.70855,202408281506010664,
2-10,C_HumanVertical,1,Q1FrontDown,-47.86186,12.11766,89.09708,-22.32995,-109.2766,153.0939,-43.71479,202408281506010831,
2-10,C_HumanVertical,1,Q1FrontDown,-47.86186,12.11766,89.09708,-22.32995,-109.2766,153.0939,-43.71479,202408281506011031,
2-10,C_HumanVertical,1,Q1FrontDown,-47.84206,12.09828,89.10137,-22.34592,-109.2772,153.0889,-43.71875,202408281506011290,
2-10,C_HumanVertical,1,Q1FrontDown,-47.81965,12.10299,89.09962,-22.36325,-109.2773,153.0845,-43.72316,202408281506011482,
2-10,C_HumanVertical,1,Q1FrontDown,-47.80752,12.12602,89.09388,-22.37121,-109.2778,153.0737,-43.72677,202408281506011856,
2-10,C_HumanVertical,1,Q1FrontDown,-47.76115,12.15836,89.0506,-22.40479,-109.2783,153.0701,-43.72922,202408281506012162,
2-10,C_HumanVertical,1,Q1FrontDown,-47.76115,12.15836,89.0506,-22.40479,-109.2783,153.0701,-43.72922,202408281506012360,
2-10,C_HumanVertical,1,Q1FrontDown,-47.70401,12.18361,88.97826,-22.43194,-109.2784,153.0676,-43.73088,202408281506012568,
2-10,C_HumanVertical,1,Q1FrontDown,-47.64054,12.20134,88.8746,-22.44221,-109.2784,153.0643,-43.73102,202408281506012824,
2-10,C_HumanVertical,1,Q1FrontDown,-47.64054,12.20134,88.8746,-22.44221,-109.2784,153.0643,-43.73102,202408281506013009,
2-10,C_HumanVertical,1,Q1FrontDown,-47.53251,12.21238,88.71503,-22.44784,-109.2785,153.063,-43.73093,202408281506013212,
2-10,C_HumanVertical,1,Q1FrontDown,-47.38997,12.21836,88.55554,-22.44979,-109.2784,153.0625,-43.73104,202408281506013478,
2-10,C_HumanVertical,1,Q1FrontDown,-47.38997,12.21836,88.55554,-22.44979,-109.2784,153.0625,-43.73104,202408281506013815,
2-10,C_HumanVertical,1,Q1FrontDown,-47.04307,12.22293,88.17152,-22.46205,-109.2784,153.063,-43.73089,202408281506014155,
2-10,C_HumanVertical,1,Q1FrontDown,-47.04307,12.22293,88.17152,-22.46205,-109.2784,153.063,-43.73089,202408281506014332,
2-10,C_HumanVertical,1,Q1FrontDown,-46.82286,12.22144,87.90685,-22.47987,-109.2782,153.0632,-43.73108,202408281506014634,
2-10,C_HumanVertical,1,Q1FrontDown,-46.55776,12.2233,87.63404,-22.4946,-109.2785,153.0634,-43.73112,202408281506014808,
2-10,C_HumanVertical,1,Q1FrontDown,-46.55776,12.2233,87.63404,-22.4946,-109.2785,153.0634,-43.73112,202408281506015042,
2-10,C_HumanVertical,1,Q1FrontDown,-46.25134,12.22224,87.28657,-22.50284,-109.2785,153.0631,-43.73116,202408281506015314,
2-10,C_HumanVertical,1,Q1FrontDown,-45.90951,12.22285,86.91235,-22.51245,-109.2785,153.0637,-43.73152,202408281506015560,
2-10,C_HumanVertical,1,Q1FrontDown,-45.54428,12.22079,86.52412,-22.52188,-109.2784,153.0653,-43.73112,202408281506015843,
2-10,C_HumanVertical,1,Q1FrontDown,-45.12569,12.22431,86.07328,-22.54634,-109.2781,153.065,-43.73102,202408281506016149,
2-10,C_HumanVertical,1,Q1FrontDown,-45.12569,12.22431,86.07328,-22.54634,-109.2781,153.065,-43.73102,202408281506016301,
2-10,C_HumanVertical,1,Q1FrontDown,-44.66757,12.21728,85.56695,-22.56437,-109.2784,153.0678,-43.73101,202408281506016542,
2-10,C_HumanVertical,1,Q1FrontDown,-44.18525,12.22158,85.07994,-22.59991,-109.2778,153.0684,-43.7307,202408281506016806,
2-10,C_HumanVertical,1,Q1FrontDown,-44.18525,12.22158,85.07994,-22.59991,-109.2778,153.0684,-43.7307,202408281506016980,
2-10,C_HumanVertical,1,Q1FrontDown,-43.64616,12.22049,84.48438,-22.62886,-109.2777,153.0844,-43.73041,202408281506017136,
2-10,C_HumanVertical,1,Q1FrontDown,-43.64616,12.22049,84.48438,-22.62886,-109.2777,153.0844,-43.73041,202408281506017309,
2-10,C_HumanVertical,1,Q1FrontDown,-43.05312,12.21276,83.85136,-22.66751,-109.278,153.0992,-43.7301,202408281506017670,
2-10,C_HumanVertical,1,Q1FrontDown,-42.48809,12.21106,83.25542,-22.71137,-109.2774,153.1051,-43.72969,202408281506017874,
2-10,C_HumanVertical,1,Q1FrontDown,-41.80441,12.20669,82.52873,-22.77101,-109.2772,153.135,-43.72943,202408281506018161,
2-10,C_HumanVertical,1,Q1FrontDown,-41.80441,12.20669,82.52873,-22.77101,-109.2772,153.135,-43.72943,202408281506018327,
2-10,C_HumanVertical,1,Q1FrontDown,-41.1205,12.20467,81.80456,-22.82745,-109.2764,153.1571,-43.72882,202408281506018644,
2-10,C_HumanVertical,1,Q1FrontDown,-40.40579,12.19256,81.04808,-22.90722,-109.2764,153.1936,-43.72863,202408281506018805,
2-10,C_HumanVertical,1,Q1FrontDown,-40.40579,12.19256,81.04808,-22.90722,-109.2764,153.1936,-43.72863,202408281506019015,
2-10,C_HumanVertical,1,Q1FrontDown,-39.64455,12.19013,80.22614,-22.98606,-109.2762,153.2431,-43.7285,202408281506019288,
2-10,C_HumanVertical,1,Q1FrontDown,-38.84747,12.17178,79.37634,-23.06449,-109.276,153.3033,-43.72798,202408281506019474,
2-10,C_HumanVertical,1,Q1FrontDown,-38.84747,12.17178,79.37634,-23.06449,-109.276,153.3033,-43.72798,202408281506019691,
2-10,C_HumanVertical,1,Q1FrontDown,-37.1288,12.15854,77.57281,-23.22541,-109.274,153.4486,-43.72676,202408281506020050,
2-10,C_HumanVertical,1,Q1FrontDown,-37.1288,12.15854,77.57281,-23.22541,-109.274,153.4486,-43.72676,202408281506020329,
2-10,C_HumanVertical,1,Q1FrontDown,-36.22387,12.1501,76.5982,-23.29588,-109.2707,153.5449,-43.72116,202408281506020501,
2-10,C_HumanVertical,1,Q1FrontDown,-36.22387,12.1501,76.5982,-23.29588,-109.2707,153.5449,-43.72116,202408281506020672,
2-10,C_HumanVertical,1,Q1FrontDown,-35.2721,12.14474,75.60767,-23.38533,-109.2619,153.6566,-43.69729,202408281506021044,
2-10,C_HumanVertical,1,Q1FrontDown,-34.28159,12.13595,74.55878,-23.46157,-109.2546,153.7712,-43.67851,202408281506021310,
2-10,C_HumanVertical,1,Q1FrontDown,-33.27549,12.12121,73.47728,-23.55338,-109.2469,153.902,-43.65881,202408281506021641,
2-10,C_HumanVertical,1,Q1FrontDown,-32.2603,12.11546,72.41879,-23.65754,-109.2395,154.0377,-43.63584,202408281506021812,
2-10,C_HumanVertical,1,Q1FrontDown,-32.2603,12.11546,72.41879,-23.65754,-109.2395,154.0377,-43.63584,202408281506021994,
2-10,C_HumanVertical,1,Q1FrontDown,-31.13437,12.10071,71.2202,-23.76089,-109.2248,154.1851,-43.60086,202408281506022252,
2-10,C_HumanVertical,1,Q1FrontDown,-30.02326,12.08876,70.05,-23.86144,-109.2082,154.3342,-43.56796,202408281506022480,
2-10,C_HumanVertical,1,Q1FrontDown,-30.02326,12.08876,70.05,-23.86144,-109.2082,154.3342,-43.56796,202408281506022672,
2-10,C_HumanVertical,1,Q1FrontDown,-28.90108,12.08012,68.87029,-23.95614,-109.1953,154.4716,-43.53564,202408281506022871,
2-10,C_HumanVertical,1,Q1FrontDown,-28.90108,12.08012,68.87029,-23.95614,-109.1953,154.4716,-43.53564,202408281506023166,
2-10,C_HumanVertical,1,Q1FrontDown,-26.46809,12.05019,66.29114,-24.14197,-109.1525,154.8219,-43.45866,202408281506023411,
2-10,C_HumanVertical,1,Q1FrontDown,-26.46809,12.05019,66.29114,-24.14197,-109.1525,154.8219,-43.45866,202408281506023659,
2-10,C_HumanVertical,1,Q1FrontDown,-25.23902,12.02816,64.98567,-24.24472,-109.1238,155.0127,-43.41774,202408281506023983,
2-10,C_HumanVertical,1,Q1FrontDown,-23.97626,11.99383,63.62061,-24.35172,-109.0895,155.2123,-43.37271,202408281506024309,
2-10,C_HumanVertical,1,Q1FrontDown,-22.69506,11.95015,62.25471,-24.47844,-109.0461,155.3964,-43.32387,202408281506024555,
2-10,C_HumanVertical,1,Q1FrontDown,-21.42186,11.91285,60.91479,-24.60477,-108.9997,155.5829,-43.27772,202408281506024825,
2-10,C_HumanVertical,1,Q1FrontDown,-21.42186,11.91285,60.91479,-24.60477,-108.9997,155.5829,-43.27772,202408281506024979,
2-10,C_HumanVertical,1,Q1FrontDown,-20.01836,11.87492,59.43776,-24.72697,-108.9408,155.7915,-43.22094,202408281506025167,
2-10,C_HumanVertical,1,Q1FrontDown,-20.01836,11.87492,59.43776,-24.72697,-108.9408,155.7915,-43.22094,202408281506025331,
2-10,C_HumanVertical,1,Q1FrontDown,-18.65171,11.82922,58.00287,-24.85295,-108.8853,156.0054,-43.16184,202408281506025531,
2-10,C_HumanVertical,1,Q1FrontDown,-17.3109,11.78431,56.58929,-24.9802,-108.8435,156.2282,-43.10411,202408281506025821,
2-10,C_HumanVertical,1,Q1FrontDown,-15.8547,11.7261,55.03085,-25.12101,-108.798,156.4528,-43.04026,202408281506026044,
2-10,C_HumanVertical,1,Q1FrontDown,-15.8547,11.7261,55.03085,-25.12101,-108.798,156.4528,-43.04026,202408281506026308,
2-10,C_HumanVertical,1,Q1FrontDown,-14.43619,11.66175,53.52305,-25.27184,-108.7543,156.6635,-42.97626,202408281506026491,
2-10,C_HumanVertical,1,Q1FrontDown,-12.98067,11.60525,52.0038,-25.40679,-108.7163,156.884,-42.91052,202408281506026681,
2-10,C_HumanVertical,1,Q1FrontDown,-12.98067,11.60525,52.0038,-25.40679,-108.7163,156.884,-42.91052,202408281506026961,
2-10,C_HumanVertical,1,Q1FrontDown,-11.49905,11.54006,50.44343,-25.5287,-108.6741,157.1172,-42.83726,202408281506027123,
2-10,C_HumanVertical,1,Q1FrontDown,-11.49905,11.54006,50.44343,-25.5287,-108.6741,157.1172,-42.83726,202408281506027290,
2-10,C_HumanVertical,1,Q1FrontDown,-10.02311,11.47096,48.89729,-25.65761,-108.6341,157.3685,-42.7616,202408281506027472,
2-10,C_HumanVertical,1,Q1FrontDown,-10.02311,11.47096,48.89729,-25.65761,-108.6341,157.3685,-42.7616,202408281506027706,
2-10,C_HumanVertical,1,Q1FrontDown,-10.02311,11.47096,48.89729,-25.65761,-108.6341,157.3685,-42.7616,202408281506027864,
2-10,C_HumanVertical,1,Q1FrontDown,-7.012798,11.32656,45.71526,-25.9237,-108.5407,157.8427,-42.61782,202408281506028166,
2-10,C_HumanVertical,1,Q1FrontDown,-7.012798,11.32656,45.71526,-25.9237,-108.5407,157.8427,-42.61782,202408281506028318,
2-10,C_HumanVertical,1,Q1FrontDown,-7.012798,11.32656,45.71526,-25.9237,-108.5407,157.8427,-42.61782,202408281506028479,
2-10,C_HumanVertical,1,Q1FrontDown,-4.006262,11.15698,42.56445,-26.19639,-108.4381,158.3296,-42.45996,202408281506028834,
2-10,C_HumanVertical,1,Q1FrontDown,-4.006262,11.15698,42.56445,-26.19639,-108.4381,158.3296,-42.45996,202408281506029026,
2-10,C_HumanVertical,1,Q1FrontDown,-2.394431,11.08314,40.8881,-26.32797,-108.3785,158.6057,-42.37598,202408281506029307,
2-10,C_HumanVertical,1,Q1FrontDown,-0.8453707,10.99515,39.26942,-26.47229,-108.3138,158.8551,-42.29639,202408281506029477,
2-10,C_HumanVertical,1,Q1FrontDown,-0.8453707,10.99515,39.26942,-26.47229,-108.3138,158.8551,-42.29639,202408281506029641,
2-10,C_HumanVertical,1,Q1FrontDown,0.6614421,10.90491,37.68806,-26.6171,-108.2528,159.0939,-42.21947,202408281506029813,
2-10,C_HumanVertical,1,Q1FrontDown,0.6614421,10.90491,37.68806,-26.6171,-108.2528,159.0939,-42.21947,202408281506029982,
2-10,C_HumanVertical,1,Q1FrontDown,2.233162,10.80873,36.02296,-26.76503,-108.1825,159.3553,-42.13429,202408281506030224,
2-10,C_HumanVertical,1,Q1FrontDown,3.828179,10.7151,34.36579,-26.9108,-108.117,159.6444,-42.04597,202408281506030493,
2-10,C_HumanVertical,1,Q1FrontDown,5.408941,10.62957,32.72318,-27.02702,-108.0471,159.91,-41.97016,202408281506030871,
2-10,C_HumanVertical,1,Q1FrontDown,6.954401,10.53553,31.1094,-27.13434,-107.9736,160.1635,-41.88746,202408281506031192,
2-10,C_HumanVertical,1,Q1FrontDown,8.513036,10.4402,29.47422,-27.26156,-107.8859,160.4261,-41.79773,202408281506031472,
2-10,C_HumanVertical,1,Q1FrontDown,8.513036,10.4402,29.47422,-27.26156,-107.8859,160.4261,-41.79773,202408281506031639,
2-10,C_HumanVertical,1,Q1FrontDown,10.08704,10.3392,27.82775,-27.39433,-107.7979,160.6977,-41.70717,202408281506031801,
2-10,C_HumanVertical,1,Q1FrontDown,10.08704,10.3392,27.82775,-27.39433,-107.7979,160.6977,-41.70717,202408281506031980,
2-10,C_HumanVertical,1,Q1FrontDown,11.70159,10.21411,26.12219,-27.54254,-107.7201,160.9704,-41.6139,202408281506032146,
2-10,C_HumanVertical,1,Q1FrontDown,13.2638,10.10786,24.49484,-27.67951,-107.6454,161.2203,-41.53089,202408281506032367,
2-10,C_HumanVertical,1,Q1FrontDown,13.2638,10.10786,24.49484,-27.67951,-107.6454,161.2203,-41.53089,202408281506032665,
2-10,C_HumanVertical,1,Q1FrontDown,14.7796,9.994126,22.92085,-27.80409,-107.5738,161.4751,-41.45331,202408281506032831,
2-10,C_HumanVertical,1,Q1FrontDown,14.7796,9.994126,22.92085,-27.80409,-107.5738,161.4751,-41.45331,202408281506033009,
2-10,C_HumanVertical,1,Q1FrontDown,17.87912,9.769473,19.68213,-28.06019,-107.4104,162.0186,-41.26001,202408281506033405,
2-10,C_HumanVertical,1,Q1FrontDown,17.87912,9.769473,19.68213,-28.06019,-107.4104,162.0186,-41.26001,202408281506033631,
2-10,C_HumanVertical,1,Q1FrontDown,19.41736,9.654945,18.08643,-28.19023,-107.3268,162.2742,-41.16497,202408281506033816,
2-10,C_HumanVertical,1,Q1FrontDown,19.41736,9.654945,18.08643,-28.19023,-107.3268,162.2742,-41.16497,202408281506034008,
2-10,C_HumanVertical,1,Q1FrontDown,20.99304,9.543977,16.44672,-28.31411,-107.2458,162.5351,-41.07103,202408281506034303,
2-10,C_HumanVertical,1,Q1FrontDown,22.50418,9.44034,14.88362,-28.42349,-107.1455,162.8006,-40.97677,202408281506034515,
2-10,C_HumanVertical,1,Q1FrontDown,24.00155,9.346117,13.33351,-28.52207,-107.0302,163.0738,-40.87842,202408281506034816,
2-10,C_HumanVertical,1,Q1FrontDown,24.00155,9.346117,13.33351,-28.52207,-107.0302,163.0738,-40.87842,202408281506034986,
2-10,C_HumanVertical,1,Q1FrontDown,24.00155,9.346117,13.33351,-28.52207,-107.0302,163.0738,-40.87842,202408281506035173,
2-10,C_HumanVertical,1,Q1FrontDown,26.93376,9.129067,10.25791,-28.72876,-106.8053,163.5601,-40.69736,202408281506035555,
2-10,C_HumanVertical,1,Q1FrontDown,28.37361,9.000499,8.764237,-28.8423,-106.6801,163.8096,-40.60231,202408281506035815,
2-10,C_HumanVertical,1,Q1FrontDown,28.37361,9.000499,8.764237,-28.8423,-106.6801,163.8096,-40.60231,202408281506035988,
2-10,C_HumanVertical,1,Q1FrontDown,29.78593,8.88026,7.281015,-28.96016,-106.5731,164.0742,-40.50123,202408281506036303,
2-10,C_HumanVertical,1,Q1FrontDown,29.78593,8.88026,7.281015,-28.96016,-106.5731,164.0742,-40.50123,202408281506036479,
2-10,C_HumanVertical,1,Q1FrontDown,31.187,8.75203,5.824478,-29.07664,-106.4819,164.3196,-40.40724,202408281506036688,
2-10,C_HumanVertical,1,Q1FrontDown,32.53549,8.639332,4.426152,-29.17653,-106.3997,164.557,-40.31233,202408281506036975,
2-10,C_HumanVertical,1,Q1FrontDown,33.90184,8.519412,2.995719,-29.27168,-106.3217,164.7871,-40.2193,202408281506037205,
2-10,C_HumanVertical,1,Q1FrontDown,35.26941,8.402538,1.576906,-29.36662,-106.2372,165.0308,-40.12238,202408281506037502,
2-10,C_HumanVertical,1,Q1FrontDown,35.26941,8.402538,1.576906,-29.36662,-106.2372,165.0308,-40.12238,202408281506037705,
2-10,C_HumanVertical,1,Q1FrontDown,36.54108,8.283881,0.2479334,-29.45827,-106.1708,165.2652,-40.03482,202408281506038025,
2-10,C_HumanVertical,1,Q1FrontDown,37.83127,8.164525,-1.092427,-29.55478,-106.1017,165.4837,-39.94818,202408281506038229,
2-10,C_HumanVertical,1,Q1FrontDown,39.11435,8.053506,-2.433565,-29.64725,-106.0297,165.6937,-39.85703,202408281506038502,
2-10,C_HumanVertical,1,Q1FrontDown,39.11435,8.053506,-2.433565,-29.64725,-106.0297,165.6937,-39.85703,202408281506038692,
2-10,C_HumanVertical,1,Q1FrontDown,40.319,7.937636,-3.673032,-29.74709,-105.9615,165.8951,-39.77231,202408281506038971,
2-10,C_HumanVertical,1,Q1FrontDown,41.51649,7.837775,-4.924373,-29.83468,-105.8908,166.0991,-39.69942,202408281506039124,
2-10,C_HumanVertical,1,Q1FrontDown,41.51649,7.837775,-4.924373,-29.83468,-105.8908,166.0991,-39.69942,202408281506039311,
2-10,C_HumanVertical,1,Q1FrontDown,42.70869,7.727793,-6.167445,-29.90838,-105.8176,166.3234,-39.62256,202408281506039481,
2-10,C_HumanVertical,1,Q1FrontDown,42.70869,7.727793,-6.167445,-29.90838,-105.8176,166.3234,-39.62256,202408281506039656,
2-10,C_HumanVertical,1,Q1FrontDown,43.80675,7.632124,-7.317486,-29.96404,-105.7478,166.5242,-39.5479,202408281506039874,
2-10,C_HumanVertical,1,Q1FrontDown,44.92974,7.527171,-8.503009,-30.02119,-105.6705,166.7134,-39.46646,202408281506040147,
2-10,C_HumanVertical,1,Q1FrontDown,44.92974,7.527171,-8.503009,-30.02119,-105.6705,166.7134,-39.46646,202408281506040390,
2-10,C_HumanVertical,1,Q1FrontDown,45.99354,7.434608,-9.60589,-30.0679,-105.5909,166.888,-39.38803,202408281506040676,
2-10,C_HumanVertical,1,Q1FrontDown,46.99409,7.34986,-10.65491,-30.10258,-105.5216,167.0639,-39.31376,202408281506040876,
2-10,C_HumanVertical,1,Q1FrontDown,48.0098,7.243991,-11.71993,-30.15346,-105.4633,167.2418,-39.24052,202408281506041146,
2-10,C_HumanVertical,1,Q1FrontDown,48.0098,7.243991,-11.71993,-30.15346,-105.4633,167.2418,-39.24052,202408281506041307,
2-10,C_HumanVertical,1,Q1FrontDown,48.9659,7.1517,-12.7124,-30.21514,-105.4175,167.413,-39.16502,202408281506041489,
2-10,C_HumanVertical,1,Q1FrontDown,48.9659,7.1517,-12.7124,-30.21514,-105.4175,167.413,-39.16502,202408281506041816,
2-10,C_HumanVertical,1,Q1FrontDown,50.75409,6.937967,-14.58791,-30.35302,-105.3292,167.7413,-39.00235,202408281506042024,
2-10,C_HumanVertical,1,Q1FrontDown,50.75409,6.937967,-14.58791,-30.35302,-105.3292,167.7413,-39.00235,202408281506042300,
2-10,C_HumanVertical,1,Q1FrontDown,51.59282,6.854667,-15.45293,-30.41948,-105.2851,167.8875,-38.92918,202408281506042637,
2-10,C_HumanVertical,1,Q1FrontDown,52.37871,6.747697,-16.27191,-30.48444,-105.2417,168.0123,-38.85999,202408281506042821,
2-10,C_HumanVertical,1,Q1FrontDown,52.37871,6.747697,-16.27191,-30.48444,-105.2417,168.0123,-38.85999,202408281506042982,
2-10,C_HumanVertical,1,Q1FrontDown,53.15377,6.665641,-17.08762,-30.5505,-105.2029,168.1478,-38.78971,202408281506043204,
2-10,C_HumanVertical,1,Q1FrontDown,53.8509,6.593384,-17.83343,-30.58903,-105.1646,168.2808,-38.7177,202408281506043529,
2-10,C_HumanVertical,1,Q1FrontDown,54.51189,6.526747,-18.51803,-30.63608,-105.1287,168.4077,-38.64806,202408281506043804,
2-10,C_HumanVertical,1,Q1FrontDown,54.51189,6.526747,-18.51803,-30.63608,-105.1287,168.4077,-38.64806,202408281506043984,
2-10,C_HumanVertical,1,Q1FrontDown,55.14944,6.452003,-19.19893,-30.67793,-105.0946,168.5391,-38.5841,202408281506044179,
2-10,C_HumanVertical,1,Q1FrontDown,55.72783,6.40287,-19.79984,-30.7157,-105.0668,168.662,-38.52044,202408281506044479,
2-10,C_HumanVertical,1,Q1FrontDown,55.72783,6.40287,-19.79984,-30.7157,-105.0668,168.662,-38.52044,202408281506044637,
2-10,C_HumanVertical,1,Q1FrontDown,56.26146,6.339709,-20.37065,-30.74597,-105.046,168.7629,-38.45967,202408281506044811,
2-10,C_HumanVertical,1,Q1FrontDown,56.26146,6.339709,-20.37065,-30.74597,-105.046,168.7629,-38.45967,202408281506045002,
2-10,C_HumanVertical,1,Q1FrontDown,56.75309,6.278953,-20.91372,-30.78119,-105.0242,168.8575,-38.39669,202408281506045202,
2-10,C_HumanVertical,1,Q1FrontDown,57.20721,6.213335,-21.35785,-30.81013,-105.0023,168.942,-38.33717,202408281506045493,
2-10,C_HumanVertical,1,Q1FrontDown,57.60405,6.162877,-21.77974,-30.83053,-104.9832,169.0155,-38.28702,202408281506045860,
2-10,C_HumanVertical,1,Q1FrontDown,57.60257,6.163802,-21.76467,-30.82423,-105.0137,169.0094,-38.28812,202408281506046169,
2-10,C_HumanVertical,1,Q1FrontDown,57.60257,6.163802,-21.76467,-30.82423,-105.0137,169.0094,-38.28812,202408281506046353,
2-10,C_HumanVertical,1,Q1FrontDown,57.59022,6.166711,-21.73055,-30.82096,-105.0319,169.0043,-38.2881,202408281506046632,
2-10,C_HumanVertical,1,Q1FrontDown,57.56807,6.194728,-21.70345,-30.82285,-105.0404,169.0004,-38.28826,202408281506046825,
2-10,C_HumanVertical,1,Q1FrontDown,57.50061,6.248454,-21.65516,-30.82361,-105.0416,168.994,-38.28838,202408281506047137,
2-10,C_HumanVertical,1,Q1FrontDown,57.50061,6.248454,-21.65516,-30.82361,-105.0416,168.994,-38.28838,202408281506047315,
2-10,C_HumanVertical,1,Q1FrontDown,57.36255,6.324039,-21.61075,-30.82753,-105.0428,168.9775,-38.28817,202408281506047526,
2-10,C_HumanVertical,1,Q1FrontDown,57.36255,6.324039,-21.61075,-30.82753,-105.0428,168.9775,-38.28817,202408281506047808,
2-10,C_HumanVertical,1,Q1FrontDown,57.18349,6.434039,-21.58521,-30.83394,-105.044,168.9521,-38.28809,202408281506047952,
2-10,C_HumanVertical,1,Q1FrontDown,56.95111,6.565777,-21.51612,-30.83732,-105.0441,168.9283,-38.28725,202408281506048131,
2-10,C_HumanVertical,1,Q1FrontDown,56.95111,6.565777,-21.51612,-30.83732,-105.0441,168.9283,-38.28725,202408281506048391,
2-10,C_HumanVertical,1,Q1FrontDown,56.65317,6.731088,-21.41772,-30.83791,-105.0439,168.8862,-38.28466,202408281506048637,
2-10,C_HumanVertical,1,Q1FrontDown,56.29786,6.930583,-21.29283,-30.84455,-105.0439,168.8437,-38.27773,202408281506048804,
2-10,C_HumanVertical,1,Q1FrontDown,56.29786,6.930583,-21.29283,-30.84455,-105.0439,168.8437,-38.27773,202408281506048965,
2-10,C_HumanVertical,1,Q1FrontDown,55.84509,7.167964,-21.09567,-30.85117,-105.0437,168.7762,-38.26606,202408281506049131,
2-10,C_HumanVertical,1,Q1FrontDown,55.84509,7.167964,-21.09567,-30.85117,-105.0437,168.7762,-38.26606,202408281506049303,
2-10,C_HumanVertical,1,Q1FrontDown,55.31817,7.441871,-20.90027,-30.86421,-105.0436,168.6971,-38.24515,202408281506049476,
2-10,C_HumanVertical,1,Q1FrontDown,54.7422,7.754272,-20.70843,-30.88585,-105.0437,168.6187,-38.22044,202408281506049684,
2-10,C_HumanVertical,1,Q1FrontDown,54.7422,7.754272,-20.70843,-30.88585,-105.0437,168.6187,-38.22044,202408281506049859,
2-10,C_HumanVertical,1,Q1FrontDown,54.05466,8.119197,-20.45697,-30.90129,-105.0438,168.5053,-38.18206,202408281506050119,
2-10,C_HumanVertical,1,Q1FrontDown,54.05466,8.119197,-20.45697,-30.90129,-105.0438,168.5053,-38.18206,202408281506050307,
2-10,C_HumanVertical,1,Q1FrontDown,53.28842,8.539762,-20.15764,-30.92598,-105.0425,168.3628,-38.13508,202408281506050481,
2-10,C_HumanVertical,1,Q1FrontDown,52.50655,8.983157,-19.88479,-30.96844,-105.0428,168.195,-38.08394,202408281506050725,
2-10,C_HumanVertical,1,Q1FrontDown,52.50655,8.983157,-19.88479,-30.96844,-105.0428,168.195,-38.08394,202408281506050990,
2-10,C_HumanVertical,1,Q1FrontDown,51.55631,9.515879,-19.50148,-31.01291,-105.0421,167.9617,-38.01157,202408281506051157,
2-10,C_HumanVertical,1,Q1FrontDown,50.58185,10.07224,-19.14911,-31.07321,-105.0411,167.722,-37.93063,202408281506051521,
2-10,C_HumanVertical,1,Q1FrontDown,50.58185,10.07224,-19.14911,-31.07321,-105.0411,167.722,-37.93063,202408281506051681,
2-10,C_HumanVertical,1,Q1FrontDown,50.58185,10.07224,-19.14911,-31.07321,-105.0411,167.722,-37.93063,202408281506051976,
2-10,C_HumanVertical,1,Q1FrontDown,48.41834,11.36778,-18.32947,-31.22706,-105.0394,167.204,-37.75307,202408281506052134,
2-10,C_HumanVertical,1,Q1FrontDown,48.41834,11.36778,-18.32947,-31.22706,-105.0394,167.204,-37.75307,202408281506052304,
2-10,C_HumanVertical,1,Q1FrontDown,47.24705,12.078,-17.85929,-31.31608,-105.0378,166.8975,-37.6504,202408281506052476,
2-10,C_HumanVertical,1,Q1FrontDown,47.24705,12.078,-17.85929,-31.31608,-105.0378,166.8975,-37.6504,202408281506052649,
2-10,C_HumanVertical,1,Q1FrontDown,46.05848,12.84409,-17.43524,-31.40774,-105.0373,166.5736,-37.54021,202408281506052858,
2-10,C_HumanVertical,1,Q1FrontDown,44.76255,13.67955,-16.93945,-31.48856,-105.032,166.2516,-37.42578,202408281506053047,
2-10,C_HumanVertical,1,Q1FrontDown,44.76255,13.67955,-16.93945,-31.48856,-105.032,166.2516,-37.42578,202408281506053327,
2-10,C_HumanVertical,1,Q1FrontDown,43.40266,14.57156,-16.40699,-31.5836,-105.0251,165.9001,-37.28726,202408281506053492,
2-10,C_HumanVertical,1,Q1FrontDown,43.40266,14.57156,-16.40699,-31.5836,-105.0251,165.9001,-37.28726,202408281506053804,
2-10,C_HumanVertical,1,Q1FrontDown,42.02717,15.49732,-15.90562,-31.71375,-105.0218,165.5168,-37.14286,202408281506054021,
2-10,C_HumanVertical,1,Q1FrontDown,40.60406,16.43847,-15.3638,-31.84715,-105.0087,165.1487,-36.99665,202408281506054289,
2-10,C_HumanVertical,1,Q1FrontDown,39.17729,17.40745,-14.79826,-32.01602,-104.9965,164.7667,-36.83952,202408281506054471,
2-10,C_HumanVertical,1,Q1FrontDown,39.17729,17.40745,-14.79826,-32.01602,-104.9965,164.7667,-36.83952,202408281506054704,
2-10,C_HumanVertical,1,Q1FrontDown,37.75007,18.40084,-14.27381,-32.20057,-104.9914,164.364,-36.67994,202408281506054988,
2-10,C_HumanVertical,1,Q1FrontDown,36.2476,19.4389,-13.71439,-32.35788,-104.9741,163.9777,-36.51349,202408281506055193,
2-10,C_HumanVertical,1,Q1FrontDown,34.74735,20.49083,-13.14826,-32.54942,-104.9536,163.5731,-36.34089,202408281506055482,
2-10,C_HumanVertical,1,Q1FrontDown,34.74735,20.49083,-13.14826,-32.54942,-104.9536,163.5731,-36.34089,202408281506055658,
2-10,C_HumanVertical,1,Q1FrontDown,33.22218,21.57952,-12.59431,-32.78029,-104.937,163.1388,-36.16783,202408281506055822,
2-10,C_HumanVertical,1,Q1FrontDown,33.22218,21.57952,-12.59431,-32.78029,-104.937,163.1388,-36.16783,202408281506055987,
2-10,C_HumanVertical,1,Q1FrontDown,31.68319,22.68941,-12.03765,-32.97557,-104.9128,162.7293,-35.9794,202408281506056184,
2-10,C_HumanVertical,1,Q1FrontDown,30.12605,23.82434,-11.4919,-33.16563,-104.8844,162.2853,-35.79393,202408281506056479,
2-10,C_HumanVertical,1,Q1FrontDown,28.64585,24.92077,-10.98308,-33.39167,-104.8578,161.8693,-35.61399,202408281506056782,
2-10,C_HumanVertical,1,Q1FrontDown,28.64585,24.92077,-10.98308,-33.39167,-104.8578,161.8693,-35.61399,202408281506056965,
2-10,C_HumanVertical,1,Q1FrontDown,27.13897,26.02189,-10.45659,-33.6378,-104.8262,161.4604,-35.43801,202408281506057133,
2-10,C_HumanVertical,1,Q1FrontDown,25.62246,27.13696,-9.963742,-33.86966,-104.795,161.0291,-35.25053,202408281506057361,
2-10,C_HumanVertical,1,Q1FrontDown,25.62246,27.13696,-9.963742,-33.86966,-104.795,161.0291,-35.25053,202408281506057655,
2-10,C_HumanVertical,1,Q1FrontDown,24.18692,28.1869,-9.503785,-34.11391,-104.765,160.6448,-35.08949,202408281506057871,
2-10,C_HumanVertical,1,Q1FrontDown,22.72253,29.26374,-9.024323,-34.37107,-104.736,160.2372,-34.90843,202408281506058165,
2-10,C_HumanVertical,1,Q1FrontDown,22.72253,29.26374,-9.024323,-34.37107,-104.736,160.2372,-34.90843,202408281506058351,
2-10,C_HumanVertical,1,Q1FrontDown,21.33988,30.29868,-8.614631,-34.58697,-104.7083,159.8427,-34.73933,202408281506058657,
2-10,C_HumanVertical,1,Q1FrontDown,19.99787,31.29095,-8.229604,-34.80728,-104.683,159.4969,-34.56395,202408281506058962,
2-10,C_HumanVertical,1,Q1FrontDown,18.6733,32.26405,-7.866518,-35.05168,-104.6558,159.1367,-34.39333,202408281506059126,
2-10,C_HumanVertical,1,Q1FrontDown,18.6733,32.26405,-7.866518,-35.05168,-104.6558,159.1367,-34.39333,202408281506059310,
2-10,C_HumanVertical,1,Q1FrontDown,17.44444,33.1691,-7.527036,-35.28334,-104.6354,158.7745,-34.23503,202408281506059539,
2-10,C_HumanVertical,1,Q1FrontDown,16.23752,34.0512,-7.233616,-35.5043,-104.6136,158.4596,-34.06997,202408281506059804,
2-10,C_HumanVertical,1,Q1FrontDown,16.23752,34.0512,-7.233616,-35.5043,-104.6136,158.4596,-34.06997,202408281506059979,
2-10,C_HumanVertical,1,Q1FrontDown,15.14782,34.83875,-6.982445,-35.72903,-104.5955,158.1636,-33.91642,202408281506060140,
2-10,C_HumanVertical,1,Q1FrontDown,15.14782,34.83875,-6.982445,-35.72903,-104.5955,158.1636,-33.91642,202408281506060321,
2-10,C_HumanVertical,1,Q1FrontDown,14.13657,35.55635,-6.76085,-35.9236,-104.5729,157.8779,-33.76951,202408281506060545,
2-10,C_HumanVertical,1,Q1FrontDown,13.15868,36.27512,-6.577686,-36.09637,-104.5541,157.598,-33.63844,202408281506060821,
2-10,C_HumanVertical,1,Q1FrontDown,13.15868,36.27512,-6.577686,-36.09637,-104.5541,157.598,-33.63844,202408281506061054,
2-10,C_HumanVertical,1,Q1FrontDown,13.15868,36.27512,-6.577686,-36.09637,-104.5541,157.598,-33.63844,202408281506061298,
2-10,C_HumanVertical,1,Q1FrontDown,12.11231,37.20365,-6.981829,-36.65017,-104.6472,157.5569,-33.65016,202408281506061471,
2-10,C_HumanVertical,1,Q1FrontDown,12.11231,37.20365,-6.981829,-36.65017,-104.6472,157.5569,-33.65016,202408281506061671,
2-10,C_HumanVertical,1,Q1FrontDown,11.74583,37.53836,-7.110183,-36.89099,-104.6775,157.5572,-33.6503,202408281506061954,
2-10,C_HumanVertical,1,Q1FrontDown,11.44211,37.82029,-7.126846,-37.15897,-104.7106,157.5676,-33.65046,202408281506062114,
2-10,C_HumanVertical,1,Q1FrontDown,11.44211,37.82029,-7.126846,-37.15897,-104.7106,157.5676,-33.65046,202408281506062281,
2-10,C_HumanVertical,1,Q1FrontDown,11.44211,37.82029,-7.126846,-37.15897,-104.7106,157.5676,-33.65046,202408281506062473,
2-10,C_HumanVertical,1,Q1FrontDown,11.1892,37.95197,-7.104381,-37.39712,-104.7411,157.6165,-33.64973,202408281506062680,
2-10,C_HumanVertical,1,Q1FrontDown,10.90162,38.06994,-7.070779,-37.57399,-104.7668,157.6713,-33.64813,202408281506062973,
2-10,C_HumanVertical,1,Q1FrontDown,10.51351,38.13681,-6.970053,-37.77579,-104.814,157.7569,-33.64122,202408281506063149,
2-10,C_HumanVertical,1,Q1FrontDown,10.51351,38.13681,-6.970053,-37.77579,-104.814,157.7569,-33.64122,202408281506063315,
2-10,C_HumanVertical,1,Q1FrontDown,10.04854,38.16123,-6.847434,-38.0154,-104.8683,157.8602,-33.62379,202408281506063487,
2-10,C_HumanVertical,1,Q1FrontDown,10.04854,38.16123,-6.847434,-38.0154,-104.8683,157.8602,-33.62379,202408281506063658,
2-10,C_HumanVertical,1,Q1FrontDown,8.820552,38.14996,-6.605192,-38.468,-105.0162,158.1679,-33.56957,202408281506064053,
2-10,C_HumanVertical,1,Q1FrontDown,8.820552,38.14996,-6.605192,-38.468,-105.0162,158.1679,-33.56957,202408281506064261,
2-10,C_HumanVertical,1,Q1FrontDown,8.047335,38.13842,-6.499127,-38.71516,-105.1102,158.3455,-33.5299,202408281506064471,
2-10,C_HumanVertical,1,Q1FrontDown,8.047335,38.13842,-6.499127,-38.71516,-105.1102,158.3455,-33.5299,202408281506064636,
2-10,C_HumanVertical,1,Q1FrontDown,7.172122,38.14045,-6.433495,-38.97163,-105.1988,158.5259,-33.48551,202408281506064824,
2-10,C_HumanVertical,1,Q1FrontDown,6.237757,38.14547,-6.369676,-39.23014,-105.2967,158.6893,-33.43799,202408281506065033,
2-10,C_HumanVertical,1,Q1FrontDown,6.237757,38.14547,-6.369676,-39.23014,-105.2967,158.6893,-33.43799,202408281506065322,
2-10,C_HumanVertical,1,Q1FrontDown,5.217443,38.14275,-6.350995,-39.5306,-105.3993,158.8251,-33.39116,202408281506065657,
2-10,C_HumanVertical,1,Q1FrontDown,4.200174,38.14628,-6.353024,-39.80987,-105.4951,158.9265,-33.35134,202408281506065859,
2-10,C_HumanVertical,1,Q1FrontDown,3.20734,38.15276,-6.362376,-40.07191,-105.572,158.9963,-33.31606,202408281506066033,
2-10,C_HumanVertical,1,Q1FrontDown,3.20734,38.15276,-6.362376,-40.07191,-105.572,158.9963,-33.31606,202408281506066302,
2-10,C_HumanVertical,1,Q1FrontDown,2.20547,38.17403,-6.462193,-40.36591,-105.593,158.959,-33.22436,202408281506066475,
2-10,C_HumanVertical,1,Q1FrontDown,2.20547,38.17403,-6.462193,-40.36591,-105.593,158.959,-33.22436,202408281506066645,
2-10,C_HumanVertical,1,Q1FrontDown,1.284222,38.21271,-6.62309,-40.60653,-105.589,158.7882,-33.10513,202408281506066961,
2-10,C_HumanVertical,1,Q1FrontDown,0.35517,38.28956,-6.717307,-40.84469,-105.5878,158.6326,-32.9721,202408281506067205,
2-10,C_HumanVertical,1,Q1FrontDown,-0.5059834,38.33729,-6.815226,-41.09577,-105.5875,158.5165,-32.8527,202408281506067367,
2-10,C_HumanVertical,1,Q1FrontDown,-0.5059834,38.33729,-6.815226,-41.09577,-105.5875,158.5165,-32.8527,202408281506067660,
2-10,C_HumanVertical,1,Q1FrontDown,-1.374366,38.41533,-6.91781,-41.33337,-105.5872,158.4002,-32.72555,202408281506067823,
2-10,C_HumanVertical,1,Q1FrontDown,-2.1627,38.49089,-7.014085,-41.59318,-105.578,158.2688,-32.62482,202408281506068151,
2-10,C_HumanVertical,1,Q1FrontDown,-2.1627,38.49089,-7.014085,-41.59318,-105.578,158.2688,-32.62482,202408281506068359,
2-10,C_HumanVertical,1,Q1FrontDown,-2.8878,38.55994,-7.111909,-41.86843,-105.5747,158.1533,-32.54105,202408281506068628,
2-10,C_HumanVertical,1,Q1FrontDown,-3.56498,38.62678,-7.225934,-42.10447,-105.5747,158.0422,-32.47223,202408281506068812,
2-10,C_HumanVertical,1,Q1FrontDown,-3.56498,38.62678,-7.225934,-42.10447,-105.5747,158.0422,-32.47223,202408281506069008,
2-10,C_HumanVertical,1,Q1FrontDown,-4.692931,38.71047,-7.42763,-42.64788,-105.5756,157.7879,-32.29353,202408281506069351,
2-10,C_HumanVertical,1,Q1FrontDown,-4.692931,38.71047,-7.42763,-42.64788,-105.5756,157.7879,-32.29353,202408281506069640,
2-10,C_HumanVertical,1,Q1FrontDown,-5.178812,38.74284,-7.498521,-42.90636,-105.5755,157.6953,-32.21921,202408281506069811,
2-10,C_HumanVertical,1,Q1FrontDown,-5.178812,38.74284,-7.498521,-42.90636,-105.5755,157.6953,-32.21921,202408281506069988,
2-10,C_HumanVertical,1,Q1FrontDown,-5.595821,38.7646,-7.559664,-43.1575,-105.5754,157.6146,-32.147,202408281506070359,
2-10,C_HumanVertical,1,Q1FrontDown,-5.595821,38.7646,-7.559664,-43.1575,-105.5754,157.6146,-32.147,202408281506070529,
2-10,C_HumanVertical,1,Q1FrontDown,-6.327138,38.80315,-7.639851,-43.57788,-105.5766,157.4599,-32.0347,202408281506070820,
2-10,C_HumanVertical,1,Q1FrontDown,-6.327138,38.80315,-7.639851,-43.57788,-105.5766,157.4599,-32.0347,202408281506070975,
2-10,C_HumanVertical,1,Q1FrontDown,-6.65182,38.8499,-7.647792,-43.75313,-105.5802,157.4077,-31.96118,202408281506071147,
2-10,C_HumanVertical,1,Q1FrontDown,-6.899923,38.86307,-7.663326,-43.93959,-105.5812,157.3516,-31.91202,202408281506071474,
2-10,C_HumanVertical,1,Q1FrontDown,-6.899923,38.86307,-7.663326,-43.93959,-105.5812,157.3516,-31.91202,202408281506071679,
2-10,C_HumanVertical,1,Q1FrontDown,-7.10937,38.86362,-7.677293,-44.14673,-105.5811,157.2956,-31.87216,202408281506071960,
2-10,C_HumanVertical,1,Q1FrontDown,-7.29109,38.86847,-7.746727,-44.31995,-105.5856,157.2343,-31.84851,202408281506072195,
2-10,C_HumanVertical,1,Q1FrontDown,-7.449071,38.87583,-7.828427,-44.49944,-105.6033,157.1618,-31.81521,202408281506072452,
2-10,C_HumanVertical,1,Q1FrontDown,-7.449071,38.87583,-7.828427,-44.49944,-105.6033,157.1618,-31.81521,202408281506072640,
2-10,C_HumanVertical,1,Q1FrontDown,-7.578944,38.878,-7.913206,-44.67006,-105.6201,157.0853,-31.7785,202408281506072860,
2-10,C_HumanVertical,1,Q1FrontDown,-7.691662,38.893,-8.014094,-44.8367,-105.6341,156.9554,-31.76011,202408281506073144,
2-10,C_HumanVertical,1,Q1FrontDown,-7.691662,38.893,-8.014094,-44.8367,-105.6341,156.9554,-31.76011,202408281506073325,
2-10,C_HumanVertical,1,Q1FrontDown,-7.7672,38.91714,-8.125642,-44.97587,-105.6584,156.8014,-31.75298,202408281506073702,
2-10,C_HumanVertical,1,Q1FrontDown,-7.831977,38.94271,-8.231041,-45.09209,-105.6883,156.6159,-31.75284,202408281506073975,
2-10,C_HumanVertical,1,Q1FrontDown,-7.899478,38.97732,-8.331064,-45.19675,-105.7166,156.4554,-31.75286,202408281506074290,
2-10,C_HumanVertical,1,Q1FrontDown,-7.948191,39.03224,-8.460604,-45.28829,-105.7452,156.2782,-31.75224,202408281506074457,
2-10,C_HumanVertical,1,Q1FrontDown,-7.948191,39.03224,-8.460604,-45.28829,-105.7452,156.2782,-31.75224,202408281506074625,
2-10,C_HumanVertical,1,Q1FrontDown,-7.981379,39.08278,-8.640815,-45.3709,-105.776,156.0794,-31.7525,202408281506074817,
2-10,C_HumanVertical,1,Q1FrontDown,-7.981379,39.08278,-8.640815,-45.3709,-105.776,156.0794,-31.7525,202408281506075032,
2-10,C_HumanVertical,1,Q1FrontDown,-7.981379,39.08278,-8.640815,-45.3709,-105.776,156.0794,-31.7525,202408281506075201,
2-10,C_HumanVertical,1,Q1FrontDown,-8.027134,39.21135,-9.194738,-45.536,-105.8809,155.6931,-31.72003,202408281506075489,
2-10,C_HumanVertical,1,Q1FrontDown,-8.027134,39.21135,-9.194738,-45.536,-105.8809,155.6931,-31.72003,202408281506075659,
2-10,C_HumanVertical,1,Q1FrontDown,-8.075463,39.3113,-9.499728,-45.58704,-105.9428,155.5411,-31.67111,202408281506075826,
2-10,C_HumanVertical,1,Q1FrontDown,-8.075463,39.3113,-9.499728,-45.58704,-105.9428,155.5411,-31.67111,202408281506076022,
2-10,C_HumanVertical,1,Q1FrontDown,-8.156315,39.39711,-9.802039,-45.64286,-106.0664,155.4248,-31.59639,202408281506076305,
2-10,C_HumanVertical,1,Q1FrontDown,-8.256878,39.49472,-10.10765,-45.69012,-106.1951,155.3104,-31.52046,202408281506076637,
2-10,C_HumanVertical,1,Q1FrontDown,-8.359275,39.59542,-10.4037,-45.7264,-106.3038,155.2101,-31.4554,202408281506076853,
2-10,C_HumanVertical,1,Q1FrontDown,-8.359275,39.59542,-10.4037,-45.7264,-106.3038,155.2101,-31.4554,202408281506077037,
2-10,C_HumanVertical,1,Q1FrontDown,-8.485446,39.69258,-10.65819,-45.78522,-106.39,155.111,-31.41141,202408281506077304,
2-10,C_HumanVertical,1,Q1FrontDown,-8.621078,39.7967,-10.89923,-45.8432,-106.4491,154.9903,-31.39748,202408281506077474,
2-10,C_HumanVertical,1,Q1FrontDown,-8.621078,39.7967,-10.89923,-45.8432,-106.4491,154.9903,-31.39748,202408281506077627,
2-10,C_HumanVertical,1,Q1FrontDown,-8.753878,39.88194,-11.12341,-45.91,-106.4919,154.8405,-31.39509,202408281506077823,
2-10,C_HumanVertical,1,Q1FrontDown,-8.753878,39.88194,-11.12341,-45.91,-106.4919,154.8405,-31.39509,202408281506077979,
2-10,C_HumanVertical,1,Q1FrontDown,-8.882668,39.96815,-11.36396,-46.00304,-106.5445,154.7162,-31.37274,202408281506078224,
2-10,C_HumanVertical,1,Q1FrontDown,-8.979257,40.05644,-11.60751,-46.0811,-106.5738,154.6151,-31.3292,202408281506078457,
2-10,C_HumanVertical,1,Q1FrontDown,-8.979257,40.05644,-11.60751,-46.0811,-106.5738,154.6151,-31.3292,202408281506078631,
2-10,C_HumanVertical,1,Q1FrontDown,-9.05563,40.14102,-11.87582,-46.16665,-106.5899,154.5147,-31.27428,202408281506078821,
2-10,C_HumanVertical,1,Q1FrontDown,-9.140601,40.20955,-12.08719,-46.26542,-106.6073,154.4063,-31.21251,202408281506079139,
2-10,C_HumanVertical,1,Q1FrontDown,-9.140601,40.20955,-12.08719,-46.26542,-106.6073,154.4063,-31.21251,202408281506079358,
2-10,C_HumanVertical,1,Q1FrontDown,-9.208059,40.29295,-12.32399,-46.33908,-106.6128,154.2946,-31.16203,202408281506079621,
2-10,C_HumanVertical,1,Q1FrontDown,-9.253875,40.38546,-12.58119,-46.39451,-106.6127,154.1781,-31.12686,202408281506079787,
2-10,C_HumanVertical,1,Q1FrontDown,-9.253875,40.38546,-12.58119,-46.39451,-106.6127,154.1781,-31.12686,202408281506080042,
2-10,C_HumanVertical,1,Q1FrontDown,-9.311425,40.49538,-12.84643,-46.4337,-106.6127,154.068,-31.07983,202408281506080332,
2-10,C_HumanVertical,1,Q1FrontDown,-9.378071,40.58937,-13.08663,-46.4609,-106.6128,153.9758,-31.0365,202408281506080519,
2-10,C_HumanVertical,1,Q1FrontDown,-9.445978,40.68824,-13.32495,-46.49014,-106.6124,153.8864,-31.00073,202408281506080813,
2-10,C_HumanVertical,1,Q1FrontDown,-9.445978,40.68824,-13.32495,-46.49014,-106.6124,153.8864,-31.00073,202408281506081118,
2-10,C_HumanVertical,1,Q1FrontDown,-9.6167,40.88765,-13.82059,-46.55228,-106.6119,153.6479,-30.97652,202408281506081514,
2-10,C_HumanVertical,1,Q1FrontDown,-9.706162,40.96996,-14.07989,-46.60783,-106.6091,153.5165,-30.97623,202408281506081786,
2-10,C_HumanVertical,1,Q1FrontDown,-9.706162,40.96996,-14.07989,-46.60783,-106.6091,153.5165,-30.97623,202408281506081966,
2-10,C_HumanVertical,1,Q1FrontDown,-9.797719,41.04581,-14.37804,-46.67393,-106.5971,153.3614,-30.97672,202408281506082121,
2-10,C_HumanVertical,1,Q1FrontDown,-9.895576,41.12993,-14.69533,-46.74413,-106.5935,153.2082,-30.97698,202408281506082456,
2-10,C_HumanVertical,1,Q1FrontDown,-9.895576,41.12993,-14.69533,-46.74413,-106.5935,153.2082,-30.97698,202408281506082636,
2-10,C_HumanVertical,1,Q1FrontDown,-9.998739,41.21989,-14.99435,-46.8022,-106.5907,153.0703,-30.97719,202408281506082859,
2-10,C_HumanVertical,1,Q1FrontDown,-9.998739,41.21989,-14.99435,-46.8022,-106.5907,153.0703,-30.97719,202408281506083025,
2-10,C_HumanVertical,1,Q1FrontDown,-10.13424,41.29787,-15.2852,-46.89057,-106.5811,152.9474,-30.97704,202408281506083318,
2-10,C_HumanVertical,1,Q1FrontDown,-10.28379,41.3659,-15.59029,-47.00528,-106.5774,152.8492,-30.97708,202408281506083486,
2-10,C_HumanVertical,1,Q1FrontDown,-10.45006,41.43119,-15.8579,-47.13006,-106.5753,152.7538,-30.97718,202408281506083861,
2-10,C_HumanVertical,1,Q1FrontDown,-10.62232,41.4936,-16.14013,-47.2569,-106.5662,152.674,-30.9773,202408281506084120,
2-10,C_HumanVertical,1,Q1FrontDown,-10.62232,41.4936,-16.14013,-47.2569,-106.5662,152.674,-30.9773,202408281506084285,
2-10,C_HumanVertical,1,Q1FrontDown,-10.80396,41.55444,-16.40294,-47.38024,-106.5636,152.5872,-30.97724,202408281506084458,
2-10,C_HumanVertical,1,Q1FrontDown,-10.80396,41.55444,-16.40294,-47.38024,-106.5636,152.5872,-30.97724,202408281506084694,
2-10,C_HumanVertical,1,Q1FrontDown,-11.0209,41.60124,-16.62819,-47.51913,-106.5628,152.4961,-30.97787,202408281506084852,
2-10,C_HumanVertical,1,Q1FrontDown,-11.27758,41.65331,-16.8385,-47.64658,-106.5579,152.4273,-30.98174,202408281506085127,
2-10,C_HumanVertical,1,Q1FrontDown,-11.27758,41.65331,-16.8385,-47.64658,-106.5579,152.4273,-30.98174,202408281506085301,
2-10,C_HumanVertical,1,Q1FrontDown,-11.53009,41.70074,-17.07692,-47.79253,-106.5537,152.3609,-30.98541,202408281506085492,
2-10,C_HumanVertical,1,Q1FrontDown,-11.53009,41.70074,-17.07692,-47.79253,-106.5537,152.3609,-30.98541,202408281506085651,
2-10,C_HumanVertical,1,Q1FrontDown,-11.81749,41.75369,-17.30193,-47.93821,-106.5516,152.301,-30.98808,202408281506085821,
2-10,C_HumanVertical,1,Q1FrontDown,-12.11815,41.82149,-17.58222,-48.04197,-106.5411,152.2194,-30.99083,202408281506086028,
2-10,C_HumanVertical,1,Q1FrontDown,-12.11815,41.82149,-17.58222,-48.04197,-106.5411,152.2194,-30.99083,202408281506086279,
2-10,C_HumanVertical,1,Q1FrontDown,-12.11815,41.82149,-17.58222,-48.04197,-106.5411,152.2194,-30.99083,202408281506086455,
2-10,C_HumanVertical,1,Q1FrontDown,-12.42842,41.89491,-17.86199,-48.14274,-106.5347,152.128,-30.99269,202408281506086630,
2-10,C_HumanVertical,1,Q1FrontDown,-12.74286,41.97071,-18.10293,-48.24151,-106.5294,152.0476,-30.99397,202408281506086809,
2-10,C_HumanVertical,1,Q1FrontDown,-12.74286,41.97071,-18.10293,-48.24151,-106.5294,152.0476,-30.99397,202408281506086974,
2-10,C_HumanVertical,1,Q1FrontDown,-13.02878,42.03643,-18.40714,-48.41443,-106.5252,151.9264,-31.00052,202408281506087201,
2-10,C_HumanVertical,1,Q1FrontDown,-13.30558,42.07808,-18.6748,-48.5972,-106.5246,151.835,-31.00664,202408281506087473,
2-10,C_HumanVertical,1,Q1FrontDown,-13.30558,42.07808,-18.6748,-48.5972,-106.5246,151.835,-31.00664,202408281506087658,
2-10,C_HumanVertical,1,Q1FrontDown,-13.64082,42.13503,-18.96826,-48.79118,-106.5253,151.735,-31.01259,202408281506087869,
2-10,C_HumanVertical,1,Q1FrontDown,-13.95725,42.19458,-19.24926,-48.97145,-106.5278,151.6268,-31.01231,202408281506088170,
2-10,C_HumanVertical,1,Q1FrontDown,-14.26628,42.26387,-19.48345,-49.15314,-106.5417,151.4964,-31.01203,202408281506088358,
2-10,C_HumanVertical,1,Q1FrontDown,-14.26628,42.26387,-19.48345,-49.15314,-106.5417,151.4964,-31.01203,202408281506088646,
2-10,C_HumanVertical,1,Q1FrontDown,-14.56304,42.32891,-19.70296,-49.33867,-106.5477,151.3473,-31.01292,202408281506088814,
2-10,C_HumanVertical,1,Q1FrontDown,-14.87881,42.40808,-19.91917,-49.4855,-106.5495,151.1863,-31.01887,202408281506089140,
2-10,C_HumanVertical,1,Q1FrontDown,-14.87881,42.40808,-19.91917,-49.4855,-106.5495,151.1863,-31.01887,202408281506089381,
2-10,C_HumanVertical,1,Q1FrontDown,-15.20399,42.50384,-20.14689,-49.59887,-106.5533,151.0059,-31.04044,202408281506089527,
2-10,C_HumanVertical,1,Q1FrontDown,-15.50544,42.5985,-20.33105,-49.68395,-106.5663,150.8523,-31.06401,202408281506089790,
2-10,C_HumanVertical,1,Q1FrontDown,-15.50544,42.5985,-20.33105,-49.68395,-106.5663,150.8523,-31.06401,202408281506089957,
2-10,C_HumanVertical,1,Q1FrontDown,-15.79727,42.70033,-20.52962,-49.75441,-106.6373,150.7632,-31.0643,202408281506090128,
2-10,C_HumanVertical,1,Q1FrontDown,-15.79727,42.70033,-20.52962,-49.75441,-106.6373,150.7632,-31.0643,202408281506090303,
2-10,C_HumanVertical,1,Q1FrontDown,-15.79727,42.70033,-20.52962,-49.75441,-106.6373,150.7632,-31.0643,202408281506090521,
2-10,C_HumanVertical,1,Q1FrontDown,-16.31393,42.87259,-20.90664,-49.89451,-106.7178,150.6316,-31.06499,202408281506090842,
2-10,C_HumanVertical,1,Q1FrontDown,-16.56738,42.94765,-21.07733,-49.96472,-106.767,150.5782,-31.06887,202408281506091044,
2-10,C_HumanVertical,1,Q1FrontDown,-16.56738,42.94765,-21.07733,-49.96472,-106.767,150.5782,-31.06887,202408281506091324,
2-10,C_HumanVertical,1,Q1FrontDown,-16.80993,43.01439,-21.23092,-50.04126,-106.8273,150.5311,-31.0855,202408281506091490,
2-10,C_HumanVertical,1,Q1FrontDown,-16.80993,43.01439,-21.23092,-50.04126,-106.8273,150.5311,-31.0855,202408281506091689,
2-10,C_HumanVertical,1,Q1FrontDown,-17.03042,43.06827,-21.37221,-50.12133,-106.8908,150.5054,-31.10822,202408281506091958,
2-10,C_HumanVertical,1,Q1FrontDown,-17.24703,43.11956,-21.49426,-50.17549,-106.9576,150.4802,-31.14246,202408281506092121,
2-10,C_HumanVertical,1,Q1FrontDown,-17.24703,43.11956,-21.49426,-50.17549,-106.9576,150.4802,-31.14246,202408281506092303,
2-10,C_HumanVertical,1,Q1FrontDown,-17.47458,43.17103,-21.57355,-50.20782,-107.0518,150.4593,-31.17185,202408281506092546,
2-10,C_HumanVertical,1,Q1FrontDown,-17.71368,43.21976,-21.59568,-50.22342,-107.1596,150.4524,-31.1951,202408281506092812,
2-10,C_HumanVertical,1,Q1FrontDown,-17.71368,43.21976,-21.59568,-50.22342,-107.1596,150.4524,-31.1951,202408281506092987,
2-10,C_HumanVertical,1,Q1FrontDown,-17.94976,43.26861,-21.58263,-50.23444,-107.3187,150.4188,-31.19463,202408281506093316,
2-10,C_HumanVertical,1,Q1FrontDown,-18.17882,43.31427,-21.52914,-50.23404,-107.4273,150.3639,-31.19463,202408281506093490,
2-10,C_HumanVertical,1,Q1FrontDown,-18.40593,43.36143,-21.43286,-50.2271,-107.5064,150.2978,-31.19597,202408281506093866,
2-10,C_HumanVertical,1,Q1FrontDown,-18.6057,43.4276,-21.30592,-50.20704,-107.524,150.278,-31.21379,202408281506094118,
2-10,C_HumanVertical,1,Q1FrontDown,-18.6057,43.4276,-21.30592,-50.20704,-107.524,150.278,-31.21379,202408281506094291,
2-10,C_HumanVertical,1,Q1FrontDown,-18.6057,43.4276,-21.30592,-50.20704,-107.524,150.278,-31.21379,202408281506094456,
2-10,C_HumanVertical,1,Q1FrontDown,-18.74837,43.49938,-21.19909,-50.19142,-107.5642,150.2726,-31.22099,202408281506094624,
2-10,C_HumanVertical,1,Q1FrontDown,-18.85492,43.57138,-21.1007,-50.1905,-107.6196,150.2721,-31.21996,202408281506094819,
2-10,C_HumanVertical,1,Q1FrontDown,-18.85492,43.57138,-21.1007,-50.1905,-107.6196,150.2721,-31.21996,202408281506095047,
2-10,C_HumanVertical,1,Q1FrontDown,-18.8912,43.65296,-21.06289,-50.18836,-107.7151,150.2713,-31.2165,202408281506095326,
2-10,C_HumanVertical,1,Q1FrontDown,-18.89516,43.73321,-21.02271,-50.18171,-107.7968,150.2717,-31.21321,202408281506095701,
2-10,C_HumanVertical,1,Q1FrontDown,-18.88841,43.81894,-20.96195,-50.16796,-107.8699,150.2722,-31.21156,202408281506096023,
2-10,C_HumanVertical,1,Q1FrontDown,-18.84665,43.90454,-20.93144,-50.166,-107.9131,150.2711,-31.21181,202408281506096301,
2-10,C_HumanVertical,1,Q1FrontDown,-18.79076,44.00394,-20.91883,-50.14798,-107.9496,150.2697,-31.21214,202408281506096468,
2-10,C_HumanVertical,1,Q1FrontDown,-18.79076,44.00394,-20.91883,-50.14798,-107.9496,150.2697,-31.21214,202408281506096629,
2-10,C_HumanVertical,1,Q1FrontDown,-18.72926,44.10078,-20.92252,-50.12343,-107.9729,150.2679,-31.21235,202408281506096801,
2-10,C_HumanVertical,1,Q1FrontDown,-18.72926,44.10078,-20.92252,-50.12343,-107.9729,150.2679,-31.21235,202408281506096987,
2-10,C_HumanVertical,1,Q1FrontDown,-18.62828,44.20673,-21.00595,-50.12404,-108.0076,150.2608,-31.21267,202408281506097206,
2-10,C_HumanVertical,1,Q1FrontDown,-18.54402,44.31876,-21.06956,-50.12538,-108.0441,150.2409,-31.21264,202408281506097486,
2-10,C_HumanVertical,1,Q1FrontDown,-18.54402,44.31876,-21.06956,-50.12538,-108.0441,150.2409,-31.21264,202408281506097660,
2-10,C_HumanVertical,1,Q1FrontDown,-18.47769,44.42523,-21.11395,-50.12891,-108.074,150.2307,-31.21445,202408281506097968,
2-10,C_HumanVertical,1,Q1FrontDown,-18.38248,44.54919,-21.24257,-50.14445,-108.0755,150.2216,-31.23017,202408281506098127,
2-10,C_HumanVertical,1,Q1FrontDown,-18.38248,44.54919,-21.24257,-50.14445,-108.0755,150.2216,-31.23017,202408281506098366,
2-10,C_HumanVertical,1,Q1FrontDown,-18.28927,44.65274,-21.37988,-50.17607,-108.0757,150.187,-31.27695,202408281506098648,
2-10,C_HumanVertical,1,Q1FrontDown,-18.19864,44.76585,-21.4992,-50.21431,-108.0757,150.1309,-31.33596,202408281506098857,
2-10,C_HumanVertical,1,Q1FrontDown,-18.11759,44.86922,-21.60707,-50.2385,-108.0759,150.0746,-31.39218,202408281506099153,
2-10,C_HumanVertical,1,Q1FrontDown,-18.03233,44.97024,-21.69029,-50.3113,-108.0716,149.9896,-31.45069,202408281506099345,
2-10,C_HumanVertical,1,Q1FrontDown,-18.03233,44.97024,-21.69029,-50.3113,-108.0716,149.9896,-31.45069,202408281506099631,
2-10,C_HumanVertical,1,Q1FrontDown,-17.93957,45.04753,-21.76535,-50.43936,-108.0669,149.9021,-31.51052,202408281506099800,
2-10,C_HumanVertical,1,Q1FrontDown,-17.89762,45.20242,-21.92037,-50.44464,-108.0755,149.8803,-31.54611,202408281506100112,
2-10,C_HumanVertical,1,Q1FrontDown,-17.89762,45.20242,-21.92037,-50.44464,-108.0755,149.8803,-31.54611,202408281506100318,
2-10,C_HumanVertical,1,Q1FrontDown,-17.87822,45.37016,-22.11241,-50.47657,-108.0988,149.8696,-31.55936,202408281506100522,
2-10,C_HumanVertical,1,Q1FrontDown,-17.88382,45.53162,-22.31823,-50.5312,-108.135,149.8622,-31.55518,202408281506100821,
2-10,C_HumanVertical,1,Q1FrontDown,-17.88382,45.53162,-22.31823,-50.5312,-108.135,149.8622,-31.55518,202408281506100988,
2-10,C_HumanVertical,1,Q1FrontDown,-17.96077,45.7369,-22.5484,-50.57117,-108.2307,149.8616,-31.54622,202408281506101304,
2-10,C_HumanVertical,1,Q1FrontDown,-18.07841,45.94531,-22.76194,-50.60566,-108.3316,149.8611,-31.544,202408281506101505,
2-10,C_HumanVertical,1,Q1FrontDown,-18.23376,46.16684,-22.983,-50.6171,-108.4319,149.8612,-31.54417,202408281506101785,
2-10,C_HumanVertical,1,Q1FrontDown,-18.23376,46.16684,-22.983,-50.6171,-108.4319,149.8612,-31.54417,202408281506101957,
2-10,C_HumanVertical,1,Q1FrontDown,-18.43727,46.39097,-23.19123,-50.62955,-108.5257,149.8601,-31.54413,202408281506102173,
2-10,C_HumanVertical,1,Q1FrontDown,-18.64516,46.61338,-23.34127,-50.65785,-108.6274,149.8605,-31.54213,202408281506102501,
2-10,C_HumanVertical,1,Q1FrontDown,-18.64516,46.61338,-23.34127,-50.65785,-108.6274,149.8605,-31.54213,202408281506102729,
2-10,C_HumanVertical,1,Q1FrontDown,-18.87034,46.81776,-23.46067,-50.72116,-108.7409,149.8602,-31.52825,202408281506103013,
2-10,C_HumanVertical,1,Q1FrontDown,-19.1434,47.01582,-23.53959,-50.76848,-108.8895,149.8609,-31.4922,202408281506103341,
2-10,C_HumanVertical,1,Q1FrontDown,-19.41413,47.20036,-23.60376,-50.81463,-108.9417,149.8573,-31.4837,202408281506103649,
2-10,C_HumanVertical,1,Q1FrontDown,-19.65998,47.39838,-23.64497,-50.86753,-108.9562,149.8506,-31.48388,202408281506103854,
2-10,C_HumanVertical,1,Q1FrontDown,-19.90243,47.60409,-23.65387,-50.89794,-108.9616,149.8497,-31.4832,202408281506104117,
2-10,C_HumanVertical,1,Q1FrontDown,-19.90243,47.60409,-23.65387,-50.89794,-108.9616,149.8497,-31.4832,202408281506104457,
2-10,C_HumanVertical,1,Q1FrontDown,-20.12898,47.79502,-23.65861,-50.9299,-108.9679,149.8493,-31.48337,202408281506104631,
2-10,C_HumanVertical,1,Q1FrontDown,-20.29756,47.96758,-23.66022,-50.9436,-108.9738,149.849,-31.48053,202408281506104807,
2-10,C_HumanVertical,1,Q1FrontDown,-20.29756,47.96758,-23.66022,-50.9436,-108.9738,149.849,-31.48053,202408281506105025,
2-10,C_HumanVertical,1,Q1FrontDown,-20.46613,48.16246,-23.65998,-50.94997,-109.0128,149.85,-31.44616,202408281506105315,
2-10,C_HumanVertical,1,Q1FrontDown,-20.62901,48.35303,-23.65515,-50.94867,-109.0341,149.85,-31.4353,202408281506105534,
2-10,C_HumanVertical,1,Q1FrontDown,-20.78567,48.52479,-23.64436,-50.94093,-109.0408,149.8491,-31.43602,202408281506105824,
2-10,C_HumanVertical,1,Q1FrontDown,-20.78567,48.52479,-23.64436,-50.94093,-109.0408,149.8491,-31.43602,202408281506106036,
2-10,C_HumanVertical,1,Q1FrontDown,-20.97108,48.72585,-23.59946,-50.87498,-109.0408,149.8482,-31.43786,202408281506106302,
2-10,C_HumanVertical,1,Q1FrontDown,-21.15335,48.93252,-23.56125,-50.82517,-109.0568,149.8482,-31.43649,202408281506106471,
2-10,C_HumanVertical,1,Q1FrontDown,-21.15335,48.93252,-23.56125,-50.82517,-109.0568,149.8482,-31.43649,202408281506106634,
2-10,C_HumanVertical,1,Q1FrontDown,-21.31301,49.13559,-23.52173,-50.79417,-109.0844,149.8487,-31.43372,202408281506106976,
2-10,C_HumanVertical,1,Q1FrontDown,-21.31301,49.13559,-23.52173,-50.79417,-109.0844,149.8487,-31.43372,202408281506107187,
2-10,C_HumanVertical,1,Q1FrontDown,-21.62673,49.51579,-23.47881,-50.79026,-109.183,149.8495,-31.41543,202408281506107475,
2-10,C_HumanVertical,1,Q1FrontDown,-21.62673,49.51579,-23.47881,-50.79026,-109.183,149.8495,-31.41543,202408281506107641,
2-10,C_HumanVertical,1,Q1FrontDown,-21.62673,49.51579,-23.47881,-50.79026,-109.183,149.8495,-31.41543,202408281506107833,
2-10,C_HumanVertical,1,Q1FrontDown,-21.77022,49.69626,-23.46001,-50.79533,-109.2202,149.8506,-31.4155,202408281506108003,
2-10,C_HumanVertical,1,Q1FrontDown,-21.9148,49.86311,-23.39432,-50.82853,-109.2427,149.8507,-31.41511,202408281506108211,
2-10,C_HumanVertical,1,Q1FrontDown,-21.9148,49.86311,-23.39432,-50.82853,-109.2427,149.8507,-31.41511,202408281506108492,
2-10,C_HumanVertical,1,Q1FrontDown,-22.17769,50.16271,-23.2739,-50.87169,-109.2884,149.8502,-31.41493,202408281506108694,
2-10,C_HumanVertical,1,Q1FrontDown,-22.17769,50.16271,-23.2739,-50.87169,-109.2884,149.8502,-31.41493,202408281506108964,
2-10,C_HumanVertical,1,Q1FrontDown,-22.31801,50.28154,-23.10988,-50.89819,-109.3232,149.8497,-31.41445,202408281506109134,
2-10,C_HumanVertical,1,Q1FrontDown,-22.46195,50.35753,-22.90924,-50.95145,-109.3723,149.8467,-31.41438,202408281506109347,
2-10,C_HumanVertical,1,Q1FrontDown,-22.46195,50.35753,-22.90924,-50.95145,-109.3723,149.8467,-31.41438,202408281506109621,
2-10,C_HumanVertical,1,Q1FrontDown,-22.46195,50.35753,-22.90924,-50.95145,-109.3723,149.8467,-31.41438,202408281506109805,
2-10,C_HumanVertical,1,Q1FrontDown,-22.59846,50.40875,-22.64778,-51.0254,-109.4408,149.8344,-31.41263,202408281506109987,
2-10,C_HumanVertical,1,Q1FrontDown,-22.69705,50.3962,-22.35053,-51.14324,-109.5816,149.7547,-31.40372,202408281506110184,
2-10,C_HumanVertical,1,Q1FrontDown,-22.76899,50.35239,-22.02015,-51.2734,-109.6413,149.6706,-31.39826,202408281506110377,
2-10,C_HumanVertical,1,Q1FrontDown,-22.76899,50.35239,-22.02015,-51.2734,-109.6413,149.6706,-31.39826,202408281506110658,
2-10,C_HumanVertical,1,Q1FrontDown,-22.80472,50.28734,-21.64014,-51.41845,-109.6592,149.6091,-31.39514,202408281506110987,
2-10,C_HumanVertical,1,Q1FrontDown,-22.80323,50.20815,-21.26183,-51.54162,-109.6702,149.5639,-31.38863,202408281506111147,
2-10,C_HumanVertical,1,Q1FrontDown,-22.80323,50.20815,-21.26183,-51.54162,-109.6702,149.5639,-31.38863,202408281506111307,
2-10,C_HumanVertical,1,Q1FrontDown,-22.79764,50.09944,-20.84444,-51.67128,-109.6739,149.5432,-31.38916,202408281506111519,
2-10,C_HumanVertical,1,Q1FrontDown,-22.75315,49.99784,-20.42729,-51.79005,-109.6739,149.5426,-31.39285,202408281506111788,
2-10,C_HumanVertical,1,Q1FrontDown,-22.75315,49.99784,-20.42729,-51.79005,-109.6739,149.5426,-31.39285,202408281506111990,
2-10,C_HumanVertical,1,Q1FrontDown,-22.71329,49.83584,-19.9729,-51.92924,-109.6741,149.543,-31.39239,202408281506112312,
2-10,C_HumanVertical,1,Q1FrontDown,-22.67637,49.6526,-19.50514,-52.07978,-109.7189,149.5452,-31.38923,202408281506112492,
2-10,C_HumanVertical,1,Q1FrontDown,-22.67637,49.6526,-19.50514,-52.07978,-109.7189,149.5452,-31.38923,202408281506112703,
2-10,C_HumanVertical,1,Q1FrontDown,-22.63913,49.43428,-19.02624,-52.2052,-109.7831,149.5502,-31.38111,202408281506112963,
2-10,C_HumanVertical,1,Q1FrontDown,-22.63968,49.21189,-18.5194,-52.2716,-109.8016,149.5811,-31.381,202408281506113312,
2-10,C_HumanVertical,1,Q1FrontDown,-22.64701,48.96702,-18.02593,-52.31524,-109.8281,149.5994,-31.3812,202408281506113533,
2-10,C_HumanVertical,1,Q1FrontDown,-22.64701,48.96702,-18.02593,-52.31524,-109.8281,149.5994,-31.3812,202408281506113818,
2-10,C_HumanVertical,1,Q1FrontDown,-22.65744,48.40377,-17.02643,-52.35352,-109.9129,149.6132,-31.38086,202408281506114143,
2-10,C_HumanVertical,1,Q1FrontDown,-22.65744,48.40377,-17.02643,-52.35352,-109.9129,149.6132,-31.38086,202408281506114306,
2-10,C_HumanVertical,1,Q1FrontDown,-22.6681,48.06622,-16.50036,-52.35908,-109.9477,149.6132,-31.38109,202408281506114478,
2-10,C_HumanVertical,1,Q1FrontDown,-22.6681,48.06622,-16.50036,-52.35908,-109.9477,149.6132,-31.38109,202408281506114649,
2-10,C_HumanVertical,1,Q1FrontDown,-22.6672,47.72173,-16.01611,-52.34933,-109.9642,149.6135,-31.3811,202408281506114867,
2-10,C_HumanVertical,1,Q1FrontDown,-22.6672,47.72173,-16.01611,-52.34933,-109.9642,149.6135,-31.3811,202408281506115035,
2-10,C_HumanVertical,1,Q1FrontDown,-22.65951,47.36553,-15.5432,-52.33514,-109.9778,149.6135,-31.38138,202408281506115307,
2-10,C_HumanVertical,1,Q1FrontDown,-22.65377,46.99265,-15.07775,-52.31044,-109.986,149.6127,-31.38133,202408281506115488,
2-10,C_HumanVertical,1,Q1FrontDown,-22.65377,46.99265,-15.07775,-52.31044,-109.986,149.6127,-31.38133,202408281506115678,
2-10,C_HumanVertical,1,Q1FrontDown,-22.64915,46.63129,-14.65521,-52.28615,-109.989,149.6127,-31.38102,202408281506115872,
2-10,C_HumanVertical,1,Q1FrontDown,-22.64927,46.25739,-14.21616,-52.24035,-109.9991,149.6136,-31.38083,202408281506116148,
2-10,C_HumanVertical,1,Q1FrontDown,-22.64309,45.89533,-13.83584,-52.18985,-110.0064,149.6125,-31.38091,202408281506116485,
2-10,C_HumanVertical,1,Q1FrontDown,-22.64346,45.54802,-13.44461,-52.12921,-110.0129,149.6134,-31.38079,202408281506116687,
2-10,C_HumanVertical,1,Q1FrontDown,-22.64346,45.54802,-13.44461,-52.12921,-110.0129,149.6134,-31.38079,202408281506116855,
2-10,C_HumanVertical,1,Q1FrontDown,-22.68989,45.20765,-13.05354,-52.04276,-110.0163,149.6127,-31.37965,202408281506117136,
2-10,C_HumanVertical,1,Q1FrontDown,-22.68989,45.20765,-13.05354,-52.04276,-110.0163,149.6127,-31.37965,202408281506117303,
2-10,C_HumanVertical,1,Q1FrontDown,-22.74694,44.88747,-12.6588,-51.95809,-110.0181,149.6154,-31.37928,202408281506117479,
2-10,C_HumanVertical,1,Q1FrontDown,-22.74694,44.88747,-12.6588,-51.95809,-110.0181,149.6154,-31.37928,202408281506117683,
2-10,C_HumanVertical,1,Q1FrontDown,-22.80975,44.55293,-12.27715,-51.86439,-110.0185,149.6246,-31.3793,202408281506117864,
2-10,C_HumanVertical,1,Q1FrontDown,-22.88989,44.26736,-11.91976,-51.76807,-110.0183,149.6283,-31.37905,202408281506118069,
2-10,C_HumanVertical,1,Q1FrontDown,-22.88989,44.26736,-11.91976,-51.76807,-110.0183,149.6283,-31.37905,202408281506118393,
2-10,C_HumanVertical,1,Q1FrontDown,-23.10235,43.66903,-11.20157,-51.66202,-110.0188,149.6592,-31.37691,202408281506118679,
2-10,C_HumanVertical,1,Q1FrontDown,-23.10235,43.66903,-11.20157,-51.66202,-110.0188,149.6592,-31.37691,202408281506118929,
2-10,C_HumanVertical,1,Q1FrontDown,-23.24636,43.37157,-10.80818,-51.64597,-110.0182,149.6731,-31.37721,202408281506119179,
2-10,C_HumanVertical,1,Q1FrontDown,-23.41891,43.06368,-10.37552,-51.65358,-110.0179,149.6752,-31.37776,202408281506119460,
2-10,C_HumanVertical,1,Q1FrontDown,-23.41891,43.06368,-10.37552,-51.65358,-110.0179,149.6752,-31.37776,202408281506119624,
2-10,C_HumanVertical,1,Q1FrontDown,-23.58829,42.78924,-9.971104,-51.66477,-110.018,149.6749,-31.37819,202408281506119860,
2-10,C_HumanVertical,1,Q1FrontDown,-23.80251,42.512,-9.527973,-51.66014,-110.0182,149.6747,-31.3792,202408281506120222,
2-10,C_HumanVertical,1,Q1FrontDown,-23.80251,42.512,-9.527973,-51.66014,-110.0182,149.6747,-31.3792,202408281506120480,
2-10,C_HumanVertical,1,Q1FrontDown,-24.03175,42.25455,-9.093834,-51.65744,-110.0179,149.6728,-31.38181,202408281506120673,
2-10,C_HumanVertical,1,Q1FrontDown,-24.26998,42.00907,-8.659312,-51.65223,-110.0171,149.6734,-31.38749,202408281506121005,
2-10,C_HumanVertical,1,Q1FrontDown,-24.49546,41.77568,-8.254106,-51.64468,-110.017,149.6735,-31.39,202408281506121187,
2-10,C_HumanVertical,1,Q1FrontDown,-24.74226,41.55256,-7.833317,-51.62576,-110.0168,149.6715,-31.39892,202408281506121474,
2-10,C_HumanVertical,1,Q1FrontDown,-24.99574,41.36894,-7.397596,-51.57475,-110.0171,149.6693,-31.4096,202408281506121785,
2-10,C_HumanVertical,1,Q1FrontDown,-24.99574,41.36894,-7.397596,-51.57475,-110.0171,149.6693,-31.4096,202408281506121955,
2-10,C_HumanVertical,1,Q1FrontDown,-25.29081,41.23415,-6.94346,-51.48817,-110.0166,149.666,-31.43513,202408281506122133,
2-10,C_HumanVertical,1,Q1FrontDown,-25.61215,41.11021,-6.481183,-51.40282,-110.0126,149.615,-31.50341,202408281506122370,
2-10,C_HumanVertical,1,Q1FrontDown,-25.61215,41.11021,-6.481183,-51.40282,-110.0126,149.615,-31.50341,202408281506122666,
2-10,C_HumanVertical,1,Q1FrontDown,-26.29622,40.94952,-5.528007,-51.14153,-110.0099,149.5701,-31.56613,202408281506123039,
2-10,C_HumanVertical,1,Q1FrontDown,-26.29622,40.94952,-5.528007,-51.14153,-110.0099,149.5701,-31.56613,202408281506123381,
2-10,C_HumanVertical,1,Q1FrontDown,-26.62803,40.88839,-5.076521,-51.01089,-110.0098,149.5939,-31.54356,202408281506123656,
2-10,C_HumanVertical,1,Q1FrontDown,-26.95643,40.8271,-4.66663,-50.93469,-110.0099,149.62,-31.52426,202408281506123958,
2-10,C_HumanVertical,1,Q1FrontDown,-27.30292,40.75907,-4.272119,-50.89011,-110.0097,149.6197,-31.52538,202408281506124132,
2-10,C_HumanVertical,1,Q1FrontDown,-27.30292,40.75907,-4.272119,-50.89011,-110.0097,149.6197,-31.52538,202408281506124311,
2-10,C_HumanVertical,1,Q1FrontDown,-27.65819,40.70407,-3.838479,-50.8557,-110.0095,149.6214,-31.52483,202408281506124524,
2-10,C_HumanVertical,1,Q1FrontDown,-27.65819,40.70407,-3.838479,-50.8557,-110.0095,149.6214,-31.52483,202408281506124688,
2-10,C_HumanVertical,1,Q1FrontDown,-27.99419,40.66082,-3.411996,-50.82413,-110.0102,149.6306,-31.52289,202408281506124976,
2-10,C_HumanVertical,1,Q1FrontDown,-28.36589,40.65271,-2.908518,-50.77279,-110.0097,149.64,-31.50925,202408281506125159,
2-10,C_HumanVertical,1,Q1FrontDown,-28.36589,40.65271,-2.908518,-50.77279,-110.0097,149.64,-31.50925,202408281506125320,
2-10,C_HumanVertical,1,Q1FrontDown,-28.74395,40.65276,-2.440067,-50.72293,-110.0098,149.6432,-31.50553,202408281506125548,
2-10,C_HumanVertical,1,Q1FrontDown,-28.74395,40.65276,-2.440067,-50.72293,-110.0098,149.6432,-31.50553,202408281506125819,
2-10,C_HumanVertical,1,Q1FrontDown,-29.12244,40.65801,-1.927455,-50.65717,-110.0108,149.647,-31.50346,202408281506125986,
2-10,C_HumanVertical,1,Q1FrontDown,-29.52168,40.69014,-1.358062,-50.55081,-110.0107,149.6643,-31.4726,202408281506126349,
2-10,C_HumanVertical,1,Q1FrontDown,-29.52168,40.69014,-1.358062,-50.55081,-110.0107,149.6643,-31.4726,202408281506126505,
2-10,C_HumanVertical,1,Q1FrontDown,-30.25836,40.76513,-0.438625,-50.3467,-110.0121,149.6797,-31.42723,202408281506126792,
2-10,C_HumanVertical,1,Q1FrontDown,-30.25836,40.76513,-0.438625,-50.3467,-110.0121,149.6797,-31.42723,202408281506126970,
2-10,C_HumanVertical,1,Q1FrontDown,-30.25836,40.76513,-0.438625,-50.3467,-110.0121,149.6797,-31.42723,202408281506127133,
2-10,C_HumanVertical,1,Q1FrontDown,-30.67003,40.834,0.1029278,-50.16508,-110.012,149.6922,-31.41708,202408281506127311,
2-10,C_HumanVertical,1,Q1FrontDown,-31.05114,40.88617,0.602509,-50.012,-110.1012,149.7026,-31.32438,202408281506127476,
2-10,C_HumanVertical,1,Q1FrontDown,-31.05114,40.88617,0.602509,-50.012,-110.1012,149.7026,-31.32438,202408281506127701,
2-10,C_HumanVertical,1,Q1FrontDown,-31.45493,40.94589,1.105419,-49.85971,-110.2319,149.7277,-31.20284,202408281506127873,
2-10,C_HumanVertical,1,Q1FrontDown,-31.87264,41.02615,1.608562,-49.70396,-110.2312,149.7946,-31.18945,202408281506128129,
2-10,C_HumanVertical,1,Q1FrontDown,-31.87264,41.02615,1.608562,-49.70396,-110.2312,149.7946,-31.18945,202408281506128317,
2-10,C_HumanVertical,1,Q1FrontDown,-32.27486,41.1068,2.098915,-49.53901,-110.2308,149.8331,-31.19066,202408281506128502,
2-10,C_HumanVertical,1,Q1FrontDown,-32.27486,41.1068,2.098915,-49.53901,-110.2308,149.8331,-31.19066,202408281506128717,
2-10,C_HumanVertical,1,Q1FrontDown,-32.67721,41.20382,2.58074,-49.35783,-110.2291,149.8344,-31.20557,202408281506128984,
2-10,C_HumanVertical,1,Q1FrontDown,-33.07079,41.29096,2.999225,-49.25898,-110.2271,149.8344,-31.20907,202408281506129313,
2-10,C_HumanVertical,1,Q1FrontDown,-33.4341,41.37017,3.350392,-49.19829,-110.2271,149.8356,-31.21255,202408281506129548,
2-10,C_HumanVertical,1,Q1FrontDown,-33.78221,41.45579,3.692443,-49.15563,-110.2243,149.8368,-31.2167,202408281506129792,
2-10,C_HumanVertical,1,Q1FrontDown,-33.78221,41.45579,3.692443,-49.15563,-110.2243,149.8368,-31.2167,202408281506129963,
2-10,C_HumanVertical,1,Q1FrontDown,-34.07461,41.52035,3.89728,-49.15594,-110.2084,149.838,-31.25341,202408281506130145,
2-10,C_HumanVertical,1,Q1FrontDown,-34.07461,41.52035,3.89728,-49.15594,-110.2084,149.838,-31.25341,202408281506130322,
2-10,C_HumanVertical,1,Q1FrontDown,-34.33101,41.58514,3.979314,-49.17474,-110.2033,149.8341,-31.26371,202408281506130667,
2-10,C_HumanVertical,1,Q1FrontDown,-34.56746,41.65117,3.968678,-49.23138,-110.2124,149.8135,-31.25358,202408281506130894,
2-10,C_HumanVertical,1,Q1FrontDown,-34.67632,41.66664,3.690515,-49.37771,-110.3696,149.6747,-31.13485,202408281506131150,
2-10,C_HumanVertical,1,Q1FrontDown,-34.77441,41.6902,3.332697,-49.53642,-110.4725,149.5575,-31.09648,202408281506131450,
2-10,C_HumanVertical,1,Q1FrontDown,-34.77441,41.6902,3.332697,-49.53642,-110.4725,149.5575,-31.09648,202408281506131621,
2-10,C_HumanVertical,1,Q1FrontDown,-34.77441,41.6902,3.332697,-49.53642,-110.4725,149.5575,-31.09648,202408281506131795,
2-10,C_HumanVertical,1,Q1FrontDown,-34.84982,41.71014,2.887551,-49.74569,-110.5477,149.4314,-31.09747,202408281506132043,
2-10,C_HumanVertical,1,Q1FrontDown,-34.89082,41.70176,2.3723,-50.10014,-110.5847,149.1935,-31.09798,202408281506132290,
2-10,C_HumanVertical,1,Q1FrontDown,-34.96461,41.69825,1.864062,-50.49173,-110.6245,148.9576,-31.10826,202408281506132472,
2-10,C_HumanVertical,1,Q1FrontDown,-35.03892,41.70462,1.369867,-50.92721,-110.6679,148.7159,-31.12252,202408281506132709,
2-10,C_HumanVertical,1,Q1FrontDown,-35.03892,41.70462,1.369867,-50.92721,-110.6679,148.7159,-31.12252,202408281506132995,
2-10,C_HumanVertical,1,Q1FrontDown,-35.12902,41.7233,0.9105582,-51.32719,-110.7082,148.5152,-31.13324,202408281506133202,
2-10,C_HumanVertical,1,Q1FrontDown,-35.22838,41.75541,0.4935499,-51.79671,-110.7373,148.325,-31.14433,202408281506133486,
2-10,C_HumanVertical,1,Q1FrontDown,-35.31777,41.76546,0.1119245,-52.30489,-110.7693,148.163,-31.15878,202408281506133824,
2-10,C_HumanVertical,1,Q1FrontDown,-35.40736,41.77215,-0.2312358,-52.85012,-110.8886,148.0001,-31.17345,202408281506134208,
2-10,C_HumanVertical,1,Q1FrontDown,-35.48117,41.77426,-0.5946249,-53.41152,-110.971,147.8446,-31.19151,202408281506134463,
2-10,C_HumanVertical,1,Q1FrontDown,-35.48117,41.77426,-0.5946249,-53.41152,-110.971,147.8446,-31.19151,202408281506134633,
2-10,C_HumanVertical,1,Q1FrontDown,-35.54795,41.77808,-0.9111046,-53.95953,-111.0327,147.696,-31.21083,202408281506134811,
2-10,C_HumanVertical,1,Q1FrontDown,-35.54795,41.77808,-0.9111046,-53.95953,-111.0327,147.696,-31.21083,202408281506134989,
2-10,C_HumanVertical,1,Q1FrontDown,-35.59776,41.77063,-1.248564,-54.61766,-111.1326,147.5781,-31.25761,202408281506135133,
2-10,C_HumanVertical,1,Q1FrontDown,-35.59776,41.77063,-1.248564,-54.61766,-111.1326,147.5781,-31.25761,202408281506135341,
2-10,C_HumanVertical,1,Q1FrontDown,-35.62305,41.74611,-1.543088,-55.33851,-111.1692,147.4135,-31.34167,202408281506135542,
2-10,C_HumanVertical,1,Q1FrontDown,-35.63177,41.73766,-1.818842,-56.12655,-111.1758,147.2204,-31.43808,202408281506135834,
2-10,C_HumanVertical,1,Q1FrontDown,-35.67528,41.74325,-2.081948,-56.89413,-111.2406,147.1362,-31.52792,202408281506136115,
2-10,C_HumanVertical,1,Q1FrontDown,-35.67528,41.74325,-2.081948,-56.89413,-111.2406,147.1362,-31.52792,202408281506136316,
2-10,C_HumanVertical,1,Q1FrontDown,-35.72241,41.76269,-2.324869,-57.66793,-111.3075,147.0565,-31.61716,202408281506136483,
2-10,C_HumanVertical,1,Q1FrontDown,-35.72241,41.76269,-2.324869,-57.66793,-111.3075,147.0565,-31.61716,202408281506136676,
2-10,C_HumanVertical,1,Q1FrontDown,-35.74957,41.81062,-2.528467,-58.36709,-111.3601,146.973,-31.70988,202408281506136963,
2-10,C_HumanVertical,1,Q1FrontDown,-35.78472,41.86555,-2.711444,-59.09348,-111.3441,146.8393,-31.91547,202408281506137133,
2-10,C_HumanVertical,1,Q1FrontDown,-35.82552,41.89566,-2.849882,-59.82748,-111.3414,146.712,-32.07015,202408281506137401,
2-10,C_HumanVertical,1,Q1FrontDown,-35.82552,41.89566,-2.849882,-59.82748,-111.3414,146.712,-32.07015,202408281506137577,
2-10,C_HumanVertical,1,Q1FrontDown,-35.87628,41.92966,-2.923611,-60.5795,-111.3416,146.6243,-32.19587,202408281506137880,
2-10,C_HumanVertical,1,Q1FrontDown,-35.91709,41.98859,-2.986863,-61.24045,-111.342,146.5338,-32.30611,202408281506138160,
2-10,C_HumanVertical,1,Q1FrontDown,-35.91709,41.98859,-2.986863,-61.24045,-111.342,146.5338,-32.30611,202408281506138330,
2-10,C_HumanVertical,1,Q1FrontDown,-35.97456,42.07975,-3.024019,-61.87351,-111.3493,146.4862,-32.40966,202408281506138657,
2-10,C_HumanVertical,1,Q1FrontDown,-36.02005,42.16381,-3.042035,-62.49769,-111.3531,146.4685,-32.51753,202408281506138835,
2-10,C_HumanVertical,1,Q1FrontDown,-36.03576,42.27036,-3.106973,-63.04242,-111.3553,146.468,-32.60236,202408281506139124,
2-10,C_HumanVertical,1,Q1FrontDown,-36.03576,42.27036,-3.106973,-63.04242,-111.3553,146.468,-32.60236,202408281506139294,
2-10,C_HumanVertical,1,Q1FrontDown,-36.06181,42.39106,-3.173618,-63.53502,-111.3562,146.4657,-32.68182,202408281506139472,
2-10,C_HumanVertical,1,Q1FrontDown,-36.06181,42.39106,-3.173618,-63.53502,-111.3562,146.4657,-32.68182,202408281506139640,
2-10,C_HumanVertical,1,Q1FrontDown,-36.06743,42.50433,-3.238432,-63.99166,-111.3563,146.4631,-32.76522,202408281506139815,
2-10,C_HumanVertical,1,Q1FrontDown,-36.04996,42.61642,-3.354525,-64.37143,-111.3558,146.4023,-32.89867,202408281506140045,
2-10,C_HumanVertical,1,Q1FrontDown,-36.04996,42.61642,-3.354525,-64.37143,-111.3558,146.4023,-32.89867,202408281506140323,
2-10,C_HumanVertical,1,Q1FrontDown,-36.00566,42.76568,-3.52756,-64.72739,-111.3557,146.3388,-33.0229,202408281506140533,
2-10,C_HumanVertical,1,Q1FrontDown,-35.94882,42.85732,-3.725311,-65.09244,-111.3551,146.2879,-33.12207,202408281506140844,
2-10,C_HumanVertical,1,Q1FrontDown,-35.94882,42.85732,-3.725311,-65.09244,-111.3551,146.2879,-33.12207,202408281506141015,
2-10,C_HumanVertical,1,Q1FrontDown,-35.82188,42.98593,-4.070662,-65.37949,-111.371,146.2921,-33.15185,202408281506141303,
2-10,C_HumanVertical,1,Q1FrontDown,-35.67374,43.1259,-4.461767,-65.61614,-111.3757,146.292,-33.23901,202408281506141488,
2-10,C_HumanVertical,1,Q1FrontDown,-35.53324,43.25783,-4.88277,-65.81541,-111.3758,146.2842,-33.3549,202408281506141803,
2-10,C_HumanVertical,1,Q1FrontDown,-35.53324,43.25783,-4.88277,-65.81541,-111.3758,146.2842,-33.3549,202408281506141982,
2-10,C_HumanVertical,1,Q1FrontDown,-35.41553,43.39651,-5.276354,-65.96443,-111.3759,146.2725,-33.45104,202408281506142217,
2-10,C_HumanVertical,1,Q1FrontDown,-35.27174,43.55745,-5.721402,-66.06837,-111.3773,146.2676,-33.5085,202408281506142485,
2-10,C_HumanVertical,1,Q1FrontDown,-35.27174,43.55745,-5.721402,-66.06837,-111.3773,146.2676,-33.5085,202408281506142643,
2-10,C_HumanVertical,1,Q1FrontDown,-35.10983,43.6881,-6.212605,-66.19195,-111.3831,146.2679,-33.54744,202408281506142819,
2-10,C_HumanVertical,1,Q1FrontDown,-35.10983,43.6881,-6.212605,-66.19195,-111.3831,146.2679,-33.54744,202408281506143002,
2-10,C_HumanVertical,1,Q1FrontDown,-34.91115,43.88858,-6.803288,-66.21548,-111.383,146.2678,-33.62409,202408281506143222,
2-10,C_HumanVertical,1,Q1FrontDown,-34.69197,44.09554,-7.434672,-66.2061,-111.376,146.2681,-33.69698,202408281506143486,
2-10,C_HumanVertical,1,Q1FrontDown,-34.69197,44.09554,-7.434672,-66.2061,-111.376,146.2681,-33.69698,202408281506143681,
2-10,C_HumanVertical,1,Q1FrontDown,-34.46258,44.33055,-8.118437,-66.18803,-111.3716,146.2684,-33.77507,202408281506143978,
2-10,C_HumanVertical,1,Q1FrontDown,-34.21857,44.57308,-8.816782,-66.19612,-111.3584,146.2677,-33.86138,202408281506144150,
2-10,C_HumanVertical,1,Q1FrontDown,-34.00082,44.82691,-9.479377,-66.21683,-111.3529,146.268,-33.94745,202408281506144351,
2-10,C_HumanVertical,1,Q1FrontDown,-34.00082,44.82691,-9.479377,-66.21683,-111.3529,146.268,-33.94745,202408281506144641,
2-10,C_HumanVertical,1,Q1FrontDown,-33.81165,45.08115,-10.0868,-66.2382,-111.3507,146.2688,-34.02502,202408281506144804,
2-10,C_HumanVertical,1,Q1FrontDown,-33.81165,45.08115,-10.0868,-66.2382,-111.3507,146.2688,-34.02502,202408281506144978,
2-10,C_HumanVertical,1,Q1FrontDown,-33.81165,45.08115,-10.0868,-66.2382,-111.3507,146.2688,-34.02502,202408281506145172,
2-10,C_HumanVertical,1,Q1FrontDown,-33.28405,45.60406,-11.42262,-66.36368,-111.3515,146.2717,-34.07166,202408281506145374,
2-10,C_HumanVertical,1,Q1FrontDown,-33.28405,45.60406,-11.42262,-66.36368,-111.3515,146.2717,-34.07166,202408281506145673,
2-10,C_HumanVertical,1,Q1FrontDown,-32.97042,45.88675,-12.09488,-66.41814,-111.3508,146.2823,-34.0834,202408281506145981,
2-10,C_HumanVertical,1,Q1FrontDown,-32.62901,46.20104,-12.76848,-66.45928,-111.347,146.3102,-34.08454,202408281506146305,
2-10,C_HumanVertical,1,Q1FrontDown,-32.27462,46.56259,-13.42964,-66.48144,-111.3466,146.3358,-34.07824,202408281506146527,
2-10,C_HumanVertical,1,Q1FrontDown,-31.9356,46.91892,-13.99532,-66.48206,-111.3517,146.3642,-34.05272,202408281506146795,
2-10,C_HumanVertical,1,Q1FrontDown,-31.9356,46.91892,-13.99532,-66.48206,-111.3517,146.3642,-34.05272,202408281506147021,
2-10,C_HumanVertical,1,Q1FrontDown,-31.56217,47.30798,-14.56994,-66.48267,-111.4231,146.3651,-33.99488,202408281506147314,
2-10,C_HumanVertical,1,Q1FrontDown,-31.18431,47.71169,-15.11601,-66.48409,-111.4804,146.3636,-33.94356,202408281506147533,
2-10,C_HumanVertical,1,Q1FrontDown,-30.84191,48.15465,-15.62307,-66.49102,-111.5354,146.3642,-33.89597,202408281506147829,
2-10,C_HumanVertical,1,Q1FrontDown,-30.84191,48.15465,-15.62307,-66.49102,-111.5354,146.3642,-33.89597,202408281506147986,
2-10,C_HumanVertical,1,Q1FrontDown,-30.49407,48.55042,-16.09282,-66.55745,-111.5702,146.3641,-33.83914,202408281506148323,
2-10,C_HumanVertical,1,Q1FrontDown,-30.15435,48.98145,-16.52091,-66.5849,-111.6148,146.3644,-33.80574,202408281506148523,
2-10,C_HumanVertical,1,Q1FrontDown,-29.82788,49.42086,-16.90751,-66.5827,-111.6676,146.3644,-33.78366,202408281506148816,
2-10,C_HumanVertical,1,Q1FrontDown,-29.54291,49.86719,-17.24828,-66.58918,-111.7485,146.3654,-33.74242,202408281506149133,
2-10,C_HumanVertical,1,Q1FrontDown,-29.54291,49.86719,-17.24828,-66.58918,-111.7485,146.3654,-33.74242,202408281506149312,
2-10,C_HumanVertical,1,Q1FrontDown,-29.27108,50.30246,-17.5961,-66.6031,-111.8029,146.4158,-33.69781,202408281506149486,
2-10,C_HumanVertical,1,Q1FrontDown,-29.27108,50.30246,-17.5961,-66.6031,-111.8029,146.4158,-33.69781,202408281506149730,
2-10,C_HumanVertical,1,Q1FrontDown,-28.99491,50.74531,-17.91096,-66.66773,-111.8385,146.5358,-33.65307,202408281506149968,
2-10,C_HumanVertical,1,Q1FrontDown,-28.73835,51.17297,-18.17308,-66.73048,-111.8809,146.5733,-33.61901,202408281506150202,
2-10,C_HumanVertical,1,Q1FrontDown,-28.488,51.57749,-18.42302,-66.79359,-111.9155,146.6074,-33.58669,202408281506150509,
2-10,C_HumanVertical,1,Q1FrontDown,-28.24602,51.99558,-18.64707,-66.85088,-111.9529,146.6385,-33.55127,202408281506150706,
2-10,C_HumanVertical,1,Q1FrontDown,-28.24602,51.99558,-18.64707,-66.85088,-111.9529,146.6385,-33.55127,202408281506150973,
2-10,C_HumanVertical,1,Q1FrontDown,-28.24602,51.99558,-18.64707,-66.85088,-111.9529,146.6385,-33.55127,202408281506151157,
2-10,C_HumanVertical,1,Q1FrontDown,-27.72352,52.77349,-19.11826,-67.00945,-112.126,146.6559,-33.43073,202408281506151478,
2-10,C_HumanVertical,1,Q1FrontDown,-27.47301,53.15006,-19.35595,-67.01778,-112.2313,146.654,-33.38763,202408281506151724,
2-10,C_HumanVertical,1,Q1FrontDown,-27.47301,53.15006,-19.35595,-67.01778,-112.2313,146.654,-33.38763,202408281506151971,
2-10,C_HumanVertical,1,Q1FrontDown,-27.18235,53.53671,-19.64345,-67.04462,-112.3798,146.6566,-33.30135,202408281506152124,
2-10,C_HumanVertical,1,Q1FrontDown,-27.18235,53.53671,-19.64345,-67.04462,-112.3798,146.6566,-33.30135,202408281506152301,
2-10,C_HumanVertical,1,Q1FrontDown,-26.91895,53.89111,-19.91076,-67.06823,-112.5218,146.6584,-33.22358,202408281506152471,
2-10,C_HumanVertical,1,Q1FrontDown,-26.91895,53.89111,-19.91076,-67.06823,-112.5218,146.6584,-33.22358,202408281506152656,
2-10,C_HumanVertical,1,Q1FrontDown,-26.6896,54.23742,-20.15375,-67.1058,-112.656,146.6614,-33.14445,202408281506152822,
2-10,C_HumanVertical,1,Q1FrontDown,-26.3983,54.57634,-20.53897,-67.165,-112.8044,146.6601,-33.0466,202408281506153056,
2-10,C_HumanVertical,1,Q1FrontDown,-26.3983,54.57634,-20.53897,-67.165,-112.8044,146.6601,-33.0466,202408281506153322,
2-10,C_HumanVertical,1,Q1FrontDown,-26.09283,54.89438,-20.97221,-67.22834,-112.9518,146.6606,-32.96231,202408281506153640,
2-10,C_HumanVertical,1,Q1FrontDown,-25.78076,55.20004,-21.46014,-67.31906,-113.1077,146.6603,-32.87222,202408281506153829,
2-10,C_HumanVertical,1,Q1FrontDown,-25.78076,55.20004,-21.46014,-67.31906,-113.1077,146.6603,-32.87222,202408281506154019,
2-10,C_HumanVertical,1,Q1FrontDown,-25.43399,55.49321,-21.99186,-67.42442,-113.3061,146.6597,-32.72773,202408281506154293,
2-10,C_HumanVertical,1,Q1FrontDown,-25.12799,55.77814,-22.49016,-67.51048,-113.4649,146.66,-32.59205,202408281506154476,
2-10,C_HumanVertical,1,Q1FrontDown,-25.12799,55.77814,-22.49016,-67.51048,-113.4649,146.66,-32.59205,202408281506154648,
2-10,C_HumanVertical,1,Q1FrontDown,-24.87765,56.02444,-22.95898,-67.59824,-113.6026,146.6603,-32.48244,202408281506154891,
2-10,C_HumanVertical,1,Q1FrontDown,-24.87765,56.02444,-22.95898,-67.59824,-113.6026,146.6603,-32.48244,202408281506155137,
2-10,C_HumanVertical,1,Q1FrontDown,-24.56618,56.19623,-23.422,-67.81113,-113.6205,146.6526,-32.40113,202408281506155325,
2-10,C_HumanVertical,1,Q1FrontDown,-24.23521,56.36015,-23.8626,-68.0333,-113.6777,146.6494,-32.28003,202408281506155642,
2-10,C_HumanVertical,1,Q1FrontDown,-23.86082,56.50821,-24.30583,-68.27105,-113.7636,146.6515,-32.14382,202408281506155804,
2-10,C_HumanVertical,1,Q1FrontDown,-23.86082,56.50821,-24.30583,-68.27105,-113.7636,146.6515,-32.14382,202408281506155989,
2-10,C_HumanVertical,1,Q1FrontDown,-23.48997,56.64587,-24.73316,-68.46756,-113.859,146.6526,-32.00428,202408281506156194,
2-10,C_HumanVertical,1,Q1FrontDown,-23.13174,56.77351,-25.14497,-68.64594,-113.9571,146.6533,-31.86173,202408281506156476,
2-10,C_HumanVertical,1,Q1FrontDown,-22.79749,56.88544,-25.4849,-68.8104,-114.053,146.654,-31.7391,202408281506156793,
2-10,C_HumanVertical,1,Q1FrontDown,-22.79749,56.88544,-25.4849,-68.8104,-114.053,146.654,-31.7391,202408281506156958,
2-10,C_HumanVertical,1,Q1FrontDown,-22.43103,56.99438,-25.85518,-68.9799,-114.0684,146.6525,-31.6965,202408281506157177,
2-10,C_HumanVertical,1,Q1FrontDown,-22.08313,57.08188,-26.22804,-69.16444,-114.0691,146.6161,-31.68292,202408281506157386,
2-10,C_HumanVertical,1,Q1FrontDown,-22.08313,57.08188,-26.22804,-69.16444,-114.0691,146.6161,-31.68292,202408281506157546,
2-10,C_HumanVertical,1,Q1FrontDown,-22.08313,57.08188,-26.22804,-69.16444,-114.0691,146.6161,-31.68292,202408281506157832,
2-10,C_HumanVertical,1,Q1FrontDown,-21.37674,57.20869,-27.06848,-69.70842,-114.0636,146.5013,-31.70461,202408281506158031,
2-10,C_HumanVertical,1,Q1FrontDown,-21.37674,57.20869,-27.06848,-69.70842,-114.0636,146.5013,-31.70461,202408281506158364,
2-10,C_HumanVertical,1,Q1FrontDown,-21.04127,57.29618,-27.47052,-69.93828,-114.0626,146.4682,-31.71401,202408281506158631,
2-10,C_HumanVertical,1,Q1FrontDown,-20.72701,57.3667,-27.87465,-70.18439,-114.062,146.4237,-31.72539,202408281506158802,
2-10,C_HumanVertical,1,Q1FrontDown,-20.72701,57.3667,-27.87465,-70.18439,-114.062,146.4237,-31.72539,202408281506158970,
2-10,C_HumanVertical,1,Q1FrontDown,-20.46593,57.44602,-28.26054,-70.41183,-114.0615,146.3813,-31.73136,202408281506159126,
2-10,C_HumanVertical,1,Q1FrontDown,-20.46593,57.44602,-28.26054,-70.41183,-114.0615,146.3813,-31.73136,202408281506159317,
2-10,C_HumanVertical,1,Q1FrontDown,-20.21575,57.56351,-28.61933,-70.57157,-114.061,146.333,-31.73524,202408281506159545,
2-10,C_HumanVertical,1,Q1FrontDown,-19.99507,57.68425,-28.96884,-70.71135,-114.0603,146.2796,-31.73854,202408281506159813,
2-10,C_HumanVertical,1,Q1FrontDown,-19.99507,57.68425,-28.96884,-70.71135,-114.0603,146.2796,-31.73854,202408281506159994,
2-10,C_HumanVertical,1,Q1FrontDown,-19.77207,57.81178,-29.33185,-70.83685,-114.0605,146.2296,-31.73895,202408281506160153,
2-10,C_HumanVertical,1,Q1FrontDown,-19.77207,57.81178,-29.33185,-70.83685,-114.0605,146.2296,-31.73895,202408281506160342,
2-10,C_HumanVertical,1,Q1FrontDown,-19.54332,57.92645,-29.68645,-70.95865,-114.0601,146.173,-31.73963,202408281506160539,
2-10,C_HumanVertical,1,Q1FrontDown,-19.33608,58.05431,-29.98607,-71.06059,-114.0594,146.1207,-31.74252,202408281506160828,
2-10,C_HumanVertical,1,Q1FrontDown,-19.33608,58.05431,-29.98607,-71.06059,-114.0594,146.1207,-31.74252,202408281506161140,
2-10,C_HumanVertical,1,Q1FrontDown,-19.13847,58.16827,-30.28617,-71.14812,-114.0594,146.0793,-31.74291,202408281506161355,
2-10,C_HumanVertical,1,Q1FrontDown,-18.94132,58.29692,-30.59903,-71.21346,-114.0596,146.0406,-31.74271,202408281506161639,
2-10,C_HumanVertical,1,Q1FrontDown,-18.75031,58.40823,-30.91323,-71.26073,-114.0594,145.9985,-31.74267,202408281506161802,
2-10,C_HumanVertical,1,Q1FrontDown,-18.75031,58.40823,-30.91323,-71.26073,-114.0594,145.9985,-31.74267,202408281506161978,
2-10,C_HumanVertical,1,Q1FrontDown,-18.55156,58.54179,-31.22606,-71.29293,-114.0597,145.9479,-31.74253,202408281506162308,
2-10,C_HumanVertical,1,Q1FrontDown,-18.37102,58.63961,-31.48382,-71.33056,-114.0593,145.8941,-31.74218,202408281506162485,
2-10,C_HumanVertical,1,Q1FrontDown,-18.19853,58.74297,-31.73184,-71.36974,-114.0595,145.8326,-31.74234,202408281506162708,
2-10,C_HumanVertical,1,Q1FrontDown,-18.19853,58.74297,-31.73184,-71.36974,-114.0595,145.8326,-31.74234,202408281506162884,
2-10,C_HumanVertical,1,Q1FrontDown,-18.00948,58.82531,-31.99144,-71.42232,-114.0596,145.7566,-31.74243,202408281506163139,
2-10,C_HumanVertical,1,Q1FrontDown,-18.00948,58.82531,-31.99144,-71.42232,-114.0596,145.7566,-31.74243,202408281506163314,
2-10,C_HumanVertical,1,Q1FrontDown,-17.82975,58.89768,-32.21662,-71.47858,-114.0595,145.6782,-31.74266,202408281506163494,
2-10,C_HumanVertical,1,Q1FrontDown,-17.82975,58.89768,-32.21662,-71.47858,-114.0595,145.6782,-31.74266,202408281506163696,
2-10,C_HumanVertical,1,Q1FrontDown,-17.65169,58.95929,-32.42537,-71.53895,-114.0595,145.5993,-31.74295,202408281506163984,
2-10,C_HumanVertical,1,Q1FrontDown,-17.47399,59.0159,-32.61517,-71.59391,-114.06,145.5262,-31.74294,202408281506164302,
2-10,C_HumanVertical,1,Q1FrontDown,-17.28252,59.06383,-32.77045,-71.6613,-114.0613,145.4288,-31.74316,202408281506164516,
2-10,C_HumanVertical,1,Q1FrontDown,-17.08112,59.093,-32.87262,-71.73801,-114.0662,145.3185,-31.74512,202408281506164705,
2-10,C_HumanVertical,1,Q1FrontDown,-17.08112,59.093,-32.87262,-71.73801,-114.0662,145.3185,-31.74512,202408281506164955,
2-10,C_HumanVertical,1,Q1FrontDown,-16.86622,59.10438,-32.91896,-71.82784,-114.1222,145.1953,-31.76103,202408281506165127,
2-10,C_HumanVertical,1,Q1FrontDown,-16.86622,59.10438,-32.91896,-71.82784,-114.1222,145.1953,-31.76103,202408281506165313,
2-10,C_HumanVertical,1,Q1FrontDown,-16.62184,59.11153,-32.94503,-71.92326,-114.1617,145.0556,-31.78828,202408281506165514,
2-10,C_HumanVertical,1,Q1FrontDown,-16.62184,59.11153,-32.94503,-71.92326,-114.1617,145.0556,-31.78828,202408281506165657,
2-10,C_HumanVertical,1,Q1FrontDown,-16.62184,59.11153,-32.94503,-71.92326,-114.1617,145.0556,-31.78828,202408281506165847,
2-10,C_HumanVertical,1,Q1FrontDown,-16.04033,59.10086,-32.89734,-72.15803,-114.3559,144.7536,-31.83542,202408281506166045,
2-10,C_HumanVertical,1,Q1FrontDown,-16.04033,59.10086,-32.89734,-72.15803,-114.3559,144.7536,-31.83542,202408281506166313,
2-10,C_HumanVertical,1,Q1FrontDown,-15.69752,59.06295,-32.83133,-72.35255,-114.488,144.6036,-31.84903,202408281506166628,
2-10,C_HumanVertical,1,Q1FrontDown,-15.34065,59.03122,-32.73886,-72.58534,-114.5802,144.4807,-31.862,202408281506166815,
2-10,C_HumanVertical,1,Q1FrontDown,-15.34065,59.03122,-32.73886,-72.58534,-114.5802,144.4807,-31.862,202408281506167059,
2-10,C_HumanVertical,1,Q1FrontDown,-14.91912,59.01684,-32.63742,-72.80354,-114.6695,144.3675,-31.87173,202408281506167294,
2-10,C_HumanVertical,1,Q1FrontDown,-14.51219,58.9948,-32.49371,-73.01651,-114.8682,144.3156,-31.85565,202408281506167471,
2-10,C_HumanVertical,1,Q1FrontDown,-14.51219,58.9948,-32.49371,-73.01651,-114.8682,144.3156,-31.85565,202408281506167692,
2-10,C_HumanVertical,1,Q1FrontDown,-13.7336,58.88902,-32.08739,-73.51141,-115.2437,144.2597,-31.83168,202408281506168036,
2-10,C_HumanVertical,1,Q1FrontDown,-13.7336,58.88902,-32.08739,-73.51141,-115.2437,144.2597,-31.83168,202408281506168304,
2-10,C_HumanVertical,1,Q1FrontDown,-13.34398,58.81863,-31.79799,-73.73413,-115.3429,144.2307,-31.85783,202408281506168481,
2-10,C_HumanVertical,1,Q1FrontDown,-13.03821,58.72778,-31.4425,-73.8988,-115.4078,144.2253,-31.88608,202408281506168801,
2-10,C_HumanVertical,1,Q1FrontDown,-12.77281,58.56598,-30.92063,-74.05707,-115.3448,144.2112,-32.06933,202408281506169173,
2-10,C_HumanVertical,1,Q1FrontDown,-12.77281,58.56598,-30.92063,-74.05707,-115.3448,144.2112,-32.06933,202408281506169341,
2-10,C_HumanVertical,1,Q1FrontDown,-12.49477,58.44716,-30.39131,-74.15472,-115.3007,144.2117,-32.2267,202408281506169632,
2-10,C_HumanVertical,1,Q1FrontDown,-12.18673,58.30227,-29.84658,-74.22903,-115.2666,144.2121,-32.36995,202408281506169805,
2-10,C_HumanVertical,1,Q1FrontDown,-12.18673,58.30227,-29.84658,-74.22903,-115.2666,144.2121,-32.36995,202408281506170004,
2-10,C_HumanVertical,1,Q1FrontDown,-11.89363,58.17539,-29.23658,-74.22395,-115.2632,144.2149,-32.45184,202408281506170226,
2-10,C_HumanVertical,1,Q1FrontDown,-11.58998,58.0414,-28.60558,-74.1745,-115.2533,144.2156,-32.54627,202408281506170509,
2-10,C_HumanVertical,1,Q1FrontDown,-11.27963,57.92672,-28.02425,-74.09643,-115.2395,144.2167,-32.6262,202408281506170833,
2-10,C_HumanVertical,1,Q1FrontDown,-11.27963,57.92672,-28.02425,-74.09643,-115.2395,144.2167,-32.6262,202408281506171032,
2-10,C_HumanVertical,1,Q1FrontDown,-10.92149,57.81296,-27.47789,-74.00724,-115.2399,144.2188,-32.69583,202408281506171293,
2-10,C_HumanVertical,1,Q1FrontDown,-10.56046,57.73161,-26.97791,-73.87971,-115.2421,144.2192,-32.7607,202408281506171477,
2-10,C_HumanVertical,1,Q1FrontDown,-10.18585,57.64438,-26.5078,-73.70245,-115.244,144.2204,-32.81648,202408281506171777,
2-10,C_HumanVertical,1,Q1FrontDown,-10.18585,57.64438,-26.5078,-73.70245,-115.244,144.2204,-32.81648,202408281506171957,
2-10,C_HumanVertical,1,Q1FrontDown,-9.867484,57.62,-26.07257,-73.43341,-115.2498,144.2385,-32.84686,202408281506172132,
2-10,C_HumanVertical,1,Q1FrontDown,-9.867484,57.62,-26.07257,-73.43341,-115.2498,144.2385,-32.84686,202408281506172339,
2-10,C_HumanVertical,1,Q1FrontDown,-9.579712,57.60201,-25.63527,-73.09956,-115.2514,144.2798,-32.8756,202408281506172528,
2-10,C_HumanVertical,1,Q1FrontDown,-9.36277,57.60256,-25.18689,-72.66283,-115.2495,144.3316,-32.90306,202408281506172814,
2-10,C_HumanVertical,1,Q1FrontDown,-9.36277,57.60256,-25.18689,-72.66283,-115.2495,144.3316,-32.90306,202408281506172995,
2-10,C_HumanVertical,1,Q1FrontDown,-9.36277,57.60256,-25.18689,-72.66283,-115.2495,144.3316,-32.90306,202408281506173172,
2-10,C_HumanVertical,1,Q1FrontDown,-8.974689,57.61147,-24.31217,-71.58413,-115.225,144.4372,-32.97541,202408281506173367,
2-10,C_HumanVertical,1,Q1FrontDown,-8.974689,57.61147,-24.31217,-71.58413,-115.225,144.4372,-32.97541,202408281506173633,
2-10,C_HumanVertical,1,Q1FrontDown,-8.79702,57.60815,-23.88993,-70.97395,-115.2001,144.4615,-33.02194,202408281506173814,
2-10,C_HumanVertical,1,Q1FrontDown,-8.624434,57.60652,-23.54271,-70.34045,-115.145,144.508,-33.10429,202408281506174203,
2-10,C_HumanVertical,1,Q1FrontDown,-8.453552,57.60371,-23.23021,-69.72034,-115.0986,144.5386,-33.19235,202408281506174464,
2-10,C_HumanVertical,1,Q1FrontDown,-8.453552,57.60371,-23.23021,-69.72034,-115.0986,144.5386,-33.19235,202408281506174634,
2-10,C_HumanVertical,1,Q1FrontDown,-8.285874,57.59367,-22.9674,-69.13668,-115.0631,144.5568,-33.27477,202408281506174842,
2-10,C_HumanVertical,1,Q1FrontDown,-8.285874,57.59367,-22.9674,-69.13668,-115.0631,144.5568,-33.27477,202408281506174972,
2-10,C_HumanVertical,1,Q1FrontDown,-8.160178,57.60142,-22.69206,-68.49393,-115.0493,144.5695,-33.36056,202408281506175160,
2-10,C_HumanVertical,1,Q1FrontDown,-8.160178,57.60142,-22.69206,-68.49393,-115.0493,144.5695,-33.36056,202408281506175340,
2-10,C_HumanVertical,1,Q1FrontDown,-8.061852,57.59673,-22.42093,-67.88118,-115.0382,144.5747,-33.43613,202408281506175548,
2-10,C_HumanVertical,1,Q1FrontDown,-7.965507,57.59358,-22.19511,-67.27425,-115.03,144.5777,-33.50814,202408281506175820,
2-10,C_HumanVertical,1,Q1FrontDown,-7.867538,57.60045,-22.01744,-66.66567,-115.0051,144.5786,-33.60551,202408281506176155,
2-10,C_HumanVertical,1,Q1FrontDown,-7.78063,57.6006,-21.86532,-66.10929,-114.9822,144.5794,-33.71139,202408281506176483,
2-10,C_HumanVertical,1,Q1FrontDown,-7.78063,57.6006,-21.86532,-66.10929,-114.9822,144.5794,-33.71139,202408281506176673,
2-10,C_HumanVertical,1,Q1FrontDown,-7.706073,57.59759,-21.74622,-65.54521,-114.9606,144.5784,-33.8215,202408281506177001,
2-10,C_HumanVertical,1,Q1FrontDown,-7.654282,57.60263,-21.65009,-64.99627,-114.9602,144.5774,-33.92885,202408281506177205,
2-10,C_HumanVertical,1,Q1FrontDown,-7.610001,57.60599,-21.56501,-64.46826,-114.9606,144.5786,-34.03206,202408281506177359,
2-10,C_HumanVertical,1,Q1FrontDown,-7.610001,57.60599,-21.56501,-64.46826,-114.9606,144.5786,-34.03206,202408281506177638,
2-10,C_HumanVertical,1,Q1FrontDown,-7.578835,57.60685,-21.51847,-63.97651,-114.9605,144.5777,-34.13069,202408281506177867,
2-10,C_HumanVertical,1,Q1FrontDown,-7.558959,57.60242,-21.48369,-63.47154,-114.9604,144.5769,-34.23314,202408281506178179,
2-10,C_HumanVertical,1,Q1FrontDown,-7.558959,57.60242,-21.48369,-63.47154,-114.9604,144.5769,-34.23314,202408281506178504,
2-10,C_HumanVertical,1,Q1FrontDown,-7.539419,57.61195,-21.47366,-62.53271,-114.9598,144.5529,-34.50469,202408281506178834,
2-10,C_HumanVertical,1,Q1FrontDown,-7.541263,57.60938,-21.48153,-62.09612,-114.9598,144.5373,-34.63313,202408281506179119,
2-10,C_HumanVertical,1,Q1FrontDown,-7.541263,57.60938,-21.48153,-62.09612,-114.9598,144.5373,-34.63313,202408281506179293,
2-10,C_HumanVertical,1,Q1FrontDown,-7.532211,57.61101,-21.51881,-61.67783,-114.9588,144.5074,-34.76704,202408281506179458,
2-10,C_HumanVertical,1,Q1FrontDown,-7.532211,57.61101,-21.51881,-61.67783,-114.9588,144.5074,-34.76704,202408281506179647,
2-10,C_HumanVertical,1,Q1FrontDown,-7.521096,57.6114,-21.57935,-61.26215,-114.9584,144.4713,-34.88593,202408281506179864,
2-10,C_HumanVertical,1,Q1FrontDown,-7.518684,57.66473,-21.68904,-60.75003,-114.9706,144.4797,-34.89502,202408281506180157,
2-10,C_HumanVertical,1,Q1FrontDown,-7.508021,57.69838,-21.83312,-60.23825,-114.9734,144.4858,-34.9147,202408281506180380,
2-10,C_HumanVertical,1,Q1FrontDown,-7.508021,57.69838,-21.83312,-60.23825,-114.9734,144.4858,-34.9147,202408281506180650,
2-10,C_HumanVertical,1,Q1FrontDown,-7.496804,57.72766,-22.00715,-59.74485,-114.9735,144.4874,-34.94064,202408281506180820,
2-10,C_HumanVertical,1,Q1FrontDown,-7.45079,57.74723,-22.26398,-59.30087,-114.9742,144.4877,-34.98158,202408281506181015,
2-10,C_HumanVertical,1,Q1FrontDown,-7.45079,57.74723,-22.26398,-59.30087,-114.9742,144.4877,-34.98158,202408281506181303,
