mpan31415/robot-x-ar/study2/data/raw_all_participants/Participant_2-17_1.csv
ParticipantID,Condition,Trial,PostureID,J1,J2,J3,J4,J5,J6,J7,Timestamp,
2-17,A_Baseline,1,Q1FrontUp,-32.18517,27.26277,57.9461,-18.01309,-112.3002,142.7477,-44.97035,202408231651003455,
2-17,A_Baseline,1,Q1FrontUp,-32.18494,27.26276,57.94619,-18.01343,-112.3006,142.7477,-44.97932,202408231651003834,
2-17,A_Baseline,1,Q1FrontUp,-32.18494,27.26276,57.94619,-18.01343,-112.3006,142.7477,-44.97932,202408231651003999,
2-17,A_Baseline,1,Q1FrontUp,-32.18492,27.26259,57.94619,-18.01343,-112.3006,142.7475,-44.99073,202408231651004321,
2-17,A_Baseline,1,Q1FrontUp,-32.18499,27.26307,57.94591,-18.01331,-112.3007,142.7475,-44.99377,202408231651004651,
2-17,A_Baseline,1,Q1FrontUp,-32.18511,27.26298,57.94592,-18.01331,-112.3008,142.7477,-44.99654,202408231651004828,
2-17,A_Baseline,1,Q1FrontUp,-32.18486,27.26298,57.94616,-18.01328,-112.3012,142.7476,-45.00106,202408231651005110,
2-17,A_Baseline,1,Q1FrontUp,-32.18486,27.26298,57.94616,-18.01328,-112.3012,142.7476,-45.00106,202408231651005344,
2-17,A_Baseline,1,Q1FrontUp,-32.18499,27.26277,57.94612,-18.01338,-112.3012,142.7477,-45.01073,202408231651005582,
2-17,A_Baseline,1,Q1FrontUp,-32.18499,27.26277,57.94612,-18.01338,-112.3012,142.7477,-45.01073,202408231651005771,
2-17,A_Baseline,1,Q1FrontUp,-32.18497,27.26289,57.94601,-18.01309,-112.3019,142.7477,-45.01557,202408231651005956,
2-17,A_Baseline,1,Q1FrontUp,-32.18509,27.26304,57.94582,-18.01303,-112.3016,142.7476,-45.01877,202408231651006124,
2-17,A_Baseline,1,Q1FrontUp,-32.18509,27.26304,57.94582,-18.01303,-112.3016,142.7476,-45.01877,202408231651006317,
2-17,A_Baseline,1,Q1FrontUp,-32.18499,27.26295,57.94593,-18.01315,-112.3017,142.7476,-45.02279,202408231651006496,
2-17,A_Baseline,1,Q1FrontUp,-32.18478,27.2629,57.94596,-18.01351,-112.3019,142.7478,-45.02761,202408231651006771,
2-17,A_Baseline,1,Q1FrontUp,-32.18478,27.2629,57.94596,-18.01351,-112.3019,142.7478,-45.02761,202408231651007078,
2-17,A_Baseline,1,Q1FrontUp,-32.18505,27.26295,57.94592,-18.01354,-112.3023,142.7477,-45.03256,202408231651007234,
2-17,A_Baseline,1,Q1FrontUp,-32.18486,27.26307,57.94605,-18.01329,-112.3022,142.7475,-45.03517,202408231651007456,
2-17,A_Baseline,1,Q1FrontUp,-32.18486,27.26307,57.94605,-18.01329,-112.3022,142.7475,-45.03517,202408231651007736,
2-17,A_Baseline,1,Q1FrontUp,-32.18499,27.26307,57.94598,-18.01303,-112.3028,142.7476,-45.03749,202408231651007911,
2-17,A_Baseline,1,Q1FrontUp,-32.18488,27.26291,57.94629,-18.01324,-112.3029,142.7475,-45.03999,202408231651008144,
2-17,A_Baseline,1,Q1FrontUp,-32.18488,27.26291,57.94629,-18.01324,-112.3029,142.7475,-45.03999,202408231651008421,
2-17,A_Baseline,1,Q1FrontUp,-32.18483,27.263,57.94606,-18.01337,-112.3031,142.7477,-45.04057,202408231651008643,
2-17,A_Baseline,1,Q1FrontUp,-32.18488,27.26295,57.94606,-18.01325,-112.3028,142.7477,-45.04111,202408231651008923,
2-17,A_Baseline,1,Q1FrontUp,-32.18488,27.26295,57.94606,-18.01325,-112.3028,142.7477,-45.04111,202408231651009097,
2-17,A_Baseline,1,Q1FrontUp,-32.18474,27.26296,57.94611,-18.01308,-112.303,142.7477,-45.04212,202408231651009439,
2-17,A_Baseline,1,Q1FrontUp,-32.18519,27.26325,57.94602,-18.01323,-112.3031,142.7477,-45.04237,202408231651009604,
2-17,A_Baseline,1,Q1FrontUp,-32.18481,27.26305,57.94602,-18.01322,-112.3028,142.7477,-45.04424,202408231651009895,
2-17,A_Baseline,1,Q1FrontUp,-32.18502,27.26318,57.9461,-18.0127,-112.303,142.7478,-45.04634,202408231651010070,
2-17,A_Baseline,1,Q1FrontUp,-32.18502,27.26318,57.9461,-18.0127,-112.303,142.7478,-45.04634,202408231651010235,
2-17,A_Baseline,1,Q1FrontUp,-32.18502,27.26318,57.9461,-18.0127,-112.303,142.7478,-45.04634,202408231651010407,
2-17,A_Baseline,1,Q1FrontUp,-32.18477,27.26309,57.94577,-18.01288,-112.3029,142.7476,-45.04685,202408231651010597,
2-17,A_Baseline,1,Q1FrontUp,-32.18481,27.26344,57.94603,-18.01307,-112.3032,142.7477,-45.0546,202408231651010812,
2-17,A_Baseline,1,Q1FrontUp,-32.18481,27.26344,57.94603,-18.01307,-112.3032,142.7477,-45.0546,202408231651011096,
2-17,A_Baseline,1,Q1FrontUp,-32.18481,27.26326,57.94614,-18.01307,-112.3032,142.7477,-45.06567,202408231651011309,
2-17,A_Baseline,1,Q1FrontUp,-32.18485,27.26343,57.94596,-18.01312,-112.303,142.7477,-45.07467,202408231651011570,
2-17,A_Baseline,1,Q1FrontUp,-32.18485,27.26343,57.94596,-18.01312,-112.303,142.7477,-45.07467,202408231651011760,
2-17,A_Baseline,1,Q1FrontUp,-32.18476,27.26315,57.94659,-18.01345,-112.3031,142.7477,-45.08173,202408231651011952,
2-17,A_Baseline,1,Q1FrontUp,-32.18495,27.26335,57.94676,-18.01301,-112.303,142.7477,-45.08967,202408231651012221,
2-17,A_Baseline,1,Q1FrontUp,-32.18495,27.26335,57.94676,-18.01301,-112.303,142.7477,-45.08967,202408231651012412,
2-17,A_Baseline,1,Q1FrontUp,-32.18496,27.26344,57.94715,-18.01298,-112.3032,142.7477,-45.09983,202408231651012582,
2-17,A_Baseline,1,Q1FrontUp,-32.18514,27.26304,57.9469,-18.01297,-112.303,142.7478,-45.10776,202408231651012974,
2-17,A_Baseline,1,Q1FrontUp,-32.18488,27.26325,57.9475,-18.01327,-112.303,142.7478,-45.1142,202408231651013146,
2-17,A_Baseline,1,Q1FrontUp,-32.18488,27.26325,57.9475,-18.01327,-112.303,142.7478,-45.1142,202408231651013422,
2-17,A_Baseline,1,Q1FrontUp,-32.18511,27.26339,57.94818,-18.01333,-112.3029,142.7478,-45.12014,202408231651013597,
2-17,A_Baseline,1,Q1FrontUp,-32.18542,27.26418,57.97911,-18.0133,-112.3027,142.7475,-45.12745,202408231651013764,
2-17,A_Baseline,1,Q1FrontUp,-32.18542,27.26418,57.97911,-18.0133,-112.3027,142.7475,-45.12745,202408231651014094,
2-17,A_Baseline,1,Q1FrontUp,-32.18574,27.26414,58.00638,-18.01403,-112.3028,142.7476,-45.13098,202408231651014277,
2-17,A_Baseline,1,Q1FrontUp,-32.18548,27.26345,58.02672,-18.01421,-112.303,142.7478,-45.13612,202408231651014469,
2-17,A_Baseline,1,Q1FrontUp,-32.18548,27.26345,58.02672,-18.01421,-112.303,142.7478,-45.13612,202408231651014738,
2-17,A_Baseline,1,Q1FrontUp,-32.18561,27.26313,58.05688,-18.01605,-112.3028,142.7476,-45.13783,202408231651014909,
2-17,A_Baseline,1,Q1FrontUp,-32.18561,27.26313,58.05688,-18.01605,-112.3028,142.7476,-45.13783,202408231651015079,
2-17,A_Baseline,1,Q1FrontUp,-32.18571,27.2625,58.07801,-18.01562,-112.3029,142.7477,-45.13846,202408231651015249,
2-17,A_Baseline,1,Q1FrontUp,-32.18571,27.2625,58.07801,-18.01562,-112.3029,142.7477,-45.13846,202408231651015476,
2-17,A_Baseline,1,Q1FrontUp,-32.18687,27.26263,58.08478,-18.01501,-112.3025,142.7476,-45.13859,202408231651015744,
2-17,A_Baseline,1,Q1FrontUp,-32.18687,27.26263,58.08478,-18.01501,-112.3025,142.7476,-45.13859,202408231651015910,
2-17,A_Baseline,1,Q1FrontUp,-32.18689,27.26286,58.08899,-18.01578,-112.3029,142.7475,-45.13868,202408231651016118,
2-17,A_Baseline,1,Q1FrontUp,-32.18695,27.26316,58.09733,-18.01596,-112.3029,142.7476,-45.13891,202408231651016495,
2-17,A_Baseline,1,Q1FrontUp,-32.18755,27.26338,58.1035,-18.0162,-112.3031,142.7476,-45.13901,202408231651016745,
2-17,A_Baseline,1,Q1FrontUp,-32.18927,27.26433,58.14086,-18.01618,-112.3029,142.7476,-45.13985,202408231651016916,
2-17,A_Baseline,1,Q1FrontUp,-32.19111,27.26366,58.16735,-18.01659,-112.3029,142.7477,-45.14053,202408231651017238,
2-17,A_Baseline,1,Q1FrontUp,-32.19111,27.26366,58.16735,-18.01659,-112.3029,142.7477,-45.14053,202408231651017423,
2-17,A_Baseline,1,Q1FrontUp,-32.19412,27.26225,58.18314,-18.01632,-112.303,142.7477,-45.14084,202408231651017648,
2-17,A_Baseline,1,Q1FrontUp,-32.19597,27.26221,58.20102,-18.01592,-112.3029,142.7477,-45.14132,202408231651017917,
2-17,A_Baseline,1,Q1FrontUp,-32.19597,27.26221,58.20102,-18.01592,-112.3029,142.7477,-45.14132,202408231651018096,
2-17,A_Baseline,1,Q1FrontUp,-32.20397,27.26314,58.24873,-18.01657,-112.3028,142.7476,-45.14188,202408231651018255,
2-17,A_Baseline,1,Q1FrontUp,-32.22303,27.26442,58.32929,-18.01701,-112.3027,142.7475,-45.14204,202408231651018607,
2-17,A_Baseline,1,Q1FrontUp,-32.23383,27.26413,58.40646,-18.01824,-112.3027,142.7477,-45.14198,202408231651018800,
2-17,A_Baseline,1,Q1FrontUp,-32.23383,27.26413,58.40646,-18.01824,-112.3027,142.7477,-45.14198,202408231651019083,
2-17,A_Baseline,1,Q1FrontUp,-32.23826,27.26214,58.45783,-18.02476,-112.3023,142.7478,-45.14217,202408231651019281,
2-17,A_Baseline,1,Q1FrontUp,-32.24212,27.26003,58.49273,-18.03149,-112.3023,142.7477,-45.14209,202408231651019573,
2-17,A_Baseline,1,Q1FrontUp,-32.24212,27.26003,58.49273,-18.03149,-112.3023,142.7477,-45.14209,202408231651019755,
2-17,A_Baseline,1,Q1FrontUp,-32.24359,27.25849,58.51672,-18.031,-112.3026,142.7476,-45.14243,202408231651019950,
2-17,A_Baseline,1,Q1FrontUp,-32.24834,27.25922,58.55162,-18.03122,-112.3024,142.7476,-45.14238,202408231651020249,
2-17,A_Baseline,1,Q1FrontUp,-32.24834,27.25922,58.55162,-18.03122,-112.3024,142.7476,-45.14238,202408231651020574,
2-17,A_Baseline,1,Q1FrontUp,-32.25613,27.26094,58.5937,-18.03261,-112.3021,142.748,-45.14239,202408231651020777,
2-17,A_Baseline,1,Q1FrontUp,-32.25624,27.26117,58.60871,-18.03302,-112.3021,142.7478,-45.14225,202408231651020983,
2-17,A_Baseline,1,Q1FrontUp,-32.2564,27.261,58.61735,-18.03357,-112.302,142.7477,-45.14248,202408231651021255,
2-17,A_Baseline,1,Q1FrontUp,-32.25653,27.26051,58.62191,-18.03282,-112.302,142.7476,-45.14257,202408231651021422,
2-17,A_Baseline,1,Q1FrontUp,-32.25653,27.26051,58.62191,-18.03282,-112.302,142.7476,-45.14257,202408231651021745,
2-17,A_Baseline,1,Q1FrontUp,-32.25689,27.25987,58.62207,-18.03086,-112.3023,142.7477,-45.14307,202408231651022109,
2-17,A_Baseline,1,Q1FrontUp,-32.25689,27.25987,58.62207,-18.03086,-112.3023,142.7477,-45.14307,202408231651022396,
2-17,A_Baseline,1,Q1FrontUp,-32.257,27.25998,58.62189,-18.03171,-112.3024,142.7477,-45.14334,202408231651022615,
2-17,A_Baseline,1,Q1FrontUp,-32.25682,27.2605,58.62167,-18.03243,-112.3021,142.7477,-45.14307,202408231651022994,
2-17,A_Baseline,1,Q1FrontUp,-32.25651,27.26128,58.62095,-18.03289,-112.3027,142.7476,-45.14356,202408231651023282,
2-17,A_Baseline,1,Q1FrontUp,-32.25659,27.26241,58.61953,-18.03266,-112.3031,142.7477,-45.14373,202408231651023593,
2-17,A_Baseline,1,Q1FrontUp,-32.25688,27.26232,58.61604,-18.03212,-112.3047,142.7476,-45.14394,202408231651023947,
2-17,A_Baseline,1,Q1FrontUp,-32.25682,27.26163,58.61593,-18.03191,-112.307,142.7476,-45.14431,202408231651024135,
2-17,A_Baseline,1,Q1FrontUp,-32.25682,27.26163,58.61593,-18.03191,-112.307,142.7476,-45.14431,202408231651024407,
2-17,A_Baseline,1,Q1FrontUp,-32.2567,27.26123,58.61585,-18.0318,-112.3072,142.7475,-45.14456,202408231651024575,
2-17,A_Baseline,1,Q1FrontUp,-32.2567,27.26123,58.61585,-18.0318,-112.3072,142.7475,-45.14456,202408231651024734,
2-17,A_Baseline,1,Q1FrontUp,-32.25674,27.26141,58.61575,-18.03201,-112.3072,142.7474,-45.14496,202408231651024909,
2-17,A_Baseline,1,Q1FrontUp,-32.25674,27.26141,58.61575,-18.03201,-112.3072,142.7474,-45.14496,202408231651025088,
2-17,A_Baseline,1,Q1FrontUp,-32.25674,27.2619,58.61565,-18.03211,-112.3074,142.7477,-45.1451,202408231651025338,
2-17,A_Baseline,1,Q1FrontUp,-32.25684,27.26244,58.61553,-18.03239,-112.3078,142.7476,-45.14529,202408231651025567,
2-17,A_Baseline,1,Q1FrontUp,-32.25684,27.26244,58.61553,-18.03239,-112.3078,142.7476,-45.14529,202408231651025827,
2-17,A_Baseline,1,Q1FrontUp,-32.25677,27.26247,58.61559,-18.03252,-112.3079,142.7477,-45.14532,202408231651026106,
2-17,A_Baseline,1,Q1FrontUp,-32.25663,27.26214,58.61553,-18.03245,-112.3078,142.7477,-45.14579,202408231651026296,
2-17,A_Baseline,1,Q1FrontUp,-32.25668,27.26182,58.61543,-18.03207,-112.3078,142.7476,-45.14582,202408231651026592,
2-17,A_Baseline,1,Q1FrontUp,-32.25659,27.26154,58.61565,-18.03186,-112.3078,142.7475,-45.14568,202408231651026895,
2-17,A_Baseline,1,Q1FrontUp,-32.25659,27.26154,58.61565,-18.03186,-112.3078,142.7475,-45.14568,202408231651027083,
2-17,A_Baseline,1,Q1FrontUp,-32.25669,27.26148,58.61566,-18.03197,-112.3077,142.7475,-45.14581,202408231651027310,
2-17,A_Baseline,1,Q1FrontUp,-32.2565,27.2617,58.61592,-18.03229,-112.3078,142.7476,-45.14614,202408231651027572,
2-17,A_Baseline,1,Q1FrontUp,-32.2565,27.2617,58.61592,-18.03229,-112.3078,142.7476,-45.14614,202408231651027744,
2-17,A_Baseline,1,Q1FrontUp,-32.25641,27.26205,58.61609,-18.03293,-112.3076,142.7475,-45.14613,202408231651027916,
2-17,A_Baseline,1,Q1FrontUp,-32.25646,27.26217,58.61589,-18.0331,-112.3077,142.7477,-45.14582,202408231651028100,
2-17,A_Baseline,1,Q1FrontUp,-32.25646,27.26217,58.61589,-18.0331,-112.3077,142.7477,-45.14582,202408231651028246,
2-17,A_Baseline,1,Q1FrontUp,-32.25646,27.26217,58.61589,-18.0331,-112.3077,142.7477,-45.14582,202408231651028449,
2-17,A_Baseline,1,Q1FrontUp,-32.25636,27.26197,58.61622,-18.03271,-112.3077,142.7476,-45.14601,202408231651028644,
2-17,A_Baseline,1,Q1FrontUp,-32.2565,27.26188,58.61631,-18.0323,-112.3079,142.7476,-45.14609,202408231651028935,
2-17,A_Baseline,1,Q1FrontUp,-32.25631,27.26172,58.61811,-18.03248,-112.3078,142.7475,-45.14669,202408231651029234,
2-17,A_Baseline,1,Q1FrontUp,-32.25631,27.26172,58.61811,-18.03248,-112.3078,142.7475,-45.14669,202408231651029412,
2-17,A_Baseline,1,Q1FrontUp,-32.2558,27.26136,58.61979,-18.03237,-112.3077,142.7477,-45.14692,202408231651029597,
2-17,A_Baseline,1,Q1FrontUp,-32.25542,27.26148,58.61957,-18.03248,-112.3077,142.7476,-45.14731,202408231651029810,
2-17,A_Baseline,1,Q1FrontUp,-32.25529,27.26169,58.61946,-18.0326,-112.3077,142.7474,-45.1479,202408231651030098,
2-17,A_Baseline,1,Q1FrontUp,-32.25529,27.26169,58.61946,-18.0326,-112.3077,142.7474,-45.1479,202408231651030488,
2-17,A_Baseline,1,Q1FrontUp,-32.25517,27.26186,58.61935,-18.03276,-112.3077,142.7477,-45.14864,202408231651030810,
2-17,A_Baseline,1,Q1FrontUp,-32.25517,27.26186,58.61935,-18.03276,-112.3077,142.7477,-45.14864,202408231651031086,
2-17,A_Baseline,1,Q1FrontUp,-32.25517,27.2618,58.62022,-18.03264,-112.3078,142.7474,-45.14907,202408231651031284,
2-17,A_Baseline,1,Q1FrontUp,-32.25512,27.26152,58.62193,-18.03232,-112.3077,142.7474,-45.14957,202408231651031578,
2-17,A_Baseline,1,Q1FrontUp,-32.25512,27.26152,58.62193,-18.03232,-112.3077,142.7474,-45.14957,202408231651031756,
2-17,A_Baseline,1,Q1FrontUp,-32.25516,27.26161,58.62261,-18.0324,-112.3076,142.7475,-45.15007,202408231651031952,
2-17,A_Baseline,1,Q1FrontUp,-32.25511,27.26184,58.62295,-18.03238,-112.3076,142.7474,-45.15038,202408231651032244,
2-17,A_Baseline,1,Q1FrontUp,-32.25511,27.26184,58.62295,-18.03238,-112.3076,142.7474,-45.15038,202408231651032423,
2-17,A_Baseline,1,Q1FrontUp,-32.25493,27.26163,58.62279,-18.03249,-112.3077,142.7474,-45.15048,202408231651032601,
2-17,A_Baseline,1,Q1FrontUp,-32.25486,27.26259,58.64592,-18.03238,-112.3063,142.7473,-45.15076,202408231651032942,
2-17,A_Baseline,1,Q1FrontUp,-32.25119,27.26217,58.65615,-18.03252,-112.3058,142.7472,-45.15089,202408231651033151,
2-17,A_Baseline,1,Q1FrontUp,-32.24253,27.26197,58.65605,-18.03167,-112.3055,142.7474,-45.15052,202408231651033434,
2-17,A_Baseline,1,Q1FrontUp,-32.24253,27.26197,58.65605,-18.03167,-112.3055,142.7474,-45.15052,202408231651033656,
2-17,A_Baseline,1,Q1FrontUp,-32.22905,27.26172,58.65608,-18.03154,-112.3056,142.7474,-45.15059,202408231651033910,
2-17,A_Baseline,1,Q1FrontUp,-32.21349,27.26099,58.65512,-18.03049,-112.3032,142.7475,-45.15063,202408231651034110,
2-17,A_Baseline,1,Q1FrontUp,-32.21349,27.26099,58.65512,-18.03049,-112.3032,142.7475,-45.15063,202408231651034313,
2-17,A_Baseline,1,Q1FrontUp,-32.19989,27.26129,58.654,-18.03055,-112.3001,142.7475,-45.15078,202408231651034588,
2-17,A_Baseline,1,Q1FrontUp,-32.19989,27.26129,58.654,-18.03055,-112.3001,142.7475,-45.15078,202408231651034761,
2-17,A_Baseline,1,Q1FrontUp,-32.18159,27.26208,58.65335,-18.03093,-112.2982,142.7474,-45.15059,202408231651034926,
2-17,A_Baseline,1,Q1FrontUp,-32.1719,27.26148,58.65395,-18.03261,-112.2979,142.7478,-45.15106,202408231651035089,
2-17,A_Baseline,1,Q1FrontUp,-32.1719,27.26148,58.65395,-18.03261,-112.2979,142.7478,-45.15106,202408231651035341,
2-17,A_Baseline,1,Q1FrontUp,-32.16958,27.26179,58.65411,-18.03341,-112.2979,142.7476,-45.15086,202408231651035588,
2-17,A_Baseline,1,Q1FrontUp,-32.16958,27.26179,58.65411,-18.03341,-112.2979,142.7476,-45.15086,202408231651035779,
2-17,A_Baseline,1,Q1FrontUp,-32.17128,27.26204,58.69747,-18.03287,-112.2969,142.7471,-45.15172,202408231651036102,
2-17,A_Baseline,1,Q1FrontUp,-32.17128,27.26204,58.69747,-18.03287,-112.2969,142.7471,-45.15172,202408231651036278,
2-17,A_Baseline,1,Q1FrontUp,-32.17128,27.26204,58.69747,-18.03287,-112.2969,142.7471,-45.15172,202408231651036439,
2-17,A_Baseline,1,Q1FrontUp,-32.17176,27.26064,58.69798,-18.03231,-112.2969,142.747,-45.17905,202408231651036635,
2-17,A_Baseline,1,Q1FrontUp,-32.17046,27.25968,58.71438,-18.03331,-112.2965,142.7473,-45.1953,202408231651036804,
2-17,A_Baseline,1,Q1FrontUp,-32.17046,27.25968,58.71438,-18.03331,-112.2965,142.7473,-45.1953,202408231651037077,
2-17,A_Baseline,1,Q1FrontUp,-32.17088,27.26011,58.73538,-18.03409,-112.2966,142.7471,-45.21411,202408231651037235,
2-17,A_Baseline,1,Q1FrontUp,-32.17205,27.26126,58.75108,-18.03413,-112.2968,142.7468,-45.2303,202408231651037413,
2-17,A_Baseline,1,Q1FrontUp,-32.17205,27.26126,58.75108,-18.03413,-112.2968,142.7468,-45.2303,202408231651037584,
2-17,A_Baseline,1,Q1FrontUp,-32.17151,27.26147,58.76677,-18.0364,-112.2964,142.7472,-45.24489,202408231651037820,
2-17,A_Baseline,1,Q1FrontUp,-32.17151,27.26147,58.76677,-18.0364,-112.2964,142.7472,-45.24489,202408231651038111,
2-17,A_Baseline,1,Q1FrontUp,-32.17084,27.26126,58.77478,-18.04033,-112.2955,142.747,-45.2552,202408231651038279,
2-17,A_Baseline,1,Q1FrontUp,-32.17026,27.26035,58.77478,-18.04039,-112.2944,142.7472,-45.26474,202408231651038488,
2-17,A_Baseline,1,Q1FrontUp,-32.17065,27.26001,58.77497,-18.04051,-112.2938,142.7472,-45.2723,202408231651038815,
2-17,A_Baseline,1,Q1FrontUp,-32.17065,27.26001,58.77497,-18.04051,-112.2938,142.7472,-45.2723,202408231651039083,
2-17,A_Baseline,1,Q1FrontUp,-32.17137,27.26023,58.77402,-18.03961,-112.2935,142.747,-45.27488,202408231651039246,
2-17,A_Baseline,1,Q1FrontUp,-32.17142,27.26056,58.77338,-18.04005,-112.2936,142.7472,-45.27668,202408231651039441,
2-17,A_Baseline,1,Q1FrontUp,-32.17142,27.26056,58.77338,-18.04005,-112.2936,142.7472,-45.27668,202408231651039756,
2-17,A_Baseline,1,Q1FrontUp,-32.17075,27.26076,58.77321,-18.04107,-112.293,142.7471,-45.27754,202408231651039958,
2-17,A_Baseline,1,Q1FrontUp,-32.17036,27.26062,58.77314,-18.04162,-112.2933,142.7472,-45.27835,202408231651040156,
2-17,A_Baseline,1,Q1FrontUp,-32.17036,27.26062,58.77314,-18.04162,-112.2933,142.7472,-45.27835,202408231651040415,
2-17,A_Baseline,1,Q1FrontUp,-32.17073,27.26084,58.77317,-18.04188,-112.2933,142.7472,-45.27892,202408231651040591,
2-17,A_Baseline,1,Q1FrontUp,-32.17162,27.26112,58.77317,-18.04166,-112.2932,142.7471,-45.27983,202408231651040770,
2-17,A_Baseline,1,Q1FrontUp,-32.17162,27.26112,58.77317,-18.04166,-112.2932,142.7471,-45.27983,202408231651040972,
2-17,A_Baseline,1,Q1FrontUp,-32.17212,27.26085,58.77305,-18.04115,-112.2936,142.7471,-45.28072,202408231651041240,
2-17,A_Baseline,1,Q1FrontUp,-32.17212,27.26085,58.77305,-18.04115,-112.2936,142.7471,-45.28072,202408231651041422,
2-17,A_Baseline,1,Q1FrontUp,-32.17177,27.26081,58.77285,-18.04146,-112.2938,142.7473,-45.28036,202408231651041796,
2-17,A_Baseline,1,Q1FrontUp,-32.17177,27.26081,58.77285,-18.04146,-112.2938,142.7473,-45.28036,202408231651041970,
2-17,A_Baseline,1,Q1FrontUp,-32.17097,27.26085,58.77287,-18.04162,-112.2905,142.7471,-45.28035,202408231651042238,
2-17,A_Baseline,1,Q1FrontUp,-32.17111,27.26114,58.77251,-18.04228,-112.285,142.7469,-45.28141,202408231651042411,
2-17,A_Baseline,1,Q1FrontUp,-32.17111,27.26114,58.77251,-18.04228,-112.285,142.7469,-45.28141,202408231651042579,
2-17,A_Baseline,1,Q1FrontUp,-32.17111,27.26114,58.77251,-18.04228,-112.285,142.7469,-45.28141,202408231651042759,
2-17,A_Baseline,1,Q1FrontUp,-32.17088,27.26121,58.77271,-18.04228,-112.2838,142.7466,-45.28187,202408231651042926,
2-17,A_Baseline,1,Q1FrontUp,-32.16899,27.26096,58.77428,-18.04289,-112.2255,142.7463,-45.28238,202408231651043145,
2-17,A_Baseline,1,Q1FrontUp,-32.16899,27.26096,58.77428,-18.04289,-112.2255,142.7463,-45.28238,202408231651043339,
2-17,A_Baseline,1,Q1FrontUp,-32.16685,27.25956,58.77573,-18.04288,-112.1553,142.7467,-45.28328,202408231651043592,
2-17,A_Baseline,1,Q1FrontUp,-32.16685,27.25956,58.77573,-18.04288,-112.1553,142.7467,-45.28328,202408231651043766,
2-17,A_Baseline,1,Q1FrontUp,-32.16699,27.25578,58.79249,-18.04302,-112.0677,142.7465,-45.29091,202408231651044092,
2-17,A_Baseline,1,Q1FrontUp,-32.16719,27.25447,58.82394,-18.04403,-112.0183,142.7466,-45.31007,202408231651044305,
2-17,A_Baseline,1,Q1FrontUp,-32.16718,27.2538,58.8751,-18.04534,-111.9994,142.7466,-45.31736,202408231651044600,
2-17,A_Baseline,1,Q1FrontUp,-32.17144,27.25328,58.94225,-18.05704,-111.9957,142.7467,-45.32185,202408231651044774,
2-17,A_Baseline,1,Q1FrontUp,-32.17144,27.25328,58.94225,-18.05704,-111.9957,142.7467,-45.32185,202408231651045008,
2-17,A_Baseline,1,Q1FrontUp,-32.17231,27.25312,59.0203,-18.06668,-111.9884,142.7466,-45.33101,202408231651045290,
2-17,A_Baseline,1,Q1FrontUp,-32.172,27.25263,59.09784,-18.07669,-111.9723,142.7467,-45.33879,202408231651045490,
2-17,A_Baseline,1,Q1FrontUp,-32.172,27.25263,59.09784,-18.07669,-111.9723,142.7467,-45.33879,202408231651045767,
2-17,A_Baseline,1,Q1FrontUp,-32.17157,27.24953,59.15903,-18.09016,-111.9447,142.7466,-45.34288,202408231651045937,
2-17,A_Baseline,1,Q1FrontUp,-32.17204,27.24519,59.21976,-18.11064,-111.9313,142.7465,-45.34559,202408231651046270,
2-17,A_Baseline,1,Q1FrontUp,-32.1721,27.24405,59.27753,-18.13021,-111.9304,142.7467,-45.34945,202408231651046471,
2-17,A_Baseline,1,Q1FrontUp,-32.1721,27.24405,59.27753,-18.13021,-111.9304,142.7467,-45.34945,202408231651046735,
2-17,A_Baseline,1,Q1FrontUp,-32.17999,27.24378,59.34674,-18.15208,-111.9306,142.7466,-45.35855,202408231651046902,
2-17,A_Baseline,1,Q1FrontUp,-32.17999,27.24378,59.34674,-18.15208,-111.9306,142.7466,-45.35855,202408231651047058,
2-17,A_Baseline,1,Q1FrontUp,-32.1839,27.24313,59.39704,-18.17403,-111.9306,142.7466,-45.36257,202408231651047248,
2-17,A_Baseline,1,Q1FrontUp,-32.18631,27.24264,59.43719,-18.19668,-111.9307,142.7465,-45.367,202408231651047434,
2-17,A_Baseline,1,Q1FrontUp,-32.18631,27.24264,59.43719,-18.19668,-111.9307,142.7465,-45.367,202408231651047658,
2-17,A_Baseline,1,Q1FrontUp,-32.19101,27.24352,59.48632,-18.22484,-111.9318,142.7464,-45.37708,202408231651047940,
2-17,A_Baseline,1,Q1FrontUp,-32.19882,27.24311,59.5379,-18.25617,-111.9336,142.7464,-45.38419,202408231651048157,
2-17,A_Baseline,1,Q1FrontUp,-32.2041,27.24302,59.58581,-18.2872,-111.9349,142.7462,-45.39214,202408231651048444,
2-17,A_Baseline,1,Q1FrontUp,-32.2041,27.24302,59.58581,-18.2872,-111.9349,142.7462,-45.39214,202408231651048656,
2-17,A_Baseline,1,Q1FrontUp,-32.21182,27.24287,59.63949,-18.32102,-111.9404,142.7463,-45.40048,202408231651048936,
2-17,A_Baseline,1,Q1FrontUp,-32.21943,27.24269,59.68993,-18.35844,-111.9422,142.7464,-45.40937,202408231651049254,
2-17,A_Baseline,1,Q1FrontUp,-32.21943,27.24269,59.68993,-18.35844,-111.9422,142.7464,-45.40937,202408231651049426,
2-17,A_Baseline,1,Q1FrontUp,-32.22592,27.24269,59.73944,-18.39149,-111.9423,142.7465,-45.41397,202408231651049597,
2-17,A_Baseline,1,Q1FrontUp,-32.23881,27.243,59.80375,-18.43127,-111.9425,142.7462,-45.41951,202408231651049797,
2-17,A_Baseline,1,Q1FrontUp,-32.23881,27.243,59.80375,-18.43127,-111.9425,142.7462,-45.41951,202408231651050094,
2-17,A_Baseline,1,Q1FrontUp,-32.24427,27.2425,59.87069,-18.4983,-111.9416,142.7465,-45.4248,202408231651050410,
2-17,A_Baseline,1,Q1FrontUp,-32.24427,27.2425,59.87069,-18.4983,-111.9416,142.7465,-45.4248,202408231651050575,
2-17,A_Baseline,1,Q1FrontUp,-32.24403,27.24249,59.88364,-18.52359,-111.9414,142.7462,-45.42599,202408231651050794,
2-17,A_Baseline,1,Q1FrontUp,-32.24403,27.24249,59.88364,-18.52359,-111.9414,142.7462,-45.42599,202408231651051012,
2-17,A_Baseline,1,Q1FrontUp,-32.24432,27.24266,59.90051,-18.54527,-111.9377,142.7465,-45.42731,202408231651051405,
2-17,A_Baseline,1,Q1FrontUp,-32.24442,27.24355,59.9185,-18.5569,-111.927,142.7463,-45.42762,202408231651051573,
2-17,A_Baseline,1,Q1FrontUp,-32.24389,27.24274,59.91958,-18.56041,-111.8893,142.7469,-45.42753,202408231651051768,
2-17,A_Baseline,1,Q1FrontUp,-32.24389,27.24274,59.91958,-18.56041,-111.8893,142.7469,-45.42753,202408231651051920,
2-17,A_Baseline,1,Q1FrontUp,-32.24179,27.24166,59.91265,-18.5591,-111.834,142.7469,-45.4277,202408231651052134,
2-17,A_Baseline,1,Q1FrontUp,-32.24179,27.24166,59.91265,-18.5591,-111.834,142.7469,-45.4277,202408231651052428,
2-17,A_Baseline,1,Q1FrontUp,-32.2413,27.2365,59.89815,-18.55235,-111.7716,142.7472,-45.42738,202408231651052598,
2-17,A_Baseline,1,Q1FrontUp,-32.2413,27.2365,59.89815,-18.55235,-111.7716,142.7472,-45.42738,202408231651052761,
2-17,A_Baseline,1,Q1FrontUp,-32.22095,27.23541,59.85826,-18.51195,-111.6862,142.7475,-45.42754,202408231651053002,
2-17,A_Baseline,1,Q1FrontUp,-32.22095,27.23541,59.85826,-18.51195,-111.6862,142.7475,-45.42754,202408231651053170,
2-17,A_Baseline,1,Q1FrontUp,-32.19889,27.23512,59.82494,-18.46558,-111.5937,142.7471,-45.42715,202408231651053417,
2-17,A_Baseline,1,Q1FrontUp,-32.17125,27.23229,59.78907,-18.41309,-111.5117,142.7475,-45.42693,202408231651053620,
2-17,A_Baseline,1,Q1FrontUp,-32.15068,27.22667,59.75755,-18.36792,-111.4288,142.7471,-45.4259,202408231651053940,
2-17,A_Baseline,1,Q1FrontUp,-32.13676,27.21563,59.7196,-18.32617,-111.3515,142.7471,-45.42545,202408231651054100,
2-17,A_Baseline,1,Q1FrontUp,-32.13676,27.21563,59.7196,-18.32617,-111.3515,142.7471,-45.42545,202408231651054330,
2-17,A_Baseline,1,Q1FrontUp,-32.12682,27.20179,59.67086,-18.2873,-111.2722,142.7473,-45.42535,202408231651054512,
2-17,A_Baseline,1,Q1FrontUp,-32.12357,27.19052,59.62499,-18.25044,-111.1977,142.7473,-45.42501,202408231651054757,
2-17,A_Baseline,1,Q1FrontUp,-32.12357,27.19052,59.62499,-18.25044,-111.1977,142.7473,-45.42501,202408231651054926,
2-17,A_Baseline,1,Q1FrontUp,-32.12357,27.19052,59.62499,-18.25044,-111.1977,142.7473,-45.42501,202408231651055094,
2-17,A_Baseline,1,Q1FrontUp,-32.1234,27.1832,59.58712,-18.21184,-111.1395,142.7473,-45.4239,202408231651055266,
2-17,A_Baseline,1,Q1FrontUp,-32.12379,27.17912,59.55686,-18.17566,-111.1084,142.7473,-45.42148,202408231651055493,
2-17,A_Baseline,1,Q1FrontUp,-32.12379,27.17912,59.55686,-18.17566,-111.1084,142.7473,-45.42148,202408231651055774,
2-17,A_Baseline,1,Q1FrontUp,-32.13341,27.17866,59.5537,-18.12955,-111.1135,142.747,-45.42032,202408231651056151,
2-17,A_Baseline,1,Q1FrontUp,-32.13341,27.17866,59.5537,-18.12955,-111.1135,142.747,-45.42032,202408231651056435,
2-17,A_Baseline,1,Q1FrontUp,-32.13735,27.17875,59.5538,-18.12267,-111.1185,142.7471,-45.42049,202408231651056671,
2-17,A_Baseline,1,Q1FrontUp,-32.13801,27.17922,59.55384,-18.11774,-111.1214,142.7469,-45.42052,202408231651056925,
2-17,A_Baseline,1,Q1FrontUp,-32.13801,27.17922,59.55384,-18.11774,-111.1214,142.7469,-45.42052,202408231651057095,
2-17,A_Baseline,1,Q1FrontUp,-32.13801,27.17922,59.55384,-18.11774,-111.1214,142.7469,-45.42052,202408231651057255,
2-17,A_Baseline,1,Q1FrontUp,-32.1849,27.17835,59.55669,-18.1514,-111.3248,142.7466,-45.42289,202408231651057419,
2-17,A_Baseline,1,Q1FrontUp,-32.1849,27.17835,59.55669,-18.1514,-111.3248,142.7466,-45.42289,202408231651057602,
2-17,A_Baseline,1,Q1FrontUp,-32.1849,27.17835,59.55669,-18.1514,-111.3248,142.7466,-45.42289,202408231651057825,
2-17,A_Baseline,1,Q1FrontUp,-32.2604,27.18117,59.55633,-18.20136,-111.5018,142.7463,-45.42438,202408231651058077,
2-17,A_Baseline,1,Q1FrontUp,-32.2604,27.18117,59.55633,-18.20136,-111.5018,142.7463,-45.42438,202408231651058257,
2-17,A_Baseline,1,Q1FrontUp,-32.31485,27.18118,59.55679,-18.25695,-111.5513,142.7458,-45.4256,202408231651058427,
2-17,A_Baseline,1,Q1FrontUp,-32.31485,27.18118,59.55679,-18.25695,-111.5513,142.7458,-45.4256,202408231651058615,
2-17,A_Baseline,1,Q1FrontUp,-32.37471,27.18102,59.5906,-18.33379,-111.6179,142.7463,-45.42538,202408231651058808,
2-17,A_Baseline,1,Q1FrontUp,-32.37471,27.18102,59.5906,-18.33379,-111.6179,142.7463,-45.42538,202408231651059091,
2-17,A_Baseline,1,Q1FrontUp,-32.43845,27.17871,59.63096,-18.43059,-111.6695,142.7457,-45.42563,202408231651059251,
2-17,A_Baseline,1,Q1FrontUp,-32.43845,27.17871,59.63096,-18.43059,-111.6695,142.7457,-45.42563,202408231651059459,
2-17,A_Baseline,1,Q1FrontUp,-32.60313,27.18087,59.76429,-18.66006,-111.7876,142.745,-45.42661,202408231651059758,
2-17,A_Baseline,1,Q1FrontUp,-32.60313,27.18087,59.76429,-18.66006,-111.7876,142.745,-45.42661,202408231651059963,
2-17,A_Baseline,1,Q1FrontUp,-32.69189,27.18155,59.84061,-18.78035,-111.8299,142.7444,-45.42664,202408231651060269,
2-17,A_Baseline,1,Q1FrontUp,-32.69189,27.18155,59.84061,-18.78035,-111.8299,142.7444,-45.42664,202408231651060422,
2-17,A_Baseline,1,Q1FrontUp,-32.69189,27.18155,59.84061,-18.78035,-111.8299,142.7444,-45.42664,202408231651060605,
2-17,A_Baseline,1,Q1FrontUp,-32.83364,27.1829,59.92241,-19.00764,-111.8372,142.7443,-45.42697,202408231651060990,
2-17,A_Baseline,1,Q1FrontUp,-32.86699,27.18174,59.92996,-19.09746,-111.8214,142.7441,-45.4262,202408231651061150,
2-17,A_Baseline,1,Q1FrontUp,-32.86699,27.18174,59.92996,-19.09746,-111.8214,142.7441,-45.4262,202408231651061418,
2-17,A_Baseline,1,Q1FrontUp,-32.87402,27.17973,59.93056,-19.16268,-111.7986,142.7444,-45.4257,202408231651061745,
2-17,A_Baseline,1,Q1FrontUp,-32.87479,27.18002,59.93083,-19.2244,-111.7855,142.7447,-45.42562,202408231651061911,
2-17,A_Baseline,1,Q1FrontUp,-32.87479,27.18002,59.93083,-19.2244,-111.7855,142.7447,-45.42562,202408231651062096,
2-17,A_Baseline,1,Q1FrontUp,-32.87438,27.18188,59.94261,-19.27792,-111.7557,142.7446,-45.42556,202408231651062300,
2-17,A_Baseline,1,Q1FrontUp,-32.87366,27.18153,59.96877,-19.31716,-111.6974,142.7446,-45.42607,202408231651062492,
2-17,A_Baseline,1,Q1FrontUp,-32.87366,27.18153,59.96877,-19.31716,-111.6974,142.7446,-45.42607,202408231651062764,
2-17,A_Baseline,1,Q1FrontUp,-32.82961,27.18139,59.93589,-19.31403,-111.5245,142.7444,-45.42382,202408231651062945,
2-17,A_Baseline,1,Q1FrontUp,-32.77383,27.17789,59.90948,-19.30892,-111.3055,142.743,-45.41051,202408231651063279,
2-17,A_Baseline,1,Q1FrontUp,-32.70802,27.16518,59.8982,-19.28841,-111.0297,142.7443,-45.38945,202408231651063472,
2-17,A_Baseline,1,Q1FrontUp,-32.59933,27.13977,59.89582,-19.25897,-110.6068,142.742,-45.34269,202408231651063755,
2-17,A_Baseline,1,Q1FrontUp,-32.59933,27.13977,59.89582,-19.25897,-110.6068,142.742,-45.34269,202408231651063922,
2-17,A_Baseline,1,Q1FrontUp,-32.43837,27.0925,59.8917,-19.23609,-110.1131,142.7315,-45.2936,202408231651064145,
2-17,A_Baseline,1,Q1FrontUp,-32.24297,27.02773,59.88957,-19.21884,-109.5999,142.7032,-45.23759,202408231651064493,
2-17,A_Baseline,1,Q1FrontUp,-32.24297,27.02773,59.88957,-19.21884,-109.5999,142.7032,-45.23759,202408231651064752,
2-17,A_Baseline,1,Q1FrontUp,-32.03683,26.93607,59.89091,-19.22197,-109.0869,142.7014,-45.18608,202408231651064906,
2-17,A_Baseline,1,Q1FrontUp,-32.03683,26.93607,59.89091,-19.22197,-109.0869,142.7014,-45.18608,202408231651065096,
2-17,A_Baseline,1,Q1FrontUp,-31.76738,26.82468,59.88897,-19.23002,-108.4864,142.6665,-45.15429,202408231651065248,
2-17,A_Baseline,1,Q1FrontUp,-31.76738,26.82468,59.88897,-19.23002,-108.4864,142.6665,-45.15429,202408231651065426,
2-17,A_Baseline,1,Q1FrontUp,-31.4315,26.6944,59.889,-19.2336,-107.8014,142.5729,-45.08643,202408231651065647,
2-17,A_Baseline,1,Q1FrontUp,-31.4315,26.6944,59.889,-19.2336,-107.8014,142.5729,-45.08643,202408231651065923,
2-17,A_Baseline,1,Q1FrontUp,-30.65364,26.39284,59.90511,-19.24142,-106.4158,142.334,-44.9821,202408231651066102,
2-17,A_Baseline,1,Q1FrontUp,-30.65364,26.39284,59.90511,-19.24142,-106.4158,142.334,-44.9821,202408231651066273,
2-17,A_Baseline,1,Q1FrontUp,-30.22302,26.20397,59.93426,-19.26871,-105.8294,142.2269,-44.9357,202408231651066611,
2-17,A_Baseline,1,Q1FrontUp,-29.74001,26.02151,59.95042,-19.29781,-105.2725,142.0589,-44.8665,202408231651066804,
2-17,A_Baseline,1,Q1FrontUp,-29.74001,26.02151,59.95042,-19.29781,-105.2725,142.0589,-44.8665,202408231651067082,
2-17,A_Baseline,1,Q1FrontUp,-29.25911,25.80853,59.95691,-19.33257,-104.7184,141.8833,-44.79909,202408231651067322,
2-17,A_Baseline,1,Q1FrontUp,-28.8157,25.58607,59.96393,-19.38294,-104.1897,141.7227,-44.73069,202408231651067595,
2-17,A_Baseline,1,Q1FrontUp,-28.8157,25.58607,59.96393,-19.38294,-104.1897,141.7227,-44.73069,202408231651067766,
2-17,A_Baseline,1,Q1FrontUp,-28.36137,25.35513,59.97138,-19.44319,-103.7281,141.6079,-44.62539,202408231651068009,
2-17,A_Baseline,1,Q1FrontUp,-27.9374,25.11621,59.9823,-19.51487,-103.3,141.4929,-44.5341,202408231651068258,
2-17,A_Baseline,1,Q1FrontUp,-27.9374,25.11621,59.9823,-19.51487,-103.3,141.4929,-44.5341,202408231651068444,
2-17,A_Baseline,1,Q1FrontUp,-27.16203,24.64725,60.0072,-19.66269,-102.5577,141.1871,-44.363,202408231651068838,
2-17,A_Baseline,1,Q1FrontUp,-27.16203,24.64725,60.0072,-19.66269,-102.5577,141.1871,-44.363,202408231651069085,
2-17,A_Baseline,1,Q1FrontUp,-26.7902,24.41925,60.01618,-19.74412,-102.1974,141.0504,-44.27723,202408231651069254,
2-17,A_Baseline,1,Q1FrontUp,-26.7902,24.41925,60.01618,-19.74412,-102.1974,141.0504,-44.27723,202408231651069427,
2-17,A_Baseline,1,Q1FrontUp,-26.43748,24.18378,60.01549,-19.84431,-101.8734,140.924,-44.1995,202408231651069588,
2-17,A_Baseline,1,Q1FrontUp,-26.43748,24.18378,60.01549,-19.84431,-101.8734,140.924,-44.1995,202408231651069762,
2-17,A_Baseline,1,Q1FrontUp,-26.0943,23.96311,60.00284,-19.93275,-101.6119,140.7804,-44.12741,202408231651069937,
2-17,A_Baseline,1,Q1FrontUp,-25.73603,23.74241,59.96487,-20.03546,-101.3532,140.6748,-44.04621,202408231651070160,
2-17,A_Baseline,1,Q1FrontUp,-25.73603,23.74241,59.96487,-20.03546,-101.3532,140.6748,-44.04621,202408231651070323,
2-17,A_Baseline,1,Q1FrontUp,-25.32481,23.52733,59.89904,-20.13163,-101.091,140.5808,-43.95553,202408231651070593,
2-17,A_Baseline,1,Q1FrontUp,-24.88205,23.34376,59.78912,-20.20072,-100.8633,140.5141,-43.85888,202408231651070769,
2-17,A_Baseline,1,Q1FrontUp,-24.88205,23.34376,59.78912,-20.20072,-100.8633,140.5141,-43.85888,202408231651070945,
2-17,A_Baseline,1,Q1FrontUp,-24.88205,23.34376,59.78912,-20.20072,-100.8633,140.5141,-43.85888,202408231651071155,
2-17,A_Baseline,1,Q1FrontUp,-24.4543,23.1688,59.67337,-20.26072,-100.6559,140.4695,-43.76942,202408231651071437,
2-17,A_Baseline,1,Q1FrontUp,-23.99284,23.0101,59.55809,-20.34392,-100.4613,140.4583,-43.67196,202408231651071789,
2-17,A_Baseline,1,Q1FrontUp,-23.54639,22.8563,59.42607,-20.4195,-100.2766,140.4425,-43.58202,202408231651071985,
2-17,A_Baseline,1,Q1FrontUp,-23.12707,22.71926,59.30933,-20.49306,-100.107,140.421,-43.50069,202408231651072166,
2-17,A_Baseline,1,Q1FrontUp,-23.12707,22.71926,59.30933,-20.49306,-100.107,140.421,-43.50069,202408231651072414,
2-17,A_Baseline,1,Q1FrontUp,-22.73193,22.59165,59.2149,-20.58123,-99.92665,140.4075,-43.42361,202408231651072578,
2-17,A_Baseline,1,Q1FrontUp,-22.73193,22.59165,59.2149,-20.58123,-99.92665,140.4075,-43.42361,202408231651072744,
2-17,A_Baseline,1,Q1FrontUp,-22.30892,22.45948,59.08348,-20.6629,-99.79029,140.3843,-43.3491,202408231651072914,
2-17,A_Baseline,1,Q1FrontUp,-22.30892,22.45948,59.08348,-20.6629,-99.79029,140.3843,-43.3491,202408231651073090,
2-17,A_Baseline,1,Q1FrontUp,-21.8803,22.35489,58.92606,-20.74189,-99.65774,140.3741,-43.26852,202408231651073322,
2-17,A_Baseline,1,Q1FrontUp,-21.48813,22.2523,58.724,-20.7855,-99.52934,140.3746,-43.18333,202408231651073491,
2-17,A_Baseline,1,Q1FrontUp,-21.48813,22.2523,58.724,-20.7855,-99.52934,140.3746,-43.18333,202408231651073780,
2-17,A_Baseline,1,Q1FrontUp,-20.6948,22.06936,58.40537,-20.91307,-99.31779,140.3698,-43.04712,202408231651074094,
2-17,A_Baseline,1,Q1FrontUp,-20.6948,22.06936,58.40537,-20.91307,-99.31779,140.3698,-43.04712,202408231651074267,
2-17,A_Baseline,1,Q1FrontUp,-20.35567,22.00892,58.29278,-20.96026,-99.22034,140.3687,-42.98698,202408231651074468,
2-17,A_Baseline,1,Q1FrontUp,-20.35567,22.00892,58.29278,-20.96026,-99.22034,140.3687,-42.98698,202408231651074754,
2-17,A_Baseline,1,Q1FrontUp,-20.05223,21.94919,58.18194,-20.99811,-99.13116,140.3692,-42.92711,202408231651074914,
2-17,A_Baseline,1,Q1FrontUp,-19.77712,21.88986,58.09037,-21.03929,-99.04662,140.3687,-42.86437,202408231651075149,
2-17,A_Baseline,1,Q1FrontUp,-19.77712,21.88986,58.09037,-21.03929,-99.04662,140.3687,-42.86437,202408231651075436,
2-17,A_Baseline,1,Q1FrontUp,-19.51517,21.8425,58.01283,-21.06531,-98.95977,140.368,-42.79679,202408231651075639,
2-17,A_Baseline,1,Q1FrontUp,-19.31465,21.80543,57.97553,-21.08234,-98.83745,140.3681,-42.75185,202408231651075940,
2-17,A_Baseline,1,Q1FrontUp,-19.31465,21.80543,57.97553,-21.08234,-98.83745,140.3681,-42.75185,202408231651076104,
2-17,A_Baseline,1,Q1FrontUp,-19.15017,21.77702,57.93719,-21.092,-98.72937,140.3675,-42.7098,202408231651076259,
2-17,A_Baseline,1,Q1FrontUp,-19.15017,21.77702,57.93719,-21.092,-98.72937,140.3675,-42.7098,202408231651076435,
2-17,A_Baseline,1,Q1FrontUp,-18.99944,21.75239,57.89561,-21.09187,-98.63602,140.3667,-42.67128,202408231651076642,
2-17,A_Baseline,1,Q1FrontUp,-18.87863,21.74133,57.87703,-21.09177,-98.55195,140.3667,-42.64652,202408231651076936,
2-17,A_Baseline,1,Q1FrontUp,-18.7839,21.72887,57.87027,-21.09175,-98.48074,140.3673,-42.61371,202408231651077248,
2-17,A_Baseline,1,Q1FrontUp,-18.7839,21.72887,57.87027,-21.09175,-98.48074,140.3673,-42.61371,202408231651077425,
2-17,A_Baseline,1,Q1FrontUp,-18.69751,21.71924,57.8705,-21.09186,-98.41987,140.367,-42.57166,202408231651077605,
2-17,A_Baseline,1,Q1FrontUp,-18.6303,21.71724,57.87049,-21.09233,-98.36705,140.3668,-42.53233,202408231651077823,
2-17,A_Baseline,1,Q1FrontUp,-18.6303,21.71724,57.87049,-21.09233,-98.36705,140.3668,-42.53233,202408231651078091,
2-17,A_Baseline,1,Q1FrontUp,-18.56324,21.71738,57.84451,-21.09001,-98.32291,140.3664,-42.49792,202408231651078334,
2-17,A_Baseline,1,Q1FrontUp,-18.48888,21.71609,57.78738,-21.09066,-98.2879,140.3668,-42.4719,202408231651078620,
2-17,A_Baseline,1,Q1FrontUp,-18.41449,21.71562,57.7393,-21.0909,-98.25513,140.3669,-42.44754,202408231651078799,
2-17,A_Baseline,1,Q1FrontUp,-18.41449,21.71562,57.7393,-21.0909,-98.25513,140.3669,-42.44754,202408231651079083,
2-17,A_Baseline,1,Q1FrontUp,-18.33515,21.71571,57.69458,-21.09104,-98.22033,140.3667,-42.4208,202408231651079253,
2-17,A_Baseline,1,Q1FrontUp,-18.23048,21.71644,57.64494,-21.09146,-98.1806,140.3669,-42.39198,202408231651079592,
2-17,A_Baseline,1,Q1FrontUp,-18.12953,21.7171,57.59367,-21.09134,-98.10249,140.3678,-42.36795,202408231651079826,
2-17,A_Baseline,1,Q1FrontUp,-18.12953,21.7171,57.59367,-21.09134,-98.10249,140.3678,-42.36795,202408231651080045,
2-17,A_Baseline,1,Q1FrontUp,-18.03264,21.71711,57.56782,-21.09193,-98.01409,140.368,-42.33399,202408231651080248,
2-17,A_Baseline,1,Q1FrontUp,-18.03264,21.71711,57.56782,-21.09193,-98.01409,140.368,-42.33399,202408231651080420,
2-17,A_Baseline,1,Q1FrontUp,-17.9319,21.71589,57.56858,-21.09227,-97.91425,140.3689,-42.2853,202408231651080592,
2-17,A_Baseline,1,Q1FrontUp,-17.84477,21.7125,57.56832,-21.09206,-97.81477,140.3698,-42.24102,202408231651080792,
2-17,A_Baseline,1,Q1FrontUp,-17.84477,21.7125,57.56832,-21.09206,-97.81477,140.3698,-42.24102,202408231651080995,
2-17,A_Baseline,1,Q1FrontUp,-17.74812,21.70603,57.56768,-21.09001,-97.6685,140.3694,-42.19924,202408231651081172,
2-17,A_Baseline,1,Q1FrontUp,-17.65264,21.69675,57.56828,-21.09048,-97.52785,140.3698,-42.16159,202408231651081426,
2-17,A_Baseline,1,Q1FrontUp,-17.65264,21.69675,57.56828,-21.09048,-97.52785,140.3698,-42.16159,202408231651081655,
2-17,A_Baseline,1,Q1FrontUp,-17.53999,21.68231,57.56771,-21.08924,-97.42212,140.3691,-42.12059,202408231651081926,
2-17,A_Baseline,1,Q1FrontUp,-17.4023,21.67093,57.55827,-21.08889,-97.31071,140.3679,-42.09591,202408231651082104,
2-17,A_Baseline,1,Q1FrontUp,-17.4023,21.67093,57.55827,-21.08889,-97.31071,140.3679,-42.09591,202408231651082314,
2-17,A_Baseline,1,Q1FrontUp,-17.23912,21.65305,57.54333,-21.09038,-97.18716,140.3685,-42.09055,202408231651082596,
2-17,A_Baseline,1,Q1FrontUp,-17.08246,21.63191,57.53428,-21.09079,-97.07487,140.3692,-42.08475,202408231651082793,
2-17,A_Baseline,1,Q1FrontUp,-17.08246,21.63191,57.53428,-21.09079,-97.07487,140.3692,-42.08475,202408231651082950,
2-17,A_Baseline,1,Q1FrontUp,-16.90019,21.60232,57.48386,-21.09314,-97.00066,140.3688,-42.07406,202408231651083163,
2-17,A_Baseline,1,Q1FrontUp,-16.69075,21.56332,57.3684,-21.09677,-96.97087,140.3689,-42.06338,202408231651083471,
2-17,A_Baseline,1,Q1FrontUp,-16.69075,21.56332,57.3684,-21.09677,-96.97087,140.3689,-42.06338,202408231651083759,
2-17,A_Baseline,1,Q1FrontUp,-16.69075,21.56332,57.3684,-21.09677,-96.97087,140.3689,-42.06338,202408231651083939,
2-17,A_Baseline,1,Q1FrontUp,-15.9738,21.43305,56.69304,-21.10995,-96.94221,140.3652,-42.02736,202408231651084103,
2-17,A_Baseline,1,Q1FrontUp,-15.9738,21.43305,56.69304,-21.10995,-96.94221,140.3652,-42.02736,202408231651084255,
2-17,A_Baseline,1,Q1FrontUp,-15.9738,21.43305,56.69304,-21.10995,-96.94221,140.3652,-42.02736,202408231651084481,
2-17,A_Baseline,1,Q1FrontUp,-15.50598,21.36273,56.22873,-21.12127,-96.94245,140.3657,-42.02039,202408231651084639,
2-17,A_Baseline,1,Q1FrontUp,-14.8522,21.26543,55.58434,-21.14848,-96.94336,140.3643,-42.00466,202408231651084922,
2-17,A_Baseline,1,Q1FrontUp,-14.8522,21.26543,55.58434,-21.14848,-96.94336,140.3643,-42.00466,202408231651085097,
2-17,A_Baseline,1,Q1FrontUp,-14.15913,21.18323,54.94354,-21.19201,-96.94543,140.3633,-41.98818,202408231651085280,
2-17,A_Baseline,1,Q1FrontUp,-14.15913,21.18323,54.94354,-21.19201,-96.94543,140.3633,-41.98818,202408231651085434,
2-17,A_Baseline,1,Q1FrontUp,-13.398,21.10596,54.27229,-21.2442,-96.94922,140.3655,-41.96658,202408231651085700,
2-17,A_Baseline,1,Q1FrontUp,-12.67218,21.02307,53.69737,-21.33825,-96.95138,140.3645,-41.94421,202408231651085956,
2-17,A_Baseline,1,Q1FrontUp,-11.8681,20.93785,53.03292,-21.45912,-96.96521,140.3647,-41.92443,202408231651086324,
2-17,A_Baseline,1,Q1FrontUp,-11.0496,20.88238,52.3079,-21.54172,-96.98731,140.3644,-41.90771,202408231651086591,
2-17,A_Baseline,1,Q1FrontUp,-11.0496,20.88238,52.3079,-21.54172,-96.98731,140.3644,-41.90771,202408231651086801,
2-17,A_Baseline,1,Q1FrontUp,-9.388391,20.76007,50.94755,-21.77381,-97.00726,140.3638,-41.88339,202408231651087089,
2-17,A_Baseline,1,Q1FrontUp,-9.388391,20.76007,50.94755,-21.77381,-97.00726,140.3638,-41.88339,202408231651087252,
2-17,A_Baseline,1,Q1FrontUp,-9.388391,20.76007,50.94755,-21.77381,-97.00726,140.3638,-41.88339,202408231651087427,
2-17,A_Baseline,1,Q1FrontUp,-8.535589,20.69403,50.25802,-21.92187,-97.01431,140.3627,-41.88081,202408231651087596,
2-17,A_Baseline,1,Q1FrontUp,-7.676144,20.65833,49.52817,-22.08653,-97.04595,140.3611,-41.86448,202408231651087808,
2-17,A_Baseline,1,Q1FrontUp,-7.676144,20.65833,49.52817,-22.08653,-97.04595,140.3611,-41.86448,202408231651087990,
2-17,A_Baseline,1,Q1FrontUp,-6.819351,20.60232,48.83868,-22.28372,-97.0904,140.3609,-41.84495,202408231651088265,
2-17,A_Baseline,1,Q1FrontUp,-6.819351,20.60232,48.83868,-22.28372,-97.0904,140.3609,-41.84495,202408231651088439,
2-17,A_Baseline,1,Q1FrontUp,-6.819351,20.60232,48.83868,-22.28372,-97.0904,140.3609,-41.84495,202408231651088614,
2-17,A_Baseline,1,Q1FrontUp,-5.157567,20.51771,47.51682,-22.64338,-97.1867,140.362,-41.78217,202408231651088817,
2-17,A_Baseline,1,Q1FrontUp,-5.157567,20.51771,47.51682,-22.64338,-97.1867,140.362,-41.78217,202408231651089102,
2-17,A_Baseline,1,Q1FrontUp,-4.31578,20.5028,46.81509,-22.80996,-97.21023,140.34,-41.74825,202408231651089421,
2-17,A_Baseline,1,Q1FrontUp,-3.447535,20.48369,46.0532,-22.96858,-97.22398,140.2807,-41.72031,202408231651089639,
2-17,A_Baseline,1,Q1FrontUp,-2.589146,20.46545,45.35784,-23.13415,-97.23376,140.2423,-41.69444,202408231651089919,
2-17,A_Baseline,1,Q1FrontUp,-2.589146,20.46545,45.35784,-23.13415,-97.23376,140.2423,-41.69444,202408231651090089,
2-17,A_Baseline,1,Q1FrontUp,-1.746997,20.46632,44.668,-23.26872,-97.23904,140.207,-41.65909,202408231651090269,
2-17,A_Baseline,1,Q1FrontUp,-1.746997,20.46632,44.668,-23.26872,-97.23904,140.207,-41.65909,202408231651090448,
2-17,A_Baseline,1,Q1FrontUp,0.0830127,20.47433,43.10344,-23.53396,-97.24404,140.1471,-41.58124,202408231651090794,
2-17,A_Baseline,1,Q1FrontUp,0.0830127,20.47433,43.10344,-23.53396,-97.24404,140.1471,-41.58124,202408231651090991,
2-17,A_Baseline,1,Q1FrontUp,1.089943,20.47855,42.20593,-23.651,-97.24316,140.1096,-41.54807,202408231651091167,
2-17,A_Baseline,1,Q1FrontUp,1.089943,20.47855,42.20593,-23.651,-97.24316,140.1096,-41.54807,202408231651091422,
2-17,A_Baseline,1,Q1FrontUp,2.084712,20.4856,41.32421,-23.75138,-97.2457,140.0642,-41.51586,202408231651091606,
2-17,A_Baseline,1,Q1FrontUp,3.203867,20.50527,40.33859,-23.85058,-97.248,140.0142,-41.4826,202408231651091776,
2-17,A_Baseline,1,Q1FrontUp,3.203867,20.50527,40.33859,-23.85058,-97.248,140.0142,-41.4826,202408231651091946,
2-17,A_Baseline,1,Q1FrontUp,4.295196,20.54635,39.3945,-23.93165,-97.26161,139.9452,-41.44168,202408231651092153,
2-17,A_Baseline,1,Q1FrontUp,5.440829,20.59908,38.4209,-23.99245,-97.28344,139.8385,-41.38729,202408231651092419,
2-17,A_Baseline,1,Q1FrontUp,5.440829,20.59908,38.4209,-23.99245,-97.28344,139.8385,-41.38729,202408231651092615,
2-17,A_Baseline,1,Q1FrontUp,6.473121,20.65623,37.56346,-24.05306,-97.29544,139.7551,-41.335,202408231651092834,
2-17,A_Baseline,1,Q1FrontUp,7.503294,20.71906,36.68955,-24.11174,-97.30225,139.677,-41.28244,202408231651093179,
2-17,A_Baseline,1,Q1FrontUp,7.503294,20.71906,36.68955,-24.11174,-97.30225,139.677,-41.28244,202408231651093437,
2-17,A_Baseline,1,Q1FrontUp,8.573241,20.78466,35.74512,-24.1603,-97.30204,139.583,-41.23336,202408231651093611,
2-17,A_Baseline,1,Q1FrontUp,9.676167,20.87014,34.71508,-24.19581,-97.29353,139.4783,-41.17152,202408231651093933,
2-17,A_Baseline,1,Q1FrontUp,10.78983,20.96228,33.68779,-24.22817,-97.29367,139.3832,-41.11139,202408231651094107,
2-17,A_Baseline,1,Q1FrontUp,10.78983,20.96228,33.68779,-24.22817,-97.29367,139.3832,-41.11139,202408231651094301,
2-17,A_Baseline,1,Q1FrontUp,11.93821,21.06065,32.63111,-24.26993,-97.2926,139.2909,-41.04328,202408231651094596,
2-17,A_Baseline,1,Q1FrontUp,13.00854,21.17609,31.70557,-24.3357,-97.2914,139.214,-40.98092,202408231651094766,
2-17,A_Baseline,1,Q1FrontUp,13.00854,21.17609,31.70557,-24.3357,-97.2914,139.214,-40.98092,202408231651095089,
2-17,A_Baseline,1,Q1FrontUp,14.03964,21.2904,30.80897,-24.41006,-97.29367,139.1359,-40.9242,202408231651095267,
2-17,A_Baseline,1,Q1FrontUp,15.07044,21.42889,29.89424,-24.46461,-97.2926,139.0284,-40.87372,202408231651095466,
2-17,A_Baseline,1,Q1FrontUp,15.07044,21.42889,29.89424,-24.46461,-97.2926,139.0284,-40.87372,202408231651095836,
2-17,A_Baseline,1,Q1FrontUp,16.13216,21.56876,28.92594,-24.50033,-97.27757,138.9057,-40.83776,202408231651096099,
2-17,A_Baseline,1,Q1FrontUp,17.20801,21.74758,27.96696,-24.52447,-97.26604,138.7798,-40.80926,202408231651096295,
2-17,A_Baseline,1,Q1FrontUp,17.20801,21.74758,27.96696,-24.52447,-97.26604,138.7798,-40.80926,202408231651096466,
2-17,A_Baseline,1,Q1FrontUp,19.26249,22.09923,26.11851,-24.57988,-97.25919,138.5379,-40.73958,202408231651096764,
2-17,A_Baseline,1,Q1FrontUp,19.26249,22.09923,26.11851,-24.57988,-97.25919,138.5379,-40.73958,202408231651097102,
2-17,A_Baseline,1,Q1FrontUp,20.26609,22.30869,25.25288,-24.60521,-97.3064,138.4601,-40.68611,202408231651097275,
2-17,A_Baseline,1,Q1FrontUp,21.19818,22.53302,24.43933,-24.6189,-97.37782,138.3862,-40.63382,202408231651097521,
2-17,A_Baseline,1,Q1FrontUp,21.19818,22.53302,24.43933,-24.6189,-97.37782,138.3862,-40.63382,202408231651097749,
2-17,A_Baseline,1,Q1FrontUp,22.16789,22.75909,23.54,-24.62205,-97.41339,138.3177,-40.57636,202408231651097937,
2-17,A_Baseline,1,Q1FrontUp,22.16789,22.75909,23.54,-24.62205,-97.41339,138.3177,-40.57636,202408231651098088,
2-17,A_Baseline,1,Q1FrontUp,23.12079,22.98804,22.65162,-24.62177,-97.43946,138.2632,-40.52022,202408231651098302,
2-17,A_Baseline,1,Q1FrontUp,24.00867,23.2103,21.75321,-24.61955,-97.46299,138.1975,-40.46881,202408231651098648,
2-17,A_Baseline,1,Q1FrontUp,24.8971,23.46513,20.91877,-24.62566,-97.47924,138.1375,-40.42441,202408231651098838,
2-17,A_Baseline,1,Q1FrontUp,24.8971,23.46513,20.91877,-24.62566,-97.47924,138.1375,-40.42441,202408231651099106,
2-17,A_Baseline,1,Q1FrontUp,25.78168,23.71742,20.12031,-24.63496,-97.49091,138.0811,-40.37949,202408231651099270,
2-17,A_Baseline,1,Q1FrontUp,25.78168,23.71742,20.12031,-24.63496,-97.49091,138.0811,-40.37949,202408231651099434,
2-17,A_Baseline,1,Q1FrontUp,26.60755,23.9569,19.32052,-24.63524,-97.50085,137.9966,-40.33178,202408231651099603,
2-17,A_Baseline,1,Q1FrontUp,26.60755,23.9569,19.32052,-24.63524,-97.50085,137.9966,-40.33178,202408231651099774,
2-17,A_Baseline,1,Q1FrontUp,27.47136,24.21805,18.48849,-24.63346,-97.50491,137.9178,-40.28668,202408231651099984,
2-17,A_Baseline,1,Q1FrontUp,28.34757,24.48091,17.65566,-24.62506,-97.48906,137.8359,-40.23989,202408231651100292,
2-17,A_Baseline,1,Q1FrontUp,28.34757,24.48091,17.65566,-24.62506,-97.48906,137.8359,-40.23989,202408231651100449,
2-17,A_Baseline,1,Q1FrontUp,29.27361,24.75979,16.79776,-24.61287,-97.46248,137.7427,-40.19368,202408231651100664,
2-17,A_Baseline,1,Q1FrontUp,30.22403,25.04558,15.92105,-24.58212,-97.4415,137.6155,-40.15082,202408231651100946,
2-17,A_Baseline,1,Q1FrontUp,30.22403,25.04558,15.92105,-24.58212,-97.4415,137.6155,-40.15082,202408231651101156,
2-17,A_Baseline,1,Q1FrontUp,31.18757,25.34782,15.02341,-24.55258,-97.39407,137.4813,-40.10234,202408231651101421,
2-17,A_Baseline,1,Q1FrontUp,32.21361,25.68316,14.07452,-24.51116,-97.35159,137.3457,-40.04537,202408231651101592,
2-17,A_Baseline,1,Q1FrontUp,32.21361,25.68316,14.07452,-24.51116,-97.35159,137.3457,-40.04537,202408231651101775,
2-17,A_Baseline,1,Q1FrontUp,33.14375,26.00304,13.23881,-24.49248,-97.31007,137.2302,-39.99686,202408231651101923,
2-17,A_Baseline,1,Q1FrontUp,33.14375,26.00304,13.23881,-24.49248,-97.31007,137.2302,-39.99686,202408231651102102,
2-17,A_Baseline,1,Q1FrontUp,34.0836,26.33891,12.38777,-24.46894,-97.26563,137.1193,-39.94994,202408231651102322,
2-17,A_Baseline,1,Q1FrontUp,34.99971,26.6679,11.57328,-24.44224,-97.23306,137.0259,-39.90939,202408231651102583,
2-17,A_Baseline,1,Q1FrontUp,34.99971,26.6679,11.57328,-24.44224,-97.23306,137.0259,-39.90939,202408231651102748,
2-17,A_Baseline,1,Q1FrontUp,35.88707,26.99749,10.71937,-24.40607,-97.19131,136.894,-39.86638,202408231651102923,
2-17,A_Baseline,1,Q1FrontUp,36.80724,27.34432,9.880078,-24.39387,-97.15691,136.761,-39.81888,202408231651103118,
2-17,A_Baseline,1,Q1FrontUp,36.80724,27.34432,9.880078,-24.39387,-97.15691,136.761,-39.81888,202408231651103328,
2-17,A_Baseline,1,Q1FrontUp,37.65999,27.66657,9.09158,-24.37807,-97.12301,136.6531,-39.776,202408231651103601,
2-17,A_Baseline,1,Q1FrontUp,38.50294,27.99336,8.271019,-24.35774,-97.0843,136.5248,-39.73276,202408231651103776,
2-17,A_Baseline,1,Q1FrontUp,38.50294,27.99336,8.271019,-24.35774,-97.0843,136.5248,-39.73276,202408231651103998,
2-17,A_Baseline,1,Q1FrontUp,39.32474,28.31594,7.493424,-24.34206,-97.05688,136.4008,-39.694,202408231651104279,
2-17,A_Baseline,1,Q1FrontUp,39.32474,28.31594,7.493424,-24.34206,-97.05688,136.4008,-39.694,202408231651104485,
2-17,A_Baseline,1,Q1FrontUp,40.11394,28.63345,6.72409,-24.33344,-97.0439,136.2786,-39.65985,202408231651104768,
2-17,A_Baseline,1,Q1FrontUp,40.87822,28.94699,5.981337,-24.31992,-96.99812,136.1839,-39.62409,202408231651104938,
2-17,A_Baseline,1,Q1FrontUp,40.87822,28.94699,5.981337,-24.31992,-96.99812,136.1839,-39.62409,202408231651105099,
2-17,A_Baseline,1,Q1FrontUp,40.87822,28.94699,5.981337,-24.31992,-96.99812,136.1839,-39.62409,202408231651105265,
2-17,A_Baseline,1,Q1FrontUp,41.56438,29.2474,5.297696,-24.29823,-96.95718,136.075,-39.5901,202408231651105430,
2-17,A_Baseline,1,Q1FrontUp,42.25513,29.55357,4.659334,-24.28187,-96.9073,135.9863,-39.55118,202408231651105673,
2-17,A_Baseline,1,Q1FrontUp,42.86817,29.82146,4.10032,-24.27497,-96.86839,135.9033,-39.51764,202408231651105949,
2-17,A_Baseline,1,Q1FrontUp,43.44238,30.09777,3.56284,-24.26497,-96.80566,135.8279,-39.48899,202408231651106127,
2-17,A_Baseline,1,Q1FrontUp,43.44238,30.09777,3.56284,-24.26497,-96.80566,135.8279,-39.48899,202408231651106450,
2-17,A_Baseline,1,Q1FrontUp,44.0217,30.35855,3.018565,-24.24284,-96.71851,135.7437,-39.46527,202408231651106644,
2-17,A_Baseline,1,Q1FrontUp,44.53878,30.60635,2.516967,-24.19192,-96.63347,135.6483,-39.40778,202408231651106936,
2-17,A_Baseline,1,Q1FrontUp,45.05861,30.85813,2.058071,-24.12904,-96.54044,135.5729,-39.3472,202408231651107093,
2-17,A_Baseline,1,Q1FrontUp,45.05861,30.85813,2.058071,-24.12904,-96.54044,135.5729,-39.3472,202408231651107310,
2-17,A_Baseline,1,Q1FrontUp,45.57529,31.10442,1.595592,-24.05596,-96.45073,135.4957,-39.28288,202408231651107600,
2-17,A_Baseline,1,Q1FrontUp,46.02556,31.32969,1.213939,-24.00077,-96.37479,135.4129,-39.22456,202408231651107844,
2-17,A_Baseline,1,Q1FrontUp,46.4926,31.5686,0.8195433,-23.92813,-96.31976,135.3359,-39.16431,202408231651108106,
2-17,A_Baseline,1,Q1FrontUp,46.4926,31.5686,0.8195433,-23.92813,-96.31976,135.3359,-39.16431,202408231651108260,
2-17,A_Baseline,1,Q1FrontUp,46.4926,31.5686,0.8195433,-23.92813,-96.31976,135.3359,-39.16431,202408231651108435,
2-17,A_Baseline,1,Q1FrontUp,46.9277,31.78993,0.4760793,-23.84966,-96.29195,135.2667,-39.10937,202408231651108634,
2-17,A_Baseline,1,Q1FrontUp,47.33733,31.98296,0.1255353,-23.79136,-96.26379,135.2051,-39.05835,202408231651108812,
2-17,A_Baseline,1,Q1FrontUp,47.33733,31.98296,0.1255353,-23.79136,-96.26379,135.2051,-39.05835,202408231651109102,
2-17,A_Baseline,1,Q1FrontUp,47.72734,32.17649,-0.1725917,-23.7397,-96.23181,135.1632,-39.01617,202408231651109257,
2-17,A_Baseline,1,Q1FrontUp,48.11509,32.35908,-0.4663947,-23.69258,-96.19675,135.1258,-38.98721,202408231651109464,
2-17,A_Baseline,1,Q1FrontUp,48.11509,32.35908,-0.4663947,-23.69258,-96.19675,135.1258,-38.98721,202408231651109635,
2-17,A_Baseline,1,Q1FrontUp,48.49319,32.55047,-0.7428415,-23.65396,-96.17448,135.0936,-38.96754,202408231651109854,
2-17,A_Baseline,1,Q1FrontUp,48.49319,32.55047,-0.7428415,-23.65396,-96.17448,135.0936,-38.96754,202408231651110096,
2-17,A_Baseline,1,Q1FrontUp,48.87699,32.73499,-1.025337,-23.60501,-96.15388,135.0605,-38.94304,202408231651110273,
2-17,A_Baseline,1,Q1FrontUp,48.87699,32.73499,-1.025337,-23.60501,-96.15388,135.0605,-38.94304,202408231651110506,
2-17,A_Baseline,1,Q1FrontUp,49.6889,33.14236,-1.68369,-23.49216,-96.10289,135.0314,-38.88462,202408231651110802,
2-17,A_Baseline,1,Q1FrontUp,49.6889,33.14236,-1.68369,-23.49216,-96.10289,135.0314,-38.88462,202408231651110992,
2-17,A_Baseline,1,Q1FrontUp,49.6889,33.14236,-1.68369,-23.49216,-96.10289,135.0314,-38.88462,202408231651111275,
2-17,A_Baseline,1,Q1FrontUp,50.52851,33.56569,-2.367146,-23.38296,-96.08865,134.9756,-38.86028,202408231651111593,
2-17,A_Baseline,1,Q1FrontUp,50.52851,33.56569,-2.367146,-23.38296,-96.08865,134.9756,-38.86028,202408231651111770,
2-17,A_Baseline,1,Q1FrontUp,50.93022,33.79075,-2.674295,-23.32746,-96.08855,134.9487,-38.85279,202408231651111937,
2-17,A_Baseline,1,Q1FrontUp,51.3775,34.02833,-2.992275,-23.27542,-96.08854,134.9363,-38.82074,202408231651112160,
2-17,A_Baseline,1,Q1FrontUp,51.3775,34.02833,-2.992275,-23.27542,-96.08854,134.9363,-38.82074,202408231651112424,
2-17,A_Baseline,1,Q1FrontUp,51.80131,34.24485,-3.2974,-23.22432,-96.08892,134.9274,-38.76273,202408231651112590,
2-17,A_Baseline,1,Q1FrontUp,52.20816,34.49277,-3.662871,-23.17251,-96.09124,134.9272,-38.65408,202408231651112925,
2-17,A_Baseline,1,Q1FrontUp,52.20816,34.49277,-3.662871,-23.17251,-96.09124,134.9272,-38.65408,202408231651113119,
2-17,A_Baseline,1,Q1FrontUp,52.63562,34.73457,-3.982677,-23.13793,-96.09153,134.9259,-38.56968,202408231651113335,
2-17,A_Baseline,1,Q1FrontUp,53.06149,34.99622,-4.331612,-23.11285,-96.09148,134.9246,-38.49815,202408231651113660,
2-17,A_Baseline,1,Q1FrontUp,53.48246,35.22259,-4.668733,-23.10298,-96.09169,134.9253,-38.39717,202408231651113935,
2-17,A_Baseline,1,Q1FrontUp,53.88195,35.47785,-4.991238,-23.10035,-96.10991,134.9251,-38.31193,202408231651114098,
2-17,A_Baseline,1,Q1FrontUp,53.88195,35.47785,-4.991238,-23.10035,-96.10991,134.9251,-38.31193,202408231651114265,
2-17,A_Baseline,1,Q1FrontUp,54.26876,35.73059,-5.260327,-23.09984,-96.13123,134.9254,-38.24541,202408231651114503,
2-17,A_Baseline,1,Q1FrontUp,54.62492,35.97373,-5.505112,-23.09954,-96.14397,134.9253,-38.18594,202408231651114760,
2-17,A_Baseline,1,Q1FrontUp,54.62492,35.97373,-5.505112,-23.09954,-96.14397,134.9253,-38.18594,202408231651114939,
2-17,A_Baseline,1,Q1FrontUp,54.62492,35.97373,-5.505112,-23.09954,-96.14397,134.9253,-38.18594,202408231651115121,
2-17,A_Baseline,1,Q1FrontUp,54.95623,36.20027,-5.755563,-23.10619,-96.14815,134.9306,-38.10741,202408231651115345,
2-17,A_Baseline,1,Q1FrontUp,55.25119,36.40799,-5.968744,-23.11592,-96.14798,134.952,-38.01062,202408231651115605,
2-17,A_Baseline,1,Q1FrontUp,55.56754,36.62661,-6.161662,-23.12199,-96.1479,134.9592,-37.91661,202408231651115942,
2-17,A_Baseline,1,Q1FrontUp,55.83122,36.82549,-6.341833,-23.12571,-96.14786,134.9633,-37.82303,202408231651116114,
2-17,A_Baseline,1,Q1FrontUp,56.0829,37.00673,-6.544677,-23.13098,-96.14805,134.9647,-37.71406,202408231651116446,
2-17,A_Baseline,1,Q1FrontUp,56.0829,37.00673,-6.544677,-23.13098,-96.14805,134.9647,-37.71406,202408231651116636,
2-17,A_Baseline,1,Q1FrontUp,56.30235,37.17191,-6.708501,-23.14604,-96.14742,134.9655,-37.64091,202408231651116819,
2-17,A_Baseline,1,Q1FrontUp,56.30235,37.17191,-6.708501,-23.14604,-96.14742,134.9655,-37.64091,202408231651117090,
2-17,A_Baseline,1,Q1FrontUp,56.30235,37.17191,-6.708501,-23.14604,-96.14742,134.9655,-37.64091,202408231651117264,
2-17,A_Baseline,1,Q1FrontUp,56.65699,37.49923,-6.965701,-23.1496,-96.14677,134.9741,-37.45404,202408231651117605,
2-17,A_Baseline,1,Q1FrontUp,56.65699,37.49923,-6.965701,-23.1496,-96.14677,134.9741,-37.45404,202408231651117825,
2-17,A_Baseline,1,Q1FrontUp,57.00374,37.77178,-7.241004,-23.15016,-96.14632,134.9822,-37.26565,202408231651118099,
2-17,A_Baseline,1,Q1FrontUp,57.00374,37.77178,-7.241004,-23.15016,-96.14632,134.9822,-37.26565,202408231651118277,
2-17,A_Baseline,1,Q1FrontUp,57.15113,37.89472,-7.386133,-23.14983,-96.14659,134.9835,-37.19067,202408231651118493,
2-17,A_Baseline,1,Q1FrontUp,57.28671,38.02029,-7.550713,-23.15023,-96.14723,134.9845,-37.11994,202408231651118806,
2-17,A_Baseline,1,Q1FrontUp,57.28671,38.02029,-7.550713,-23.15023,-96.14723,134.9845,-37.11994,202408231651119099,
2-17,A_Baseline,1,Q1FrontUp,57.41719,38.13003,-7.693654,-23.14855,-96.16978,134.991,-37.04947,202408231651119258,
2-17,A_Baseline,1,Q1FrontUp,57.41719,38.13003,-7.693654,-23.14855,-96.16978,134.991,-37.04947,202408231651119427,
2-17,A_Baseline,1,Q1FrontUp,57.53639,38.24815,-7.862655,-23.14955,-96.20705,135.0003,-36.97299,202408231651119600,
2-17,A_Baseline,1,Q1FrontUp,57.66172,38.3689,-8.057191,-23.15278,-96.27086,135.0136,-36.92059,202408231651119783,
2-17,A_Baseline,1,Q1FrontUp,57.66172,38.3689,-8.057191,-23.15278,-96.27086,135.0136,-36.92059,202408231651120003,
2-17,A_Baseline,1,Q1FrontUp,57.78096,38.50054,-8.219554,-23.15615,-96.33558,135.0198,-36.88583,202408231651120243,
2-17,A_Baseline,1,Q1FrontUp,57.78096,38.50054,-8.219554,-23.15615,-96.33558,135.0198,-36.88583,202408231651120435,
2-17,A_Baseline,1,Q1FrontUp,57.90751,38.62508,-8.362099,-23.16046,-96.3985,135.0206,-36.87867,202408231651120608,
2-17,A_Baseline,1,Q1FrontUp,58.01638,38.7532,-8.486045,-23.16242,-96.44254,135.0201,-36.8664,202408231651120951,
2-17,A_Baseline,1,Q1FrontUp,58.13318,38.87658,-8.611334,-23.17295,-96.50181,135.0206,-36.84214,202408231651121162,
2-17,A_Baseline,1,Q1FrontUp,58.13318,38.87658,-8.611334,-23.17295,-96.50181,135.0206,-36.84214,202408231651121450,
2-17,A_Baseline,1,Q1FrontUp,58.24292,38.99771,-8.72491,-23.18919,-96.55845,135.0204,-36.80596,202408231651121651,
2-17,A_Baseline,1,Q1FrontUp,58.36701,39.09953,-8.843817,-23.22685,-96.57137,135.0249,-36.75008,202408231651121912,
2-17,A_Baseline,1,Q1FrontUp,58.36701,39.09953,-8.843817,-23.22685,-96.57137,135.0249,-36.75008,202408231651122091,
2-17,A_Baseline,1,Q1FrontUp,58.48819,39.21766,-8.944495,-23.25691,-96.60976,135.0275,-36.71968,202408231651122314,
2-17,A_Baseline,1,Q1FrontUp,58.60987,39.33459,-9.025207,-23.27611,-96.66134,135.0282,-36.71246,202408231651122601,
2-17,A_Baseline,1,Q1FrontUp,58.72404,39.44238,-9.111492,-23.3201,-96.67931,135.0327,-36.67218,202408231651122773,
2-17,A_Baseline,1,Q1FrontUp,58.72404,39.44238,-9.111492,-23.3201,-96.67931,135.0327,-36.67218,202408231651122956,
2-17,A_Baseline,1,Q1FrontUp,58.83823,39.54566,-9.18235,-23.36124,-96.72342,135.0412,-36.63158,202408231651123137,
2-17,A_Baseline,1,Q1FrontUp,58.83823,39.54566,-9.18235,-23.36124,-96.72342,135.0412,-36.63158,202408231651123336,
2-17,A_Baseline,1,Q1FrontUp,58.95187,39.6577,-9.257468,-23.41032,-96.7937,135.0523,-36.58767,202408231651123607,
2-17,A_Baseline,1,Q1FrontUp,59.07002,39.77588,-9.354786,-23.44973,-96.88271,135.0529,-36.52093,202408231651123780,
2-17,A_Baseline,1,Q1FrontUp,59.1908,39.89427,-9.446196,-23.50529,-96.9948,135.0536,-36.44735,202408231651124124,
2-17,A_Baseline,1,Q1FrontUp,59.1908,39.89427,-9.446196,-23.50529,-96.9948,135.0536,-36.44735,202408231651124301,
2-17,A_Baseline,1,Q1FrontUp,59.30384,40.02364,-9.52953,-23.55696,-97.13348,135.0543,-36.37697,202408231651124595,
2-17,A_Baseline,1,Q1FrontUp,59.41957,40.14793,-9.598949,-23.6162,-97.26801,135.0561,-36.31049,202408231651124759,
2-17,A_Baseline,1,Q1FrontUp,59.41957,40.14793,-9.598949,-23.6162,-97.26801,135.0561,-36.31049,202408231651124981,
2-17,A_Baseline,1,Q1FrontUp,59.52288,40.26938,-9.655849,-23.67899,-97.37834,135.0562,-36.24557,202408231651125303,
2-17,A_Baseline,1,Q1FrontUp,59.63406,40.38554,-9.720054,-23.75629,-97.47287,135.0573,-36.17554,202408231651125495,
2-17,A_Baseline,1,Q1FrontUp,59.63406,40.38554,-9.720054,-23.75629,-97.47287,135.0573,-36.17554,202408231651125764,
2-17,A_Baseline,1,Q1FrontUp,59.63406,40.38554,-9.720054,-23.75629,-97.47287,135.0573,-36.17554,202408231651125945,
2-17,A_Baseline,1,Q1FrontUp,59.85638,40.65163,-9.886725,-23.88145,-97.69177,135.0584,-36.05192,202408231651126280,
2-17,A_Baseline,1,Q1FrontUp,59.85638,40.65163,-9.886725,-23.88145,-97.69177,135.0584,-36.05192,202408231651126507,
2-17,A_Baseline,1,Q1FrontUp,60.07098,40.90437,-10.08648,-24.02067,-97.96162,135.065,-35.92152,202408231651126763,
2-17,A_Baseline,1,Q1FrontUp,60.07098,40.90437,-10.08648,-24.02067,-97.96162,135.065,-35.92152,202408231651126938,
2-17,A_Baseline,1,Q1FrontUp,60.07098,40.90437,-10.08648,-24.02067,-97.96162,135.065,-35.92152,202408231651127102,
2-17,A_Baseline,1,Q1FrontUp,60.15561,41.0162,-10.22585,-24.09811,-98.06746,135.0907,-35.85243,202408231651127265,
2-17,A_Baseline,1,Q1FrontUp,60.2467,41.11507,-10.37021,-24.21345,-98.17142,135.1145,-35.77331,202408231651127437,
2-17,A_Baseline,1,Q1FrontUp,60.2467,41.11507,-10.37021,-24.21345,-98.17142,135.1145,-35.77331,202408231651127623,
2-17,A_Baseline,1,Q1FrontUp,60.30496,41.20659,-10.48591,-24.32849,-98.28604,135.127,-35.70035,202408231651127872,
2-17,A_Baseline,1,Q1FrontUp,60.35474,41.27016,-10.61357,-24.50196,-98.36086,135.134,-35.61749,202408231651128124,
2-17,A_Baseline,1,Q1FrontUp,60.35474,41.27016,-10.61357,-24.50196,-98.36086,135.134,-35.61749,202408231651128419,
2-17,A_Baseline,1,Q1FrontUp,60.38229,41.30462,-10.74286,-24.74041,-98.40779,135.1357,-35.53518,202408231651128644,
2-17,A_Baseline,1,Q1FrontUp,60.41237,41.33348,-10.87991,-24.95362,-98.44522,135.1369,-35.45659,202408231651128821,
2-17,A_Baseline,1,Q1FrontUp,60.41237,41.33348,-10.87991,-24.95362,-98.44522,135.1369,-35.45659,202408231651129106,
2-17,A_Baseline,1,Q1FrontUp,60.42102,41.34248,-11.00027,-25.20435,-98.46355,135.1365,-35.4011,202408231651129276,
2-17,A_Baseline,1,Q1FrontUp,60.41878,41.35047,-11.10767,-25.4848,-98.46397,135.1362,-35.37236,202408231651129655,
2-17,A_Baseline,1,Q1FrontUp,60.40481,41.34961,-11.19185,-25.78455,-98.46753,135.1352,-35.34112,202408231651129925,
2-17,A_Baseline,1,Q1FrontUp,60.37629,41.32872,-11.29084,-26.1563,-98.46841,135.1363,-35.32635,202408231651130092,
2-17,A_Baseline,1,Q1FrontUp,60.37629,41.32872,-11.29084,-26.1563,-98.46841,135.1363,-35.32635,202408231651130253,
2-17,A_Baseline,1,Q1FrontUp,60.37629,41.32872,-11.29084,-26.1563,-98.46841,135.1363,-35.32635,202408231651130422,
2-17,A_Baseline,1,Q1FrontUp,60.33587,41.31292,-11.39697,-26.55035,-98.46838,135.1359,-35.32608,202408231651130607,
2-17,A_Baseline,1,Q1FrontUp,60.28285,41.31387,-11.50349,-26.92847,-98.4685,135.136,-35.32616,202408231651130827,
2-17,A_Baseline,1,Q1FrontUp,60.28285,41.31387,-11.50349,-26.92847,-98.4685,135.136,-35.32616,202408231651130994,
2-17,A_Baseline,1,Q1FrontUp,60.2255,41.36438,-11.57215,-27.19506,-98.46544,135.1304,-35.3302,202408231651131293,
2-17,A_Baseline,1,Q1FrontUp,60.13214,41.48494,-11.57546,-27.25519,-98.46085,135.1089,-35.34135,202408231651131594,
2-17,A_Baseline,1,Q1FrontUp,60.13214,41.48494,-11.57546,-27.25519,-98.46085,135.1089,-35.34135,202408231651131769,
2-17,A_Baseline,1,Q1FrontUp,60.03897,41.59819,-11.57964,-27.33303,-98.45943,135.0638,-35.37806,202408231651131935,
2-17,A_Baseline,1,Q1FrontUp,59.98437,41.67625,-11.58012,-27.42012,-98.45821,135.0081,-35.43865,202408231651132162,
2-17,A_Baseline,1,Q1FrontUp,59.96506,41.72548,-11.57982,-27.51104,-98.45811,134.9466,-35.52395,202408231651132443,
2-17,A_Baseline,1,Q1FrontUp,59.96506,41.72548,-11.57982,-27.51104,-98.45811,134.9466,-35.52395,202408231651132645,
2-17,A_Baseline,1,Q1FrontUp,59.96608,41.75045,-11.57925,-27.60118,-98.45753,134.8488,-35.66844,202408231651132810,
2-17,A_Baseline,1,Q1FrontUp,59.96659,41.76784,-11.57883,-27.69239,-98.45745,134.7074,-35.84938,202408231651133153,
2-17,A_Baseline,1,Q1FrontUp,59.96659,41.76784,-11.57883,-27.69239,-98.45745,134.7074,-35.84938,202408231651133435,
2-17,A_Baseline,1,Q1FrontUp,59.96716,41.7789,-11.57887,-27.79282,-98.45761,134.4999,-36.05103,202408231651133590,
2-17,A_Baseline,1,Q1FrontUp,59.96766,41.77521,-11.57878,-27.90886,-98.45742,134.1977,-36.36075,202408231651133772,
2-17,A_Baseline,1,Q1FrontUp,59.96766,41.77521,-11.57878,-27.90886,-98.45742,134.1977,-36.36075,202408231651134102,
2-17,A_Baseline,1,Q1FrontUp,59.96916,41.76726,-11.57867,-28.03847,-98.45694,133.8436,-36.71054,202408231651134333,
2-17,A_Baseline,1,Q1FrontUp,59.96916,41.76726,-11.57867,-28.03847,-98.45694,133.8436,-36.71054,202408231651134479,
2-17,A_Baseline,1,Q1FrontUp,59.96606,41.76781,-11.57953,-28.20206,-98.45726,133.4429,-37.10893,202408231651134774,
2-17,A_Baseline,1,Q1FrontUp,59.96316,41.7681,-11.58106,-28.39675,-98.4574,132.9278,-37.61415,202408231651134936,
2-17,A_Baseline,1,Q1FrontUp,59.95844,41.76779,-11.58369,-28.59976,-98.4569,132.3991,-38.15808,202408231651135154,
2-17,A_Baseline,1,Q1FrontUp,59.95844,41.76779,-11.58369,-28.59976,-98.4569,132.3991,-38.15808,202408231651135343,
2-17,A_Baseline,1,Q1FrontUp,59.94189,41.76924,-11.58983,-28.84985,-98.45738,131.7726,-38.75119,202408231651135611,
2-17,A_Baseline,1,Q1FrontUp,59.94189,41.76924,-11.58983,-28.84985,-98.45738,131.7726,-38.75119,202408231651135808,
2-17,A_Baseline,1,Q1FrontUp,59.89571,41.76124,-11.61009,-29.40776,-98.45677,130.3626,-40.18137,202408231651136179,
2-17,A_Baseline,1,Q1FrontUp,59.85592,41.76136,-11.62456,-29.72995,-98.45715,129.5876,-40.95528,202408231651136425,
2-17,A_Baseline,1,Q1FrontUp,59.85592,41.76136,-11.62456,-29.72995,-98.45715,129.5876,-40.95528,202408231651136599,
2-17,A_Baseline,1,Q1FrontUp,59.85592,41.76136,-11.62456,-29.72995,-98.45715,129.5876,-40.95528,202408231651136769,
2-17,A_Baseline,1,Q1FrontUp,59.82077,41.76805,-11.64003,-30.05943,-98.45742,128.7619,-41.80463,202408231651136926,
2-17,A_Baseline,1,Q1FrontUp,59.76966,41.77032,-11.65721,-30.41872,-98.45676,127.9276,-42.67948,202408231651137108,
2-17,A_Baseline,1,Q1FrontUp,59.76966,41.77032,-11.65721,-30.41872,-98.45676,127.9276,-42.67948,202408231651137292,
2-17,A_Baseline,1,Q1FrontUp,59.69056,41.77025,-11.68728,-30.81171,-98.45761,127.0339,-43.58772,202408231651137519,
2-17,A_Baseline,1,Q1FrontUp,59.69056,41.77025,-11.68728,-30.81171,-98.45761,127.0339,-43.58772,202408231651137691,
2-17,A_Baseline,1,Q1FrontUp,59.61872,41.76749,-11.71126,-31.18033,-98.45775,126.1324,-44.54848,202408231651137969,
2-17,A_Baseline,1,Q1FrontUp,59.52683,41.77066,-11.74049,-31.56315,-98.45753,125.2471,-45.497,202408231651138304,
2-17,A_Baseline,1,Q1FrontUp,59.42838,41.77403,-11.76892,-31.94892,-98.45762,124.3373,-46.47216,202408231651138504,
2-17,A_Baseline,1,Q1FrontUp,59.31695,41.77469,-11.80597,-32.326,-98.45794,123.4632,-47.4245,202408231651138773,
2-17,A_Baseline,1,Q1FrontUp,59.31695,41.77469,-11.80597,-32.326,-98.45794,123.4632,-47.4245,202408231651138936,
2-17,A_Baseline,1,Q1FrontUp,59.31695,41.77469,-11.80597,-32.326,-98.45794,123.4632,-47.4245,202408231651139106,
2-17,A_Baseline,1,Q1FrontUp,59.08086,41.77723,-11.88346,-33.08753,-98.45807,121.7004,-49.39076,202408231651139427,
2-17,A_Baseline,1,Q1FrontUp,59.08086,41.77723,-11.88346,-33.08753,-98.45807,121.7004,-49.39076,202408231651139704,
2-17,A_Baseline,1,Q1FrontUp,58.97112,41.77988,-11.91308,-33.42476,-98.45831,120.8976,-50.31699,202408231651139975,
2-17,A_Baseline,1,Q1FrontUp,58.84327,41.78068,-11.94412,-33.77067,-98.45816,120.1101,-51.23323,202408231651140192,
2-17,A_Baseline,1,Q1FrontUp,58.84327,41.78068,-11.94412,-33.77067,-98.45816,120.1101,-51.23323,202408231651140354,
2-17,A_Baseline,1,Q1FrontUp,58.84327,41.78068,-11.94412,-33.77067,-98.45816,120.1101,-51.23323,202408231651140672,
2-17,A_Baseline,1,Q1FrontUp,58.59502,41.78003,-12.00598,-34.36815,-98.458,118.7767,-52.87452,202408231651140835,
2-17,A_Baseline,1,Q1FrontUp,58.59502,41.78003,-12.00598,-34.36815,-98.458,118.7767,-52.87452,202408231651141113,
2-17,A_Baseline,1,Q1FrontUp,58.59502,41.78003,-12.00598,-34.36815,-98.458,118.7767,-52.87452,202408231651141293,
2-17,A_Baseline,1,Q1FrontUp,58.48313,41.80998,-12.02649,-34.53511,-98.45541,118.3769,-53.29551,202408231651141446,
2-17,A_Baseline,1,Q1FrontUp,58.34958,41.87804,-12.02792,-34.57277,-98.44758,118.3777,-53.28054,202408231651141673,
2-17,A_Baseline,1,Q1FrontUp,58.23861,41.94168,-12.02599,-34.62191,-98.44188,118.3842,-53.24949,202408231651141947,
2-17,A_Baseline,1,Q1FrontUp,58.23861,41.94168,-12.02599,-34.62191,-98.44188,118.3842,-53.24949,202408231651142112,
2-17,A_Baseline,1,Q1FrontUp,58.15768,41.98504,-12.01957,-34.66515,-98.43773,118.4142,-53.18719,202408231651142283,
2-17,A_Baseline,1,Q1FrontUp,58.15768,41.98504,-12.01957,-34.66515,-98.43773,118.4142,-53.18719,202408231651142520,
2-17,A_Baseline,1,Q1FrontUp,58.02765,42.00835,-11.95687,-34.83184,-98.43056,118.5982,-52.92325,202408231651142781,
2-17,A_Baseline,1,Q1FrontUp,58.02765,42.00835,-11.95687,-34.83184,-98.43056,118.5982,-52.92325,202408231651142942,
2-17,A_Baseline,1,Q1FrontUp,58.02765,42.00835,-11.95687,-34.83184,-98.43056,118.5982,-52.92325,202408231651143133,
2-17,A_Baseline,1,Q1FrontUp,57.84069,42.0049,-11.85158,-35.1141,-98.42455,119.0012,-52.4401,202408231651143446,
2-17,A_Baseline,1,Q1FrontUp,57.84069,42.0049,-11.85158,-35.1141,-98.42455,119.0012,-52.4401,202408231651143624,
2-17,A_Baseline,1,Q1FrontUp,57.72052,42.00255,-11.77588,-35.29829,-98.4208,119.3295,-52.05834,202408231651143823,
2-17,A_Baseline,1,Q1FrontUp,57.72052,42.00255,-11.77588,-35.29829,-98.4208,119.3295,-52.05834,202408231651143981,
2-17,A_Baseline,1,Q1FrontUp,57.58194,41.99608,-11.69493,-35.51608,-98.4202,119.6885,-51.62299,202408231651144267,
2-17,A_Baseline,1,Q1FrontUp,57.58194,41.99608,-11.69493,-35.51608,-98.4202,119.6885,-51.62299,202408231651144424,
2-17,A_Baseline,1,Q1FrontUp,57.41023,41.99704,-11.59702,-35.78563,-98.41972,120.1399,-51.16688,202408231651144593,
2-17,A_Baseline,1,Q1FrontUp,57.18163,42.00284,-11.45616,-36.10469,-98.41886,120.689,-50.56225,202408231651144769,
2-17,A_Baseline,1,Q1FrontUp,57.18163,42.00284,-11.45616,-36.10469,-98.41886,120.689,-50.56225,202408231651145015,
2-17,A_Baseline,1,Q1FrontUp,56.9258,41.99623,-11.31169,-36.45795,-98.41842,121.2495,-49.94441,202408231651145276,
2-17,A_Baseline,1,Q1FrontUp,56.6323,41.99838,-11.15993,-36.84176,-98.41791,121.8689,-49.26249,202408231651145477,
2-17,A_Baseline,1,Q1FrontUp,56.6323,41.99838,-11.15993,-36.84176,-98.41791,121.8689,-49.26249,202408231651145666,
2-17,A_Baseline,1,Q1FrontUp,56.31675,41.99843,-10.99089,-37.25084,-98.41724,122.5669,-48.52166,202408231651145999,
2-17,A_Baseline,1,Q1FrontUp,55.99118,42.0024,-10.82254,-37.68867,-98.41656,123.2411,-47.74871,202408231651146267,
2-17,A_Baseline,1,Q1FrontUp,55.99118,42.0024,-10.82254,-37.68867,-98.41656,123.2411,-47.74871,202408231651146436,
2-17,A_Baseline,1,Q1FrontUp,55.20777,42.00349,-10.43733,-38.62428,-98.41491,124.7073,-46.09221,202408231651146755,
2-17,A_Baseline,1,Q1FrontUp,55.20777,42.00349,-10.43733,-38.62428,-98.41491,124.7073,-46.09221,202408231651146935,
2-17,A_Baseline,1,Q1FrontUp,54.8064,42.02016,-10.26066,-39.10519,-98.41434,125.4181,-45.25817,202408231651147160,
2-17,A_Baseline,1,Q1FrontUp,54.8064,42.02016,-10.26066,-39.10519,-98.41434,125.4181,-45.25817,202408231651147366,
2-17,A_Baseline,1,Q1FrontUp,54.41813,42.02758,-10.10658,-39.59477,-98.41252,126.1467,-44.40978,202408231651147617,
2-17,A_Baseline,1,Q1FrontUp,54.01297,42.02847,-9.957149,-40.05049,-98.41137,126.8159,-43.58427,202408231651147806,
2-17,A_Baseline,1,Q1FrontUp,54.01297,42.02847,-9.957149,-40.05049,-98.41137,126.8159,-43.58427,202408231651147979,
2-17,A_Baseline,1,Q1FrontUp,53.61552,42.04257,-9.815656,-40.48902,-98.41032,127.4509,-42.7751,202408231651148173,
2-17,A_Baseline,1,Q1FrontUp,53.61552,42.04257,-9.815656,-40.48902,-98.41032,127.4509,-42.7751,202408231651148441,
2-17,A_Baseline,1,Q1FrontUp,53.61552,42.04257,-9.815656,-40.48902,-98.41032,127.4509,-42.7751,202408231651148616,
2-17,A_Baseline,1,Q1FrontUp,52.88279,42.08942,-9.590559,-41.29138,-98.41026,128.5872,-41.2788,202408231651148773,
2-17,A_Baseline,1,Q1FrontUp,52.88279,42.08942,-9.590559,-41.29138,-98.41026,128.5872,-41.2788,202408231651149000,
2-17,A_Baseline,1,Q1FrontUp,52.47514,42.04411,-9.390937,-41.77956,-98.17168,128.9569,-40.78619,202408231651149276,
2-17,A_Baseline,1,Q1FrontUp,51.99392,41.92234,-9.015292,-42.64229,-97.71835,129.0933,-40.51817,202408231651149436,
2-17,A_Baseline,1,Q1FrontUp,51.99392,41.92234,-9.015292,-42.64229,-97.71835,129.0933,-40.51817,202408231651149603,
2-17,A_Baseline,1,Q1FrontUp,51.59408,41.79758,-8.670743,-43.50319,-97.48272,129.2691,-40.09844,202408231651149783,
2-17,A_Baseline,1,Q1FrontUp,51.59408,41.79758,-8.670743,-43.50319,-97.48272,129.2691,-40.09844,202408231651149960,
2-17,A_Baseline,1,Q1FrontUp,51.59408,41.79758,-8.670743,-43.50319,-97.48272,129.2691,-40.09844,202408231651150119,
2-17,A_Baseline,1,Q1FrontUp,51.16521,41.76576,-8.365518,-44.35494,-97.27863,129.4148,-39.69684,202408231651150341,
2-17,A_Baseline,1,Q1FrontUp,50.7663,41.76475,-8.116078,-45.10706,-97.11137,129.5291,-39.33242,202408231651150521,
2-17,A_Baseline,1,Q1FrontUp,50.37897,41.81727,-7.895369,-45.87729,-97.19106,129.6589,-38.64592,202408231651150810,
2-17,A_Baseline,1,Q1FrontUp,50.02369,41.89046,-7.704061,-46.61063,-97.36263,129.7679,-37.89641,202408231651151108,
2-17,A_Baseline,1,Q1FrontUp,50.02369,41.89046,-7.704061,-46.61063,-97.36263,129.7679,-37.89641,202408231651151295,
2-17,A_Baseline,1,Q1FrontUp,49.67782,41.96852,-7.506596,-47.28007,-97.59768,129.8848,-37.08694,202408231651151490,
2-17,A_Baseline,1,Q1FrontUp,49.34755,42.05508,-7.362391,-47.84056,-97.88645,130.0112,-36.23832,202408231651151770,
2-17,A_Baseline,1,Q1FrontUp,49.34755,42.05508,-7.362391,-47.84056,-97.88645,130.0112,-36.23832,202408231651151940,
2-17,A_Baseline,1,Q1FrontUp,49.06841,42.15791,-7.22478,-48.33051,-98.11051,130.1443,-35.46746,202408231651152172,
2-17,A_Baseline,1,Q1FrontUp,48.79015,42.25657,-7.092599,-48.81829,-98.31209,130.2846,-34.7398,202408231651152430,
2-17,A_Baseline,1,Q1FrontUp,48.79015,42.25657,-7.092599,-48.81829,-98.31209,130.2846,-34.7398,202408231651152656,
2-17,A_Baseline,1,Q1FrontUp,48.56765,42.29953,-6.994527,-49.28431,-98.33218,130.3895,-34.2197,202408231651152968,
2-17,A_Baseline,1,Q1FrontUp,48.35186,42.35568,-6.887513,-49.71851,-98.34309,130.4772,-33.68247,202408231651153302,
2-17,A_Baseline,1,Q1FrontUp,48.16405,42.38012,-6.791428,-50.10884,-98.3504,130.5483,-33.21693,202408231651153662,
2-17,A_Baseline,1,Q1FrontUp,48.16405,42.38012,-6.791428,-50.10884,-98.3504,130.5483,-33.21693,202408231651153933,
2-17,A_Baseline,1,Q1FrontUp,47.97097,42.41505,-6.696901,-50.4305,-98.3503,130.6101,-32.81889,202408231651154096,
2-17,A_Baseline,1,Q1FrontUp,47.80475,42.44146,-6.618589,-50.72198,-98.35217,130.6759,-32.42574,202408231651154265,
2-17,A_Baseline,1,Q1FrontUp,47.80475,42.44146,-6.618589,-50.72198,-98.35217,130.6759,-32.42574,202408231651154429,
2-17,A_Baseline,1,Q1FrontUp,47.6519,42.47014,-6.561676,-50.96952,-98.35635,130.7539,-32.03571,202408231651154606,
2-17,A_Baseline,1,Q1FrontUp,47.50293,42.49218,-6.523974,-51.16184,-97.48721,130.7629,-32.47644,202408231651154823,
2-17,A_Baseline,1,Q1FrontUp,47.50293,42.49218,-6.523974,-51.16184,-97.48721,130.7629,-32.47644,202408231651155094,
2-17,A_Baseline,1,Q1FrontUp,47.35062,42.50093,-6.485709,-51.35131,-96.33115,130.7573,-33.17876,202408231651155327,
2-17,A_Baseline,1,Q1FrontUp,47.19189,42.49966,-6.4561,-51.54071,-94.85739,130.7469,-34.16071,202408231651155607,
2-17,A_Baseline,1,Q1FrontUp,47.05397,42.49965,-6.448289,-51.69703,-93.34342,130.7404,-35.22359,202408231651155800,
2-17,A_Baseline,1,Q1FrontUp,47.05397,42.49965,-6.448289,-51.69703,-93.34342,130.7404,-35.22359,202408231651156008,
2-17,A_Baseline,1,Q1FrontUp,46.93356,42.50295,-6.430411,-51.81093,-92.09811,130.7384,-36.08987,202408231651156281,
2-17,A_Baseline,1,Q1FrontUp,46.81018,42.50233,-6.391337,-51.90058,-90.95012,130.738,-36.87296,202408231651156606,
2-17,A_Baseline,1,Q1FrontUp,46.72311,42.50646,-6.355717,-51.92893,-90.73892,130.7722,-36.88056,202408231651156851,
2-17,A_Baseline,1,Q1FrontUp,46.72311,42.50646,-6.355717,-51.92893,-90.73892,130.7722,-36.88056,202408231651157104,
2-17,A_Baseline,1,Q1FrontUp,46.72311,42.50646,-6.355717,-51.92893,-90.73892,130.7722,-36.88056,202408231651157262,
2-17,A_Baseline,1,Q1FrontUp,46.59024,42.51302,-6.257483,-51.82958,-92.19727,130.9863,-35.25949,202408231651157437,
2-17,A_Baseline,1,Q1FrontUp,46.59024,42.51302,-6.257483,-51.82958,-92.19727,130.9863,-35.25949,202408231651157771,
2-17,A_Baseline,1,Q1FrontUp,46.54652,42.50796,-6.201887,-51.71563,-93.22575,131.134,-34.21385,202408231651157971,
2-17,A_Baseline,1,Q1FrontUp,46.52232,42.50085,-6.161327,-51.59382,-93.86527,131.2681,-33.49824,202408231651158173,
2-17,A_Baseline,1,Q1FrontUp,46.52232,42.50085,-6.161327,-51.59382,-93.86527,131.2681,-33.49824,202408231651158346,
2-17,A_Baseline,1,Q1FrontUp,46.51456,42.48554,-6.138956,-51.48508,-94.05535,131.3679,-33.14653,202408231651158620,
2-17,A_Baseline,1,Q1FrontUp,46.52302,42.48033,-6.127111,-51.34798,-94.20031,131.4461,-32.80592,202408231651158933,
2-17,A_Baseline,1,Q1FrontUp,46.53211,42.48067,-6.111151,-51.17675,-94.32829,131.526,-32.46913,202408231651159122,
2-17,A_Baseline,1,Q1FrontUp,46.53211,42.48067,-6.111151,-51.17675,-94.32829,131.526,-32.46913,202408231651159323,
2-17,A_Baseline,1,Q1FrontUp,46.54261,42.48092,-6.098542,-50.98925,-94.4498,131.5937,-32.1667,202408231651159612,
2-17,A_Baseline,1,Q1FrontUp,46.56992,42.4749,-6.098429,-50.80635,-94.57074,131.6296,-31.87455,202408231651159777,
2-17,A_Baseline,1,Q1FrontUp,46.56992,42.4749,-6.098429,-50.80635,-94.57074,131.6296,-31.87455,202408231651160023,
2-17,A_Baseline,1,Q1FrontUp,46.60186,42.46031,-6.105037,-50.64279,-94.67578,131.6781,-31.58947,202408231651160401,
2-17,A_Baseline,1,Q1FrontUp,46.60186,42.46031,-6.105037,-50.64279,-94.67578,131.6781,-31.58947,202408231651160699,
2-17,A_Baseline,1,Q1FrontUp,46.69242,42.41423,-6.115802,-50.27272,-94.86716,131.8192,-31.06253,202408231651160971,
2-17,A_Baseline,1,Q1FrontUp,46.74685,42.38261,-6.147116,-50.09048,-94.94505,131.9011,-30.83656,202408231651161302,
2-17,A_Baseline,1,Q1FrontUp,46.80531,42.34443,-6.223613,-49.91556,-95.00519,132.0276,-30.62868,202408231651161509,
2-17,A_Baseline,1,Q1FrontUp,46.80531,42.34443,-6.223613,-49.91556,-95.00519,132.0276,-30.62868,202408231651161778,
2-17,A_Baseline,1,Q1FrontUp,46.8577,42.30746,-6.294575,-49.72894,-95.06119,132.1471,-30.42599,202408231651161939,
2-17,A_Baseline,1,Q1FrontUp,46.8577,42.30746,-6.294575,-49.72894,-95.06119,132.1471,-30.42599,202408231651162110,
2-17,A_Baseline,1,Q1FrontUp,46.91089,42.26589,-6.384848,-49.53535,-95.11192,132.2991,-30.21651,202408231651162282,
2-17,A_Baseline,1,Q1FrontUp,46.91089,42.26589,-6.384848,-49.53535,-95.11192,132.2991,-30.21651,202408231651162450,
2-17,A_Baseline,1,Q1FrontUp,46.96091,42.22415,-6.49411,-49.34075,-95.15605,132.5007,-29.9904,202408231651162635,
2-17,A_Baseline,1,Q1FrontUp,47.03138,42.18245,-6.632075,-49.16354,-95.22259,132.6489,-29.76334,202408231651162898,
2-17,A_Baseline,1,Q1FrontUp,47.09488,42.14025,-6.743205,-48.99065,-95.31233,132.7734,-29.51774,202408231651163174,
2-17,A_Baseline,1,Q1FrontUp,47.15086,42.08795,-6.843038,-48.79597,-95.41501,132.9174,-29.2493,202408231651163436,
2-17,A_Baseline,1,Q1FrontUp,47.15086,42.08795,-6.843038,-48.79597,-95.41501,132.9174,-29.2493,202408231651163622,
2-17,A_Baseline,1,Q1FrontUp,47.15086,42.08795,-6.843038,-48.79597,-95.41501,132.9174,-29.2493,202408231651163814,
2-17,A_Baseline,1,Q1FrontUp,47.28661,41.96651,-7.053502,-48.42386,-95.5861,133.1587,-28.79698,202408231651164104,
2-17,A_Baseline,1,Q1FrontUp,47.28661,41.96651,-7.053502,-48.42386,-95.5861,133.1587,-28.79698,202408231651164266,
2-17,A_Baseline,1,Q1FrontUp,47.28661,41.96651,-7.053502,-48.42386,-95.5861,133.1587,-28.79698,202408231651164417,
2-17,A_Baseline,1,Q1FrontUp,47.39424,41.91029,-7.242022,-48.23686,-95.67043,133.2421,-28.588,202408231651164644,
2-17,A_Baseline,1,Q1FrontUp,47.50379,41.86249,-7.402707,-47.98616,-95.71882,133.3142,-28.40384,202408231651164833,
2-17,A_Baseline,1,Q1FrontUp,47.50379,41.86249,-7.402707,-47.98616,-95.71882,133.3142,-28.40384,202408231651165123,
2-17,A_Baseline,1,Q1FrontUp,47.62184,41.81277,-7.552655,-47.73685,-95.77184,133.3717,-28.21507,202408231651165277,
2-17,A_Baseline,1,Q1FrontUp,47.75993,41.76092,-7.720161,-47.46735,-95.83406,133.3926,-28.04624,202408231651165448,
2-17,A_Baseline,1,Q1FrontUp,47.75993,41.76092,-7.720161,-47.46735,-95.83406,133.3926,-28.04624,202408231651165622,
2-17,A_Baseline,1,Q1FrontUp,47.92153,41.71408,-7.943537,-47.18243,-95.84398,133.4612,-27.90489,202408231651165991,
2-17,A_Baseline,1,Q1FrontUp,48.10678,41.63705,-8.163496,-46.91807,-95.85742,133.5393,-27.76123,202408231651166169,
2-17,A_Baseline,1,Q1FrontUp,48.10678,41.63705,-8.163496,-46.91807,-95.85742,133.5393,-27.76123,202408231651166436,
2-17,A_Baseline,1,Q1FrontUp,48.29703,41.55444,-8.375532,-46.58475,-95.87448,133.6151,-27.6303,202408231651166607,
2-17,A_Baseline,1,Q1FrontUp,48.46397,41.47422,-8.5786,-46.263,-95.89252,133.6823,-27.50856,202408231651166787,
2-17,A_Baseline,1,Q1FrontUp,48.46397,41.47422,-8.5786,-46.263,-95.89252,133.6823,-27.50856,202408231651167003,
2-17,A_Baseline,1,Q1FrontUp,48.64126,41.37124,-8.778372,-45.97319,-95.90959,133.7424,-27.40437,202408231651167272,
2-17,A_Baseline,1,Q1FrontUp,48.64126,41.37124,-8.778372,-45.97319,-95.90959,133.7424,-27.40437,202408231651167452,
2-17,A_Baseline,1,Q1FrontUp,48.79445,41.28008,-8.929181,-45.66229,-95.92473,133.7914,-27.32548,202408231651167611,
2-17,A_Baseline,1,Q1FrontUp,48.96639,41.18693,-9.106008,-45.33115,-95.84,133.802,-27.35399,202408231651167858,
2-17,A_Baseline,1,Q1FrontUp,49.14607,41.0876,-9.289601,-44.97994,-95.66126,133.8039,-27.47839,202408231651168133,
2-17,A_Baseline,1,Q1FrontUp,49.14607,41.0876,-9.289601,-44.97994,-95.66126,133.8039,-27.47839,202408231651168290,
2-17,A_Baseline,1,Q1FrontUp,49.14607,41.0876,-9.289601,-44.97994,-95.66126,133.8039,-27.47839,202408231651168455,
2-17,A_Baseline,1,Q1FrontUp,49.35202,40.9808,-9.522805,-44.66394,-95.40035,133.8043,-27.67155,202408231651168775,
2-17,A_Baseline,1,Q1FrontUp,49.58376,40.9054,-9.729445,-44.24378,-96.06789,133.8067,-27.02843,202408231651168954,
2-17,A_Baseline,1,Q1FrontUp,49.58376,40.9054,-9.729445,-44.24378,-96.06789,133.8067,-27.02843,202408231651169150,
2-17,A_Baseline,1,Q1FrontUp,49.80638,40.81253,-9.931025,-43.84023,-96.52916,133.8052,-26.63188,202408231651169322,
2-17,A_Baseline,1,Q1FrontUp,50.04734,40.67336,-10.16438,-43.44662,-96.6663,133.808,-26.5001,202408231651169602,
2-17,A_Baseline,1,Q1FrontUp,50.04734,40.67336,-10.16438,-43.44662,-96.6663,133.808,-26.5001,202408231651169765,
2-17,A_Baseline,1,Q1FrontUp,50.2855,40.52414,-10.36344,-43.12027,-96.78951,133.8086,-26.36873,202408231651169940,
2-17,A_Baseline,1,Q1FrontUp,50.51544,40.3795,-10.5538,-42.78311,-96.85602,133.8087,-26.28979,202408231651170136,
2-17,A_Baseline,1,Q1FrontUp,50.51544,40.3795,-10.5538,-42.78311,-96.85602,133.8087,-26.28979,202408231651170348,
2-17,A_Baseline,1,Q1FrontUp,50.76091,40.21239,-10.73094,-42.4612,-96.85583,133.8084,-26.27423,202408231651170601,
2-17,A_Baseline,1,Q1FrontUp,50.99368,40.03739,-10.89173,-42.16066,-96.85786,133.8061,-26.28322,202408231651170799,
2-17,A_Baseline,1,Q1FrontUp,50.99368,40.03739,-10.89173,-42.16066,-96.85786,133.8061,-26.28322,202408231651171005,
2-17,A_Baseline,1,Q1FrontUp,51.21976,39.87315,-11.03963,-41.84713,-96.85805,133.8042,-26.29021,202408231651171281,
2-17,A_Baseline,1,Q1FrontUp,51.43217,39.69978,-11.18532,-41.6002,-96.85812,133.8033,-26.29138,202408231651171512,
2-17,A_Baseline,1,Q1FrontUp,51.64349,39.51051,-11.28888,-41.38327,-96.85696,133.7945,-26.29072,202408231651171781,
2-17,A_Baseline,1,Q1FrontUp,51.64349,39.51051,-11.28888,-41.38327,-96.85696,133.7945,-26.29072,202408231651172100,
2-17,A_Baseline,1,Q1FrontUp,51.82565,39.33937,-11.35111,-41.16473,-96.85703,133.794,-26.28877,202408231651172269,
2-17,A_Baseline,1,Q1FrontUp,51.98377,39.15756,-11.36289,-40.97607,-96.85759,133.7944,-26.28398,202408231651172444,
2-17,A_Baseline,1,Q1FrontUp,51.98377,39.15756,-11.36289,-40.97607,-96.85759,133.7944,-26.28398,202408231651172639,
2-17,A_Baseline,1,Q1FrontUp,52.13129,38.9825,-11.36946,-40.81548,-96.85863,133.7932,-26.28083,202408231651172939,
2-17,A_Baseline,1,Q1FrontUp,52.13129,38.9825,-11.36946,-40.81548,-96.85863,133.7932,-26.28083,202408231651173113,
2-17,A_Baseline,1,Q1FrontUp,52.13129,38.9825,-11.36946,-40.81548,-96.85863,133.7932,-26.28083,202408231651173286,
2-17,A_Baseline,1,Q1FrontUp,52.38588,38.6612,-11.37511,-40.49672,-96.86477,133.7915,-26.24283,202408231651173464,
2-17,A_Baseline,1,Q1FrontUp,52.38588,38.6612,-11.37511,-40.49672,-96.86477,133.7915,-26.24283,202408231651173655,
2-17,A_Baseline,1,Q1FrontUp,52.38588,38.6612,-11.37511,-40.49672,-96.86477,133.7915,-26.24283,202408231651173947,
2-17,A_Baseline,1,Q1FrontUp,52.57427,38.4082,-11.37585,-40.25703,-96.88326,133.7921,-26.20514,202408231651174146,
2-17,A_Baseline,1,Q1FrontUp,52.57427,38.4082,-11.37585,-40.25703,-96.88326,133.7921,-26.20514,202408231651174439,
2-17,A_Baseline,1,Q1FrontUp,52.6381,38.29996,-11.37515,-40.1482,-96.91603,133.792,-26.19028,202408231651174618,
2-17,A_Baseline,1,Q1FrontUp,52.66859,38.22276,-11.3723,-40.04665,-96.97141,133.7919,-26.12122,202408231651174868,
2-17,A_Baseline,1,Q1FrontUp,52.66859,38.22276,-11.3723,-40.04665,-96.97141,133.7919,-26.12122,202408231651175114,
2-17,A_Baseline,1,Q1FrontUp,52.69176,38.17017,-11.37098,-39.93419,-97.02706,133.7921,-26.07086,202408231651175306,
2-17,A_Baseline,1,Q1FrontUp,52.68913,38.14689,-11.37252,-39.81301,-97.08588,133.7915,-26.03383,202408231651175699,
2-17,A_Baseline,1,Q1FrontUp,52.6769,38.12858,-11.36317,-39.73968,-97.1179,133.7931,-25.94789,202408231651175938,
2-17,A_Baseline,1,Q1FrontUp,52.65926,38.12057,-11.33116,-39.69332,-97.15762,133.8037,-25.84236,202408231651176119,
2-17,A_Baseline,1,Q1FrontUp,52.65926,38.12057,-11.33116,-39.69332,-97.15762,133.8037,-25.84236,202408231651176437,
2-17,A_Baseline,1,Q1FrontUp,52.63263,38.12244,-11.28113,-39.67368,-97.20152,133.8209,-25.72881,202408231651176768,
2-17,A_Baseline,1,Q1FrontUp,52.61686,38.12595,-11.23601,-39.6739,-97.23653,133.8324,-25.6121,202408231651177011,
2-17,A_Baseline,1,Q1FrontUp,52.58445,38.13165,-11.16606,-39.67819,-97.25222,133.8399,-25.54546,202408231651177175,
2-17,A_Baseline,1,Q1FrontUp,52.53572,38.14124,-11.07646,-39.69082,-97.2501,133.8557,-25.51981,202408231651177447,
2-17,A_Baseline,1,Q1FrontUp,52.53572,38.14124,-11.07646,-39.69082,-97.2501,133.8557,-25.51981,202408231651177635,
2-17,A_Baseline,1,Q1FrontUp,52.46364,38.14795,-10.96164,-39.72957,-97.24581,133.8721,-25.51696,202408231651177813,
2-17,A_Baseline,1,Q1FrontUp,52.46364,38.14795,-10.96164,-39.72957,-97.24581,133.8721,-25.51696,202408231651178017,
2-17,A_Baseline,1,Q1FrontUp,52.38085,38.15574,-10.83068,-39.75715,-97.30613,133.8894,-25.42736,202408231651178298,
2-17,A_Baseline,1,Q1FrontUp,52.28544,38.17194,-10.67618,-39.76921,-97.44493,133.9159,-25.24752,202408231651178454,
2-17,A_Baseline,1,Q1FrontUp,52.18,38.19851,-10.52573,-39.77411,-97.57167,133.9379,-25.06532,202408231651178820,
2-17,A_Baseline,1,Q1FrontUp,52.18,38.19851,-10.52573,-39.77411,-97.57167,133.9379,-25.06532,202408231651179002,
2-17,A_Baseline,1,Q1FrontUp,52.07722,38.2369,-10.40722,-39.78271,-97.71395,133.961,-24.83655,202408231651179275,
2-17,A_Baseline,1,Q1FrontUp,52.07722,38.2369,-10.40722,-39.78271,-97.71395,133.961,-24.83655,202408231651179437,
2-17,A_Baseline,1,Q1FrontUp,51.98515,38.27496,-10.32149,-39.79511,-97.89387,133.978,-24.56914,202408231651179605,
2-17,A_Baseline,1,Q1FrontUp,51.86708,38.3007,-10.19837,-39.84205,-97.86333,133.9953,-24.56021,202408231651179773,
2-17,A_Baseline,1,Q1FrontUp,51.86708,38.3007,-10.19837,-39.84205,-97.86333,133.9953,-24.56021,202408231651179955,
2-17,A_Baseline,1,Q1FrontUp,51.74674,38.32421,-10.06225,-39.89119,-97.84352,134.0042,-24.56074,202408231651180187,
2-17,A_Baseline,1,Q1FrontUp,51.74674,38.32421,-10.06225,-39.89119,-97.84352,134.0042,-24.56074,202408231651180475,
2-17,A_Baseline,1,Q1FrontUp,51.456,38.38028,-9.731492,-40.01216,-97.8318,134.0126,-24.55834,202408231651180794,
2-17,A_Baseline,1,Q1FrontUp,51.29589,38.40907,-9.566061,-40.08034,-97.83263,134.0253,-24.55083,202408231651181136,
2-17,A_Baseline,1,Q1FrontUp,51.29589,38.40907,-9.566061,-40.08034,-97.83263,134.0253,-24.55083,202408231651181324,
2-17,A_Baseline,1,Q1FrontUp,51.12196,38.4509,-9.400419,-40.14296,-97.83298,134.0261,-24.5361,202408231651181713,
2-17,A_Baseline,1,Q1FrontUp,50.95397,38.4957,-9.247535,-40.20532,-97.8332,134.0262,-24.52618,202408231651181933,
2-17,A_Baseline,1,Q1FrontUp,50.79219,38.52979,-9.06188,-40.29568,-97.81835,134.0245,-24.51548,202408231651182174,
2-17,A_Baseline,1,Q1FrontUp,50.63979,38.56488,-8.860971,-40.41541,-97.7738,134.0263,-24.50703,202408231651182443,
2-17,A_Baseline,1,Q1FrontUp,50.63979,38.56488,-8.860971,-40.41541,-97.7738,134.0263,-24.50703,202408231651182634,
2-17,A_Baseline,1,Q1FrontUp,50.63979,38.56488,-8.860971,-40.41541,-97.7738,134.0263,-24.50703,202408231651182789,
2-17,A_Baseline,1,Q1FrontUp,50.51858,38.61081,-8.683136,-40.51918,-97.74226,134.0261,-24.50004,202408231651182962,
2-17,A_Baseline,1,Q1FrontUp,50.39885,38.66789,-8.501181,-40.59798,-97.72826,134.0306,-24.49652,202408231651183119,
2-17,A_Baseline,1,Q1FrontUp,50.39885,38.66789,-8.501181,-40.59798,-97.72826,134.0306,-24.49652,202408231651183315,
2-17,A_Baseline,1,Q1FrontUp,50.28515,38.73608,-8.299469,-40.6572,-97.72795,134.048,-24.49362,202408231651183493,
2-17,A_Baseline,1,Q1FrontUp,50.28515,38.73608,-8.299469,-40.6572,-97.72795,134.048,-24.49362,202408231651183673,
2-17,A_Baseline,1,Q1FrontUp,50.18451,38.78852,-8.114228,-40.72364,-97.71781,134.0538,-24.49228,202408231651183945,
2-17,A_Baseline,1,Q1FrontUp,50.18451,38.78852,-8.114228,-40.72364,-97.71781,134.0538,-24.49228,202408231651184108,
2-17,A_Baseline,1,Q1FrontUp,50.08931,38.84121,-7.961252,-40.80984,-97.71167,134.0544,-24.48571,202408231651184276,
2-17,A_Baseline,1,Q1FrontUp,50.0074,38.89087,-7.814536,-40.8884,-97.71177,134.0545,-24.4703,202408231651184447,
2-17,A_Baseline,1,Q1FrontUp,50.0074,38.89087,-7.814536,-40.8884,-97.71177,134.0545,-24.4703,202408231651184681,
2-17,A_Baseline,1,Q1FrontUp,49.92818,38.94545,-7.66125,-40.97759,-97.71165,134.0545,-24.4572,202408231651184933,
2-17,A_Baseline,1,Q1FrontUp,49.92818,38.94545,-7.66125,-40.97759,-97.71165,134.0545,-24.4572,202408231651185097,
2-17,A_Baseline,1,Q1FrontUp,49.92818,38.94545,-7.66125,-40.97759,-97.71165,134.0545,-24.4572,202408231651185335,
2-17,A_Baseline,1,Q1FrontUp,49.79159,39.03664,-7.346162,-41.13992,-97.71053,134.0547,-24.4306,202408231651185665,
2-17,A_Baseline,1,Q1FrontUp,49.79159,39.03664,-7.346162,-41.13992,-97.71053,134.0547,-24.4306,202408231651185824,
2-17,A_Baseline,1,Q1FrontUp,49.74758,39.08139,-7.221889,-41.20392,-97.71031,134.0547,-24.4199,202408231651186098,
2-17,A_Baseline,1,Q1FrontUp,49.70142,39.12975,-7.110297,-41.2553,-97.71024,134.0562,-24.40703,202408231651186292,
2-17,A_Baseline,1,Q1FrontUp,49.653,39.17655,-7.003679,-41.29327,-97.71049,134.057,-24.39626,202408231651186621,
2-17,A_Baseline,1,Q1FrontUp,49.61711,39.19444,-6.878387,-41.34282,-97.71037,134.057,-24.38226,202408231651186840,
2-17,A_Baseline,1,Q1FrontUp,49.61711,39.19444,-6.878387,-41.34282,-97.71037,134.057,-24.38226,202408231651187131,
2-17,A_Baseline,1,Q1FrontUp,49.61711,39.19444,-6.878387,-41.34282,-97.71037,134.057,-24.38226,202408231651187302,
2-17,A_Baseline,1,Q1FrontUp,49.5148,39.20564,-6.638538,-41.51434,-97.70943,134.0975,-24.36767,202408231651187474,
2-17,A_Baseline,1,Q1FrontUp,49.5148,39.20564,-6.638538,-41.51434,-97.70943,134.0975,-24.36767,202408231651187618,
2-17,A_Baseline,1,Q1FrontUp,49.5148,39.20564,-6.638538,-41.51434,-97.70943,134.0975,-24.36767,202408231651187868,
2-17,A_Baseline,1,Q1FrontUp,49.45515,39.20427,-6.481022,-41.72516,-97.68716,134.1532,-24.35324,202408231651188136,
2-17,A_Baseline,1,Q1FrontUp,49.45515,39.20427,-6.481022,-41.72516,-97.68716,134.1532,-24.35324,202408231651188346,
2-17,A_Baseline,1,Q1FrontUp,49.451,39.20858,-6.462418,-41.82576,-97.6497,134.1854,-24.349,202408231651188615,
2-17,A_Baseline,1,Q1FrontUp,49.42808,39.26057,-6.456353,-41.85387,-97.65035,134.1965,-24.3473,202408231651188793,
2-17,A_Baseline,1,Q1FrontUp,49.42808,39.26057,-6.456353,-41.85387,-97.65035,134.1965,-24.3473,202408231651188979,
2-17,A_Baseline,1,Q1FrontUp,49.40092,39.30297,-6.453318,-41.86548,-97.6548,134.1994,-24.34447,202408231651189267,
2-17,A_Baseline,1,Q1FrontUp,49.36129,39.33324,-6.449242,-41.86798,-97.65882,134.1993,-24.34042,202408231651189436,
2-17,A_Baseline,1,Q1FrontUp,49.36129,39.33324,-6.449242,-41.86798,-97.65882,134.1993,-24.34042,202408231651189611,
2-17,A_Baseline,1,Q1FrontUp,49.36129,39.33324,-6.449242,-41.86798,-97.65882,134.1993,-24.34042,202408231651189804,
2-17,A_Baseline,1,Q1FrontUp,49.33219,39.334,-6.440717,-41.89241,-97.64796,134.1987,-24.33722,202408231651190026,
2-17,A_Baseline,1,Q1FrontUp,49.28675,39.34805,-6.430097,-41.91039,-97.64185,134.1994,-24.33173,202408231651190272,
2-17,A_Baseline,1,Q1FrontUp,49.28675,39.34805,-6.430097,-41.91039,-97.64185,134.1994,-24.33173,202408231651190441,
2-17,A_Baseline,1,Q1FrontUp,49.23674,39.35953,-6.411321,-41.91144,-97.64327,134.1988,-24.32478,202408231651190620,
2-17,A_Baseline,1,Q1FrontUp,49.18937,39.36041,-6.39307,-41.91197,-97.64378,134.199,-24.31911,202408231651190794,
2-17,A_Baseline,1,Q1FrontUp,49.13404,39.35872,-6.375687,-41.90936,-97.65865,134.2001,-24.3032,202408231651191105,
2-17,A_Baseline,1,Q1FrontUp,49.13404,39.35872,-6.375687,-41.90936,-97.65865,134.2001,-24.3032,202408231651191333,
2-17,A_Baseline,1,Q1FrontUp,49.05114,39.35871,-6.371593,-41.908,-97.67673,134.1995,-24.28345,202408231651191602,
2-17,A_Baseline,1,Q1FrontUp,49.05114,39.35871,-6.371593,-41.908,-97.67673,134.1995,-24.28345,202408231651191776,
2-17,A_Baseline,1,Q1FrontUp,49.05114,39.35871,-6.371593,-41.908,-97.67673,134.1995,-24.28345,202408231651191945,
2-17,A_Baseline,1,Q1FrontUp,48.88901,39.35815,-6.29963,-41.9246,-97.66019,134.1988,-24.26557,202408231651192123,
2-17,A_Baseline,1,Q1FrontUp,48.88901,39.35815,-6.29963,-41.9246,-97.66019,134.1988,-24.26557,202408231651192336,
2-17,A_Baseline,1,Q1FrontUp,48.77723,39.35866,-6.189722,-41.92945,-97.65984,134.1987,-24.25144,202408231651192607,
2-17,A_Baseline,1,Q1FrontUp,48.69679,39.36042,-6.135258,-41.96801,-97.62778,134.2144,-24.24581,202408231651192799,
2-17,A_Baseline,1,Q1FrontUp,48.69679,39.36042,-6.135258,-41.96801,-97.62778,134.2144,-24.24581,202408231651192977,
2-17,A_Baseline,1,Q1FrontUp,48.69679,39.36042,-6.135258,-41.96801,-97.62778,134.2144,-24.24581,202408231651193183,
2-17,A_Baseline,1,Q1FrontUp,48.63089,39.36595,-6.09104,-41.99251,-97.61732,134.2328,-24.24081,202408231651193454,
2-17,A_Baseline,1,Q1FrontUp,48.56779,39.37727,-6.062645,-41.99144,-97.61785,134.2391,-24.23936,202408231651193781,
2-17,A_Baseline,1,Q1FrontUp,48.49504,39.38523,-6.03784,-41.98893,-97.61948,134.2402,-24.23561,202408231651193944,
2-17,A_Baseline,1,Q1FrontUp,48.49504,39.38523,-6.03784,-41.98893,-97.61948,134.2402,-24.23561,202408231651194100,
2-17,A_Baseline,1,Q1FrontUp,48.42036,39.39267,-6.012918,-41.98539,-97.62015,134.2412,-24.2262,202408231651194284,
2-17,A_Baseline,1,Q1FrontUp,48.42036,39.39267,-6.012918,-41.98539,-97.62015,134.2412,-24.2262,202408231651194510,
2-17,A_Baseline,1,Q1FrontUp,48.32681,39.39726,-5.994151,-41.98461,-97.62027,134.2418,-24.21986,202408231651194765,
2-17,A_Baseline,1,Q1FrontUp,48.23941,39.39769,-5.994249,-41.9827,-97.62012,134.2421,-24.21742,202408231651194933,
2-17,A_Baseline,1,Q1FrontUp,48.23941,39.39769,-5.994249,-41.9827,-97.62012,134.2421,-24.21742,202408231651195112,
2-17,A_Baseline,1,Q1FrontUp,48.15039,39.39891,-5.993275,-41.98226,-97.62087,134.2429,-24.21651,202408231651195313,
2-17,A_Baseline,1,Q1FrontUp,48.05306,39.39987,-5.994385,-41.9822,-97.62264,134.2433,-24.21526,202408231651195515,
2-17,A_Baseline,1,Q1FrontUp,47.95534,39.40036,-5.994731,-41.98274,-97.62406,134.2432,-24.21486,202408231651195800,
2-17,A_Baseline,1,Q1FrontUp,47.86848,39.39998,-5.995354,-41.98145,-97.62436,134.2434,-24.21473,202408231651196116,
2-17,A_Baseline,1,Q1FrontUp,47.86848,39.39998,-5.995354,-41.98145,-97.62436,134.2434,-24.21473,202408231651196326,
2-17,A_Baseline,1,Q1FrontUp,47.78558,39.40086,-5.995158,-41.97539,-97.62409,134.2435,-24.21382,202408231651196489,
2-17,A_Baseline,1,Q1FrontUp,47.78558,39.40086,-5.995158,-41.97539,-97.62409,134.2435,-24.21382,202408231651196768,
2-17,A_Baseline,1,Q1FrontUp,47.71286,39.40102,-5.994769,-41.9733,-97.62394,134.2436,-24.21386,202408231651196936,
2-17,A_Baseline,1,Q1FrontUp,47.63785,39.40067,-5.981657,-41.97398,-97.62439,134.2441,-24.21345,202408231651197107,
2-17,A_Baseline,1,Q1FrontUp,47.63785,39.40067,-5.981657,-41.97398,-97.62439,134.2441,-24.21345,202408231651197269,
2-17,A_Baseline,1,Q1FrontUp,47.55485,39.39902,-5.94822,-41.97432,-97.62459,134.2449,-24.21324,202408231651197436,
2-17,A_Baseline,1,Q1FrontUp,47.55485,39.39902,-5.94822,-41.97432,-97.62459,134.2449,-24.21324,202408231651197688,
2-17,A_Baseline,1,Q1FrontUp,47.46955,39.39851,-5.907005,-41.97403,-97.63616,134.2448,-24.21158,202408231651197937,
2-17,A_Baseline,1,Q1FrontUp,47.38231,39.39297,-5.86012,-41.98557,-97.63689,134.2474,-24.21009,202408231651198118,
2-17,A_Baseline,1,Q1FrontUp,47.38231,39.39297,-5.86012,-41.98557,-97.63689,134.2474,-24.21009,202408231651198281,
2-17,A_Baseline,1,Q1FrontUp,47.29272,39.3834,-5.815065,-42.02306,-97.63363,134.3052,-24.20926,202408231651198474,
2-17,A_Baseline,1,Q1FrontUp,47.29272,39.3834,-5.815065,-42.02306,-97.63363,134.3052,-24.20926,202408231651198634,
2-17,A_Baseline,1,Q1FrontUp,47.21,39.37806,-5.773855,-42.06133,-97.63239,134.3545,-24.20837,202408231651198921,
2-17,A_Baseline,1,Q1FrontUp,47.21,39.37806,-5.773855,-42.06133,-97.63239,134.3545,-24.20837,202408231651199091,
2-17,A_Baseline,1,Q1FrontUp,47.21,39.37806,-5.773855,-42.06133,-97.63239,134.3545,-24.20837,202408231651199265,
2-17,A_Baseline,1,Q1FrontUp,46.96862,39.37663,-5.547508,-42.0839,-97.67593,134.3906,-24.14758,202408231651199497,
2-17,A_Baseline,1,Q1FrontUp,46.96862,39.37663,-5.547508,-42.0839,-97.67593,134.3906,-24.14758,202408231651199679,
