mpan31415/robot-x-ar/study2/data/raw_all_participants/Participant_2-12_1.csv
ParticipantID,Condition,Trial,PostureID,J1,J2,J3,J4,J5,J6,J7,Timestamp,
2-12,C_HumanVertical,1,Q3FrontDown,-5.633307,33.53491,6.051173,-14.15287,-160.7081,136.5974,-12.24614,202408291439401445,
2-12,C_HumanVertical,1,Q3FrontDown,-5.633611,33.53503,6.051335,-14.15298,-160.7077,136.5972,-12.24607,202408291439401842,
2-12,C_HumanVertical,1,Q3FrontDown,-5.633376,33.53482,6.051437,-14.15309,-160.7078,136.5972,-12.24639,202408291439402149,
2-12,C_HumanVertical,1,Q3FrontDown,-5.633416,33.53491,6.051478,-14.1531,-160.7078,136.5973,-12.24621,202408291439402312,
2-12,C_HumanVertical,1,Q3FrontDown,-5.633557,33.53491,6.051315,-14.15275,-160.7079,136.5973,-12.24612,202408291439402699,
2-12,C_HumanVertical,1,Q3FrontDown,-5.633106,33.53508,6.051095,-14.15268,-160.7079,136.5971,-12.24598,202408291439403026,
2-12,C_HumanVertical,1,Q3FrontDown,-5.632935,33.53491,6.051277,-14.15229,-160.708,136.5972,-12.24625,202408291439403339,
2-12,C_HumanVertical,1,Q3FrontDown,-5.632935,33.53491,6.051277,-14.15229,-160.708,136.5972,-12.24625,202408291439403520,
2-12,C_HumanVertical,1,Q3FrontDown,-5.632996,33.53495,6.051437,-14.15237,-160.7079,136.5973,-12.24594,202408291439403822,
2-12,C_HumanVertical,1,Q3FrontDown,-5.633094,33.53512,6.051726,-14.15222,-160.7078,136.5973,-12.24612,202408291439403959,
2-12,C_HumanVertical,1,Q3FrontDown,-5.633094,33.53512,6.051726,-14.15222,-160.7078,136.5973,-12.24612,202408291439404134,
2-12,C_HumanVertical,1,Q3FrontDown,-5.633134,33.53491,6.051237,-14.15228,-160.7077,136.5974,-12.24607,202408291439404462,
2-12,C_HumanVertical,1,Q3FrontDown,-5.632995,33.53491,6.051663,-14.15201,-160.7079,136.5972,-12.24598,202408291439404645,
2-12,C_HumanVertical,1,Q3FrontDown,-5.632995,33.53491,6.051663,-14.15201,-160.7079,136.5972,-12.24598,202408291439404931,
2-12,C_HumanVertical,1,Q3FrontDown,-5.632868,33.53497,6.051505,-14.15206,-160.708,136.5973,-12.24621,202408291439405234,
2-12,C_HumanVertical,1,Q3FrontDown,-5.633009,33.53492,6.051555,-14.1517,-160.7079,136.5973,-12.24607,202408291439405420,
2-12,C_HumanVertical,1,Q3FrontDown,-5.633009,33.53492,6.051555,-14.1517,-160.7079,136.5973,-12.24607,202408291439405575,
2-12,C_HumanVertical,1,Q3FrontDown,-5.633009,33.53492,6.051555,-14.1517,-160.7079,136.5973,-12.24607,202408291439405810,
2-12,C_HumanVertical,1,Q3FrontDown,-5.632206,33.53481,6.0516,-14.15155,-160.7081,136.5973,-12.24594,202408291439406061,
2-12,C_HumanVertical,1,Q3FrontDown,-5.631672,33.53503,6.051418,-14.15145,-160.7081,136.5973,-12.24629,202408291439406246,
2-12,C_HumanVertical,1,Q3FrontDown,-5.631672,33.53503,6.051418,-14.15145,-160.7081,136.5973,-12.24629,202408291439406433,
2-12,C_HumanVertical,1,Q3FrontDown,-5.631407,33.53485,6.051218,-14.15162,-160.708,136.5974,-12.2463,202408291439406644,
2-12,C_HumanVertical,1,Q3FrontDown,-5.631407,33.53485,6.051218,-14.15162,-160.708,136.5974,-12.2463,202408291439406827,
2-12,C_HumanVertical,1,Q3FrontDown,-5.631527,33.53508,6.051329,-14.15151,-160.7079,136.5974,-12.24589,202408291439407082,
2-12,C_HumanVertical,1,Q3FrontDown,-5.631608,33.53506,6.051329,-14.1515,-160.7079,136.5975,-12.24609,202408291439407418,
2-12,C_HumanVertical,1,Q3FrontDown,-5.631586,33.53503,6.051095,-14.15133,-160.7082,136.5972,-12.24624,202408291439407573,
2-12,C_HumanVertical,1,Q3FrontDown,-5.631586,33.53503,6.051095,-14.15133,-160.7082,136.5972,-12.24624,202408291439407749,
2-12,C_HumanVertical,1,Q3FrontDown,-5.631175,33.53491,6.051315,-14.15147,-160.7077,136.5973,-12.24615,202408291439407943,
2-12,C_HumanVertical,1,Q3FrontDown,-5.630806,33.53481,6.051417,-14.15133,-160.708,136.5973,-12.24576,202408291439408242,
2-12,C_HumanVertical,1,Q3FrontDown,-5.630806,33.53481,6.051417,-14.15133,-160.708,136.5973,-12.24576,202408291439408414,
2-12,C_HumanVertical,1,Q3FrontDown,-5.630766,33.53493,6.051363,-14.15143,-160.708,136.5973,-12.24578,202408291439408743,
2-12,C_HumanVertical,1,Q3FrontDown,-5.630261,33.53525,6.051139,-14.15145,-160.7076,136.5973,-12.24571,202408291439408960,
2-12,C_HumanVertical,1,Q3FrontDown,-5.630261,33.53525,6.051139,-14.15145,-160.7076,136.5973,-12.24571,202408291439409199,
2-12,C_HumanVertical,1,Q3FrontDown,-5.630261,33.53482,6.051076,-14.15133,-160.7079,136.5973,-12.24605,202408291439409445,
2-12,C_HumanVertical,1,Q3FrontDown,-5.629884,33.53493,6.051256,-14.15145,-160.7081,136.5972,-12.2459,202408291439409763,
2-12,C_HumanVertical,1,Q3FrontDown,-5.629884,33.53493,6.051256,-14.15145,-160.7081,136.5972,-12.2459,202408291439410110,
2-12,C_HumanVertical,1,Q3FrontDown,-5.629643,33.53492,6.051139,-14.15133,-160.7079,136.5973,-12.2458,202408291439410287,
2-12,C_HumanVertical,1,Q3FrontDown,-5.629643,33.53492,6.051139,-14.15133,-160.7079,136.5973,-12.2458,202408291439410454,
2-12,C_HumanVertical,1,Q3FrontDown,-5.628985,33.53491,6.051273,-14.15155,-160.708,136.5973,-12.24598,202408291439410750,
2-12,C_HumanVertical,1,Q3FrontDown,-5.628891,33.53481,6.051315,-14.15133,-160.7079,136.5973,-12.24581,202408291439410944,
2-12,C_HumanVertical,1,Q3FrontDown,-5.628891,33.53481,6.051315,-14.15133,-160.7079,136.5973,-12.24581,202408291439411134,
2-12,C_HumanVertical,1,Q3FrontDown,-5.628064,33.53502,6.051418,-14.15128,-160.7082,136.5973,-12.24598,202408291439411365,
2-12,C_HumanVertical,1,Q3FrontDown,-5.627702,33.53506,6.051413,-14.15139,-160.7077,136.5974,-12.24575,202408291439411671,
2-12,C_HumanVertical,1,Q3FrontDown,-5.627702,33.53506,6.051413,-14.15139,-160.7077,136.5974,-12.24575,202408291439411937,
2-12,C_HumanVertical,1,Q3FrontDown,-5.626954,33.53481,6.051315,-14.15129,-160.7081,136.5973,-12.24598,202408291439412134,
2-12,C_HumanVertical,1,Q3FrontDown,-5.623862,33.53502,6.050809,-14.15102,-160.7082,136.5974,-12.24598,202408291439412455,
2-12,C_HumanVertical,1,Q3FrontDown,-5.619081,33.53481,6.051221,-14.15078,-160.7079,136.5973,-12.24557,202408291439412737,
2-12,C_HumanVertical,1,Q3FrontDown,-5.614198,33.53491,6.051132,-14.15078,-160.7082,136.5973,-12.24602,202408291439412892,
2-12,C_HumanVertical,1,Q3FrontDown,-5.614198,33.53491,6.051132,-14.15078,-160.7082,136.5973,-12.24602,202408291439413066,
2-12,C_HumanVertical,1,Q3FrontDown,-5.614198,33.53491,6.051132,-14.15078,-160.7082,136.5973,-12.24602,202408291439413237,
2-12,C_HumanVertical,1,Q3FrontDown,-5.606272,33.53492,6.051132,-14.15068,-160.708,136.5974,-12.24588,202408291439413413,
2-12,C_HumanVertical,1,Q3FrontDown,-5.606272,33.53492,6.051132,-14.15068,-160.708,136.5974,-12.24588,202408291439413660,
2-12,C_HumanVertical,1,Q3FrontDown,-5.59747,33.53481,6.051132,-14.15033,-160.7079,136.5975,-12.24606,202408291439413816,
2-12,C_HumanVertical,1,Q3FrontDown,-5.588828,33.53498,6.051235,-14.14999,-160.708,136.5975,-12.24563,202408291439414067,
2-12,C_HumanVertical,1,Q3FrontDown,-5.575861,33.53487,6.051254,-14.14983,-160.7083,136.5973,-12.24575,202408291439414267,
2-12,C_HumanVertical,1,Q3FrontDown,-5.575861,33.53487,6.051254,-14.14983,-160.7083,136.5973,-12.24575,202408291439414440,
2-12,C_HumanVertical,1,Q3FrontDown,-5.562368,33.53503,6.051498,-14.14963,-160.7082,136.5974,-12.24602,202408291439414669,
2-12,C_HumanVertical,1,Q3FrontDown,-5.548363,33.53502,6.051396,-14.14983,-160.7081,136.5975,-12.24566,202408291439414905,
2-12,C_HumanVertical,1,Q3FrontDown,-5.548363,33.53502,6.051396,-14.14983,-160.7081,136.5975,-12.24566,202408291439415074,
2-12,C_HumanVertical,1,Q3FrontDown,-5.548363,33.53502,6.051396,-14.14983,-160.7081,136.5975,-12.24566,202408291439415247,
2-12,C_HumanVertical,1,Q3FrontDown,-5.537645,33.53487,6.051476,-14.14976,-160.7082,136.5977,-12.24576,202408291439415434,
2-12,C_HumanVertical,1,Q3FrontDown,-5.527107,33.53471,6.050965,-14.14998,-160.7079,136.5981,-12.24586,202408291439415775,
2-12,C_HumanVertical,1,Q3FrontDown,-5.519335,33.53497,6.051476,-14.14958,-160.7081,136.6016,-12.24559,202408291439416061,
2-12,C_HumanVertical,1,Q3FrontDown,-5.502953,33.53505,6.051062,-14.14554,-160.7074,136.6814,-12.24608,202408291439416236,
2-12,C_HumanVertical,1,Q3FrontDown,-5.502953,33.53505,6.051062,-14.14554,-160.7074,136.6814,-12.24608,202408291439416419,
2-12,C_HumanVertical,1,Q3FrontDown,-5.502953,33.53505,6.051062,-14.14554,-160.7074,136.6814,-12.24608,202408291439416596,
2-12,C_HumanVertical,1,Q3FrontDown,-5.471868,33.53553,6.05055,-14.13609,-160.6903,136.7421,-12.24587,202408291439416918,
2-12,C_HumanVertical,1,Q3FrontDown,-5.357795,33.53524,6.047735,-14.11544,-160.5781,136.8867,-12.2456,202408291439417253,
2-12,C_HumanVertical,1,Q3FrontDown,-5.357795,33.53524,6.047735,-14.11544,-160.5781,136.8867,-12.2456,202408291439417415,
2-12,C_HumanVertical,1,Q3FrontDown,-5.278449,33.53566,6.047577,-14.1031,-160.513,136.9602,-12.24578,202408291439417578,
2-12,C_HumanVertical,1,Q3FrontDown,-5.278449,33.53566,6.047577,-14.1031,-160.513,136.9602,-12.24578,202408291439417736,
2-12,C_HumanVertical,1,Q3FrontDown,-5.195393,33.53479,6.047922,-14.09496,-160.4621,137.0366,-12.24582,202408291439417947,
2-12,C_HumanVertical,1,Q3FrontDown,-5.11078,33.53483,6.049197,-14.08533,-160.3826,137.1186,-12.24587,202408291439418236,
2-12,C_HumanVertical,1,Q3FrontDown,-5.11078,33.53483,6.049197,-14.08533,-160.3826,137.1186,-12.24587,202408291439418407,
2-12,C_HumanVertical,1,Q3FrontDown,-5.02378,33.53505,6.050212,-14.07847,-160.261,137.1891,-12.24767,202408291439418675,
2-12,C_HumanVertical,1,Q3FrontDown,-4.935514,33.53473,6.050976,-14.06951,-160.0779,137.2276,-12.25077,202408291439418927,
2-12,C_HumanVertical,1,Q3FrontDown,-4.935514,33.53473,6.050976,-14.06951,-160.0779,137.2276,-12.25077,202408291439419171,
2-12,C_HumanVertical,1,Q3FrontDown,-4.822047,33.53452,6.053006,-14.06213,-159.7331,137.261,-12.2597,202408291439419424,
2-12,C_HumanVertical,1,Q3FrontDown,-4.682294,33.53535,6.062111,-14.05308,-159.3371,137.282,-12.28302,202408291439419642,
2-12,C_HumanVertical,1,Q3FrontDown,-4.50922,33.53453,6.081753,-14.04402,-158.8953,137.2911,-12.31498,202408291439419923,
2-12,C_HumanVertical,1,Q3FrontDown,-4.50922,33.53453,6.081753,-14.04402,-158.8953,137.2911,-12.31498,202408291439420151,
2-12,C_HumanVertical,1,Q3FrontDown,-4.286542,33.53374,6.08579,-14.04106,-158.3086,137.2908,-12.39266,202408291439420394,
2-12,C_HumanVertical,1,Q3FrontDown,-4.286542,33.53374,6.08579,-14.04106,-158.3086,137.2908,-12.39266,202408291439420567,
2-12,C_HumanVertical,1,Q3FrontDown,-4.286542,33.53374,6.08579,-14.04106,-158.3086,137.2908,-12.39266,202408291439420733,
2-12,C_HumanVertical,1,Q3FrontDown,-4.042178,33.53273,6.085482,-14.03881,-157.7641,137.2891,-12.47147,202408291439420904,
2-12,C_HumanVertical,1,Q3FrontDown,-4.042178,33.53273,6.085482,-14.03881,-157.7641,137.2891,-12.47147,202408291439421072,
2-12,C_HumanVertical,1,Q3FrontDown,-4.042178,33.53273,6.085482,-14.03881,-157.7641,137.2891,-12.47147,202408291439421288,
2-12,C_HumanVertical,1,Q3FrontDown,-3.191837,33.53407,6.087936,-14.03852,-156.1601,137.2857,-12.71875,202408291439421512,
2-12,C_HumanVertical,1,Q3FrontDown,-3.191837,33.53407,6.087936,-14.03852,-156.1601,137.2857,-12.71875,202408291439421666,
2-12,C_HumanVertical,1,Q3FrontDown,-2.886467,33.53453,6.088577,-14.03849,-155.5902,137.2753,-12.81547,202408291439421958,
2-12,C_HumanVertical,1,Q3FrontDown,-2.886467,33.53453,6.088577,-14.03849,-155.5902,137.2753,-12.81547,202408291439422114,
2-12,C_HumanVertical,1,Q3FrontDown,-2.594019,33.53518,6.087127,-14.03886,-155.0354,137.2539,-12.9134,202408291439422264,
2-12,C_HumanVertical,1,Q3FrontDown,-2.594019,33.53518,6.087127,-14.03886,-155.0354,137.2539,-12.9134,202408291439422459,
2-12,C_HumanVertical,1,Q3FrontDown,-2.311011,33.53473,6.08727,-14.03819,-154.5456,137.2301,-13.01087,202408291439422743,
2-12,C_HumanVertical,1,Q3FrontDown,-2.026939,33.53339,6.087311,-14.03811,-154.0385,137.2043,-13.11063,202408291439422918,
2-12,C_HumanVertical,1,Q3FrontDown,-2.026939,33.53339,6.087311,-14.03811,-154.0385,137.2043,-13.11063,202408291439423072,
2-12,C_HumanVertical,1,Q3FrontDown,-1.750764,33.53352,6.083349,-14.03891,-153.5545,137.1833,-13.1912,202408291439423310,
2-12,C_HumanVertical,1,Q3FrontDown,-1.750764,33.53352,6.083349,-14.03891,-153.5545,137.1833,-13.1912,202408291439423572,
2-12,C_HumanVertical,1,Q3FrontDown,-1.475826,33.53378,6.082348,-14.04034,-153.0928,137.1717,-13.26444,202408291439423739,
2-12,C_HumanVertical,1,Q3FrontDown,-1.226926,33.53398,6.082583,-14.04278,-152.631,137.1711,-13.33063,202408291439423916,
2-12,C_HumanVertical,1,Q3FrontDown,-1.226926,33.53398,6.082583,-14.04278,-152.631,137.1711,-13.33063,202408291439424103,
2-12,C_HumanVertical,1,Q3FrontDown,-1.008554,33.53479,6.082095,-14.04561,-152.2128,137.1705,-13.39712,202408291439424447,
2-12,C_HumanVertical,1,Q3FrontDown,-0.80106,33.53165,6.073443,-14.05708,-151.7682,137.1691,-13.44058,202408291439424649,
2-12,C_HumanVertical,1,Q3FrontDown,-0.80106,33.53165,6.073443,-14.05708,-151.7682,137.1691,-13.44058,202408291439424831,
2-12,C_HumanVertical,1,Q3FrontDown,-0.6076568,33.53083,6.050686,-14.08817,-151.2948,137.1682,-13.45757,202408291439425066,
2-12,C_HumanVertical,1,Q3FrontDown,-0.6076568,33.53083,6.050686,-14.08817,-151.2948,137.1682,-13.45757,202408291439425249,
2-12,C_HumanVertical,1,Q3FrontDown,-0.6076568,33.53083,6.050686,-14.08817,-151.2948,137.1682,-13.45757,202408291439425405,
2-12,C_HumanVertical,1,Q3FrontDown,-0.4439161,33.52584,6.040695,-14.14636,-150.7788,137.1687,-13.48749,202408291439425580,
2-12,C_HumanVertical,1,Q3FrontDown,-0.4439161,33.52584,6.040695,-14.14636,-150.7788,137.1687,-13.48749,202408291439425835,
2-12,C_HumanVertical,1,Q3FrontDown,-0.1517056,33.51718,6.008579,-14.30183,-149.8924,137.17,-13.50786,202408291439426075,
2-12,C_HumanVertical,1,Q3FrontDown,-0.02563955,33.5091,5.995885,-14.45769,-149.3769,137.1743,-13.50761,202408291439426247,
2-12,C_HumanVertical,1,Q3FrontDown,-0.02563955,33.5091,5.995885,-14.45769,-149.3769,137.1743,-13.50761,202408291439426497,
2-12,C_HumanVertical,1,Q3FrontDown,0.09312424,33.49432,5.991102,-14.65121,-148.8933,137.1833,-13.50673,202408291439426795,
2-12,C_HumanVertical,1,Q3FrontDown,0.1994759,33.49128,5.992215,-14.87086,-148.3882,137.199,-13.50499,202408291439427025,
2-12,C_HumanVertical,1,Q3FrontDown,0.3160354,33.49229,5.991542,-15.115,-147.8157,137.2216,-13.50317,202408291439427248,
2-12,C_HumanVertical,1,Q3FrontDown,0.3160354,33.49229,5.991542,-15.115,-147.8157,137.2216,-13.50317,202408291439427445,
2-12,C_HumanVertical,1,Q3FrontDown,0.4206863,33.48766,5.988118,-15.40732,-147.2708,137.2393,-13.49263,202408291439427736,
2-12,C_HumanVertical,1,Q3FrontDown,0.5196232,33.49032,5.980753,-15.75582,-146.7753,137.26,-13.47003,202408291439427913,
2-12,C_HumanVertical,1,Q3FrontDown,0.5196232,33.49032,5.980753,-15.75582,-146.7753,137.26,-13.47003,202408291439428108,
2-12,C_HumanVertical,1,Q3FrontDown,0.6221659,33.49458,5.972618,-16.08434,-146.2991,137.2802,-13.45436,202408291439428404,
2-12,C_HumanVertical,1,Q3FrontDown,0.6221659,33.49458,5.972618,-16.08434,-146.2991,137.2802,-13.45436,202408291439428585,
2-12,C_HumanVertical,1,Q3FrontDown,0.6935983,33.48523,5.962945,-16.45599,-145.8176,137.2909,-13.42128,202408291439428775,
2-12,C_HumanVertical,1,Q3FrontDown,0.7385915,33.48486,5.950065,-16.92969,-145.3133,137.293,-13.36654,202408291439428918,
2-12,C_HumanVertical,1,Q3FrontDown,0.7385915,33.48486,5.950065,-16.92969,-145.3133,137.293,-13.36654,202408291439429161,
2-12,C_HumanVertical,1,Q3FrontDown,0.7385915,33.48486,5.950065,-16.92969,-145.3133,137.293,-13.36654,202408291439429341,
2-12,C_HumanVertical,1,Q3FrontDown,0.7822539,33.4828,5.92483,-17.8966,-144.2957,137.2982,-13.27639,202408291439429666,
2-12,C_HumanVertical,1,Q3FrontDown,0.7822539,33.4828,5.92483,-17.8966,-144.2957,137.2982,-13.27639,202408291439429912,
2-12,C_HumanVertical,1,Q3FrontDown,0.7780661,33.48501,5.902465,-18.4274,-143.7826,137.3011,-13.23798,202408291439430084,
2-12,C_HumanVertical,1,Q3FrontDown,0.7670255,33.49054,5.904767,-19.03832,-143.3006,137.3021,-13.19435,202408291439430446,
2-12,C_HumanVertical,1,Q3FrontDown,0.7399737,33.48672,5.91718,-19.66922,-142.8385,137.3062,-13.14301,202408291439430760,
2-12,C_HumanVertical,1,Q3FrontDown,0.699725,33.4916,5.943892,-20.32536,-142.4034,137.3111,-13.07747,202408291439431027,
2-12,C_HumanVertical,1,Q3FrontDown,0.6359033,33.49718,5.986679,-21.00373,-142.0008,137.3173,-13.01085,202408291439431248,
2-12,C_HumanVertical,1,Q3FrontDown,0.6359033,33.49718,5.986679,-21.00373,-142.0008,137.3173,-13.01085,202408291439431501,
2-12,C_HumanVertical,1,Q3FrontDown,0.5674805,33.50855,6.018368,-21.65857,-141.6271,137.3313,-12.95207,202408291439431778,
2-12,C_HumanVertical,1,Q3FrontDown,0.4801709,33.53829,6.044707,-22.31505,-141.2979,137.3369,-12.89603,202408291439432104,
2-12,C_HumanVertical,1,Q3FrontDown,0.3928111,33.57672,6.119932,-22.94408,-140.95,137.3446,-12.84967,202408291439432281,
2-12,C_HumanVertical,1,Q3FrontDown,0.3928111,33.57672,6.119932,-22.94408,-140.95,137.3446,-12.84967,202408291439432457,
2-12,C_HumanVertical,1,Q3FrontDown,0.3019903,33.62972,6.168748,-23.53522,-140.5804,137.3493,-12.80033,202408291439432722,
2-12,C_HumanVertical,1,Q3FrontDown,0.2231296,33.67862,6.193848,-24.10236,-140.2047,137.3616,-12.75595,202408291439432915,
2-12,C_HumanVertical,1,Q3FrontDown,0.2231296,33.67862,6.193848,-24.10236,-140.2047,137.3616,-12.75595,202408291439433112,
2-12,C_HumanVertical,1,Q3FrontDown,0.1554751,33.75744,6.217324,-24.63274,-139.8689,137.3752,-12.71588,202408291439433420,
2-12,C_HumanVertical,1,Q3FrontDown,0.08565391,33.80974,6.239152,-25.13124,-139.5559,137.3878,-12.6826,202408291439433663,
2-12,C_HumanVertical,1,Q3FrontDown,0.01851329,33.87189,6.26397,-25.63173,-139.2509,137.3991,-12.64731,202408291439433914,
2-12,C_HumanVertical,1,Q3FrontDown,0.01851329,33.87189,6.26397,-25.63173,-139.2509,137.3991,-12.64731,202408291439434118,
2-12,C_HumanVertical,1,Q3FrontDown,-0.04908069,33.93298,6.290129,-26.13257,-139.0043,137.4045,-12.5979,202408291439434452,
2-12,C_HumanVertical,1,Q3FrontDown,-0.127779,33.9783,6.32005,-26.59783,-138.7794,137.4079,-12.5455,202408291439434631,
2-12,C_HumanVertical,1,Q3FrontDown,-0.127779,33.9783,6.32005,-26.59783,-138.7794,137.4079,-12.5455,202408291439434806,
2-12,C_HumanVertical,1,Q3FrontDown,-0.127779,33.9783,6.32005,-26.59783,-138.7794,137.4079,-12.5455,202408291439435081,
2-12,C_HumanVertical,1,Q3FrontDown,-0.3331901,34.05497,6.430107,-27.55279,-138.3189,137.4298,-12.43712,202408291439435397,
2-12,C_HumanVertical,1,Q3FrontDown,-0.3331901,34.05497,6.430107,-27.55279,-138.3189,137.4298,-12.43712,202408291439435570,
2-12,C_HumanVertical,1,Q3FrontDown,-0.4763263,34.06754,6.496803,-28.03346,-138.0748,137.448,-12.38303,202408291439435749,
2-12,C_HumanVertical,1,Q3FrontDown,-0.6346706,34.08382,6.556686,-28.53673,-137.8607,137.4619,-12.32613,202408291439435946,
2-12,C_HumanVertical,1,Q3FrontDown,-0.7899925,34.11129,6.60259,-28.97,-137.6662,137.4772,-12.27851,202408291439436244,
2-12,C_HumanVertical,1,Q3FrontDown,-0.7899925,34.11129,6.60259,-28.97,-137.6662,137.4772,-12.27851,202408291439436493,
2-12,C_HumanVertical,1,Q3FrontDown,-0.9570919,34.1232,6.647609,-29.39745,-137.4846,137.4834,-12.23063,202408291439436737,
2-12,C_HumanVertical,1,Q3FrontDown,-1.135267,34.13038,6.710835,-29.83149,-137.3055,137.506,-12.17316,202408291439436947,
2-12,C_HumanVertical,1,Q3FrontDown,-1.135267,34.13038,6.710835,-29.83149,-137.3055,137.506,-12.17316,202408291439437131,
2-12,C_HumanVertical,1,Q3FrontDown,-1.32779,34.15216,6.782141,-30.25903,-137.1444,137.5293,-12.10841,202408291439437417,
2-12,C_HumanVertical,1,Q3FrontDown,-1.535818,34.15114,6.845829,-30.71734,-136.9854,137.5385,-12.04642,202408291439437758,
2-12,C_HumanVertical,1,Q3FrontDown,-1.736069,34.15129,6.897503,-31.14953,-136.8516,137.54,-11.98647,202408291439437902,
2-12,C_HumanVertical,1,Q3FrontDown,-1.736069,34.15129,6.897503,-31.14953,-136.8516,137.54,-11.98647,202408291439438117,
2-12,C_HumanVertical,1,Q3FrontDown,-1.925501,34.16339,6.934696,-31.56692,-136.7262,137.5446,-11.92721,202408291439438272,
2-12,C_HumanVertical,1,Q3FrontDown,-2.120257,34.18327,6.97599,-31.98067,-136.6075,137.5474,-11.87264,202408291439438580,
2-12,C_HumanVertical,1,Q3FrontDown,-2.120257,34.18327,6.97599,-31.98067,-136.6075,137.5474,-11.87264,202408291439438749,
2-12,C_HumanVertical,1,Q3FrontDown,-2.316131,34.18698,7.015029,-32.4058,-136.5102,137.5502,-11.82203,202408291439438909,
2-12,C_HumanVertical,1,Q3FrontDown,-2.316131,34.18698,7.015029,-32.4058,-136.5102,137.5502,-11.82203,202408291439439078,
2-12,C_HumanVertical,1,Q3FrontDown,-2.513986,34.19199,7.047771,-32.85142,-136.3697,137.5509,-11.77131,202408291439439296,
2-12,C_HumanVertical,1,Q3FrontDown,-2.513986,34.19199,7.047771,-32.85142,-136.3697,137.5509,-11.77131,202408291439439497,
2-12,C_HumanVertical,1,Q3FrontDown,-2.72419,34.20821,7.092893,-33.26992,-136.2374,137.5535,-11.72393,202408291439439655,
2-12,C_HumanVertical,1,Q3FrontDown,-2.961762,34.21153,7.150847,-33.72532,-136.1114,137.5539,-11.67307,202408291439439907,
2-12,C_HumanVertical,1,Q3FrontDown,-2.961762,34.21153,7.150847,-33.72532,-136.1114,137.5539,-11.67307,202408291439440243,
2-12,C_HumanVertical,1,Q3FrontDown,-3.215878,34.21881,7.252696,-34.15162,-136.016,137.554,-11.62722,202408291439440417,
2-12,C_HumanVertical,1,Q3FrontDown,-3.215878,34.21881,7.252696,-34.15162,-136.016,137.554,-11.62722,202408291439440629,
2-12,C_HumanVertical,1,Q3FrontDown,-3.772199,34.27519,7.513045,-35.02209,-135.8184,137.5569,-11.54455,202408291439440916,
2-12,C_HumanVertical,1,Q3FrontDown,-3.772199,34.27519,7.513045,-35.02209,-135.8184,137.5569,-11.54455,202408291439441078,
2-12,C_HumanVertical,1,Q3FrontDown,-4.070042,34.29815,7.66776,-35.4637,-135.7268,137.5574,-11.49849,202408291439441333,
2-12,C_HumanVertical,1,Q3FrontDown,-4.364772,34.3331,7.797137,-35.8825,-135.645,137.5581,-11.45511,202408291439441612,
2-12,C_HumanVertical,1,Q3FrontDown,-4.364772,34.3331,7.797137,-35.8825,-135.645,137.5581,-11.45511,202408291439441810,
2-12,C_HumanVertical,1,Q3FrontDown,-4.644485,34.4072,7.898164,-36.23867,-135.5723,137.5578,-11.41738,202408291439442095,
2-12,C_HumanVertical,1,Q3FrontDown,-4.943405,34.46824,8.042491,-36.63533,-135.506,137.5583,-11.38781,202408291439442433,
2-12,C_HumanVertical,1,Q3FrontDown,-5.24219,34.52059,8.193231,-36.9988,-135.4529,137.5607,-11.36062,202408291439442787,
2-12,C_HumanVertical,1,Q3FrontDown,-5.532383,34.58249,8.333176,-37.39404,-135.4125,137.5747,-11.33345,202408291439442948,
2-12,C_HumanVertical,1,Q3FrontDown,-5.854084,34.65252,8.493873,-37.75323,-135.3952,137.6043,-11.31584,202408291439443242,
2-12,C_HumanVertical,1,Q3FrontDown,-5.854084,34.65252,8.493873,-37.75323,-135.3952,137.6043,-11.31584,202408291439443403,
2-12,C_HumanVertical,1,Q3FrontDown,-6.204214,34.72637,8.637925,-38.12849,-135.3842,137.6177,-11.29529,202408291439443581,
2-12,C_HumanVertical,1,Q3FrontDown,-6.538376,34.79762,8.789381,-38.47424,-135.3818,137.6516,-11.27506,202408291439443942,
2-12,C_HumanVertical,1,Q3FrontDown,-6.538376,34.79762,8.789381,-38.47424,-135.3818,137.6516,-11.27506,202408291439444158,
2-12,C_HumanVertical,1,Q3FrontDown,-6.865344,34.86159,8.881439,-38.85751,-135.3814,137.6858,-11.26231,202408291439444442,
2-12,C_HumanVertical,1,Q3FrontDown,-7.170751,34.94194,8.935357,-39.18299,-135.3812,137.7238,-11.25487,202408291439444630,
2-12,C_HumanVertical,1,Q3FrontDown,-7.492354,35.03079,8.974113,-39.50062,-135.3816,137.7322,-11.25171,202408291439444922,
2-12,C_HumanVertical,1,Q3FrontDown,-7.492354,35.03079,8.974113,-39.50062,-135.3816,137.7322,-11.25171,202408291439445134,
2-12,C_HumanVertical,1,Q3FrontDown,-7.492354,35.03079,8.974113,-39.50062,-135.3816,137.7322,-11.25171,202408291439445411,
2-12,C_HumanVertical,1,Q3FrontDown,-8.108068,35.21367,9.008569,-40.08801,-135.3815,137.7472,-11.24322,202408291439445577,
2-12,C_HumanVertical,1,Q3FrontDown,-8.108068,35.21367,9.008569,-40.08801,-135.3815,137.7472,-11.24322,202408291439445734,
2-12,C_HumanVertical,1,Q3FrontDown,-8.390112,35.30639,9.015213,-40.35032,-135.3814,137.7636,-11.23371,202408291439445907,
2-12,C_HumanVertical,1,Q3FrontDown,-8.390112,35.30639,9.015213,-40.35032,-135.3814,137.7636,-11.23371,202408291439446071,
2-12,C_HumanVertical,1,Q3FrontDown,-8.665958,35.41321,9.016001,-40.58295,-135.3816,137.7932,-11.22943,202408291439446321,
2-12,C_HumanVertical,1,Q3FrontDown,-8.945035,35.5289,9.015531,-40.79753,-135.3813,137.8235,-11.22085,202408291439446607,
2-12,C_HumanVertical,1,Q3FrontDown,-8.945035,35.5289,9.015531,-40.79753,-135.3813,137.8235,-11.22085,202408291439446775,
2-12,C_HumanVertical,1,Q3FrontDown,-9.219905,35.61465,9.014951,-41.02996,-135.3816,137.8451,-11.21334,202408291439447099,
2-12,C_HumanVertical,1,Q3FrontDown,-9.470512,35.69003,9.016349,-41.25895,-135.3815,137.8621,-11.16456,202408291439447321,
2-12,C_HumanVertical,1,Q3FrontDown,-9.711224,35.7544,9.018275,-41.46111,-135.3815,137.8713,-11.12823,202408291439447599,
2-12,C_HumanVertical,1,Q3FrontDown,-9.711224,35.7544,9.018275,-41.46111,-135.3815,137.8713,-11.12823,202408291439447803,
2-12,C_HumanVertical,1,Q3FrontDown,-9.941646,35.79974,9.018913,-41.69366,-135.3816,137.875,-11.11018,202408291439448079,
2-12,C_HumanVertical,1,Q3FrontDown,-10.15457,35.8427,9.0202,-41.90326,-135.3815,137.8788,-11.09332,202408291439448253,
2-12,C_HumanVertical,1,Q3FrontDown,-10.15457,35.8427,9.0202,-41.90326,-135.3815,137.8788,-11.09332,202408291439448448,
2-12,C_HumanVertical,1,Q3FrontDown,-10.36846,35.89429,9.021008,-42.07435,-135.3811,137.881,-11.07146,202408291439448743,
2-12,C_HumanVertical,1,Q3FrontDown,-10.56914,35.92757,9.021529,-42.26448,-135.3812,137.8817,-11.04463,202408291439448918,
2-12,C_HumanVertical,1,Q3FrontDown,-10.56914,35.92757,9.021529,-42.26448,-135.3812,137.8817,-11.04463,202408291439449071,
2-12,C_HumanVertical,1,Q3FrontDown,-10.76123,35.93273,9.031496,-42.51524,-135.3809,137.8837,-11.00817,202408291439449313,
2-12,C_HumanVertical,1,Q3FrontDown,-10.76123,35.93273,9.031496,-42.51524,-135.3809,137.8837,-11.00817,202408291439449517,
2-12,C_HumanVertical,1,Q3FrontDown,-10.96049,35.92564,9.052825,-42.79906,-135.3805,137.8884,-10.9748,202408291439449776,
2-12,C_HumanVertical,1,Q3FrontDown,-11.1418,35.92562,9.088531,-43.09909,-135.3802,137.8905,-10.95409,202408291439449919,
2-12,C_HumanVertical,1,Q3FrontDown,-11.1418,35.92562,9.088531,-43.09909,-135.3802,137.8905,-10.95409,202408291439450081,
2-12,C_HumanVertical,1,Q3FrontDown,-11.32192,35.92965,9.116912,-43.42483,-135.38,137.893,-10.92452,202408291439450392,
2-12,C_HumanVertical,1,Q3FrontDown,-11.32192,35.92965,9.116912,-43.42483,-135.38,137.893,-10.92452,202408291439450571,
2-12,C_HumanVertical,1,Q3FrontDown,-11.48714,35.93788,9.124899,-43.72901,-135.3816,137.8936,-10.8844,202408291439450796,
2-12,C_HumanVertical,1,Q3FrontDown,-11.64473,35.95892,9.125945,-44.08516,-135.3825,137.8952,-10.81544,202408291439451050,
2-12,C_HumanVertical,1,Q3FrontDown,-11.64473,35.95892,9.125945,-44.08516,-135.3825,137.8952,-10.81544,202408291439451351,
2-12,C_HumanVertical,1,Q3FrontDown,-11.96107,36.0161,9.125875,-44.74806,-135.3947,137.912,-10.67728,202408291439451622,
2-12,C_HumanVertical,1,Q3FrontDown,-11.96107,36.0161,9.125875,-44.74806,-135.3947,137.912,-10.67728,202408291439451804,
2-12,C_HumanVertical,1,Q3FrontDown,-12.10454,36.04223,9.125529,-45.07492,-135.4146,137.9138,-10.5912,202408291439452081,
2-12,C_HumanVertical,1,Q3FrontDown,-12.22895,36.08708,9.124169,-45.3835,-135.4173,137.9139,-10.52058,202408291439452248,
2-12,C_HumanVertical,1,Q3FrontDown,-12.22895,36.08708,9.124169,-45.3835,-135.4173,137.9139,-10.52058,202408291439452471,
2-12,C_HumanVertical,1,Q3FrontDown,-12.34094,36.11958,9.123391,-45.71222,-135.4335,137.9141,-10.44947,202408291439452636,
2-12,C_HumanVertical,1,Q3FrontDown,-12.44332,36.15392,9.122998,-46.02481,-135.4549,137.9138,-10.34889,202408291439452937,
2-12,C_HumanVertical,1,Q3FrontDown,-12.44332,36.15392,9.122998,-46.02481,-135.4549,137.9138,-10.34889,202408291439453242,
2-12,C_HumanVertical,1,Q3FrontDown,-12.54286,36.1898,9.116875,-46.36678,-135.4499,137.9144,-10.30171,202408291439453406,
2-12,C_HumanVertical,1,Q3FrontDown,-12.63438,36.23616,9.114044,-46.65305,-135.4494,137.9144,-10.25573,202408291439453577,
2-12,C_HumanVertical,1,Q3FrontDown,-12.63438,36.23616,9.114044,-46.65305,-135.4494,137.9144,-10.25573,202408291439453749,
2-12,C_HumanVertical,1,Q3FrontDown,-12.72025,36.29154,9.110543,-46.95597,-135.4508,137.9139,-10.19544,202408291439454031,
2-12,C_HumanVertical,1,Q3FrontDown,-12.797,36.33878,9.107244,-47.27015,-135.4514,137.9146,-10.14026,202408291439454317,
2-12,C_HumanVertical,1,Q3FrontDown,-12.797,36.33878,9.107244,-47.27015,-135.4514,137.9146,-10.14026,202408291439454454,
2-12,C_HumanVertical,1,Q3FrontDown,-12.85794,36.39138,9.095203,-47.55166,-135.4527,137.9147,-10.07783,202408291439454624,
2-12,C_HumanVertical,1,Q3FrontDown,-12.9058,36.43477,9.063779,-47.85696,-135.4557,137.9166,-10.00429,202408291439454966,
2-12,C_HumanVertical,1,Q3FrontDown,-12.9474,36.48792,9.030743,-48.15257,-135.4563,137.9165,-9.972617,202408291439455258,
2-12,C_HumanVertical,1,Q3FrontDown,-12.9474,36.48792,9.030743,-48.15257,-135.4563,137.9165,-9.972617,202408291439455551,
2-12,C_HumanVertical,1,Q3FrontDown,-12.98696,36.53408,8.994443,-48.469,-135.4543,137.9151,-9.948952,202408291439455775,
2-12,C_HumanVertical,1,Q3FrontDown,-13.02529,36.55909,8.947415,-48.82945,-135.4534,137.9156,-9.943014,202408291439455977,
2-12,C_HumanVertical,1,Q3FrontDown,-13.02529,36.55909,8.947415,-48.82945,-135.4534,137.9156,-9.943014,202408291439456242,
2-12,C_HumanVertical,1,Q3FrontDown,-13.05239,36.57975,8.874085,-49.19702,-135.4504,137.9155,-9.919496,202408291439456444,
2-12,C_HumanVertical,1,Q3FrontDown,-13.05239,36.57975,8.874085,-49.19702,-135.4504,137.9155,-9.919496,202408291439456605,
2-12,C_HumanVertical,1,Q3FrontDown,-13.11591,36.64354,8.730829,-49.94035,-135.4492,137.9158,-9.860095,202408291439456947,
2-12,C_HumanVertical,1,Q3FrontDown,-13.11591,36.64354,8.730829,-49.94035,-135.4492,137.9158,-9.860095,202408291439457151,
2-12,C_HumanVertical,1,Q3FrontDown,-13.154,36.67451,8.651564,-50.32585,-135.435,137.9164,-9.852883,202408291439457411,
2-12,C_HumanVertical,1,Q3FrontDown,-13.19722,36.71043,8.586306,-50.68478,-135.4317,137.9149,-9.84382,202408291439457595,
2-12,C_HumanVertical,1,Q3FrontDown,-13.25152,36.76221,8.531694,-51.0587,-135.4314,137.9161,-9.829775,202408291439457924,
2-12,C_HumanVertical,1,Q3FrontDown,-13.25152,36.76221,8.531694,-51.0587,-135.4314,137.9161,-9.829775,202408291439458140,
2-12,C_HumanVertical,1,Q3FrontDown,-13.30553,36.81249,8.477801,-51.399,-135.4313,137.9153,-9.816934,202408291439458418,
2-12,C_HumanVertical,1,Q3FrontDown,-13.35894,36.8514,8.415608,-51.75325,-135.4309,137.9154,-9.797954,202408291439458590,
2-12,C_HumanVertical,1,Q3FrontDown,-13.35894,36.8514,8.415608,-51.75325,-135.4309,137.9154,-9.797954,202408291439458784,
2-12,C_HumanVertical,1,Q3FrontDown,-13.40484,36.88335,8.347192,-52.11081,-135.4306,137.9151,-9.780726,202408291439458981,
2-12,C_HumanVertical,1,Q3FrontDown,-13.40484,36.88335,8.347192,-52.11081,-135.4306,137.9151,-9.780726,202408291439459224,
2-12,C_HumanVertical,1,Q3FrontDown,-13.46343,36.9249,8.291036,-52.50534,-135.4309,137.9163,-9.774763,202408291439459462,
2-12,C_HumanVertical,1,Q3FrontDown,-13.5206,36.96079,8.239276,-52.85164,-135.4308,137.9152,-9.773548,202408291439459778,
2-12,C_HumanVertical,1,Q3FrontDown,-13.58236,36.9879,8.190565,-53.21875,-135.4307,137.916,-9.771842,202408291439460075,
2-12,C_HumanVertical,1,Q3FrontDown,-13.64109,37.02103,8.141567,-53.5768,-135.4306,137.9155,-9.771341,202408291439460293,
2-12,C_HumanVertical,1,Q3FrontDown,-13.64109,37.02103,8.141567,-53.5768,-135.4306,137.9155,-9.771341,202408291439460577,
2-12,C_HumanVertical,1,Q3FrontDown,-13.69809,37.05681,8.096514,-53.95441,-135.4306,137.9165,-9.770414,202408291439460751,
2-12,C_HumanVertical,1,Q3FrontDown,-13.69809,37.05681,8.096514,-53.95441,-135.4306,137.9165,-9.770414,202408291439460924,
2-12,C_HumanVertical,1,Q3FrontDown,-13.74943,37.0903,8.049825,-54.32101,-135.4308,137.9163,-9.769461,202408291439461104,
2-12,C_HumanVertical,1,Q3FrontDown,-13.74943,37.0903,8.049825,-54.32101,-135.4308,137.9163,-9.769461,202408291439461351,
2-12,C_HumanVertical,1,Q3FrontDown,-13.85952,37.13654,7.945142,-55.02906,-135.4309,137.9163,-9.76794,202408291439461634,
2-12,C_HumanVertical,1,Q3FrontDown,-13.85952,37.13654,7.945142,-55.02906,-135.4309,137.9163,-9.76794,202408291439461948,
2-12,C_HumanVertical,1,Q3FrontDown,-13.90988,37.15969,7.882852,-55.39775,-135.4312,137.9176,-9.767606,202408291439462192,
2-12,C_HumanVertical,1,Q3FrontDown,-13.96418,37.19,7.812344,-55.74549,-135.4312,137.9188,-9.766853,202408291439462474,
2-12,C_HumanVertical,1,Q3FrontDown,-14.02375,37.20563,7.740068,-56.09494,-135.4316,137.9189,-9.766582,202408291439462739,
2-12,C_HumanVertical,1,Q3FrontDown,-14.09279,37.21979,7.68343,-56.44835,-135.4317,137.9194,-9.766359,202408291439462895,
2-12,C_HumanVertical,1,Q3FrontDown,-14.09279,37.21979,7.68343,-56.44835,-135.4317,137.9194,-9.766359,202408291439463069,
2-12,C_HumanVertical,1,Q3FrontDown,-14.16376,37.24195,7.625896,-56.82125,-135.4327,137.9198,-9.766896,202408291439463273,
2-12,C_HumanVertical,1,Q3FrontDown,-14.16376,37.24195,7.625896,-56.82125,-135.4327,137.9198,-9.766896,202408291439463480,
2-12,C_HumanVertical,1,Q3FrontDown,-14.16376,37.24195,7.625896,-56.82125,-135.4327,137.9198,-9.766896,202408291439463668,
2-12,C_HumanVertical,1,Q3FrontDown,-14.30143,37.31686,7.520363,-57.49818,-135.4347,137.9198,-9.767635,202408291439463923,
2-12,C_HumanVertical,1,Q3FrontDown,-14.30143,37.31686,7.520363,-57.49818,-135.4347,137.9198,-9.767635,202408291439464151,
2-12,C_HumanVertical,1,Q3FrontDown,-14.35236,37.3568,7.443747,-57.81472,-135.4359,137.9202,-9.768516,202408291439464282,
2-12,C_HumanVertical,1,Q3FrontDown,-14.35236,37.3568,7.443747,-57.81472,-135.4359,137.9202,-9.768516,202408291439464471,
2-12,C_HumanVertical,1,Q3FrontDown,-14.39603,37.41424,7.370579,-58.09591,-135.4368,137.9198,-9.768907,202408291439464633,
2-12,C_HumanVertical,1,Q3FrontDown,-14.43961,37.48064,7.307454,-58.37913,-135.4371,137.9206,-9.769108,202408291439464949,
2-12,C_HumanVertical,1,Q3FrontDown,-14.46746,37.55631,7.218359,-58.60636,-135.4373,137.92,-9.781937,202408291439465295,
2-12,C_HumanVertical,1,Q3FrontDown,-14.48238,37.63998,7.101941,-58.82661,-135.4382,137.9203,-9.795362,202408291439465571,
2-12,C_HumanVertical,1,Q3FrontDown,-14.48238,37.63998,7.101941,-58.82661,-135.4382,137.9203,-9.795362,202408291439465738,
2-12,C_HumanVertical,1,Q3FrontDown,-14.48438,37.72241,6.964884,-59.03382,-135.4417,137.9201,-9.796099,202408291439465907,
2-12,C_HumanVertical,1,Q3FrontDown,-14.48438,37.72241,6.964884,-59.03382,-135.4417,137.9201,-9.796099,202408291439466074,
2-12,C_HumanVertical,1,Q3FrontDown,-14.49153,37.80784,6.837268,-59.21802,-135.444,137.9202,-9.796962,202408291439466264,
2-12,C_HumanVertical,1,Q3FrontDown,-14.49153,37.80784,6.837268,-59.21802,-135.444,137.9202,-9.796962,202408291439466426,
2-12,C_HumanVertical,1,Q3FrontDown,-14.49153,37.80784,6.837268,-59.21802,-135.444,137.9202,-9.796962,202408291439466674,
2-12,C_HumanVertical,1,Q3FrontDown,-14.49783,37.88403,6.708674,-59.3744,-135.4513,137.922,-9.809801,202408291439466833,
2-12,C_HumanVertical,1,Q3FrontDown,-14.49572,37.95081,6.522912,-59.52347,-135.4638,137.943,-9.847695,202408291439467116,
2-12,C_HumanVertical,1,Q3FrontDown,-14.49572,37.95081,6.522912,-59.52347,-135.4638,137.943,-9.847695,202408291439467273,
2-12,C_HumanVertical,1,Q3FrontDown,-14.48934,38.08767,6.135846,-59.79003,-135.4774,137.9552,-9.917387,202408291439467590,
2-12,C_HumanVertical,1,Q3FrontDown,-14.48934,38.08767,6.135846,-59.79003,-135.4774,137.9552,-9.917387,202408291439467779,
2-12,C_HumanVertical,1,Q3FrontDown,-14.48836,38.14048,5.927222,-59.95014,-135.4873,137.9598,-9.97315,202408291439468070,
2-12,C_HumanVertical,1,Q3FrontDown,-14.48269,38.19443,5.692692,-60.07883,-135.5169,137.9618,-10.05062,202408291439468251,
2-12,C_HumanVertical,1,Q3FrontDown,-14.48269,38.19443,5.692692,-60.07883,-135.5169,137.9618,-10.05062,202408291439468499,
2-12,C_HumanVertical,1,Q3FrontDown,-14.46709,38.25968,5.449999,-60.1797,-135.5525,137.963,-10.12399,202408291439468842,
2-12,C_HumanVertical,1,Q3FrontDown,-14.44884,38.31772,5.177616,-60.27549,-135.6159,137.9622,-10.21206,202408291439469106,
2-12,C_HumanVertical,1,Q3FrontDown,-14.44884,38.31772,5.177616,-60.27549,-135.6159,137.9622,-10.21206,202408291439469276,
2-12,C_HumanVertical,1,Q3FrontDown,-14.41649,38.40009,4.632116,-60.5103,-135.7527,137.9553,-10.43503,202408291439469620,
2-12,C_HumanVertical,1,Q3FrontDown,-14.41649,38.40009,4.632116,-60.5103,-135.7527,137.9553,-10.43503,202408291439469809,
2-12,C_HumanVertical,1,Q3FrontDown,-14.4075,38.4241,4.368218,-60.63199,-135.8293,137.935,-10.57347,202408291439470063,
2-12,C_HumanVertical,1,Q3FrontDown,-14.408,38.45153,4.116646,-60.7276,-135.8808,137.9302,-10.71216,202408291439470244,
2-12,C_HumanVertical,1,Q3FrontDown,-14.408,38.45153,4.116646,-60.7276,-135.8808,137.9302,-10.71216,202408291439470412,
2-12,C_HumanVertical,1,Q3FrontDown,-14.40562,38.48051,3.856147,-60.80293,-135.9322,137.9109,-10.85441,202408291439470757,
2-12,C_HumanVertical,1,Q3FrontDown,-14.40628,38.50715,3.613297,-60.86144,-135.9934,137.8615,-10.99049,202408291439471008,
2-12,C_HumanVertical,1,Q3FrontDown,-14.40628,38.50715,3.613297,-60.86144,-135.9934,137.8615,-10.99049,202408291439471372,
2-12,C_HumanVertical,1,Q3FrontDown,-14.38525,38.55553,3.085111,-60.91319,-136.0816,137.8036,-11.30019,202408291439471674,
2-12,C_HumanVertical,1,Q3FrontDown,-14.38525,38.55553,3.085111,-60.91319,-136.0816,137.8036,-11.30019,202408291439472006,
2-12,C_HumanVertical,1,Q3FrontDown,-14.39403,38.5705,2.613768,-60.90848,-136.1353,137.7269,-11.58877,202408291439472229,
2-12,C_HumanVertical,1,Q3FrontDown,-14.39403,38.5705,2.613768,-60.90848,-136.1353,137.7269,-11.58877,202408291439472428,
2-12,C_HumanVertical,1,Q3FrontDown,-14.4043,38.57159,2.403025,-60.89123,-136.1626,137.6823,-11.71603,202408291439472756,
2-12,C_HumanVertical,1,Q3FrontDown,-14.42507,38.57022,2.22994,-60.83904,-136.1912,137.6404,-11.83558,202408291439473114,
2-12,C_HumanVertical,1,Q3FrontDown,-14.4571,38.5724,2.107639,-60.71585,-136.427,137.5606,-11.8505,202408291439473273,
2-12,C_HumanVertical,1,Q3FrontDown,-14.50019,38.57068,2.006612,-60.57288,-136.657,137.4724,-11.85354,202408291439473569,
2-12,C_HumanVertical,1,Q3FrontDown,-14.50019,38.57068,2.006612,-60.57288,-136.657,137.4724,-11.85354,202408291439473740,
2-12,C_HumanVertical,1,Q3FrontDown,-14.50019,38.57068,2.006612,-60.57288,-136.657,137.4724,-11.85354,202408291439473907,
2-12,C_HumanVertical,1,Q3FrontDown,-14.55428,38.55755,1.942712,-60.45537,-136.7704,137.4373,-11.87595,202408291439474119,
2-12,C_HumanVertical,1,Q3FrontDown,-14.59826,38.53889,1.880491,-60.32278,-136.8783,137.4074,-11.89869,202408291439474331,
2-12,C_HumanVertical,1,Q3FrontDown,-14.65137,38.52281,1.836106,-60.18767,-136.9965,137.3822,-11.91067,202408291439474594,
2-12,C_HumanVertical,1,Q3FrontDown,-14.65137,38.52281,1.836106,-60.18767,-136.9965,137.3822,-11.91067,202408291439474772,
2-12,C_HumanVertical,1,Q3FrontDown,-14.707,38.51078,1.811294,-59.97368,-137.1242,137.3386,-11.9105,202408291439474959,
2-12,C_HumanVertical,1,Q3FrontDown,-14.75384,38.50526,1.805306,-59.78886,-137.241,137.285,-11.90982,202408291439475272,
2-12,C_HumanVertical,1,Q3FrontDown,-14.75384,38.50526,1.805306,-59.78886,-137.241,137.285,-11.90982,202408291439475451,
2-12,C_HumanVertical,1,Q3FrontDown,-14.78685,38.49406,1.804604,-59.62935,-137.3518,137.2474,-11.91032,202408291439475739,
2-12,C_HumanVertical,1,Q3FrontDown,-14.78685,38.49406,1.804604,-59.62935,-137.3518,137.2474,-11.91032,202408291439475905,
2-12,C_HumanVertical,1,Q3FrontDown,-14.80592,38.47938,1.805086,-59.49879,-137.4444,137.2391,-11.91011,202408291439476075,
2-12,C_HumanVertical,1,Q3FrontDown,-14.80766,38.45502,1.803002,-59.36646,-137.591,137.2335,-11.90872,202408291439476449,
2-12,C_HumanVertical,1,Q3FrontDown,-14.80766,38.45502,1.803002,-59.36646,-137.591,137.2335,-11.90872,202408291439476664,
2-12,C_HumanVertical,1,Q3FrontDown,-14.79939,38.4396,1.803723,-59.10629,-137.9229,137.2209,-11.87979,202408291439476929,
2-12,C_HumanVertical,1,Q3FrontDown,-14.79939,38.4396,1.803723,-59.10629,-137.9229,137.2209,-11.87979,202408291439477121,
2-12,C_HumanVertical,1,Q3FrontDown,-14.79109,38.43925,1.803971,-59.01926,-138.0784,137.22,-11.86382,202408291439477421,
2-12,C_HumanVertical,1,Q3FrontDown,-14.7883,38.4356,1.802392,-58.96725,-138.1544,137.218,-11.85928,202408291439477677,
2-12,C_HumanVertical,1,Q3FrontDown,-14.78641,38.43542,1.799563,-58.95703,-138.1585,137.2194,-11.87141,202408291439477893,
2-12,C_HumanVertical,1,Q3FrontDown,-14.78641,38.43542,1.799563,-58.95703,-138.1585,137.2194,-11.87141,202408291439478059,
2-12,C_HumanVertical,1,Q3FrontDown,-14.76031,38.43946,1.779492,-58.97271,-138.1123,137.2201,-11.95492,202408291439478273,
2-12,C_HumanVertical,1,Q3FrontDown,-14.73143,38.44829,1.762775,-59.02089,-138.0805,137.2195,-12.03786,202408291439478592,
2-12,C_HumanVertical,1,Q3FrontDown,-14.73143,38.44829,1.762775,-59.02089,-138.0805,137.2195,-12.03786,202408291439478835,
2-12,C_HumanVertical,1,Q3FrontDown,-14.69061,38.46726,1.746576,-59.09325,-138.0554,137.2204,-12.13211,202408291439479078,
2-12,C_HumanVertical,1,Q3FrontDown,-14.63211,38.51643,1.724395,-59.15526,-138.051,137.2203,-12.20335,202408291439479289,
2-12,C_HumanVertical,1,Q3FrontDown,-14.56676,38.57062,1.69751,-59.21761,-138.0502,137.2196,-12.27245,202408291439479599,
2-12,C_HumanVertical,1,Q3FrontDown,-14.56676,38.57062,1.69751,-59.21761,-138.0502,137.2196,-12.27245,202408291439479794,
2-12,C_HumanVertical,1,Q3FrontDown,-14.49008,38.63989,1.665643,-59.27795,-138.0506,137.2205,-12.33079,202408291439480084,
2-12,C_HumanVertical,1,Q3FrontDown,-14.40613,38.72348,1.644544,-59.33175,-138.0507,137.2206,-12.38535,202408291439480413,
2-12,C_HumanVertical,1,Q3FrontDown,-14.32026,38.82405,1.632907,-59.38277,-138.0505,137.2209,-12.43409,202408291439480574,
2-12,C_HumanVertical,1,Q3FrontDown,-14.32026,38.82405,1.632907,-59.38277,-138.0505,137.2209,-12.43409,202408291439480753,
2-12,C_HumanVertical,1,Q3FrontDown,-14.2241,38.93507,1.618361,-59.44392,-138.0507,137.2228,-12.48725,202408291439481022,
2-12,C_HumanVertical,1,Q3FrontDown,-14.2241,38.93507,1.618361,-59.44392,-138.0507,137.2228,-12.48725,202408291439481258,
2-12,C_HumanVertical,1,Q3FrontDown,-14.03229,39.18404,1.607619,-59.57458,-138.0511,137.222,-12.56738,202408291439481527,
2-12,C_HumanVertical,1,Q3FrontDown,-14.03229,39.18404,1.607619,-59.57458,-138.0511,137.222,-12.56738,202408291439481806,
2-12,C_HumanVertical,1,Q3FrontDown,-13.9315,39.33346,1.605824,-59.65785,-138.0512,137.223,-12.60723,202408291439482012,
2-12,C_HumanVertical,1,Q3FrontDown,-13.82771,39.47269,1.604446,-59.75509,-138.0512,137.2226,-12.64589,202408291439482261,
2-12,C_HumanVertical,1,Q3FrontDown,-13.82771,39.47269,1.604446,-59.75509,-138.0512,137.2226,-12.64589,202408291439482644,
2-12,C_HumanVertical,1,Q3FrontDown,-13.58257,39.8146,1.58438,-59.97216,-138.0515,137.2227,-12.71464,202408291439482914,
2-12,C_HumanVertical,1,Q3FrontDown,-13.58257,39.8146,1.58438,-59.97216,-138.0515,137.2227,-12.71464,202408291439483115,
2-12,C_HumanVertical,1,Q3FrontDown,-13.44366,40.00213,1.567045,-60.08005,-138.0515,137.2222,-12.75408,202408291439483404,
2-12,C_HumanVertical,1,Q3FrontDown,-13.30698,40.20601,1.559101,-60.19944,-138.052,137.2212,-12.78039,202408291439483560,
2-12,C_HumanVertical,1,Q3FrontDown,-13.30698,40.20601,1.559101,-60.19944,-138.052,137.2212,-12.78039,202408291439483734,
2-12,C_HumanVertical,1,Q3FrontDown,-13.16989,40.42343,1.552733,-60.33956,-138.0537,137.222,-12.79752,202408291439483908,
2-12,C_HumanVertical,1,Q3FrontDown,-13.03882,40.62905,1.54722,-60.49336,-138.0542,137.2225,-12.8168,202408291439484193,
2-12,C_HumanVertical,1,Q3FrontDown,-13.03882,40.62905,1.54722,-60.49336,-138.0542,137.2225,-12.8168,202408291439484483,
2-12,C_HumanVertical,1,Q3FrontDown,-12.91094,40.83012,1.538984,-60.65683,-138.0843,137.2224,-12.82416,202408291439484627,
2-12,C_HumanVertical,1,Q3FrontDown,-12.78263,41.04214,1.537061,-60.80277,-138.1185,137.2223,-12.82257,202408291439484895,
2-12,C_HumanVertical,1,Q3FrontDown,-12.78263,41.04214,1.537061,-60.80277,-138.1185,137.2223,-12.82257,202408291439485116,
2-12,C_HumanVertical,1,Q3FrontDown,-12.66436,41.2554,1.536335,-60.92396,-138.1555,137.222,-12.81348,202408291439485263,
2-12,C_HumanVertical,1,Q3FrontDown,-12.66436,41.2554,1.536335,-60.92396,-138.1555,137.222,-12.81348,202408291439485579,
2-12,C_HumanVertical,1,Q3FrontDown,-12.5471,41.47108,1.535649,-61.07184,-138.1769,137.2215,-12.80642,202408291439485742,
2-12,C_HumanVertical,1,Q3FrontDown,-12.4406,41.68504,1.536015,-61.23362,-138.19,137.2222,-12.80118,202408291439485917,
2-12,C_HumanVertical,1,Q3FrontDown,-12.34283,41.89418,1.535789,-61.38446,-138.2039,137.223,-12.7969,202408291439486331,
2-12,C_HumanVertical,1,Q3FrontDown,-12.34283,41.89418,1.535789,-61.38446,-138.2039,137.223,-12.7969,202408291439486493,
2-12,C_HumanVertical,1,Q3FrontDown,-12.24897,42.11243,1.53538,-61.50443,-138.2147,137.223,-12.79399,202408291439486746,
2-12,C_HumanVertical,1,Q3FrontDown,-12.16002,42.31544,1.534618,-61.62844,-138.2249,137.2229,-12.7936,202408291439486982,
2-12,C_HumanVertical,1,Q3FrontDown,-12.07343,42.4971,1.533597,-61.74907,-138.2378,137.2226,-12.79222,202408291439487280,
2-12,C_HumanVertical,1,Q3FrontDown,-12.07343,42.4971,1.533597,-61.74907,-138.2378,137.2226,-12.79222,202408291439487495,
2-12,C_HumanVertical,1,Q3FrontDown,-11.9805,42.67611,1.532546,-61.87477,-138.2475,137.2215,-12.7906,202408291439487860,
2-12,C_HumanVertical,1,Q3FrontDown,-11.89248,42.83543,1.532109,-62.0284,-138.2505,137.2224,-12.7909,202408291439488091,
2-12,C_HumanVertical,1,Q3FrontDown,-11.80272,42.96701,1.52681,-62.2076,-138.2613,137.2223,-12.79123,202408291439488392,
2-12,C_HumanVertical,1,Q3FrontDown,-11.80272,42.96701,1.52681,-62.2076,-138.2613,137.2223,-12.79123,202408291439488573,
2-12,C_HumanVertical,1,Q3FrontDown,-11.6281,43.20623,1.505124,-62.55568,-138.2739,137.2222,-12.79073,202408291439488857,
2-12,C_HumanVertical,1,Q3FrontDown,-11.6281,43.20623,1.505124,-62.55568,-138.2739,137.2222,-12.79073,202408291439489085,
2-12,C_HumanVertical,1,Q3FrontDown,-11.54303,43.31409,1.494506,-62.74578,-138.2755,137.2222,-12.79077,202408291439489321,
2-12,C_HumanVertical,1,Q3FrontDown,-11.54303,43.31409,1.494506,-62.74578,-138.2755,137.2222,-12.79077,202408291439489494,
2-12,C_HumanVertical,1,Q3FrontDown,-11.44945,43.41534,1.47775,-62.93222,-138.2791,137.2221,-12.79087,202408291439489823,
2-12,C_HumanVertical,1,Q3FrontDown,-11.44945,43.41534,1.47775,-62.93222,-138.2791,137.2221,-12.79087,202408291439490084,
2-12,C_HumanVertical,1,Q3FrontDown,-11.3566,43.5307,1.45524,-63.0897,-138.291,137.2228,-12.79139,202408291439490253,
2-12,C_HumanVertical,1,Q3FrontDown,-11.3566,43.5307,1.45524,-63.0897,-138.291,137.2228,-12.79139,202408291439490442,
2-12,C_HumanVertical,1,Q3FrontDown,-11.3566,43.5307,1.45524,-63.0897,-138.291,137.2228,-12.79139,202408291439490607,
2-12,C_HumanVertical,1,Q3FrontDown,-11.18703,43.71703,1.417435,-63.42807,-138.3381,137.2301,-12.79017,202408291439490792,
2-12,C_HumanVertical,1,Q3FrontDown,-11.11676,43.80606,1.405287,-63.58943,-138.3624,137.2426,-12.78852,202408291439491042,
2-12,C_HumanVertical,1,Q3FrontDown,-11.11676,43.80606,1.405287,-63.58943,-138.3624,137.2426,-12.78852,202408291439491365,
2-12,C_HumanVertical,1,Q3FrontDown,-11.00821,43.96738,1.391584,-63.87769,-138.3982,137.254,-12.78901,202408291439491621,
2-12,C_HumanVertical,1,Q3FrontDown,-11.00821,43.96738,1.391584,-63.87769,-138.3982,137.254,-12.78901,202408291439491821,
2-12,C_HumanVertical,1,Q3FrontDown,-11.00821,43.96738,1.391584,-63.87769,-138.3982,137.254,-12.78901,202408291439492030,
2-12,C_HumanVertical,1,Q3FrontDown,-10.92621,44.10946,1.382455,-64.17469,-138.4171,137.2608,-12.80378,202408291439492316,
2-12,C_HumanVertical,1,Q3FrontDown,-10.92621,44.10946,1.382455,-64.17469,-138.4171,137.2608,-12.80378,202408291439492469,
2-12,C_HumanVertical,1,Q3FrontDown,-10.88758,44.17968,1.370587,-64.31219,-138.448,137.2611,-12.80364,202408291439492823,
2-12,C_HumanVertical,1,Q3FrontDown,-10.84909,44.24928,1.347553,-64.42992,-138.4765,137.2611,-12.80306,202408291439493017,
2-12,C_HumanVertical,1,Q3FrontDown,-10.84909,44.24928,1.347553,-64.42992,-138.4765,137.2611,-12.80306,202408291439493413,
2-12,C_HumanVertical,1,Q3FrontDown,-10.76801,44.39089,1.28138,-64.61045,-138.5359,137.2616,-12.80375,202408291439493585,
2-12,C_HumanVertical,1,Q3FrontDown,-10.76801,44.39089,1.28138,-64.61045,-138.5359,137.2616,-12.80375,202408291439493755,
2-12,C_HumanVertical,1,Q3FrontDown,-10.76801,44.39089,1.28138,-64.61045,-138.5359,137.2616,-12.80375,202408291439493979,
2-12,C_HumanVertical,1,Q3FrontDown,-10.66727,44.49295,1.154903,-64.79515,-138.5985,137.2633,-12.81582,202408291439494335,
2-12,C_HumanVertical,1,Q3FrontDown,-10.66727,44.49295,1.154903,-64.79515,-138.5985,137.2633,-12.81582,202408291439494505,
2-12,C_HumanVertical,1,Q3FrontDown,-10.61136,44.5261,1.074563,-64.87981,-138.6529,137.2639,-12.82194,202408291439494796,
2-12,C_HumanVertical,1,Q3FrontDown,-10.54557,44.5503,0.9671945,-64.9465,-138.7603,137.2632,-12.82236,202408291439495126,
2-12,C_HumanVertical,1,Q3FrontDown,-10.49009,44.56569,0.866191,-65.00798,-138.8597,137.263,-12.82346,202408291439495282,
2-12,C_HumanVertical,1,Q3FrontDown,-10.44853,44.57767,0.7858384,-65.05799,-138.9686,137.2645,-12.82535,202408291439495573,
2-12,C_HumanVertical,1,Q3FrontDown,-10.4137,44.5874,0.6985494,-65.07928,-139.1006,137.2641,-12.83148,202408291439495922,
2-12,C_HumanVertical,1,Q3FrontDown,-10.4137,44.5874,0.6985494,-65.07928,-139.1006,137.2641,-12.83148,202408291439496162,
2-12,C_HumanVertical,1,Q3FrontDown,-10.39468,44.58809,0.6120402,-65.08826,-139.2288,137.2638,-12.83838,202408291439496339,
2-12,C_HumanVertical,1,Q3FrontDown,-10.38577,44.58591,0.5286484,-65.08712,-139.335,137.2632,-12.85364,202408291439496581,
2-12,C_HumanVertical,1,Q3FrontDown,-10.38577,44.58591,0.5286484,-65.08712,-139.335,137.2632,-12.85364,202408291439496785,
2-12,C_HumanVertical,1,Q3FrontDown,-10.3851,44.58621,0.4435717,-65.08737,-139.4264,137.2634,-12.88273,202408291439496958,
2-12,C_HumanVertical,1,Q3FrontDown,-10.3851,44.58621,0.4435717,-65.08737,-139.4264,137.2634,-12.88273,202408291439497103,
2-12,C_HumanVertical,1,Q3FrontDown,-10.38616,44.58623,0.3500018,-65.07681,-139.5713,137.2621,-12.90322,202408291439497493,
2-12,C_HumanVertical,1,Q3FrontDown,-10.38654,44.5874,0.2536989,-65.0552,-139.7036,137.2618,-12.9246,202408291439497739,
2-12,C_HumanVertical,1,Q3FrontDown,-10.38917,44.58775,0.1539266,-65.01562,-139.8327,137.2607,-12.95348,202408291439497894,
2-12,C_HumanVertical,1,Q3FrontDown,-10.38917,44.58775,0.1539266,-65.01562,-139.8327,137.2607,-12.95348,202408291439498080,
2-12,C_HumanVertical,1,Q3FrontDown,-10.40096,44.58773,0.06344731,-64.96523,-139.9267,137.261,-12.99956,202408291439498248,
2-12,C_HumanVertical,1,Q3FrontDown,-10.40096,44.58773,0.06344731,-64.96523,-139.9267,137.261,-12.99956,202408291439498415,
2-12,C_HumanVertical,1,Q3FrontDown,-10.40096,44.58773,0.06344731,-64.96523,-139.9267,137.261,-12.99956,202408291439498618,
2-12,C_HumanVertical,1,Q3FrontDown,-10.43837,44.58768,-0.07822093,-64.78902,-140.0142,137.2611,-13.10505,202408291439498911,
2-12,C_HumanVertical,1,Q3FrontDown,-10.43837,44.58768,-0.07822093,-64.78902,-140.0142,137.2611,-13.10505,202408291439499080,
2-12,C_HumanVertical,1,Q3FrontDown,-10.46895,44.58307,-0.1196939,-64.66159,-140.0267,137.2608,-13.16748,202408291439499342,
2-12,C_HumanVertical,1,Q3FrontDown,-10.49727,44.5783,-0.147565,-64.51559,-140.0365,137.2601,-13.22307,202408291439499637,
2-12,C_HumanVertical,1,Q3FrontDown,-10.49727,44.5783,-0.147565,-64.51559,-140.0365,137.2601,-13.22307,202408291439499822,
2-12,C_HumanVertical,1,Q3FrontDown,-10.51836,44.56725,-0.1757642,-64.38399,-140.0488,137.2593,-13.27721,202408291439500071,
2-12,C_HumanVertical,1,Q3FrontDown,-10.51836,44.56725,-0.1757642,-64.38399,-140.0488,137.2593,-13.27721,202408291439500245,
2-12,C_HumanVertical,1,Q3FrontDown,-10.5522,44.54393,-0.18035,-64.25948,-140.0482,137.2597,-13.3625,202408291439500410,
2-12,C_HumanVertical,1,Q3FrontDown,-10.58849,44.52575,-0.1767883,-64.12086,-140.0478,137.2615,-13.44347,202408291439500571,
2-12,C_HumanVertical,1,Q3FrontDown,-10.58849,44.52575,-0.1767883,-64.12086,-140.0478,137.2615,-13.44347,202408291439500759,
2-12,C_HumanVertical,1,Q3FrontDown,-10.63279,44.50599,-0.1708487,-63.95212,-140.0469,137.2602,-13.50599,202408291439500981,
2-12,C_HumanVertical,1,Q3FrontDown,-10.68363,44.48474,-0.1698038,-63.76856,-140.0466,137.2601,-13.56821,202408291439501247,
2-12,C_HumanVertical,1,Q3FrontDown,-10.68363,44.48474,-0.1698038,-63.76856,-140.0466,137.2601,-13.56821,202408291439501414,
2-12,C_HumanVertical,1,Q3FrontDown,-10.74812,44.44242,-0.1509655,-63.60474,-140.0465,137.2613,-13.63075,202408291439501609,
2-12,C_HumanVertical,1,Q3FrontDown,-10.74812,44.44242,-0.1509655,-63.60474,-140.0465,137.2613,-13.63075,202408291439501777,
2-12,C_HumanVertical,1,Q3FrontDown,-10.84783,44.37593,-0.0933989,-63.4584,-140.0458,137.2601,-13.69643,202408291439502006,
2-12,C_HumanVertical,1,Q3FrontDown,-10.97526,44.29442,-0.02417635,-63.29244,-140.0461,137.2599,-13.76081,202408291439502268,
2-12,C_HumanVertical,1,Q3FrontDown,-10.97526,44.29442,-0.02417635,-63.29244,-140.0461,137.2599,-13.76081,202408291439502447,
2-12,C_HumanVertical,1,Q3FrontDown,-10.97526,44.29442,-0.02417635,-63.29244,-140.0461,137.2599,-13.76081,202408291439502759,
2-12,C_HumanVertical,1,Q3FrontDown,-11.25754,44.13047,0.08950532,-62.90338,-140.0345,137.2579,-13.90464,202408291439502917,
2-12,C_HumanVertical,1,Q3FrontDown,-11.25754,44.13047,0.08950532,-62.90338,-140.0345,137.2579,-13.90464,202408291439503113,
2-12,C_HumanVertical,1,Q3FrontDown,-11.4058,44.01402,0.1178707,-62.74297,-140.0306,137.2566,-13.97774,202408291439503423,
2-12,C_HumanVertical,1,Q3FrontDown,-11.54308,43.89618,0.1393528,-62.59975,-140.0295,137.2568,-14.04453,202408291439503579,
2-12,C_HumanVertical,1,Q3FrontDown,-11.54308,43.89618,0.1393528,-62.59975,-140.0295,137.2568,-14.04453,202408291439503744,
2-12,C_HumanVertical,1,Q3FrontDown,-11.54308,43.89618,0.1393528,-62.59975,-140.0295,137.2568,-14.04453,202408291439503953,
2-12,C_HumanVertical,1,Q3FrontDown,-11.91036,43.62636,0.1936541,-62.21466,-140.0287,137.2547,-14.17673,202408291439504205,
2-12,C_HumanVertical,1,Q3FrontDown,-11.91036,43.62636,0.1936541,-62.21466,-140.0287,137.2547,-14.17673,202408291439504475,
2-12,C_HumanVertical,1,Q3FrontDown,-12.09255,43.50176,0.2016081,-62.01102,-140.0287,137.2396,-14.23343,202408291439504774,
2-12,C_HumanVertical,1,Q3FrontDown,-12.2903,43.35977,0.2027256,-61.76779,-140.0285,137.2357,-14.29391,202408291439505123,
2-12,C_HumanVertical,1,Q3FrontDown,-12.49325,43.23183,0.2088432,-61.48388,-140.0283,137.2327,-14.34086,202408291439505423,
2-12,C_HumanVertical,1,Q3FrontDown,-12.68788,43.08677,0.2168021,-61.24127,-140.0281,137.2304,-14.38432,202408291439505619,
2-12,C_HumanVertical,1,Q3FrontDown,-12.90053,42.95268,0.2271644,-60.94491,-140.0278,137.2135,-14.43848,202408291439505914,
2-12,C_HumanVertical,1,Q3FrontDown,-12.90053,42.95268,0.2271644,-60.94491,-140.0278,137.2135,-14.43848,202408291439506126,
2-12,C_HumanVertical,1,Q3FrontDown,-13.10325,42.8046,0.2320507,-60.64933,-140.0276,137.2014,-14.49231,202408291439506342,
2-12,C_HumanVertical,1,Q3FrontDown,-13.30789,42.66764,0.2383073,-60.38243,-140.0287,137.1768,-14.53875,202408291439506594,
2-12,C_HumanVertical,1,Q3FrontDown,-13.30789,42.66764,0.2383073,-60.38243,-140.0287,137.1768,-14.53875,202408291439506813,
2-12,C_HumanVertical,1,Q3FrontDown,-13.51758,42.51179,0.2389803,-60.08689,-140.0295,137.1379,-14.57097,202408291439507151,
2-12,C_HumanVertical,1,Q3FrontDown,-13.72971,42.34819,0.2419808,-59.80281,-140.0294,137.0847,-14.6211,202408291439507353,
2-12,C_HumanVertical,1,Q3FrontDown,-13.93392,42.18655,0.253046,-59.55058,-140.0299,137.028,-14.66421,202408291439507632,
2-12,C_HumanVertical,1,Q3FrontDown,-13.93392,42.18655,0.253046,-59.55058,-140.0299,137.028,-14.66421,202408291439507913,
2-12,C_HumanVertical,1,Q3FrontDown,-14.14128,42.02345,0.272489,-59.27666,-140.0301,136.9555,-14.71159,202408291439508084,
2-12,C_HumanVertical,1,Q3FrontDown,-14.35098,41.86343,0.2937997,-58.97644,-140.0867,136.8517,-14.72573,202408291439508257,
2-12,C_HumanVertical,1,Q3FrontDown,-14.54175,41.70177,0.3077643,-58.68011,-140.1352,136.7388,-14.73177,202408291439508537,
2-12,C_HumanVertical,1,Q3FrontDown,-14.54175,41.70177,0.3077643,-58.68011,-140.1352,136.7388,-14.73177,202408291439508829,
2-12,C_HumanVertical,1,Q3FrontDown,-14.74899,41.52542,0.3194594,-58.36503,-140.1774,136.6249,-14.73697,202408291439509107,
2-12,C_HumanVertical,1,Q3FrontDown,-14.96139,41.36121,0.3530206,-58.05705,-140.296,136.4441,-14.73754,202408291439509258,
2-12,C_HumanVertical,1,Q3FrontDown,-14.96139,41.36121,0.3530206,-58.05705,-140.296,136.4441,-14.73754,202408291439509571,
2-12,C_HumanVertical,1,Q3FrontDown,-15.15895,41.22556,0.3863316,-57.73037,-140.3928,136.2595,-14.73751,202408291439509756,
2-12,C_HumanVertical,1,Q3FrontDown,-15.36477,41.04366,0.4339903,-57.42829,-140.4699,136.0639,-14.73729,202408291439509937,
2-12,C_HumanVertical,1,Q3FrontDown,-15.5568,40.87439,0.4904925,-57.13404,-140.5446,135.9053,-14.73757,202408291439510294,
2-12,C_HumanVertical,1,Q3FrontDown,-15.5568,40.87439,0.4904925,-57.13404,-140.5446,135.9053,-14.73757,202408291439510460,
2-12,C_HumanVertical,1,Q3FrontDown,-15.75585,40.70049,0.5795731,-56.84698,-140.6473,135.751,-14.73661,202408291439510748,
2-12,C_HumanVertical,1,Q3FrontDown,-15.98795,40.50747,0.7303739,-56.60138,-140.771,135.6147,-14.73238,202408291439510917,
2-12,C_HumanVertical,1,Q3FrontDown,-15.98795,40.50747,0.7303739,-56.60138,-140.771,135.6147,-14.73238,202408291439511085,
2-12,C_HumanVertical,1,Q3FrontDown,-16.24193,40.29571,0.9010678,-56.34859,-140.8947,135.4733,-14.73058,202408291439511256,
2-12,C_HumanVertical,1,Q3FrontDown,-16.24193,40.29571,0.9010678,-56.34859,-140.8947,135.4733,-14.73058,202408291439511461,
2-12,C_HumanVertical,1,Q3FrontDown,-16.48984,40.09053,1.046155,-56.10556,-141.0401,135.3148,-14.72934,202408291439511675,
2-12,C_HumanVertical,1,Q3FrontDown,-16.75884,39.87358,1.215025,-55.88418,-141.1762,135.153,-14.72799,202408291439511936,
2-12,C_HumanVertical,1,Q3FrontDown,-16.75884,39.87358,1.215025,-55.88418,-141.1762,135.153,-14.72799,202408291439512103,
2-12,C_HumanVertical,1,Q3FrontDown,-17.01657,39.67124,1.392722,-55.64463,-141.3013,135.0096,-14.72763,202408291439512424,
2-12,C_HumanVertical,1,Q3FrontDown,-17.26603,39.46111,1.557292,-55.41824,-141.4223,134.8848,-14.72766,202408291439512595,
2-12,C_HumanVertical,1,Q3FrontDown,-17.26603,39.46111,1.557292,-55.41824,-141.4223,134.8848,-14.72766,202408291439512806,
2-12,C_HumanVertical,1,Q3FrontDown,-17.51319,39.22602,1.7159,-55.23098,-141.5242,134.7424,-14.72711,202408291439513069,
2-12,C_HumanVertical,1,Q3FrontDown,-17.51319,39.22602,1.7159,-55.23098,-141.5242,134.7424,-14.72711,202408291439513242,
2-12,C_HumanVertical,1,Q3FrontDown,-17.77006,38.9937,1.894332,-55.06238,-141.6186,134.5849,-14.72742,202408291439513481,
2-12,C_HumanVertical,1,Q3FrontDown,-18.0227,38.79055,2.064181,-54.8836,-141.7093,134.4151,-14.7275,202408291439513751,
2-12,C_HumanVertical,1,Q3FrontDown,-18.0227,38.79055,2.064181,-54.8836,-141.7093,134.4151,-14.7275,202408291439513997,
2-12,C_HumanVertical,1,Q3FrontDown,-18.5266,38.34808,2.395557,-54.50948,-141.86,134.0999,-14.7276,202408291439514293,
2-12,C_HumanVertical,1,Q3FrontDown,-18.75412,38.15172,2.537985,-54.3101,-141.921,133.9685,-14.72759,202408291439514605,
2-12,C_HumanVertical,1,Q3FrontDown,-18.97588,37.95218,2.683626,-54.10166,-141.982,133.8468,-14.72812,202408291439515072,
2-12,C_HumanVertical,1,Q3FrontDown,-18.97588,37.95218,2.683626,-54.10166,-141.982,133.8468,-14.72812,202408291439515363,
2-12,C_HumanVertical,1,Q3FrontDown,-19.44472,37.51612,2.950407,-53.73886,-142.1146,133.6503,-14.72809,202408291439515661,
2-12,C_HumanVertical,1,Q3FrontDown,-19.44472,37.51612,2.950407,-53.73886,-142.1146,133.6503,-14.72809,202408291439515915,
2-12,C_HumanVertical,1,Q3FrontDown,-19.64517,37.32107,3.037182,-53.56155,-142.1817,133.5661,-14.72806,202408291439516077,
2-12,C_HumanVertical,1,Q3FrontDown,-19.86081,37.11757,3.130629,-53.38049,-142.2349,133.4675,-14.72834,202408291439516331,
2-12,C_HumanVertical,1,Q3FrontDown,-19.86081,37.11757,3.130629,-53.38049,-142.2349,133.4675,-14.72834,202408291439516498,
2-12,C_HumanVertical,1,Q3FrontDown,-20.06995,36.93768,3.21572,-53.18295,-142.2857,133.3785,-14.72875,202408291439516781,
2-12,C_HumanVertical,1,Q3FrontDown,-20.28075,36.75191,3.304046,-52.98848,-142.3481,133.3022,-14.72888,202408291439517112,
2-12,C_HumanVertical,1,Q3FrontDown,-20.50173,36.58827,3.393813,-52.77432,-142.4058,133.2074,-14.72884,202408291439517323,
2-12,C_HumanVertical,1,Q3FrontDown,-20.73416,36.42541,3.488842,-52.56412,-142.4535,133.1067,-14.72873,202408291439517599,
2-12,C_HumanVertical,1,Q3FrontDown,-20.99815,36.24569,3.602813,-52.36831,-142.4918,133.0055,-14.72896,202408291439517908,
2-12,C_HumanVertical,1,Q3FrontDown,-20.99815,36.24569,3.602813,-52.36831,-142.4918,133.0055,-14.72896,202408291439518124,
2-12,C_HumanVertical,1,Q3FrontDown,-21.25301,36.05575,3.69217,-52.1982,-142.5307,132.9102,-14.72919,202408291439518399,
2-12,C_HumanVertical,1,Q3FrontDown,-21.5076,35.9016,3.792898,-52.03299,-142.5631,132.8233,-14.72937,202408291439518571,
2-12,C_HumanVertical,1,Q3FrontDown,-21.5076,35.9016,3.792898,-52.03299,-142.5631,132.8233,-14.72937,202408291439518743,
2-12,C_HumanVertical,1,Q3FrontDown,-21.5076,35.9016,3.792898,-52.03299,-142.5631,132.8233,-14.72937,202408291439518909,
2-12,C_HumanVertical,1,Q3FrontDown,-21.76418,35.73068,3.899375,-51.87193,-142.5954,132.7429,-14.72929,202408291439519074,
2-12,C_HumanVertical,1,Q3FrontDown,-22.02337,35.55574,3.996611,-51.69925,-142.6109,132.6574,-14.72958,202408291439519293,
2-12,C_HumanVertical,1,Q3FrontDown,-22.29917,35.41282,4.112167,-51.53759,-142.6263,132.5695,-14.7301,202408291439519529,
2-12,C_HumanVertical,1,Q3FrontDown,-22.29917,35.41282,4.112167,-51.53759,-142.6263,132.5695,-14.7301,202408291439519793,
2-12,C_HumanVertical,1,Q3FrontDown,-22.58456,35.27836,4.234912,-51.37491,-142.6478,132.48,-14.73047,202408291439520063,
2-12,C_HumanVertical,1,Q3FrontDown,-22.58456,35.27836,4.234912,-51.37491,-142.6478,132.48,-14.73047,202408291439520228,
2-12,C_HumanVertical,1,Q3FrontDown,-22.88323,35.16654,4.393947,-51.17167,-142.6678,132.3763,-14.73024,202408291439520413,
2-12,C_HumanVertical,1,Q3FrontDown,-22.88323,35.16654,4.393947,-51.17167,-142.6678,132.3763,-14.73024,202408291439520662,
2-12,C_HumanVertical,1,Q3FrontDown,-23.18862,35.05544,4.552233,-50.95382,-142.6877,132.268,-14.73291,202408291439520911,
2-12,C_HumanVertical,1,Q3FrontDown,-23.18862,35.05544,4.552233,-50.95382,-142.6877,132.268,-14.73291,202408291439521068,
2-12,C_HumanVertical,1,Q3FrontDown,-23.18862,35.05544,4.552233,-50.95382,-142.6877,132.268,-14.73291,202408291439521330,
2-12,C_HumanVertical,1,Q3FrontDown,-24.07141,34.79649,5.014809,-50.34917,-142.7663,131.9255,-14.76625,202408291439521591,
2-12,C_HumanVertical,1,Q3FrontDown,-24.07141,34.79649,5.014809,-50.34917,-142.7663,131.9255,-14.76625,202408291439521837,
2-12,C_HumanVertical,1,Q3FrontDown,-24.35526,34.70131,5.146483,-50.14527,-142.7897,131.8209,-14.778,202408291439522079,
2-12,C_HumanVertical,1,Q3FrontDown,-24.65999,34.58464,5.319542,-49.97493,-142.8014,131.6783,-14.79698,202408291439522283,
2-12,C_HumanVertical,1,Q3FrontDown,-24.65999,34.58464,5.319542,-49.97493,-142.8014,131.6783,-14.79698,202408291439522569,
2-12,C_HumanVertical,1,Q3FrontDown,-24.93113,34.50135,5.469013,-49.79604,-142.8138,131.5318,-14.81716,202408291439522784,
2-12,C_HumanVertical,1,Q3FrontDown,-25.20273,34.42706,5.631454,-49.59019,-142.8328,131.3793,-14.83733,202408291439522973,
2-12,C_HumanVertical,1,Q3FrontDown,-25.20273,34.42706,5.631454,-49.59019,-142.8328,131.3793,-14.83733,202408291439523245,
2-12,C_HumanVertical,1,Q3FrontDown,-25.51797,34.34242,5.82597,-49.39545,-142.8562,131.2152,-14.861,202408291439523414,
2-12,C_HumanVertical,1,Q3FrontDown,-25.81717,34.24753,6.009758,-49.24657,-142.8792,131.0562,-14.88083,202408291439523578,
2-12,C_HumanVertical,1,Q3FrontDown,-25.81717,34.24753,6.009758,-49.24657,-142.8792,131.0562,-14.88083,202408291439523741,
2-12,C_HumanVertical,1,Q3FrontDown,-26.10558,34.15059,6.190139,-49.12869,-142.8963,130.9146,-14.89817,202408291439523980,
2-12,C_HumanVertical,1,Q3FrontDown,-26.37639,34.04605,6.341088,-49.02355,-142.9028,130.7817,-14.91453,202408291439524205,
2-12,C_HumanVertical,1,Q3FrontDown,-26.37639,34.04605,6.341088,-49.02355,-142.9028,130.7817,-14.91453,202408291439524478,
2-12,C_HumanVertical,1,Q3FrontDown,-26.62802,33.95105,6.478836,-48.91383,-142.9061,130.6772,-14.93062,202408291439524630,
2-12,C_HumanVertical,1,Q3FrontDown,-26.88751,33.85238,6.600291,-48.797,-142.9096,130.5793,-14.94755,202408291439524950,
2-12,C_HumanVertical,1,Q3FrontDown,-26.88751,33.85238,6.600291,-48.797,-142.9096,130.5793,-14.94755,202408291439525115,
2-12,C_HumanVertical,1,Q3FrontDown,-27.14112,33.76154,6.696164,-48.68797,-142.912,130.516,-14.9561,202408291439525392,
2-12,C_HumanVertical,1,Q3FrontDown,-27.37485,33.67859,6.794444,-48.59327,-142.9164,130.466,-14.9655,202408291439525582,
2-12,C_HumanVertical,1,Q3FrontDown,-27.61587,33.58514,6.898377,-48.52341,-142.9278,130.3998,-14.98396,202408291439525892,
2-12,C_HumanVertical,1,Q3FrontDown,-27.61587,33.58514,6.898377,-48.52341,-142.9278,130.3998,-14.98396,202408291439526105,
2-12,C_HumanVertical,1,Q3FrontDown,-27.84484,33.48897,6.982036,-48.46113,-142.9474,130.3412,-14.99135,202408291439526368,
2-12,C_HumanVertical,1,Q3FrontDown,-27.84484,33.48897,6.982036,-48.46113,-142.9474,130.3412,-14.99135,202408291439526579,
2-12,C_HumanVertical,1,Q3FrontDown,-28.06082,33.39898,7.067167,-48.40002,-142.9677,130.2726,-15.0066,202408291439526793,
2-12,C_HumanVertical,1,Q3FrontDown,-28.28622,33.30448,7.152922,-48.36251,-142.9902,130.1713,-15.03432,202408291439526942,
2-12,C_HumanVertical,1,Q3FrontDown,-28.28622,33.30448,7.152922,-48.36251,-142.9902,130.1713,-15.03432,202408291439527104,
2-12,C_HumanVertical,1,Q3FrontDown,-28.5183,33.20428,7.23413,-48.32071,-143.0293,130.059,-15.06116,202408291439527332,
2-12,C_HumanVertical,1,Q3FrontDown,-28.73318,33.10082,7.311974,-48.27916,-143.0696,129.9313,-15.08703,202408291439527599,
2-12,C_HumanVertical,1,Q3FrontDown,-28.73318,33.10082,7.311974,-48.27916,-143.0696,129.9313,-15.08703,202408291439527795,
2-12,C_HumanVertical,1,Q3FrontDown,-28.94706,33.01617,7.397851,-48.23237,-143.116,129.7594,-15.11426,202408291439528069,
2-12,C_HumanVertical,1,Q3FrontDown,-29.14737,32.93594,7.471814,-48.16689,-143.1686,129.5871,-15.14217,202408291439528245,
2-12,C_HumanVertical,1,Q3FrontDown,-29.14737,32.93594,7.471814,-48.16689,-143.1686,129.5871,-15.14217,202408291439528449,
2-12,C_HumanVertical,1,Q3FrontDown,-29.32058,32.85944,7.527671,-48.10181,-143.2284,129.4508,-15.16686,202408291439528748,
2-12,C_HumanVertical,1,Q3FrontDown,-29.48662,32.78462,7.564547,-48.03755,-143.2881,129.3593,-15.19126,202408291439528918,
2-12,C_HumanVertical,1,Q3FrontDown,-29.48662,32.78462,7.564547,-48.03755,-143.2881,129.3593,-15.19126,202408291439529107,
2-12,C_HumanVertical,1,Q3FrontDown,-29.48662,32.78462,7.564547,-48.03755,-143.2881,129.3593,-15.19126,202408291439529276,
2-12,C_HumanVertical,1,Q3FrontDown,-29.65299,32.70169,7.610304,-47.97939,-143.3303,129.2753,-15.20961,202408291439529495,
2-12,C_HumanVertical,1,Q3FrontDown,-29.79809,32.61493,7.640766,-47.93903,-143.3675,129.2262,-15.22533,202408291439529757,
2-12,C_HumanVertical,1,Q3FrontDown,-29.93393,32.52932,7.650768,-47.90474,-143.407,129.2135,-15.23034,202408291439529945,
2-12,C_HumanVertical,1,Q3FrontDown,-30.05956,32.44478,7.651711,-47.87524,-143.4478,129.1793,-15.24893,202408291439530235,
2-12,C_HumanVertical,1,Q3FrontDown,-30.05956,32.44478,7.651711,-47.87524,-143.4478,129.1793,-15.24893,202408291439530407,
2-12,C_HumanVertical,1,Q3FrontDown,-30.16468,32.35762,7.653138,-47.859,-143.4835,129.1427,-15.26678,202408291439530614,
2-12,C_HumanVertical,1,Q3FrontDown,-30.26129,32.28416,7.655116,-47.8412,-143.5164,129.1098,-15.27862,202408291439530912,
2-12,C_HumanVertical,1,Q3FrontDown,-30.26129,32.28416,7.655116,-47.8412,-143.5164,129.1098,-15.27862,202408291439531173,
2-12,C_HumanVertical,1,Q3FrontDown,-30.35008,32.22704,7.664059,-47.82404,-143.5499,129.0814,-15.29036,202408291439531429,
2-12,C_HumanVertical,1,Q3FrontDown,-30.44518,32.17147,7.675802,-47.81433,-143.5849,129.0499,-15.30297,202408291439531716,
2-12,C_HumanVertical,1,Q3FrontDown,-30.52851,32.12194,7.676565,-47.80894,-143.6137,129.009,-15.3156,202408291439531936,
2-12,C_HumanVertical,1,Q3FrontDown,-30.61043,32.07763,7.676571,-47.80829,-143.6405,128.9382,-15.34328,202408291439532248,
2-12,C_HumanVertical,1,Q3FrontDown,-30.61043,32.07763,7.676571,-47.80829,-143.6405,128.9382,-15.34328,202408291439532463,
2-12,C_HumanVertical,1,Q3FrontDown,-30.67623,32.04204,7.676484,-47.80811,-143.6644,128.8666,-15.36769,202408291439532626,
2-12,C_HumanVertical,1,Q3FrontDown,-30.73268,32.0097,7.676321,-47.80746,-143.6922,128.8008,-15.38568,202408291439532905,
2-12,C_HumanVertical,1,Q3FrontDown,-30.73268,32.0097,7.676321,-47.80746,-143.6922,128.8008,-15.38568,202408291439533069,
2-12,C_HumanVertical,1,Q3FrontDown,-30.78485,31.97342,7.674368,-47.80744,-143.7207,128.7743,-15.3904,202408291439533245,
2-12,C_HumanVertical,1,Q3FrontDown,-30.82507,31.93732,7.673619,-47.80738,-143.735,128.7635,-15.39166,202408291439533604,
2-12,C_HumanVertical,1,Q3FrontDown,-30.82507,31.93732,7.673619,-47.80738,-143.735,128.7635,-15.39166,202408291439533824,
2-12,C_HumanVertical,1,Q3FrontDown,-30.85041,31.90496,7.673897,-47.80753,-143.7443,128.7557,-15.39289,202408291439534065,
2-12,C_HumanVertical,1,Q3FrontDown,-30.87289,31.86648,7.673897,-47.80761,-143.7496,128.7486,-15.39433,202408291439534329,
2-12,C_HumanVertical,1,Q3FrontDown,-30.88543,31.82924,7.674761,-47.80764,-143.7527,128.742,-15.39632,202408291439534614,
2-12,C_HumanVertical,1,Q3FrontDown,-30.88543,31.82924,7.674761,-47.80764,-143.7527,128.742,-15.39632,202408291439534792,
2-12,C_HumanVertical,1,Q3FrontDown,-30.8906,31.79127,7.674973,-47.80671,-143.7574,128.7142,-15.40773,202408291439535096,
2-12,C_HumanVertical,1,Q3FrontDown,-30.89538,31.75453,7.676292,-47.80606,-143.7652,128.699,-15.41136,202408291439535403,
2-12,C_HumanVertical,1,Q3FrontDown,-30.89718,31.72063,7.676416,-47.80575,-143.7713,128.6865,-15.41318,202408291439535566,
2-12,C_HumanVertical,1,Q3FrontDown,-30.89755,31.6866,7.676191,-47.80595,-143.7751,128.672,-15.41432,202408291439535970,
2-12,C_HumanVertical,1,Q3FrontDown,-30.89767,31.51525,7.676754,-47.80472,-143.7856,128.5094,-15.42286,202408291439538524,
2-12,C_HumanVertical,1,Q3FrontDown,-30.89775,31.50623,7.676537,-47.80496,-143.7861,128.4933,-15.42325,202408291439538693,
2-12,C_HumanVertical,1,Q3FrontDown,-30.89751,31.50265,7.676417,-47.80502,-143.7866,128.4796,-15.42435,202408291439538940,
2-12,C_HumanVertical,1,Q3FrontDown,-30.89751,31.50265,7.676417,-47.80502,-143.7866,128.4796,-15.42435,202408291439539160,
2-12,C_HumanVertical,1,Q3FrontDown,-30.89761,31.50239,7.676782,-47.80514,-143.7868,128.4783,-15.42439,202408291439539333,
2-12,C_HumanVertical,1,Q3FrontDown,-30.89761,31.50239,7.676782,-47.80514,-143.7868,128.4783,-15.42439,202408291439539491,
2-12,C_HumanVertical,1,Q3FrontDown,-30.82064,31.50334,7.569181,-47.80532,-143.7868,128.4778,-15.42434,202408291439539766,
2-12,C_HumanVertical,1,Q3FrontDown,-30.41458,31.49355,6.853533,-47.80825,-143.8028,128.4747,-15.43054,202408291439539969,
2-12,C_HumanVertical,1,Q3FrontDown,-30.02572,31.49172,6.24425,-47.81738,-143.815,128.4741,-15.44934,202408291439540232,
2-12,C_HumanVertical,1,Q3FrontDown,-30.02572,31.49172,6.24425,-47.81738,-143.815,128.4741,-15.44934,202408291439540435,
2-12,C_HumanVertical,1,Q3FrontDown,-29.59122,31.4898,5.657052,-47.81671,-143.8307,128.4722,-15.45274,202408291439540673,
2-12,C_HumanVertical,1,Q3FrontDown,-29.097,31.48795,4.963702,-47.81385,-143.8591,128.4724,-15.45286,202408291439540863,
2-12,C_HumanVertical,1,Q3FrontDown,-29.097,31.48795,4.963702,-47.81385,-143.8591,128.4724,-15.45286,202408291439541109,
2-12,C_HumanVertical,1,Q3FrontDown,-28.46503,31.49995,4.147594,-47.82263,-143.8771,128.4733,-15.45296,202408291439541266,
2-12,C_HumanVertical,1,Q3FrontDown,-28.46503,31.49995,4.147594,-47.82263,-143.8771,128.4733,-15.45296,202408291439541480,
2-12,C_HumanVertical,1,Q3FrontDown,-27.80351,31.50376,3.312213,-47.8191,-143.8934,128.4734,-15.45347,202408291439541724,
2-12,C_HumanVertical,1,Q3FrontDown,-27.05258,31.50365,2.424708,-47.80611,-143.9128,128.4743,-15.45331,202408291439542012,
2-12,C_HumanVertical,1,Q3FrontDown,-26.31229,31.51106,1.602331,-47.79488,-143.9313,128.4753,-15.45335,202408291439542304,
2-12,C_HumanVertical,1,Q3FrontDown,-25.58801,31.51548,0.8653671,-47.78895,-143.9556,128.4752,-15.45334,202408291439542613,
2-12,C_HumanVertical,1,Q3FrontDown,-25.58801,31.51548,0.8653671,-47.78895,-143.9556,128.4752,-15.45334,202408291439542811,
2-12,C_HumanVertical,1,Q3FrontDown,-24.82728,31.52243,0.1299067,-47.77073,-143.9905,128.4754,-15.453,202408291439543038,
2-12,C_HumanVertical,1,Q3FrontDown,-24.82728,31.52243,0.1299067,-47.77073,-143.9905,128.4754,-15.453,202408291439543220,
2-12,C_HumanVertical,1,Q3FrontDown,-24.82728,31.52243,0.1299067,-47.77073,-143.9905,128.4754,-15.453,202408291439543443,
2-12,C_HumanVertical,1,Q3FrontDown,-23.27505,31.55888,-1.347689,-47.72299,-144.0554,128.4764,-15.4533,202408291439543606,
2-12,C_HumanVertical,1,Q3FrontDown,-23.27505,31.55888,-1.347689,-47.72299,-144.0554,128.4764,-15.4533,202408291439543805,
2-12,C_HumanVertical,1,Q3FrontDown,-22.50114,31.57333,-2.017437,-47.69218,-144.0952,128.4771,-15.45274,202408291439543987,
2-12,C_HumanVertical,1,Q3FrontDown,-21.79191,31.60292,-2.622262,-47.65687,-144.1302,128.4783,-15.45288,202408291439544194,
2-12,C_HumanVertical,1,Q3FrontDown,-21.79191,31.60292,-2.622262,-47.65687,-144.1302,128.4783,-15.45288,202408291439544448,
2-12,C_HumanVertical,1,Q3FrontDown,-21.79191,31.60292,-2.622262,-47.65687,-144.1302,128.4783,-15.45288,202408291439544627,
2-12,C_HumanVertical,1,Q3FrontDown,-21.11663,31.62785,-3.162199,-47.62231,-144.1777,128.4818,-15.45236,202408291439544831,
2-12,C_HumanVertical,1,Q3FrontDown,-20.47213,31.65375,-3.650082,-47.59163,-144.2445,128.4877,-15.45167,202408291439545101,
2-12,C_HumanVertical,1,Q3FrontDown,-19.8591,31.68577,-4.115582,-47.5513,-144.3299,128.4883,-15.45128,202408291439545285,
2-12,C_HumanVertical,1,Q3FrontDown,-19.27156,31.72025,-4.526193,-47.50782,-144.4216,128.4884,-15.45169,202408291439545596,
2-12,C_HumanVertical,1,Q3FrontDown,-19.27156,31.72025,-4.526193,-47.50782,-144.4216,128.4884,-15.45169,202408291439545758,
2-12,C_HumanVertical,1,Q3FrontDown,-19.27156,31.72025,-4.526193,-47.50782,-144.4216,128.4884,-15.45169,202408291439545949,
2-12,C_HumanVertical,1,Q3FrontDown,-18.2303,31.7944,-5.257394,-47.41125,-144.5771,128.4907,-15.45153,202408291439546303,
2-12,C_HumanVertical,1,Q3FrontDown,-18.2303,31.7944,-5.257394,-47.41125,-144.5771,128.4907,-15.45153,202408291439546514,
2-12,C_HumanVertical,1,Q3FrontDown,-17.74075,31.84721,-5.595421,-47.34177,-144.6475,128.4941,-15.45081,202408291439546802,
2-12,C_HumanVertical,1,Q3FrontDown,-17.25935,31.90592,-5.947003,-47.24652,-144.7022,128.4953,-15.45112,202408291439546972,
2-12,C_HumanVertical,1,Q3FrontDown,-17.25935,31.90592,-5.947003,-47.24652,-144.7022,128.4953,-15.45112,202408291439547136,
2-12,C_HumanVertical,1,Q3FrontDown,-16.81061,31.96424,-6.228262,-47.15131,-144.7493,128.4958,-15.45122,202408291439547480,
2-12,C_HumanVertical,1,Q3FrontDown,-16.3579,32.03046,-6.518918,-47.05989,-144.7954,128.4988,-15.45128,202408291439547764,
2-12,C_HumanVertical,1,Q3FrontDown,-15.90812,32.11517,-6.822149,-46.91919,-144.8403,128.5042,-15.45125,202408291439547935,
2-12,C_HumanVertical,1,Q3FrontDown,-15.90812,32.11517,-6.822149,-46.91919,-144.8403,128.5042,-15.45125,202408291439548140,
2-12,C_HumanVertical,1,Q3FrontDown,-15.4864,32.21538,-7.09323,-46.76044,-144.8729,128.5071,-15.45136,202408291439548443,
2-12,C_HumanVertical,1,Q3FrontDown,-15.03319,32.32038,-7.36118,-46.57626,-144.8951,128.5188,-15.45105,202408291439548684,
2-12,C_HumanVertical,1,Q3FrontDown,-14.5817,32.44328,-7.594393,-46.36832,-144.9124,128.5425,-15.45109,202408291439548919,
2-12,C_HumanVertical,1,Q3FrontDown,-14.5817,32.44328,-7.594393,-46.36832,-144.9124,128.5425,-15.45109,202408291439549123,
2-12,C_HumanVertical,1,Q3FrontDown,-14.17296,32.5716,-7.809718,-46.19056,-144.9293,128.5511,-15.45126,202408291439549306,
2-12,C_HumanVertical,1,Q3FrontDown,-14.17296,32.5716,-7.809718,-46.19056,-144.9293,128.5511,-15.45126,202408291439549492,
2-12,C_HumanVertical,1,Q3FrontDown,-13.74106,32.70535,-8.029675,-45.9838,-144.9536,128.5689,-15.45151,202408291439549672,
2-12,C_HumanVertical,1,Q3FrontDown,-13.29793,32.85202,-8.228745,-45.73697,-144.9776,128.5827,-15.45139,202408291439549926,
2-12,C_HumanVertical,1,Q3FrontDown,-13.29793,32.85202,-8.228745,-45.73697,-144.9776,128.5827,-15.45139,202408291439550079,
2-12,C_HumanVertical,1,Q3FrontDown,-12.85884,33.0148,-8.421067,-45.47945,-145.0045,128.5992,-15.45186,202408291439550273,
2-12,C_HumanVertical,1,Q3FrontDown,-12.85884,33.0148,-8.421067,-45.47945,-145.0045,128.5992,-15.45186,202408291439550605,
2-12,C_HumanVertical,1,Q3FrontDown,-11.9879,33.30595,-8.834213,-44.99258,-145.0767,128.6329,-15.45193,202408291439550841,
2-12,C_HumanVertical,1,Q3FrontDown,-11.9879,33.30595,-8.834213,-44.99258,-145.0767,128.6329,-15.45193,202408291439551105,
2-12,C_HumanVertical,1,Q3FrontDown,-11.52321,33.42929,-9.034486,-44.77301,-145.1216,128.6569,-15.4518,202408291439551359,
2-12,C_HumanVertical,1,Q3FrontDown,-11.10159,33.54617,-9.218572,-44.59517,-145.1782,128.6773,-15.452,202408291439551650,
2-12,C_HumanVertical,1,Q3FrontDown,-11.10159,33.54617,-9.218572,-44.59517,-145.1782,128.6773,-15.452,202408291439551847,
2-12,C_HumanVertical,1,Q3FrontDown,-10.66347,33.64825,-9.385467,-44.44343,-145.2492,128.6986,-15.45249,202408291439552093,
2-12,C_HumanVertical,1,Q3FrontDown,-10.21485,33.75764,-9.532543,-44.28215,-145.3255,128.7256,-15.45208,202408291439552295,
2-12,C_HumanVertical,1,Q3FrontDown,-10.21485,33.75764,-9.532543,-44.28215,-145.3255,128.7256,-15.45208,202408291439552472,
2-12,C_HumanVertical,1,Q3FrontDown,-9.802557,33.83915,-9.67474,-44.14185,-145.4072,128.747,-15.45217,202408291439552805,
2-12,C_HumanVertical,1,Q3FrontDown,-9.389212,33.91964,-9.815883,-44.0472,-145.5075,128.7624,-15.45222,202408291439552968,
2-12,C_HumanVertical,1,Q3FrontDown,-9.389212,33.91964,-9.815883,-44.0472,-145.5075,128.7624,-15.45222,202408291439553258,
2-12,C_HumanVertical,1,Q3FrontDown,-8.934276,33.99863,-9.980646,-43.96123,-145.5941,128.7918,-15.45228,202408291439553432,
2-12,C_HumanVertical,1,Q3FrontDown,-8.501696,34.06421,-10.15786,-43.88318,-145.6592,128.829,-15.4522,202408291439553610,
2-12,C_HumanVertical,1,Q3FrontDown,-8.501696,34.06421,-10.15786,-43.88318,-145.6592,128.829,-15.4522,202408291439553774,
2-12,C_HumanVertical,1,Q3FrontDown,-8.501696,34.06421,-10.15786,-43.88318,-145.6592,128.829,-15.4522,202408291439554005,
2-12,C_HumanVertical,1,Q3FrontDown,-8.089907,34.11579,-10.35099,-43.81943,-145.7124,128.8639,-15.45304,202408291439554181,
2-12,C_HumanVertical,1,Q3FrontDown,-7.766266,34.16083,-10.45706,-43.76401,-145.7606,128.9005,-15.45305,202408291439554470,
2-12,C_HumanVertical,1,Q3FrontDown,-7.426933,34.21645,-10.56358,-43.71162,-145.8058,128.9407,-15.45291,202408291439554652,
2-12,C_HumanVertical,1,Q3FrontDown,-7.185473,34.26101,-10.62014,-43.67041,-145.8348,128.9728,-15.45291,202408291439554939,
2-12,C_HumanVertical,1,Q3FrontDown,-7.185473,34.26101,-10.62014,-43.67041,-145.8348,128.9728,-15.45291,202408291439555103,
2-12,C_HumanVertical,1,Q3FrontDown,-7.023061,34.28706,-10.68341,-43.65446,-145.8472,129.0161,-15.4525,202408291439555351,
2-12,C_HumanVertical,1,Q3FrontDown,-7.023061,34.28706,-10.68341,-43.65446,-145.8472,129.0161,-15.4525,202408291439555611,
2-12,C_HumanVertical,1,Q3FrontDown,-6.921999,34.30626,-10.73661,-43.65658,-145.8579,129.0683,-15.45225,202408291439555772,
2-12,C_HumanVertical,1,Q3FrontDown,-6.896955,34.32047,-10.74187,-43.68029,-145.8707,129.1416,-15.45194,202408291439556196,
2-12,C_HumanVertical,1,Q3FrontDown,-6.936453,34.32258,-10.74565,-43.75224,-145.8774,129.1954,-15.45172,202408291439556422,
2-12,C_HumanVertical,1,Q3FrontDown,-7.028809,34.31188,-10.74938,-43.85529,-145.8937,129.2339,-15.44662,202408291439556633,
2-12,C_HumanVertical,1,Q3FrontDown,-7.028809,34.31188,-10.74938,-43.85529,-145.8937,129.2339,-15.44662,202408291439556803,
2-12,C_HumanVertical,1,Q3FrontDown,-7.176282,34.30046,-10.75195,-44.02463,-145.9182,129.2482,-15.43937,202408291439556977,
2-12,C_HumanVertical,1,Q3FrontDown,-7.176282,34.30046,-10.75195,-44.02463,-145.9182,129.2482,-15.43937,202408291439557151,
2-12,C_HumanVertical,1,Q3FrontDown,-7.176282,34.30046,-10.75195,-44.02463,-145.9182,129.2482,-15.43937,202408291439557479,
2-12,C_HumanVertical,1,Q3FrontDown,-7.58632,34.28789,-10.80853,-44.36606,-145.9665,129.2773,-15.42207,202408291439557692,
2-12,C_HumanVertical,1,Q3FrontDown,-7.58632,34.28789,-10.80853,-44.36606,-145.9665,129.2773,-15.42207,202408291439557959,
2-12,C_HumanVertical,1,Q3FrontDown,-7.58632,34.28789,-10.80853,-44.36606,-145.9665,129.2773,-15.42207,202408291439558171,
2-12,C_HumanVertical,1,Q3FrontDown,-8.117485,34.2599,-10.81492,-44.89831,-146.0008,129.2875,-15.39202,202408291439558534,
2-12,C_HumanVertical,1,Q3FrontDown,-8.772076,34.22684,-10.81299,-45.60295,-146.0144,129.3151,-15.37321,202408291439558873,
2-12,C_HumanVertical,1,Q3FrontDown,-9.143316,34.21341,-10.81547,-45.96011,-146.0182,129.323,-15.3689,202408291439559238,
2-12,C_HumanVertical,1,Q3FrontDown,-9.494673,34.211,-10.81155,-46.32352,-146.0203,129.3304,-15.36677,202408291439559617,
2-12,C_HumanVertical,1,Q3FrontDown,-9.494673,34.211,-10.81155,-46.32352,-146.0203,129.3304,-15.36677,202408291439559854,
2-12,C_HumanVertical,1,Q3FrontDown,-9.850923,34.21507,-10.81356,-46.67162,-146.0207,129.3433,-15.3666,202408291439560106,
2-12,C_HumanVertical,1,Q3FrontDown,-10.21704,34.21021,-10.79763,-47.07073,-146.0212,129.3449,-15.36511,202408291439560432,
2-12,C_HumanVertical,1,Q3FrontDown,-10.57948,34.20208,-10.78736,-47.44958,-146.0213,129.3472,-15.36401,202408291439560614,
2-12,C_HumanVertical,1,Q3FrontDown,-10.93187,34.2007,-10.78508,-47.82326,-146.0212,129.3495,-15.36314,202408291439560883,
2-12,C_HumanVertical,1,Q3FrontDown,-11.29341,34.19829,-10.75177,-48.21009,-146.0215,129.3494,-15.36357,202408291439561202,
2-12,C_HumanVertical,1,Q3FrontDown,-11.29341,34.19829,-10.75177,-48.21009,-146.0215,129.3494,-15.36357,202408291439561510,
2-12,C_HumanVertical,1,Q3FrontDown,-11.61688,34.18373,-10.72585,-48.58694,-146.0214,129.3486,-15.36386,202408291439561658,
2-12,C_HumanVertical,1,Q3FrontDown,-11.61688,34.18373,-10.72585,-48.58694,-146.0214,129.3486,-15.36386,202408291439561866,
2-12,C_HumanVertical,1,Q3FrontDown,-11.95607,34.17905,-10.68945,-48.9731,-146.0213,129.3486,-15.36375,202408291439562148,
2-12,C_HumanVertical,1,Q3FrontDown,-12.28136,34.15336,-10.64233,-49.38866,-146.0212,129.3496,-15.36316,202408291439562461,
2-12,C_HumanVertical,1,Q3FrontDown,-12.28136,34.15336,-10.64233,-49.38866,-146.0212,129.3496,-15.36316,202408291439562652,
2-12,C_HumanVertical,1,Q3FrontDown,-12.8984,34.10752,-10.51848,-50.17579,-146.0212,129.3497,-15.36098,202408291439562968,
2-12,C_HumanVertical,1,Q3FrontDown,-13.20464,34.06844,-10.44512,-50.59764,-146.0212,129.349,-15.35992,202408291439563276,
2-12,C_HumanVertical,1,Q3FrontDown,-13.49852,34.05312,-10.38853,-51.01507,-146.0212,129.3507,-15.35892,202408291439563627,
2-12,C_HumanVertical,1,Q3FrontDown,-13.49852,34.05312,-10.38853,-51.01507,-146.0212,129.3507,-15.35892,202408291439563852,
2-12,C_HumanVertical,1,Q3FrontDown,-13.77597,34.04576,-10.35325,-51.37593,-146.0214,129.3493,-15.35805,202408291439564057,
2-12,C_HumanVertical,1,Q3FrontDown,-14.06723,34.01855,-10.28535,-51.78144,-146.0216,129.3497,-15.35704,202408291439564456,
2-12,C_HumanVertical,1,Q3FrontDown,-14.32596,33.98889,-10.22242,-52.16435,-146.0216,129.3482,-15.35575,202408291439564619,
2-12,C_HumanVertical,1,Q3FrontDown,-14.56167,33.97675,-10.161,-52.60315,-146.0213,129.3507,-15.35543,202408291439564939,
2-12,C_HumanVertical,1,Q3FrontDown,-14.56167,33.97675,-10.161,-52.60315,-146.0213,129.3507,-15.35543,202408291439565177,
2-12,C_HumanVertical,1,Q3FrontDown,-14.80511,33.9447,-10.10054,-53.02522,-146.0215,129.3487,-15.35499,202408291439565425,
2-12,C_HumanVertical,1,Q3FrontDown,-15.04014,33.89603,-10.0518,-53.45841,-146.0213,129.3472,-15.35292,202408291439565794,
2-12,C_HumanVertical,1,Q3FrontDown,-15.2508,33.83803,-9.982285,-53.93601,-146.0213,129.3495,-15.34646,202408291439566072,
2-12,C_HumanVertical,1,Q3FrontDown,-15.47511,33.82039,-9.896922,-54.37726,-146.0215,129.3484,-15.34182,202408291439566330,
2-12,C_HumanVertical,1,Q3FrontDown,-15.67344,33.77531,-9.817728,-54.82775,-145.989,129.3472,-15.36312,202408291439566576,
2-12,C_HumanVertical,1,Q3FrontDown,-15.67344,33.77531,-9.817728,-54.82775,-145.989,129.3472,-15.36312,202408291439566751,
2-12,C_HumanVertical,1,Q3FrontDown,-15.84937,33.70574,-9.744056,-55.33584,-145.928,129.3485,-15.42675,202408291439567017,
2-12,C_HumanVertical,1,Q3FrontDown,-16.02954,33.67332,-9.668084,-55.83607,-145.9147,129.3474,-15.46125,202408291439567391,
2-12,C_HumanVertical,1,Q3FrontDown,-16.19745,33.63175,-9.588615,-56.34753,-145.911,129.3382,-15.505,202408291439567705,
2-12,C_HumanVertical,1,Q3FrontDown,-16.36286,33.55862,-9.517772,-56.88658,-145.9086,129.3062,-15.56863,202408291439567947,
2-12,C_HumanVertical,1,Q3FrontDown,-16.36286,33.55862,-9.517772,-56.88658,-145.9086,129.3062,-15.56863,202408291439568115,
2-12,C_HumanVertical,1,Q3FrontDown,-16.53282,33.53991,-9.458596,-57.38439,-145.9064,129.2925,-15.63414,202408291439568425,
2-12,C_HumanVertical,1,Q3FrontDown,-16.67722,33.51552,-9.401841,-57.86263,-145.9069,129.2819,-15.67214,202408291439568675,
2-12,C_HumanVertical,1,Q3FrontDown,-16.82812,33.47826,-9.3259,-58.31754,-145.9081,129.2814,-15.67643,202408291439568879,
2-12,C_HumanVertical,1,Q3FrontDown,-16.82812,33.47826,-9.3259,-58.31754,-145.9081,129.2814,-15.67643,202408291439569124,
2-12,C_HumanVertical,1,Q3FrontDown,-16.97696,33.44557,-9.254935,-58.80657,-145.9279,129.2319,-15.67898,202408291439569240,
2-12,C_HumanVertical,1,Q3FrontDown,-16.97696,33.44557,-9.254935,-58.80657,-145.9279,129.2319,-15.67898,202408291439569470,
2-12,C_HumanVertical,1,Q3FrontDown,-17.1052,33.39246,-9.191526,-59.2966,-145.9483,129.1743,-15.68057,202408291439569632,
2-12,C_HumanVertical,1,Q3FrontDown,-17.22379,33.33609,-9.139141,-59.7708,-145.9666,129.1321,-15.68037,202408291439569908,
2-12,C_HumanVertical,1,Q3FrontDown,-17.22379,33.33609,-9.139141,-59.7708,-145.9666,129.1321,-15.68037,202408291439570117,
2-12,C_HumanVertical,1,Q3FrontDown,-17.33887,33.28777,-9.086439,-60.23803,-146.0058,129.0767,-15.68023,202408291439570510,
2-12,C_HumanVertical,1,Q3FrontDown,-17.44227,33.22073,-9.035784,-60.70807,-146.0311,128.9886,-15.67715,202408291439570734,
2-12,C_HumanVertical,1,Q3FrontDown,-17.44227,33.22073,-9.035784,-60.70807,-146.0311,128.9886,-15.67715,202408291439570921,
2-12,C_HumanVertical,1,Q3FrontDown,-17.54398,33.14827,-8.975565,-61.13918,-146.0466,128.891,-15.67252,202408291439571072,
2-12,C_HumanVertical,1,Q3FrontDown,-17.54398,33.14827,-8.975565,-61.13918,-146.0466,128.891,-15.67252,202408291439571251,
2-12,C_HumanVertical,1,Q3FrontDown,-17.64074,33.09078,-8.915178,-61.56053,-146.0596,128.8071,-15.6693,202408291439571447,
2-12,C_HumanVertical,1,Q3FrontDown,-17.73212,33.03403,-8.858738,-61.94206,-146.0641,128.7205,-15.66886,202408291439571625,
2-12,C_HumanVertical,1,Q3FrontDown,-17.73212,33.03403,-8.858738,-61.94206,-146.0641,128.7205,-15.66886,202408291439571842,
2-12,C_HumanVertical,1,Q3FrontDown,-17.81061,32.95807,-8.81365,-62.3658,-146.0639,128.6204,-15.66999,202408291439572103,
2-12,C_HumanVertical,1,Q3FrontDown,-17.88849,32.84598,-8.770082,-62.82611,-146.064,128.4927,-15.67139,202408291439572403,
2-12,C_HumanVertical,1,Q3FrontDown,-17.95761,32.77072,-8.728281,-63.26782,-146.0661,128.4018,-15.67068,202408291439572604,
2-12,C_HumanVertical,1,Q3FrontDown,-18.01779,32.66832,-8.690309,-63.71738,-146.0745,128.2896,-15.66961,202408291439572953,
2-12,C_HumanVertical,1,Q3FrontDown,-18.07272,32.55832,-8.662553,-64.17096,-146.1308,128.2115,-15.63373,202408291439573244,
2-12,C_HumanVertical,1,Q3FrontDown,-18.07272,32.55832,-8.662553,-64.17096,-146.1308,128.2115,-15.63373,202408291439573416,
2-12,C_HumanVertical,1,Q3FrontDown,-18.10881,32.47736,-8.641219,-64.60754,-146.1769,128.1524,-15.6096,202408291439573651,
2-12,C_HumanVertical,1,Q3FrontDown,-18.13136,32.37915,-8.627193,-65.05212,-146.1939,128.077,-15.5918,202408291439573996,
2-12,C_HumanVertical,1,Q3FrontDown,-18.15262,32.2937,-8.615457,-65.48636,-146.209,128.0146,-15.57995,202408291439574248,
2-12,C_HumanVertical,1,Q3FrontDown,-18.16235,32.21321,-8.60617,-65.89388,-146.2178,127.9492,-15.57436,202408291439574601,
2-12,C_HumanVertical,1,Q3FrontDown,-18.16264,32.14787,-8.5909,-66.34652,-146.2174,127.9016,-15.57569,202408291439574943,
2-12,C_HumanVertical,1,Q3FrontDown,-18.16264,32.14787,-8.5909,-66.34652,-146.2174,127.9016,-15.57569,202408291439575130,
2-12,C_HumanVertical,1,Q3FrontDown,-18.16227,32.03822,-8.568973,-66.86353,-146.2169,127.8189,-15.58383,202408291439575406,
2-12,C_HumanVertical,1,Q3FrontDown,-18.15956,31.92207,-8.545551,-67.40147,-146.2172,127.7356,-15.58713,202408291439575579,
2-12,C_HumanVertical,1,Q3FrontDown,-18.15956,31.92207,-8.545551,-67.40147,-146.2172,127.7356,-15.58713,202408291439575754,
2-12,C_HumanVertical,1,Q3FrontDown,-18.15956,31.92207,-8.545551,-67.40147,-146.2172,127.7356,-15.58713,202408291439575908,
2-12,C_HumanVertical,1,Q3FrontDown,-18.15379,31.8131,-8.51781,-67.9696,-146.217,127.662,-15.5867,202408291439576080,
2-12,C_HumanVertical,1,Q3FrontDown,-18.15161,31.68217,-8.487324,-68.58228,-146.2171,127.5613,-15.58735,202408291439576323,
2-12,C_HumanVertical,1,Q3FrontDown,-18.14938,31.54222,-8.467123,-69.22695,-146.2173,127.4703,-15.58771,202408291439576660,
2-12,C_HumanVertical,1,Q3FrontDown,-18.14938,31.54222,-8.467123,-69.22695,-146.2173,127.4703,-15.58771,202408291439576855,
2-12,C_HumanVertical,1,Q3FrontDown,-18.12099,31.31186,-8.446144,-70.51357,-146.2168,127.2806,-15.588,202408291439577164,
2-12,C_HumanVertical,1,Q3FrontDown,-18.12099,31.31186,-8.446144,-70.51357,-146.2168,127.2806,-15.588,202408291439577340,
2-12,C_HumanVertical,1,Q3FrontDown,-18.10761,31.22864,-8.441912,-71.12916,-146.2174,127.2034,-15.5878,202408291439577612,
2-12,C_HumanVertical,1,Q3FrontDown,-18.09129,31.13458,-8.429697,-71.74113,-146.2174,127.1275,-15.5857,202408291439577923,
2-12,C_HumanVertical,1,Q3FrontDown,-18.09129,31.13458,-8.429697,-71.74113,-146.2174,127.1275,-15.5857,202408291439578112,
2-12,C_HumanVertical,1,Q3FrontDown,-18.06242,31.06868,-8.426733,-72.35778,-146.2175,127.0791,-15.58543,202408291439578520,
2-12,C_HumanVertical,1,Q3FrontDown,-18.03206,31.01388,-8.427097,-72.91415,-146.2174,127.0385,-15.58595,202408291439578808,
2-12,C_HumanVertical,1,Q3FrontDown,-17.99844,30.96449,-8.426959,-73.47834,-146.2173,127.0062,-15.58565,202408291439579171,
2-12,C_HumanVertical,1,Q3FrontDown,-17.99844,30.96449,-8.426959,-73.47834,-146.2173,127.0062,-15.58565,202408291439579282,
2-12,C_HumanVertical,1,Q3FrontDown,-17.99844,30.96449,-8.426959,-73.47834,-146.2173,127.0062,-15.58565,202408291439579486,
2-12,C_HumanVertical,1,Q3FrontDown,-17.91011,30.91127,-8.426311,-74.48944,-146.2172,126.9225,-15.58547,202408291439579784,
2-12,C_HumanVertical,1,Q3FrontDown,-17.91011,30.91127,-8.426311,-74.48944,-146.2172,126.9225,-15.58547,202408291439579994,
2-12,C_HumanVertical,1,Q3FrontDown,-17.81841,30.88305,-8.425581,-75.45246,-146.2173,126.8548,-15.58469,202408291439580240,
2-12,C_HumanVertical,1,Q3FrontDown,-17.81841,30.88305,-8.425581,-75.45246,-146.2173,126.8548,-15.58469,202408291439580404,
2-12,C_HumanVertical,1,Q3FrontDown,-17.81841,30.88305,-8.425581,-75.45246,-146.2173,126.8548,-15.58469,202408291439580613,
2-12,C_HumanVertical,1,Q3FrontDown,-17.745,30.85528,-8.412513,-76.29357,-146.2167,126.7881,-15.58435,202408291439580910,
2-12,C_HumanVertical,1,Q3FrontDown,-17.745,30.85528,-8.412513,-76.29357,-146.2167,126.7881,-15.58435,202408291439581080,
2-12,C_HumanVertical,1,Q3FrontDown,-17.73242,30.85551,-8.373092,-76.6896,-146.216,126.7598,-15.58512,202408291439581294,
2-12,C_HumanVertical,1,Q3FrontDown,-17.73242,30.85551,-8.373092,-76.6896,-146.216,126.7598,-15.58512,202408291439581464,
2-12,C_HumanVertical,1,Q3FrontDown,-17.72539,30.85258,-8.331073,-77.04345,-146.2161,126.725,-15.58523,202408291439581676,
2-12,C_HumanVertical,1,Q3FrontDown,-17.72539,30.85258,-8.331073,-77.04345,-146.2161,126.725,-15.58523,202408291439581966,
2-12,C_HumanVertical,1,Q3FrontDown,-17.723,30.84428,-8.249721,-77.67778,-146.2158,126.6569,-15.58505,202408291439582266,
2-12,C_HumanVertical,1,Q3FrontDown,-17.72328,30.83707,-8.201879,-77.9774,-146.2157,126.6396,-15.58534,202408291439582580,
2-12,C_HumanVertical,1,Q3FrontDown,-17.72328,30.83707,-8.201879,-77.9774,-146.2157,126.6396,-15.58534,202408291439582778,
2-12,C_HumanVertical,1,Q3FrontDown,-17.72352,30.83795,-8.165259,-78.23888,-146.2157,126.6237,-15.58523,202408291439583073,
2-12,C_HumanVertical,1,Q3FrontDown,-17.72352,30.83795,-8.165259,-78.23888,-146.2157,126.6237,-15.58523,202408291439583305,
2-12,C_HumanVertical,1,Q3FrontDown,-17.71663,30.82726,-8.092881,-78.73211,-146.2157,126.5711,-15.58462,202408291439583591,
2-12,C_HumanVertical,1,Q3FrontDown,-17.71663,30.82726,-8.092881,-78.73211,-146.2157,126.5711,-15.58462,202408291439583830,
2-12,C_HumanVertical,1,Q3FrontDown,-17.7144,30.82718,-8.070333,-78.95259,-146.2157,126.555,-15.58445,202408291439584124,
2-12,C_HumanVertical,1,Q3FrontDown,-17.71373,30.81175,-8.053647,-79.18238,-146.2157,126.5455,-15.5846,202408291439584459,
2-12,C_HumanVertical,1,Q3FrontDown,-17.71744,30.79573,-8.038572,-79.38914,-146.216,126.5404,-15.58469,202408291439584624,
2-12,C_HumanVertical,1,Q3FrontDown,-17.71744,30.79573,-8.038572,-79.38914,-146.216,126.5404,-15.58469,202408291439584805,
2-12,C_HumanVertical,1,Q3FrontDown,-17.72587,30.79668,-8.014857,-79.57954,-146.2161,126.5395,-15.58426,202408291439585072,
2-12,C_HumanVertical,1,Q3FrontDown,-17.75292,30.79487,-7.958875,-79.74319,-146.2167,126.5383,-15.58428,202408291439585259,
2-12,C_HumanVertical,1,Q3FrontDown,-17.77933,30.7893,-7.899233,-79.89254,-146.2167,126.5345,-15.58405,202408291439585562,
2-12,C_HumanVertical,1,Q3FrontDown,-17.77933,30.7893,-7.899233,-79.89254,-146.2167,126.5345,-15.58405,202408291439585754,
2-12,C_HumanVertical,1,Q3FrontDown,-17.80201,30.78331,-7.831646,-80.04507,-146.2168,126.5092,-15.584,202408291439585971,
2-12,C_HumanVertical,1,Q3FrontDown,-17.81884,30.7778,-7.762403,-80.19463,-146.2167,126.4928,-15.58414,202408291439586293,
2-12,C_HumanVertical,1,Q3FrontDown,-17.81884,30.7778,-7.762403,-80.19463,-146.2167,126.4928,-15.58414,202408291439586523,
2-12,C_HumanVertical,1,Q3FrontDown,-17.8336,30.78134,-7.696618,-80.29589,-146.2163,126.4763,-15.58448,202408291439586795,
2-12,C_HumanVertical,1,Q3FrontDown,-17.84101,30.78112,-7.637774,-80.35519,-146.2163,126.4414,-15.58508,202408291439586995,
2-12,C_HumanVertical,1,Q3FrontDown,-17.8643,30.77948,-7.560191,-80.38591,-146.2161,126.4026,-15.58445,202408291439587271,
2-12,C_HumanVertical,1,Q3FrontDown,-17.87971,30.77816,-7.487418,-80.39412,-146.2162,126.3623,-15.58429,202408291439587595,
2-12,C_HumanVertical,1,Q3FrontDown,-17.87971,30.77816,-7.487418,-80.39412,-146.2162,126.3623,-15.58429,202408291439587916,
2-12,C_HumanVertical,1,Q3FrontDown,-17.89165,30.77363,-7.421852,-80.39593,-146.2163,126.32,-15.58437,202408291439588115,
2-12,C_HumanVertical,1,Q3FrontDown,-17.97005,30.74822,-7.292232,-80.39161,-146.2165,126.2425,-15.58496,202408291439588413,
2-12,C_HumanVertical,1,Q3FrontDown,-18.07616,30.73576,-7.143226,-80.36797,-146.2164,126.1603,-15.58489,202408291439588640,
2-12,C_HumanVertical,1,Q3FrontDown,-18.07616,30.73576,-7.143226,-80.36797,-146.2164,126.1603,-15.58489,202408291439588770,
2-12,C_HumanVertical,1,Q3FrontDown,-18.23825,30.73234,-6.926252,-80.28327,-146.2166,126.061,-15.58488,202408291439589006,
2-12,C_HumanVertical,1,Q3FrontDown,-18.23825,30.73234,-6.926252,-80.28327,-146.2166,126.061,-15.58488,202408291439589216,
2-12,C_HumanVertical,1,Q3FrontDown,-18.40462,30.7285,-6.728636,-80.20895,-146.2163,125.9712,-15.58472,202408291439589485,
2-12,C_HumanVertical,1,Q3FrontDown,-18.59233,30.71558,-6.543403,-80.12408,-146.2159,125.9038,-15.5849,202408291439589802,
2-12,C_HumanVertical,1,Q3FrontDown,-18.7997,30.70974,-6.362442,-79.98157,-146.2153,125.845,-15.58573,202408291439590094,
2-12,C_HumanVertical,1,Q3FrontDown,-19.0401,30.70852,-6.168463,-79.75193,-146.2084,125.8016,-15.58495,202408291439590279,
2-12,C_HumanVertical,1,Q3FrontDown,-19.30523,30.72355,-5.983712,-79.4412,-146.1957,125.7366,-15.5855,202408291439590576,
2-12,C_HumanVertical,1,Q3FrontDown,-19.30523,30.72355,-5.983712,-79.4412,-146.1957,125.7366,-15.5855,202408291439590744,
2-12,C_HumanVertical,1,Q3FrontDown,-19.57832,30.7208,-5.831995,-79.07607,-146.179,125.6132,-15.58771,202408291439590906,
2-12,C_HumanVertical,1,Q3FrontDown,-19.57832,30.7208,-5.831995,-79.07607,-146.179,125.6132,-15.58771,202408291439591069,
2-12,C_HumanVertical,1,Q3FrontDown,-19.85995,30.71609,-5.678499,-78.61369,-146.151,125.4654,-15.59182,202408291439591338,
2-12,C_HumanVertical,1,Q3FrontDown,-19.85995,30.71609,-5.678499,-78.61369,-146.151,125.4654,-15.59182,202408291439591591,
2-12,C_HumanVertical,1,Q3FrontDown,-20.1417,30.72034,-5.524807,-78.08434,-146.1414,125.315,-15.59344,202408291439591775,
2-12,C_HumanVertical,1,Q3FrontDown,-20.4238,30.71469,-5.383274,-77.47898,-146.1423,125.2079,-15.58314,202408291439592110,
2-12,C_HumanVertical,1,Q3FrontDown,-20.72013,30.70071,-5.239315,-76.85523,-146.1392,125.0825,-15.58351,202408291439592269,
2-12,C_HumanVertical,1,Q3FrontDown,-21.0307,30.67076,-5.11519,-76.21456,-146.1294,124.9539,-15.58419,202408291439592633,
2-12,C_HumanVertical,1,Q3FrontDown,-21.35478,30.63076,-4.992595,-75.57138,-146.115,124.8183,-15.58585,202408291439592915,
2-12,C_HumanVertical,1,Q3FrontDown,-21.35478,30.63076,-4.992595,-75.57138,-146.115,124.8183,-15.58585,202408291439593071,
2-12,C_HumanVertical,1,Q3FrontDown,-21.35478,30.63076,-4.992595,-75.57138,-146.115,124.8183,-15.58585,202408291439593239,
2-12,C_HumanVertical,1,Q3FrontDown,-21.65755,30.55565,-4.870008,-75.01338,-146.1055,124.7077,-15.58642,202408291439593418,
2-12,C_HumanVertical,1,Q3FrontDown,-21.96915,30.46735,-4.749521,-74.46521,-146.1008,124.5924,-15.5866,202408291439593581,
2-12,C_HumanVertical,1,Q3FrontDown,-21.96915,30.46735,-4.749521,-74.46521,-146.1008,124.5924,-15.5866,202408291439593821,
2-12,C_HumanVertical,1,Q3FrontDown,-22.31061,30.35726,-4.594164,-73.93605,-146.1005,124.458,-15.58689,202408291439594079,
2-12,C_HumanVertical,1,Q3FrontDown,-22.66913,30.26018,-4.433695,-73.39271,-146.1042,124.3163,-15.57421,202408291439594276,
2-12,C_HumanVertical,1,Q3FrontDown,-22.66913,30.26018,-4.433695,-73.39271,-146.1042,124.3163,-15.57421,202408291439594483,
2-12,C_HumanVertical,1,Q3FrontDown,-23.03013,30.15753,-4.26585,-72.88007,-146.1046,124.1601,-15.55621,202408291439594821,
2-12,C_HumanVertical,1,Q3FrontDown,-23.384,30.04557,-4.097211,-72.39391,-146.1032,124.0043,-15.5568,202408291439595085,
2-12,C_HumanVertical,1,Q3FrontDown,-23.73964,29.9631,-3.915545,-71.8307,-146.1079,123.8846,-15.51822,202408291439595411,
2-12,C_HumanVertical,1,Q3FrontDown,-24.0926,29.87966,-3.75779,-71.33094,-146.1115,123.762,-15.4739,202408291439595572,
2-12,C_HumanVertical,1,Q3FrontDown,-24.0926,29.87966,-3.75779,-71.33094,-146.1115,123.762,-15.4739,202408291439595755,
2-12,C_HumanVertical,1,Q3FrontDown,-24.44963,29.78516,-3.59473,-70.84741,-146.1115,123.6542,-15.4433,202408291439595960,
2-12,C_HumanVertical,1,Q3FrontDown,-24.75313,29.69407,-3.455678,-70.39371,-146.1115,123.5715,-15.41984,202408291439596257,
2-12,C_HumanVertical,1,Q3FrontDown,-24.75313,29.69407,-3.455678,-70.39371,-146.1115,123.5715,-15.41984,202408291439596455,
