mpan31415/robot-x-ar/study2/data/raw_all_participants/Participant_2-24_1.csv
ParticipantID,Condition,Trial,PostureID,J1,J2,J3,J4,J5,J6,J7,Timestamp,
2-24,A_Baseline,1,Q3FrontDown,-45.13488,15.43918,68.97779,-24.77321,-119.0444,151.9409,-37.2348,202408291114255732,
2-24,A_Baseline,1,Q3FrontDown,-45.135,15.43899,68.97779,-24.77311,-119.0443,151.9407,-37.23453,202408291114256026,
2-24,A_Baseline,1,Q3FrontDown,-45.12928,15.43696,68.94662,-24.77293,-119.0453,151.9409,-37.23457,202408291114256310,
2-24,A_Baseline,1,Q3FrontDown,-45.12928,15.43696,68.94662,-24.77293,-119.0453,151.9409,-37.23457,202408291114256533,
2-24,A_Baseline,1,Q3FrontDown,-45.11997,15.43755,68.89943,-24.77226,-119.0492,151.9403,-37.2337,202408291114256704,
2-24,A_Baseline,1,Q3FrontDown,-45.15437,15.43749,68.89564,-24.7723,-119.177,151.9412,-37.22914,202408291114257070,
2-24,A_Baseline,1,Q3FrontDown,-45.27777,15.44006,68.89599,-24.77293,-119.3814,151.9412,-37.20658,202408291114257465,
2-24,A_Baseline,1,Q3FrontDown,-45.27777,15.44006,68.89599,-24.77293,-119.3814,151.9412,-37.20658,202408291114257732,
2-24,A_Baseline,1,Q3FrontDown,-45.36377,15.44152,68.89627,-24.77322,-119.469,151.9414,-37.20065,202408291114258034,
2-24,A_Baseline,1,Q3FrontDown,-45.45317,15.44253,68.89536,-24.77223,-119.5523,151.9411,-37.19803,202408291114258274,
2-24,A_Baseline,1,Q3FrontDown,-45.54089,15.44283,68.89572,-24.77145,-119.6302,151.9412,-37.19655,202408291114258487,
2-24,A_Baseline,1,Q3FrontDown,-45.54089,15.44283,68.89572,-24.77145,-119.6302,151.9412,-37.19655,202408291114258696,
2-24,A_Baseline,1,Q3FrontDown,-45.6306,15.44257,68.89587,-24.77166,-119.7062,151.9411,-37.19517,202408291114259051,
2-24,A_Baseline,1,Q3FrontDown,-45.72606,15.44141,68.90575,-24.77204,-119.7597,151.941,-37.19252,202408291114259329,
2-24,A_Baseline,1,Q3FrontDown,-45.82272,15.4422,68.92222,-24.77397,-119.7986,151.9411,-37.18906,202408291114259622,
2-24,A_Baseline,1,Q3FrontDown,-46.00573,15.44152,69.00491,-24.81086,-119.8331,151.9415,-37.17739,202408291114259789,
2-24,A_Baseline,1,Q3FrontDown,-46.22634,15.43969,69.10312,-24.86273,-119.8535,151.9413,-37.16607,202408291114260131,
2-24,A_Baseline,1,Q3FrontDown,-46.22634,15.43969,69.10312,-24.86273,-119.8535,151.9413,-37.16607,202408291114260292,
2-24,A_Baseline,1,Q3FrontDown,-46.46338,15.44004,69.19388,-24.91905,-119.8652,151.941,-37.16065,202408291114260600,
2-24,A_Baseline,1,Q3FrontDown,-46.69336,15.43948,69.27387,-24.9624,-119.8743,151.9409,-37.15636,202408291114260775,
2-24,A_Baseline,1,Q3FrontDown,-46.69336,15.43948,69.27387,-24.9624,-119.8743,151.9409,-37.15636,202408291114260972,
2-24,A_Baseline,1,Q3FrontDown,-46.96271,15.43328,69.40529,-25.02099,-119.8812,151.9411,-37.15031,202408291114261199,
2-24,A_Baseline,1,Q3FrontDown,-47.25193,15.42656,69.5764,-25.10393,-119.8835,151.9407,-37.13484,202408291114261475,
2-24,A_Baseline,1,Q3FrontDown,-47.25193,15.42656,69.5764,-25.10393,-119.8835,151.9407,-37.13484,202408291114261648,
2-24,A_Baseline,1,Q3FrontDown,-47.25193,15.42656,69.5764,-25.10393,-119.8835,151.9407,-37.13484,202408291114261867,
2-24,A_Baseline,1,Q3FrontDown,-47.90376,15.41345,70.01092,-25.3207,-119.8822,151.9403,-37.10522,202408291114262131,
2-24,A_Baseline,1,Q3FrontDown,-47.90376,15.41345,70.01092,-25.3207,-119.8822,151.9403,-37.10522,202408291114262329,
2-24,A_Baseline,1,Q3FrontDown,-48.23911,15.4096,70.25483,-25.40615,-119.8813,151.9398,-37.09562,202408291114262595,
2-24,A_Baseline,1,Q3FrontDown,-48.60867,15.39617,70.55153,-25.49897,-119.881,151.9396,-37.08787,202408291114262933,
2-24,A_Baseline,1,Q3FrontDown,-48.94361,15.38651,70.79934,-25.5851,-119.8775,151.9393,-37.08633,202408291114263100,
2-24,A_Baseline,1,Q3FrontDown,-48.94361,15.38651,70.79934,-25.5851,-119.8775,151.9393,-37.08633,202408291114263267,
2-24,A_Baseline,1,Q3FrontDown,-49.25216,15.36755,71.03578,-25.65077,-119.8704,151.9389,-37.0865,202408291114263515,
2-24,A_Baseline,1,Q3FrontDown,-49.58913,15.35182,71.29972,-25.70737,-119.8513,151.9388,-37.0862,202408291114263778,
2-24,A_Baseline,1,Q3FrontDown,-49.58913,15.35182,71.29972,-25.70737,-119.8513,151.9388,-37.0862,202408291114263972,
2-24,A_Baseline,1,Q3FrontDown,-49.87582,15.32,71.49702,-25.74657,-119.8337,151.9388,-37.08546,202408291114264139,
2-24,A_Baseline,1,Q3FrontDown,-49.87582,15.32,71.49702,-25.74657,-119.8337,151.9388,-37.08546,202408291114264305,
2-24,A_Baseline,1,Q3FrontDown,-50.12741,15.28012,71.67455,-25.78596,-119.823,151.939,-37.08154,202408291114264541,
2-24,A_Baseline,1,Q3FrontDown,-50.34375,15.24481,71.86168,-25.82683,-119.8135,151.9386,-37.07521,202408291114264801,
2-24,A_Baseline,1,Q3FrontDown,-50.34375,15.24481,71.86168,-25.82683,-119.8135,151.9386,-37.07521,202408291114265038,
2-24,A_Baseline,1,Q3FrontDown,-50.56277,15.20552,72.06118,-25.87555,-119.782,151.9393,-37.07452,202408291114265264,
2-24,A_Baseline,1,Q3FrontDown,-50.56277,15.20552,72.06118,-25.87555,-119.782,151.9393,-37.07452,202408291114265427,
2-24,A_Baseline,1,Q3FrontDown,-50.79836,15.15949,72.2579,-25.94253,-119.7499,151.9394,-37.0747,202408291114265646,
2-24,A_Baseline,1,Q3FrontDown,-50.99831,15.12645,72.47514,-25.99791,-119.6919,151.9392,-37.07475,202408291114265898,
2-24,A_Baseline,1,Q3FrontDown,-50.99831,15.12645,72.47514,-25.99791,-119.6919,151.9392,-37.07475,202408291114266071,
2-24,A_Baseline,1,Q3FrontDown,-51.135,15.09565,72.66166,-26.03549,-119.6455,151.9391,-37.07635,202408291114266229,
2-24,A_Baseline,1,Q3FrontDown,-51.21471,15.06763,72.80368,-26.05162,-119.6048,151.9389,-37.0783,202408291114266414,
2-24,A_Baseline,1,Q3FrontDown,-51.21471,15.06763,72.80368,-26.05162,-119.6048,151.9389,-37.0783,202408291114266685,
2-24,A_Baseline,1,Q3FrontDown,-51.27653,15.03095,72.94192,-26.07329,-119.5592,151.9387,-37.08702,202408291114266944,
2-24,A_Baseline,1,Q3FrontDown,-51.27653,15.03095,72.94192,-26.07329,-119.5592,151.9387,-37.08702,202408291114267112,
2-24,A_Baseline,1,Q3FrontDown,-51.27653,15.03095,72.94192,-26.07329,-119.5592,151.9387,-37.08702,202408291114267291,
2-24,A_Baseline,1,Q3FrontDown,-51.38193,14.9645,73.26035,-26.13992,-119.4287,151.9387,-37.098,202408291114267591,
2-24,A_Baseline,1,Q3FrontDown,-51.38193,14.9645,73.26035,-26.13992,-119.4287,151.9387,-37.098,202408291114267758,
2-24,A_Baseline,1,Q3FrontDown,-51.42811,14.93142,73.43657,-26.1706,-119.3708,151.9389,-37.10476,202408291114267977,
2-24,A_Baseline,1,Q3FrontDown,-51.43843,14.90044,73.5747,-26.18038,-119.2616,151.9395,-37.11743,202408291114268130,
2-24,A_Baseline,1,Q3FrontDown,-51.4227,14.8684,73.68891,-26.18036,-119.1066,151.9393,-37.13433,202408291114268417,
2-24,A_Baseline,1,Q3FrontDown,-51.4227,14.8684,73.68891,-26.18036,-119.1066,151.9393,-37.13433,202408291114268595,
2-24,A_Baseline,1,Q3FrontDown,-51.37456,14.8282,73.75789,-26.17634,-119.0004,151.9388,-37.1406,202408291114268962,
2-24,A_Baseline,1,Q3FrontDown,-51.37456,14.8282,73.75789,-26.17634,-119.0004,151.9388,-37.1406,202408291114269166,
2-24,A_Baseline,1,Q3FrontDown,-51.16625,14.72254,73.78789,-26.16452,-118.8063,151.9395,-37.21984,202408291114269445,
2-24,A_Baseline,1,Q3FrontDown,-51.16625,14.72254,73.78789,-26.16452,-118.8063,151.9395,-37.21984,202408291114269605,
2-24,A_Baseline,1,Q3FrontDown,-51.03354,14.65926,73.78716,-26.15901,-118.7379,151.9397,-37.27541,202408291114269831,
2-24,A_Baseline,1,Q3FrontDown,-50.89622,14.59085,73.7876,-26.15983,-118.6651,151.9397,-37.32734,202408291114270123,
2-24,A_Baseline,1,Q3FrontDown,-50.89622,14.59085,73.7876,-26.15983,-118.6651,151.9397,-37.32734,202408291114270300,
2-24,A_Baseline,1,Q3FrontDown,-50.77779,14.51318,73.78702,-26.15985,-118.5984,151.9398,-37.37874,202408291114270578,
2-24,A_Baseline,1,Q3FrontDown,-50.67458,14.43532,73.78474,-26.15959,-118.5452,151.9398,-37.45172,202408291114270747,
2-24,A_Baseline,1,Q3FrontDown,-50.67458,14.43532,73.78474,-26.15959,-118.5452,151.9398,-37.45172,202408291114270924,
2-24,A_Baseline,1,Q3FrontDown,-50.67458,14.43532,73.78474,-26.15959,-118.5452,151.9398,-37.45172,202408291114271087,
2-24,A_Baseline,1,Q3FrontDown,-50.54535,14.36451,73.75716,-26.15553,-118.5046,151.9396,-37.53036,202408291114271272,
2-24,A_Baseline,1,Q3FrontDown,-50.36586,14.29433,73.71124,-26.13764,-118.4623,151.9392,-37.6097,202408291114271514,
2-24,A_Baseline,1,Q3FrontDown,-50.18174,14.21621,73.65739,-26.12068,-118.4433,151.9393,-37.70612,202408291114271803,
2-24,A_Baseline,1,Q3FrontDown,-50.00837,14.14149,73.5985,-26.1206,-118.432,151.9395,-37.80417,202408291114272129,
2-24,A_Baseline,1,Q3FrontDown,-50.00837,14.14149,73.5985,-26.1206,-118.432,151.9395,-37.80417,202408291114272280,
2-24,A_Baseline,1,Q3FrontDown,-49.79415,14.07171,73.53402,-26.12531,-118.4304,151.94,-37.90804,202408291114272507,
2-24,A_Baseline,1,Q3FrontDown,-49.47357,14.01218,73.36573,-26.12499,-118.4303,151.94,-38.07112,202408291114272774,
2-24,A_Baseline,1,Q3FrontDown,-49.47357,14.01218,73.36573,-26.12499,-118.4303,151.94,-38.07112,202408291114272992,
2-24,A_Baseline,1,Q3FrontDown,-49.20234,13.94658,73.23206,-26.12416,-118.4305,151.9405,-38.2206,202408291114273232,
2-24,A_Baseline,1,Q3FrontDown,-48.9342,13.88917,73.09031,-26.12594,-118.4306,151.941,-38.35903,202408291114273403,
2-24,A_Baseline,1,Q3FrontDown,-48.9342,13.88917,73.09031,-26.12594,-118.4306,151.941,-38.35903,202408291114273626,
2-24,A_Baseline,1,Q3FrontDown,-48.59905,13.83331,72.88981,-26.12572,-118.4415,151.9454,-38.52992,202408291114273917,
2-24,A_Baseline,1,Q3FrontDown,-48.20353,13.77656,72.62154,-26.12111,-118.4445,151.9478,-38.69801,202408291114274078,
2-24,A_Baseline,1,Q3FrontDown,-48.20353,13.77656,72.62154,-26.12111,-118.4445,151.9478,-38.69801,202408291114274288,
2-24,A_Baseline,1,Q3FrontDown,-48.20353,13.77656,72.62154,-26.12111,-118.4445,151.9478,-38.69801,202408291114274500,
2-24,A_Baseline,1,Q3FrontDown,-47.69792,13.73174,72.25806,-26.11723,-118.4445,151.9475,-38.87422,202408291114274662,
2-24,A_Baseline,1,Q3FrontDown,-47.02769,13.68345,71.76465,-26.07778,-118.4445,151.9458,-39.04449,202408291114274932,
2-24,A_Baseline,1,Q3FrontDown,-46.30058,13.63135,71.21115,-26.06218,-118.4439,151.9464,-39.20421,202408291114275240,
2-24,A_Baseline,1,Q3FrontDown,-45.51229,13.58846,70.58803,-26.05058,-118.4433,151.9458,-39.37839,202408291114275408,
2-24,A_Baseline,1,Q3FrontDown,-45.51229,13.58846,70.58803,-26.05058,-118.4433,151.9458,-39.37839,202408291114275583,
2-24,A_Baseline,1,Q3FrontDown,-45.51229,13.58846,70.58803,-26.05058,-118.4433,151.9458,-39.37839,202408291114275843,
2-24,A_Baseline,1,Q3FrontDown,-43.9432,13.51137,69.41329,-26.07789,-118.4433,151.9462,-39.7008,202408291114276081,
2-24,A_Baseline,1,Q3FrontDown,-43.9432,13.51137,69.41329,-26.07789,-118.4433,151.9462,-39.7008,202408291114276240,
2-24,A_Baseline,1,Q3FrontDown,-43.9432,13.51137,69.41329,-26.07789,-118.4433,151.9462,-39.7008,202408291114276459,
2-24,A_Baseline,1,Q3FrontDown,-43.10846,13.46669,68.75379,-26.08776,-118.4434,151.9461,-39.82335,202408291114276629,
2-24,A_Baseline,1,Q3FrontDown,-42.13758,13.44703,67.86222,-26.10392,-118.4434,151.9438,-39.93695,202408291114276845,
2-24,A_Baseline,1,Q3FrontDown,-41.07396,13.38483,66.88956,-26.1433,-118.4444,151.9468,-40.05331,202408291114277114,
2-24,A_Baseline,1,Q3FrontDown,-41.07396,13.38483,66.88956,-26.1433,-118.4444,151.9468,-40.05331,202408291114277286,
2-24,A_Baseline,1,Q3FrontDown,-40.02252,13.33246,65.89716,-26.20896,-118.4488,151.9475,-40.1504,202408291114277631,
2-24,A_Baseline,1,Q3FrontDown,-38.93343,13.29443,64.86357,-26.3413,-118.4961,151.9444,-40.24665,202408291114277994,
2-24,A_Baseline,1,Q3FrontDown,-37.83792,13.24254,63.81046,-26.55287,-118.5559,151.9518,-40.34092,202408291114278347,
2-24,A_Baseline,1,Q3FrontDown,-37.83792,13.24254,63.81046,-26.55287,-118.5559,151.9518,-40.34092,202408291114278581,
2-24,A_Baseline,1,Q3FrontDown,-35.769,13.18576,61.77503,-27.06991,-118.6497,151.9782,-40.502,202408291114278744,
2-24,A_Baseline,1,Q3FrontDown,-35.769,13.18576,61.77503,-27.06991,-118.6497,151.9782,-40.502,202408291114278920,
2-24,A_Baseline,1,Q3FrontDown,-35.769,13.18576,61.77503,-27.06991,-118.6497,151.9782,-40.502,202408291114279159,
2-24,A_Baseline,1,Q3FrontDown,-34.77146,13.17717,60.7973,-27.33396,-118.685,152.0084,-40.57603,202408291114279324,
2-24,A_Baseline,1,Q3FrontDown,-33.8232,13.18069,59.85843,-27.60046,-118.717,152.0437,-40.65472,202408291114279619,
2-24,A_Baseline,1,Q3FrontDown,-32.96089,13.20112,58.99651,-27.83089,-118.7319,152.081,-40.73549,202408291114279779,
2-24,A_Baseline,1,Q3FrontDown,-32.96089,13.20112,58.99651,-27.83089,-118.7319,152.081,-40.73549,202408291114279959,
2-24,A_Baseline,1,Q3FrontDown,-32.12999,13.21814,58.17958,-28.07063,-118.7466,152.1132,-40.81306,202408291114280147,
2-24,A_Baseline,1,Q3FrontDown,-32.12999,13.21814,58.17958,-28.07063,-118.7466,152.1132,-40.81306,202408291114280395,
2-24,A_Baseline,1,Q3FrontDown,-31.41015,13.23169,57.45659,-28.28758,-118.7571,152.1359,-40.88292,202408291114280572,
2-24,A_Baseline,1,Q3FrontDown,-31.41015,13.23169,57.45659,-28.28758,-118.7571,152.1359,-40.88292,202408291114280732,
2-24,A_Baseline,1,Q3FrontDown,-30.68045,13.31138,56.7963,-28.4326,-118.7595,152.1531,-40.942,202408291114281005,
2-24,A_Baseline,1,Q3FrontDown,-30.06524,13.4048,56.24241,-28.52114,-118.7606,152.1558,-41.0074,202408291114281231,
2-24,A_Baseline,1,Q3FrontDown,-30.06524,13.4048,56.24241,-28.52114,-118.7606,152.1558,-41.0074,202408291114281405,
2-24,A_Baseline,1,Q3FrontDown,-29.51397,13.48369,55.74933,-28.59985,-118.7618,152.1561,-41.07709,202408291114281620,
2-24,A_Baseline,1,Q3FrontDown,-29.04302,13.6097,55.29576,-28.67507,-118.7802,152.1559,-41.15369,202408291114281794,
2-24,A_Baseline,1,Q3FrontDown,-29.04302,13.6097,55.29576,-28.67507,-118.7802,152.1559,-41.15369,202408291114281959,
2-24,A_Baseline,1,Q3FrontDown,-28.68708,13.72022,54.92041,-28.76915,-118.8273,152.1541,-41.22029,202408291114282328,
2-24,A_Baseline,1,Q3FrontDown,-28.39097,13.83197,54.5966,-28.89815,-118.8932,152.1538,-41.28569,202408291114282609,
2-24,A_Baseline,1,Q3FrontDown,-28.14076,13.94967,54.28739,-29.02237,-118.9493,152.1533,-41.34355,202408291114282905,
2-24,A_Baseline,1,Q3FrontDown,-27.88721,14.09532,53.96959,-29.15702,-119.0025,152.152,-41.40562,202408291114283077,
2-24,A_Baseline,1,Q3FrontDown,-27.88721,14.09532,53.96959,-29.15702,-119.0025,152.152,-41.40562,202408291114283247,
2-24,A_Baseline,1,Q3FrontDown,-27.65456,14.26078,53.70719,-29.2931,-119.0458,152.1522,-41.47211,202408291114283480,
2-24,A_Baseline,1,Q3FrontDown,-27.46196,14.45625,53.47915,-29.44662,-119.1165,152.1525,-41.5424,202408291114283742,
2-24,A_Baseline,1,Q3FrontDown,-27.46196,14.45625,53.47915,-29.44662,-119.1165,152.1525,-41.5424,202408291114283911,
2-24,A_Baseline,1,Q3FrontDown,-27.30135,14.64267,53.27494,-29.60689,-119.1814,152.1521,-41.60223,202408291114284174,
2-24,A_Baseline,1,Q3FrontDown,-27.12741,14.85257,53.09152,-29.76616,-119.2487,152.1529,-41.6582,202408291114284451,
2-24,A_Baseline,1,Q3FrontDown,-27.12741,14.85257,53.09152,-29.76616,-119.2487,152.1529,-41.6582,202408291114284655,
2-24,A_Baseline,1,Q3FrontDown,-26.89647,15.10456,52.84319,-29.93348,-119.2812,152.1532,-41.71719,202408291114284930,
2-24,A_Baseline,1,Q3FrontDown,-26.69067,15.32609,52.60404,-30.08197,-119.3139,152.1544,-41.77644,202408291114285248,
2-24,A_Baseline,1,Q3FrontDown,-26.49995,15.56857,52.412,-30.23319,-119.3463,152.154,-41.83259,202408291114285671,
2-24,A_Baseline,1,Q3FrontDown,-26.32719,15.84018,52.27766,-30.39019,-119.3995,152.1536,-41.87833,202408291114285911,
2-24,A_Baseline,1,Q3FrontDown,-26.18688,16.09407,52.12436,-30.56795,-119.4526,152.1535,-41.92681,202408291114286089,
2-24,A_Baseline,1,Q3FrontDown,-26.18688,16.09407,52.12436,-30.56795,-119.4526,152.1535,-41.92681,202408291114286275,
2-24,A_Baseline,1,Q3FrontDown,-26.18688,16.09407,52.12436,-30.56795,-119.4526,152.1535,-41.92681,202408291114286425,
2-24,A_Baseline,1,Q3FrontDown,-26.07154,16.32848,51.96042,-30.75735,-119.5223,152.1533,-41.98332,202408291114286621,
2-24,A_Baseline,1,Q3FrontDown,-25.99647,16.57148,51.85683,-30.95493,-119.6261,152.1523,-42.02921,202408291114286808,
2-24,A_Baseline,1,Q3FrontDown,-25.99647,16.57148,51.85683,-30.95493,-119.6261,152.1523,-42.02921,202408291114286998,
2-24,A_Baseline,1,Q3FrontDown,-25.9443,16.82995,51.7696,-31.17887,-119.7303,152.1528,-42.07611,202408291114287176,
2-24,A_Baseline,1,Q3FrontDown,-25.90344,17.07896,51.6941,-31.39064,-119.8156,152.1534,-42.12603,202408291114287429,
2-24,A_Baseline,1,Q3FrontDown,-25.91122,17.32148,51.68568,-31.65984,-119.9522,152.1525,-42.19592,202408291114287747,
2-24,A_Baseline,1,Q3FrontDown,-25.91122,17.32148,51.68568,-31.65984,-119.9522,152.1525,-42.19592,202408291114287915,
2-24,A_Baseline,1,Q3FrontDown,-25.9622,17.51317,51.67956,-32.00219,-120.086,152.1525,-42.24714,202408291114288175,
2-24,A_Baseline,1,Q3FrontDown,-25.9622,17.51317,51.67956,-32.00219,-120.086,152.1525,-42.24714,202408291114288444,
2-24,A_Baseline,1,Q3FrontDown,-26.06422,17.68543,51.67907,-32.42681,-120.2118,152.1533,-42.29226,202408291114288593,
2-24,A_Baseline,1,Q3FrontDown,-26.14046,17.84627,51.67824,-32.84139,-120.3329,152.1531,-42.331,202408291114288829,
2-24,A_Baseline,1,Q3FrontDown,-26.19099,18.01398,51.67997,-33.27024,-120.4542,152.1531,-42.37528,202408291114289128,
2-24,A_Baseline,1,Q3FrontDown,-26.19099,18.01398,51.67997,-33.27024,-120.4542,152.1531,-42.37528,202408291114289330,
2-24,A_Baseline,1,Q3FrontDown,-26.26058,18.16067,51.67962,-33.72545,-120.5688,152.153,-42.41633,202408291114289611,
2-24,A_Baseline,1,Q3FrontDown,-26.3095,18.3223,51.67844,-34.19452,-120.692,152.1522,-42.44432,202408291114289781,
2-24,A_Baseline,1,Q3FrontDown,-26.3095,18.3223,51.67844,-34.19452,-120.692,152.1522,-42.44432,202408291114290089,
2-24,A_Baseline,1,Q3FrontDown,-26.32929,18.50288,51.67686,-34.60558,-120.8193,152.1534,-42.4751,202408291114290273,
2-24,A_Baseline,1,Q3FrontDown,-26.32825,18.67809,51.67424,-34.96262,-120.9118,152.1524,-42.50533,202408291114290503,
2-24,A_Baseline,1,Q3FrontDown,-26.32825,18.67809,51.67424,-34.96262,-120.9118,152.1524,-42.50533,202408291114290765,
2-24,A_Baseline,1,Q3FrontDown,-26.29607,18.90325,51.61037,-35.25487,-120.9963,152.1531,-42.53709,202408291114290927,
2-24,A_Baseline,1,Q3FrontDown,-26.29607,18.90325,51.61037,-35.25487,-120.9963,152.1531,-42.53709,202408291114291084,
2-24,A_Baseline,1,Q3FrontDown,-26.29607,18.90325,51.61037,-35.25487,-120.9963,152.1531,-42.53709,202408291114291240,
2-24,A_Baseline,1,Q3FrontDown,-26.27487,19.40895,51.48462,-35.71801,-121.104,152.1497,-42.63138,202408291114291460,
2-24,A_Baseline,1,Q3FrontDown,-26.27487,19.40895,51.48462,-35.71801,-121.104,152.1497,-42.63138,202408291114291672,
2-24,A_Baseline,1,Q3FrontDown,-26.27681,19.6711,51.39068,-35.89512,-121.1515,152.145,-42.67862,202408291114292011,
2-24,A_Baseline,1,Q3FrontDown,-26.30245,19.95212,51.34377,-36.04247,-121.1872,152.142,-42.72012,202408291114292284,
2-24,A_Baseline,1,Q3FrontDown,-26.34766,20.24473,51.34568,-36.16851,-121.2111,152.1394,-42.7586,202408291114292608,
2-24,A_Baseline,1,Q3FrontDown,-26.45514,20.53493,51.41652,-36.31297,-121.2561,152.1369,-42.78278,202408291114292796,
2-24,A_Baseline,1,Q3FrontDown,-26.60923,20.80473,51.49643,-36.45358,-121.2904,152.1351,-42.80195,202408291114293087,
2-24,A_Baseline,1,Q3FrontDown,-26.60923,20.80473,51.49643,-36.45358,-121.2904,152.1351,-42.80195,202408291114293238,
2-24,A_Baseline,1,Q3FrontDown,-26.60923,20.80473,51.49643,-36.45358,-121.2904,152.1351,-42.80195,202408291114293425,
2-24,A_Baseline,1,Q3FrontDown,-26.78498,21.06664,51.57519,-36.59138,-121.3179,152.1344,-42.82169,202408291114293683,
2-24,A_Baseline,1,Q3FrontDown,-26.9543,21.32305,51.62627,-36.70754,-121.3451,152.134,-42.84106,202408291114293997,
2-24,A_Baseline,1,Q3FrontDown,-27.16357,21.59094,51.73127,-36.80951,-121.3647,152.134,-42.87145,202408291114294225,
2-24,A_Baseline,1,Q3FrontDown,-27.39932,21.83635,51.87988,-36.90556,-121.37,152.1344,-42.9038,202408291114294442,
2-24,A_Baseline,1,Q3FrontDown,-27.39932,21.83635,51.87988,-36.90556,-121.37,152.1344,-42.9038,202408291114294613,
2-24,A_Baseline,1,Q3FrontDown,-27.6536,22.07744,52.06548,-37.01419,-121.371,152.1343,-42.93806,202408291114294991,
2-24,A_Baseline,1,Q3FrontDown,-27.95447,22.33417,52.31271,-37.10638,-121.3898,152.1325,-42.97213,202408291114295242,
2-24,A_Baseline,1,Q3FrontDown,-27.95447,22.33417,52.31271,-37.10638,-121.3898,152.1325,-42.97213,202408291114295409,
2-24,A_Baseline,1,Q3FrontDown,-28.65788,22.83495,52.83391,-37.26161,-121.5021,152.1338,-43.03551,202408291114295733,
2-24,A_Baseline,1,Q3FrontDown,-28.65788,22.83495,52.83391,-37.26161,-121.5021,152.1338,-43.03551,202408291114295925,
2-24,A_Baseline,1,Q3FrontDown,-29.0893,23.09569,53.13702,-37.30515,-121.6404,152.1336,-43.06707,202408291114296163,
2-24,A_Baseline,1,Q3FrontDown,-29.0893,23.09569,53.13702,-37.30515,-121.6404,152.1336,-43.06707,202408291114296450,
2-24,A_Baseline,1,Q3FrontDown,-29.52069,23.36391,53.4238,-37.33593,-121.8177,152.1336,-43.10019,202408291114296625,
2-24,A_Baseline,1,Q3FrontDown,-30.04743,23.64119,53.73521,-37.36457,-122.0216,152.1345,-43.13617,202408291114296831,
2-24,A_Baseline,1,Q3FrontDown,-30.04743,23.64119,53.73521,-37.36457,-122.0216,152.1345,-43.13617,202408291114297123,
2-24,A_Baseline,1,Q3FrontDown,-30.60013,23.93034,54.05787,-37.38449,-122.1698,152.134,-43.17092,202408291114297326,
2-24,A_Baseline,1,Q3FrontDown,-31.12702,24.22091,54.34338,-37.40578,-122.2747,152.1324,-43.21243,202408291114297597,
2-24,A_Baseline,1,Q3FrontDown,-31.64634,24.51323,54.61668,-37.42326,-122.3652,152.1319,-43.25644,202408291114297913,
2-24,A_Baseline,1,Q3FrontDown,-32.16259,24.79673,54.8899,-37.43384,-122.4929,152.1332,-43.29583,202408291114298084,
2-24,A_Baseline,1,Q3FrontDown,-32.16259,24.79673,54.8899,-37.43384,-122.4929,152.1332,-43.29583,202408291114298253,
2-24,A_Baseline,1,Q3FrontDown,-32.66461,25.07174,55.1414,-37.44681,-122.6749,152.135,-43.33553,202408291114298515,
2-24,A_Baseline,1,Q3FrontDown,-33.22377,25.38592,55.45599,-37.44623,-122.8871,152.1482,-43.38124,202408291114298744,
2-24,A_Baseline,1,Q3FrontDown,-33.22377,25.38592,55.45599,-37.44623,-122.8871,152.1482,-43.38124,202408291114298956,
2-24,A_Baseline,1,Q3FrontDown,-33.79208,25.69815,55.72866,-37.44764,-123.1244,152.1671,-43.41956,202408291114299078,
2-24,A_Baseline,1,Q3FrontDown,-33.79208,25.69815,55.72866,-37.44764,-123.1244,152.1671,-43.41956,202408291114299244,
2-24,A_Baseline,1,Q3FrontDown,-34.3544,26.0206,55.97564,-37.44524,-123.3612,152.1898,-43.45496,202408291114299463,
2-24,A_Baseline,1,Q3FrontDown,-34.3544,26.0206,55.97564,-37.44524,-123.3612,152.1898,-43.45496,202408291114299644,
2-24,A_Baseline,1,Q3FrontDown,-34.93751,26.3491,56.2347,-37.44464,-123.6303,152.2001,-43.50891,202408291114299984,
2-24,A_Baseline,1,Q3FrontDown,-35.49785,26.66502,56.45798,-37.44458,-123.898,152.2361,-43.55014,202408291114300263,
2-24,A_Baseline,1,Q3FrontDown,-35.49785,26.66502,56.45798,-37.44458,-123.898,152.2361,-43.55014,202408291114300602,
2-24,A_Baseline,1,Q3FrontDown,-36.6674,27.33193,56.86095,-37.44281,-124.5056,152.3522,-43.64393,202408291114300793,
2-24,A_Baseline,1,Q3FrontDown,-36.6674,27.33193,56.86095,-37.44281,-124.5056,152.3522,-43.64393,202408291114301075,
2-24,A_Baseline,1,Q3FrontDown,-37.2079,27.67304,57.04771,-37.44061,-124.7559,152.4443,-43.69664,202408291114301242,
2-24,A_Baseline,1,Q3FrontDown,-37.2079,27.67304,57.04771,-37.44061,-124.7559,152.4443,-43.69664,202408291114301461,
2-24,A_Baseline,1,Q3FrontDown,-37.76193,27.99774,57.19994,-37.42417,-124.9984,152.5449,-43.75228,202408291114301693,
2-24,A_Baseline,1,Q3FrontDown,-37.76193,27.99774,57.19994,-37.42417,-124.9984,152.5449,-43.75228,202408291114302000,
2-24,A_Baseline,1,Q3FrontDown,-38.78822,28.61851,57.49398,-37.40837,-125.5164,152.7736,-43.86406,202408291114302262,
2-24,A_Baseline,1,Q3FrontDown,-39.27988,28.91854,57.63474,-37.37858,-125.78,152.9106,-43.92554,202408291114302589,
2-24,A_Baseline,1,Q3FrontDown,-39.27988,28.91854,57.63474,-37.37858,-125.78,152.9106,-43.92554,202408291114302764,
2-24,A_Baseline,1,Q3FrontDown,-39.77856,29.21893,57.83986,-37.35402,-126.038,153.0469,-43.9859,202408291114302973,
2-24,A_Baseline,1,Q3FrontDown,-39.77856,29.21893,57.83986,-37.35402,-126.038,153.0469,-43.9859,202408291114303147,
2-24,A_Baseline,1,Q3FrontDown,-40.27311,29.50459,58.06929,-37.30858,-126.2785,153.1784,-44.05832,202408291114303439,
2-24,A_Baseline,1,Q3FrontDown,-40.80004,29.81129,58.38211,-37.24491,-126.5124,153.3174,-44.1382,202408291114303610,
2-24,A_Baseline,1,Q3FrontDown,-41.31191,30.08689,58.70898,-37.18147,-126.7362,153.4554,-44.20961,202408291114303802,
2-24,A_Baseline,1,Q3FrontDown,-41.31191,30.08689,58.70898,-37.18147,-126.7362,153.4554,-44.20961,202408291114304018,
2-24,A_Baseline,1,Q3FrontDown,-41.79103,30.33899,58.98918,-37.11034,-126.9214,153.5917,-44.27743,202408291114304288,
2-24,A_Baseline,1,Q3FrontDown,-41.79103,30.33899,58.98918,-37.11034,-126.9214,153.5917,-44.27743,202408291114304456,
2-24,A_Baseline,1,Q3FrontDown,-42.73571,30.77986,59.5855,-36.91189,-127.2332,153.8715,-44.40165,202408291114304853,
2-24,A_Baseline,1,Q3FrontDown,-42.73571,30.77986,59.5855,-36.91189,-127.2332,153.8715,-44.40165,202408291114305130,
2-24,A_Baseline,1,Q3FrontDown,-43.18888,30.96829,59.92555,-36.8056,-127.3732,154.0201,-44.47505,202408291114305411,
2-24,A_Baseline,1,Q3FrontDown,-43.62631,31.14038,60.23911,-36.69249,-127.5045,154.1516,-44.55204,202408291114305613,
2-24,A_Baseline,1,Q3FrontDown,-43.62631,31.14038,60.23911,-36.69249,-127.5045,154.1516,-44.55204,202408291114305875,
2-24,A_Baseline,1,Q3FrontDown,-44.47326,31.40217,60.8866,-36.50247,-127.7556,154.3849,-44.6814,202408291114306104,
2-24,A_Baseline,1,Q3FrontDown,-44.47326,31.40217,60.8866,-36.50247,-127.7556,154.3849,-44.6814,202408291114306332,
2-24,A_Baseline,1,Q3FrontDown,-44.87818,31.50359,61.24696,-36.41722,-127.8727,154.4963,-44.7354,202408291114306598,
2-24,A_Baseline,1,Q3FrontDown,-45.35007,31.60891,61.71605,-36.30961,-127.9849,154.6107,-44.80095,202408291114306797,
2-24,A_Baseline,1,Q3FrontDown,-45.35007,31.60891,61.71605,-36.30961,-127.9849,154.6107,-44.80095,202408291114306960,
2-24,A_Baseline,1,Q3FrontDown,-45.76023,31.6951,62.13071,-36.22107,-128.0405,154.73,-44.86047,202408291114307146,
2-24,A_Baseline,1,Q3FrontDown,-45.76023,31.6951,62.13071,-36.22107,-128.0405,154.73,-44.86047,202408291114307328,
2-24,A_Baseline,1,Q3FrontDown,-46.12461,31.75038,62.49622,-36.10542,-128.0609,154.8378,-44.91605,202408291114307604,
2-24,A_Baseline,1,Q3FrontDown,-46.12461,31.75038,62.49622,-36.10542,-128.0609,154.8378,-44.91605,202408291114307760,
2-24,A_Baseline,1,Q3FrontDown,-46.53875,31.79888,62.91675,-35.99746,-128.0916,154.9592,-44.97825,202408291114307967,
2-24,A_Baseline,1,Q3FrontDown,-46.93486,31.82774,63.27436,-35.87849,-128.118,155.0802,-45.03384,202408291114308277,
2-24,A_Baseline,1,Q3FrontDown,-47.30023,31.84107,63.64019,-35.78043,-128.1426,155.1946,-45.08735,202408291114308508,
2-24,A_Baseline,1,Q3FrontDown,-47.64545,31.84758,63.96869,-35.68465,-128.1675,155.2888,-45.14306,202408291114308765,
2-24,A_Baseline,1,Q3FrontDown,-47.64545,31.84758,63.96869,-35.68465,-128.1675,155.2888,-45.14306,202408291114308956,
2-24,A_Baseline,1,Q3FrontDown,-47.64545,31.84758,63.96869,-35.68465,-128.1675,155.2888,-45.14306,202408291114309108,
2-24,A_Baseline,1,Q3FrontDown,-48.00243,31.8611,64.30716,-35.58026,-128.1953,155.3674,-45.20682,202408291114309313,
2-24,A_Baseline,1,Q3FrontDown,-48.35846,31.88285,64.65432,-35.46421,-128.2152,155.4408,-45.27675,202408291114309509,
2-24,A_Baseline,1,Q3FrontDown,-48.68173,31.90393,65.00165,-35.3499,-128.2249,155.5092,-45.34028,202408291114309800,
2-24,A_Baseline,1,Q3FrontDown,-48.99215,31.95624,65.37366,-35.20579,-128.2374,155.571,-45.40347,202408291114310098,
2-24,A_Baseline,1,Q3FrontDown,-48.99215,31.95624,65.37366,-35.20579,-128.2374,155.571,-45.40347,202408291114310267,
2-24,A_Baseline,1,Q3FrontDown,-48.99215,31.95624,65.37366,-35.20579,-128.2374,155.571,-45.40347,202408291114310428,
2-24,A_Baseline,1,Q3FrontDown,-49.29774,31.99981,65.71519,-35.06939,-128.2467,155.6344,-45.4617,202408291114310677,
2-24,A_Baseline,1,Q3FrontDown,-49.63405,32.05017,66.07053,-34.92986,-128.2485,155.6884,-45.52349,202408291114310932,
2-24,A_Baseline,1,Q3FrontDown,-49.63405,32.05017,66.07053,-34.92986,-128.2485,155.6884,-45.52349,202408291114311184,
2-24,A_Baseline,1,Q3FrontDown,-50.25873,32.14396,66.72052,-34.66671,-128.2518,155.8303,-45.64367,202408291114311461,
2-24,A_Baseline,1,Q3FrontDown,-50.25873,32.14396,66.72052,-34.66671,-128.2518,155.8303,-45.64367,202408291114311631,
2-24,A_Baseline,1,Q3FrontDown,-50.52355,32.20018,67.00606,-34.52811,-128.2529,155.8997,-45.69491,202408291114311844,
2-24,A_Baseline,1,Q3FrontDown,-50.80209,32.25839,67.28658,-34.38694,-128.2542,155.9593,-45.74537,202408291114312124,
2-24,A_Baseline,1,Q3FrontDown,-50.80209,32.25839,67.28658,-34.38694,-128.2542,155.9593,-45.74537,202408291114312293,
2-24,A_Baseline,1,Q3FrontDown,-51.08083,32.32253,67.53784,-34.23875,-128.2546,156.0049,-45.79403,202408291114312668,
2-24,A_Baseline,1,Q3FrontDown,-51.36295,32.38113,67.81646,-34.11297,-128.2547,156.0618,-45.83776,202408291114312928,
2-24,A_Baseline,1,Q3FrontDown,-51.36295,32.38113,67.81646,-34.11297,-128.2547,156.0618,-45.83776,202408291114313090,
2-24,A_Baseline,1,Q3FrontDown,-51.63675,32.45567,68.12094,-34.00606,-128.2545,156.1253,-45.87867,202408291114313250,
2-24,A_Baseline,1,Q3FrontDown,-51.88512,32.52633,68.41384,-33.88698,-128.2545,156.1882,-45.92076,202408291114313441,
2-24,A_Baseline,1,Q3FrontDown,-51.88512,32.52633,68.41384,-33.88698,-128.2545,156.1882,-45.92076,202408291114313622,
2-24,A_Baseline,1,Q3FrontDown,-52.12405,32.58436,68.67699,-33.7691,-128.2545,156.2431,-45.96197,202408291114313794,
2-24,A_Baseline,1,Q3FrontDown,-52.12405,32.58436,68.67699,-33.7691,-128.2545,156.2431,-45.96197,202408291114314030,
2-24,A_Baseline,1,Q3FrontDown,-52.3975,32.6598,68.99099,-33.64442,-128.254,156.2835,-46.01183,202408291114314189,
2-24,A_Baseline,1,Q3FrontDown,-52.63914,32.73415,69.27859,-33.52487,-128.254,156.3187,-46.05387,202408291114314473,
2-24,A_Baseline,1,Q3FrontDown,-52.63914,32.73415,69.27859,-33.52487,-128.254,156.3187,-46.05387,202408291114314628,
2-24,A_Baseline,1,Q3FrontDown,-52.87875,32.78776,69.56245,-33.42929,-128.2542,156.3501,-46.09233,202408291114314976,
2-24,A_Baseline,1,Q3FrontDown,-53.11845,32.84488,69.83382,-33.33239,-128.2534,156.3787,-46.12901,202408291114315241,
2-24,A_Baseline,1,Q3FrontDown,-53.31803,32.90118,70.06592,-33.22215,-128.2532,156.4077,-46.16299,202408291114315414,
2-24,A_Baseline,1,Q3FrontDown,-53.31803,32.90118,70.06592,-33.22215,-128.2532,156.4077,-46.16299,202408291114315598,
2-24,A_Baseline,1,Q3FrontDown,-53.49195,32.97588,70.29382,-33.10516,-128.2529,156.4337,-46.18989,202408291114315848,
2-24,A_Baseline,1,Q3FrontDown,-53.69677,33.05125,70.5126,-32.9728,-128.2517,156.4625,-46.22281,202408291114316124,
2-24,A_Baseline,1,Q3FrontDown,-53.69677,33.05125,70.5126,-32.9728,-128.2517,156.4625,-46.22281,202408291114316289,
2-24,A_Baseline,1,Q3FrontDown,-53.88003,33.13292,70.68648,-32.84926,-128.2506,156.4876,-46.25446,202408291114316628,
2-24,A_Baseline,1,Q3FrontDown,-54.06533,33.2312,70.85822,-32.73719,-128.2497,156.4994,-46.29154,202408291114316957,
2-24,A_Baseline,1,Q3FrontDown,-54.06533,33.2312,70.85822,-32.73719,-128.2497,156.4994,-46.29154,202408291114317173,
2-24,A_Baseline,1,Q3FrontDown,-54.45984,33.43406,71.20048,-32.56308,-128.1543,156.5435,-46.39342,202408291114317415,
2-24,A_Baseline,1,Q3FrontDown,-54.45984,33.43406,71.20048,-32.56308,-128.1543,156.5435,-46.39342,202408291114317593,
2-24,A_Baseline,1,Q3FrontDown,-54.66899,33.55177,71.35046,-32.51155,-128.0739,156.5556,-46.45623,202408291114317761,
2-24,A_Baseline,1,Q3FrontDown,-54.66899,33.55177,71.35046,-32.51155,-128.0739,156.5556,-46.45623,202408291114317924,
2-24,A_Baseline,1,Q3FrontDown,-54.66899,33.55177,71.35046,-32.51155,-128.0739,156.5556,-46.45623,202408291114318107,
2-24,A_Baseline,1,Q3FrontDown,-54.86555,33.69849,71.46417,-32.46226,-128.0196,156.5692,-46.51833,202408291114318355,
2-24,A_Baseline,1,Q3FrontDown,-55.06371,33.84245,71.5661,-32.4155,-127.986,156.5751,-46.57018,202408291114318599,
2-24,A_Baseline,1,Q3FrontDown,-55.06371,33.84245,71.5661,-32.4155,-127.986,156.5751,-46.57018,202408291114318757,
2-24,A_Baseline,1,Q3FrontDown,-55.27227,33.99907,71.62258,-32.37311,-127.9873,156.5753,-46.66055,202408291114318997,
2-24,A_Baseline,1,Q3FrontDown,-55.47733,34.16634,71.64092,-32.31943,-127.9875,156.5756,-46.71643,202408291114319290,
2-24,A_Baseline,1,Q3FrontDown,-55.66685,34.36353,71.63902,-32.26369,-127.9876,156.5775,-46.74689,202408291114319501,
2-24,A_Baseline,1,Q3FrontDown,-55.86995,34.57286,71.61996,-32.20173,-127.9872,156.5785,-46.7811,202408291114319778,
2-24,A_Baseline,1,Q3FrontDown,-56.07772,34.7786,71.56638,-32.1476,-127.9871,156.5783,-46.80198,202408291114320101,
2-24,A_Baseline,1,Q3FrontDown,-56.07772,34.7786,71.56638,-32.1476,-127.9871,156.5783,-46.80198,202408291114320279,
2-24,A_Baseline,1,Q3FrontDown,-56.27185,34.99929,71.49068,-32.09751,-127.9868,156.578,-46.81686,202408291114320515,
2-24,A_Baseline,1,Q3FrontDown,-56.47042,35.22812,71.39354,-32.05039,-127.9862,156.5776,-46.8185,202408291114320760,
2-24,A_Baseline,1,Q3FrontDown,-56.47042,35.22812,71.39354,-32.05039,-127.9862,156.5776,-46.8185,202408291114320927,
2-24,A_Baseline,1,Q3FrontDown,-56.70089,35.46504,71.30401,-32.01421,-127.9862,156.5771,-46.81986,202408291114321087,
2-24,A_Baseline,1,Q3FrontDown,-56.70089,35.46504,71.30401,-32.01421,-127.9862,156.5771,-46.81986,202408291114321246,
2-24,A_Baseline,1,Q3FrontDown,-56.92233,35.70863,71.21783,-31.97777,-127.9858,156.576,-46.82115,202408291114321424,
2-24,A_Baseline,1,Q3FrontDown,-56.92233,35.70863,71.21783,-31.97777,-127.9858,156.576,-46.82115,202408291114321666,
2-24,A_Baseline,1,Q3FrontDown,-57.10264,35.9731,71.08981,-31.90824,-127.986,156.5741,-46.82184,202408291114322010,
2-24,A_Baseline,1,Q3FrontDown,-57.28519,36.24263,70.95515,-31.83763,-127.9851,156.5725,-46.82275,202408291114322267,
2-24,A_Baseline,1,Q3FrontDown,-57.28519,36.24263,70.95515,-31.83763,-127.9851,156.5725,-46.82275,202408291114322449,
2-24,A_Baseline,1,Q3FrontDown,-57.28519,36.24263,70.95515,-31.83763,-127.9851,156.5725,-46.82275,202408291114322631,
2-24,A_Baseline,1,Q3FrontDown,-57.6397,36.72646,70.68604,-31.71208,-127.9673,156.568,-46.82265,202408291114322926,
2-24,A_Baseline,1,Q3FrontDown,-57.80587,36.98105,70.5396,-31.64713,-127.9633,156.5656,-46.82243,202408291114323239,
2-24,A_Baseline,1,Q3FrontDown,-57.97305,37.21286,70.39332,-31.5878,-127.9629,156.5653,-46.82252,202408291114323422,
2-24,A_Baseline,1,Q3FrontDown,-57.97305,37.21286,70.39332,-31.5878,-127.9629,156.5653,-46.82252,202408291114323687,
2-24,A_Baseline,1,Q3FrontDown,-58.15551,37.44785,70.26508,-31.51537,-127.9624,156.5648,-46.82254,202408291114323929,
2-24,A_Baseline,1,Q3FrontDown,-58.32579,37.68322,70.144,-31.44081,-127.9623,156.5644,-46.82214,202408291114324129,
2-24,A_Baseline,1,Q3FrontDown,-58.48268,37.91122,70.02356,-31.35658,-127.9622,156.5644,-46.82202,202408291114324454,
2-24,A_Baseline,1,Q3FrontDown,-58.48268,37.91122,70.02356,-31.35658,-127.9622,156.5644,-46.82202,202408291114324615,
2-24,A_Baseline,1,Q3FrontDown,-58.63264,38.12674,69.8812,-31.26196,-127.9627,156.5642,-46.82054,202408291114324786,
2-24,A_Baseline,1,Q3FrontDown,-58.63264,38.12674,69.8812,-31.26196,-127.9627,156.5642,-46.82054,202408291114324994,
2-24,A_Baseline,1,Q3FrontDown,-58.78756,38.32842,69.74734,-31.1952,-127.961,156.5633,-46.8205,202408291114325241,
2-24,A_Baseline,1,Q3FrontDown,-58.95943,38.51532,69.60018,-31.16005,-127.9578,156.5621,-46.82055,202408291114325428,
2-24,A_Baseline,1,Q3FrontDown,-58.95943,38.51532,69.60018,-31.16005,-127.9578,156.5621,-46.82055,202408291114325592,
2-24,A_Baseline,1,Q3FrontDown,-59.1304,38.70044,69.4542,-31.13711,-127.9569,156.5592,-46.82037,202408291114325749,
2-24,A_Baseline,1,Q3FrontDown,-59.1304,38.70044,69.4542,-31.13711,-127.9569,156.5592,-46.82037,202408291114325929,
2-24,A_Baseline,1,Q3FrontDown,-59.29599,38.89893,69.30207,-31.10961,-127.9566,156.5508,-46.82059,202408291114326184,
2-24,A_Baseline,1,Q3FrontDown,-59.45366,39.0901,69.1579,-31.07743,-127.9567,156.5398,-46.82048,202408291114326448,
2-24,A_Baseline,1,Q3FrontDown,-59.62532,39.28645,69.02141,-31.04838,-127.9566,156.5328,-46.82047,202408291114326845,
2-24,A_Baseline,1,Q3FrontDown,-59.79758,39.49113,68.96285,-31.01659,-127.9564,156.5206,-46.82072,202408291114327144,
2-24,A_Baseline,1,Q3FrontDown,-59.95395,39.72159,68.96123,-30.96708,-127.9552,156.5015,-46.82071,202408291114327432,
2-24,A_Baseline,1,Q3FrontDown,-60.09503,39.93561,68.95878,-30.90623,-127.9553,156.5003,-46.82039,202408291114327749,
2-24,A_Baseline,1,Q3FrontDown,-60.09503,39.93561,68.95878,-30.90623,-127.9553,156.5003,-46.82039,202408291114327914,
2-24,A_Baseline,1,Q3FrontDown,-60.21338,40.15291,68.95894,-30.82106,-127.9553,156.4997,-46.81959,202408291114328083,
2-24,A_Baseline,1,Q3FrontDown,-60.21338,40.15291,68.95894,-30.82106,-127.9553,156.4997,-46.81959,202408291114328296,
2-24,A_Baseline,1,Q3FrontDown,-60.3139,40.36618,68.95926,-30.71414,-127.9557,156.4998,-46.81844,202408291114328491,
2-24,A_Baseline,1,Q3FrontDown,-60.42301,40.59325,68.9588,-30.63099,-127.9554,156.4998,-46.81829,202408291114328750,
2-24,A_Baseline,1,Q3FrontDown,-60.42301,40.59325,68.9588,-30.63099,-127.9554,156.4998,-46.81829,202408291114328930,
2-24,A_Baseline,1,Q3FrontDown,-60.42301,40.59325,68.9588,-30.63099,-127.9554,156.4998,-46.81829,202408291114329125,
2-24,A_Baseline,1,Q3FrontDown,-60.54214,40.80248,68.95969,-30.55304,-127.9552,156.5003,-46.81929,202408291114329345,
2-24,A_Baseline,1,Q3FrontDown,-60.66047,41.0026,68.96006,-30.4742,-127.9549,156.5002,-46.82121,202408291114329605,
2-24,A_Baseline,1,Q3FrontDown,-60.66047,41.0026,68.96006,-30.4742,-127.9549,156.5002,-46.82121,202408291114329768,
2-24,A_Baseline,1,Q3FrontDown,-60.76679,41.21254,68.96126,-30.3719,-127.955,156.5001,-46.83296,202408291114329930,
2-24,A_Baseline,1,Q3FrontDown,-60.86232,41.41436,68.96092,-30.27605,-127.9552,156.4997,-46.84409,202408291114330132,
2-24,A_Baseline,1,Q3FrontDown,-60.95555,41.61355,68.96031,-30.18448,-127.9551,156.4995,-46.85816,202408291114330407,
2-24,A_Baseline,1,Q3FrontDown,-60.95555,41.61355,68.96031,-30.18448,-127.9551,156.4995,-46.85816,202408291114330579,
2-24,A_Baseline,1,Q3FrontDown,-61.04677,41.81195,68.96362,-30.07151,-127.945,156.5001,-46.87506,202408291114330737,
2-24,A_Baseline,1,Q3FrontDown,-61.04677,41.81195,68.96362,-30.07151,-127.945,156.5001,-46.87506,202408291114330906,
2-24,A_Baseline,1,Q3FrontDown,-61.04677,41.81195,68.96362,-30.07151,-127.945,156.5001,-46.87506,202408291114331083,
2-24,A_Baseline,1,Q3FrontDown,-61.12993,42.00115,68.96565,-29.96538,-127.9287,156.5,-46.88612,202408291114331242,
2-24,A_Baseline,1,Q3FrontDown,-61.21755,42.16572,68.96577,-29.86678,-127.9124,156.4995,-46.8917,202408291114331496,
2-24,A_Baseline,1,Q3FrontDown,-61.21755,42.16572,68.96577,-29.86678,-127.9124,156.4995,-46.8917,202408291114331661,
2-24,A_Baseline,1,Q3FrontDown,-61.29773,42.32998,68.96799,-29.75078,-127.883,156.4999,-46.89371,202408291114331945,
2-24,A_Baseline,1,Q3FrontDown,-61.38749,42.48954,68.98596,-29.62555,-127.8576,156.5008,-46.8982,202408291114332109,
2-24,A_Baseline,1,Q3FrontDown,-61.38749,42.48954,68.98596,-29.62555,-127.8576,156.5008,-46.8982,202408291114332293,
2-24,A_Baseline,1,Q3FrontDown,-61.46335,42.63774,69.01273,-29.49341,-127.83,156.5009,-46.90433,202408291114332470,
2-24,A_Baseline,1,Q3FrontDown,-61.54513,42.79575,69.05022,-29.34979,-127.7978,156.5064,-46.93298,202408291114332746,
2-24,A_Baseline,1,Q3FrontDown,-61.54513,42.79575,69.05022,-29.34979,-127.7978,156.5064,-46.93298,202408291114332922,
2-24,A_Baseline,1,Q3FrontDown,-61.54513,42.79575,69.05022,-29.34979,-127.7978,156.5064,-46.93298,202408291114333129,
2-24,A_Baseline,1,Q3FrontDown,-61.64193,42.92977,69.07032,-29.21369,-127.7787,156.5072,-46.9425,202408291114333398,
2-24,A_Baseline,1,Q3FrontDown,-61.73682,43.06685,69.08776,-29.09846,-127.7667,156.5069,-46.94252,202408291114333686,
2-24,A_Baseline,1,Q3FrontDown,-61.86882,43.18776,69.122,-29.01033,-127.7589,156.5074,-46.94267,202408291114333918,
2-24,A_Baseline,1,Q3FrontDown,-61.99572,43.30669,69.14799,-28.94197,-127.752,156.5072,-46.94287,202408291114334099,
2-24,A_Baseline,1,Q3FrontDown,-61.99572,43.30669,69.14799,-28.94197,-127.752,156.5072,-46.94287,202408291114334290,
2-24,A_Baseline,1,Q3FrontDown,-62.12513,43.41305,69.17012,-28.86343,-127.7474,156.5073,-46.9435,202408291114334694,
2-24,A_Baseline,1,Q3FrontDown,-62.24186,43.52999,69.20082,-28.78713,-127.7421,156.5078,-46.96168,202408291114334978,
2-24,A_Baseline,1,Q3FrontDown,-62.36589,43.63729,69.23338,-28.70725,-127.729,156.5086,-46.9758,202408291114335258,
2-24,A_Baseline,1,Q3FrontDown,-62.46959,43.75861,69.28172,-28.63256,-127.7063,156.5098,-46.98688,202408291114335415,
2-24,A_Baseline,1,Q3FrontDown,-62.46959,43.75861,69.28172,-28.63256,-127.7063,156.5098,-46.98688,202408291114335607,
2-24,A_Baseline,1,Q3FrontDown,-62.5792,43.86002,69.30595,-28.56496,-127.6839,156.5159,-46.9876,202408291114335841,
2-24,A_Baseline,1,Q3FrontDown,-62.69685,43.98309,69.33656,-28.51124,-127.6439,156.5256,-47.00586,202408291114336096,
2-24,A_Baseline,1,Q3FrontDown,-62.69685,43.98309,69.33656,-28.51124,-127.6439,156.5256,-47.00586,202408291114336292,
2-24,A_Baseline,1,Q3FrontDown,-62.81936,44.10268,69.37143,-28.46559,-127.591,156.5391,-47.03435,202408291114336513,
2-24,A_Baseline,1,Q3FrontDown,-62.93431,44.24299,69.40018,-28.42149,-127.5528,156.5425,-47.06177,202408291114336818,
2-24,A_Baseline,1,Q3FrontDown,-62.93431,44.24299,69.40018,-28.42149,-127.5528,156.5425,-47.06177,202408291114337014,
2-24,A_Baseline,1,Q3FrontDown,-63.05164,44.39228,69.42339,-28.36252,-127.5067,156.542,-47.08694,202408291114337279,
2-24,A_Baseline,1,Q3FrontDown,-63.1459,44.55459,69.44366,-28.2968,-127.4458,156.5415,-47.1062,202408291114337450,
2-24,A_Baseline,1,Q3FrontDown,-63.1459,44.55459,69.44366,-28.2968,-127.4458,156.5415,-47.1062,202408291114337748,
2-24,A_Baseline,1,Q3FrontDown,-63.24046,44.73585,69.5002,-28.21826,-127.385,156.5451,-47.11217,202408291114337931,
2-24,A_Baseline,1,Q3FrontDown,-63.33312,44.92466,69.56144,-28.15267,-127.3233,156.5491,-47.12149,202408291114338149,
2-24,A_Baseline,1,Q3FrontDown,-63.33312,44.92466,69.56144,-28.15267,-127.3233,156.5491,-47.12149,202408291114338425,
2-24,A_Baseline,1,Q3FrontDown,-63.43768,45.11108,69.62199,-28.09203,-127.2589,156.5488,-47.13212,202408291114338583,
2-24,A_Baseline,1,Q3FrontDown,-63.5281,45.32146,69.6783,-28.01579,-127.2005,156.5504,-47.13586,202408291114338743,
2-24,A_Baseline,1,Q3FrontDown,-63.5281,45.32146,69.6783,-28.01579,-127.2005,156.5504,-47.13586,202408291114338910,
2-24,A_Baseline,1,Q3FrontDown,-63.62996,45.53231,69.7289,-27.93556,-127.1387,156.5518,-47.13758,202408291114339121,
2-24,A_Baseline,1,Q3FrontDown,-63.62996,45.53231,69.7289,-27.93556,-127.1387,156.5518,-47.13758,202408291114339329,
2-24,A_Baseline,1,Q3FrontDown,-63.71887,45.74582,69.76654,-27.85395,-127.0811,156.5527,-47.14175,202408291114339673,
2-24,A_Baseline,1,Q3FrontDown,-63.71887,45.74582,69.76654,-27.85395,-127.0811,156.5527,-47.14175,202408291114339943,
2-24,A_Baseline,1,Q3FrontDown,-63.86427,46.20842,69.81348,-27.68761,-126.9164,156.6417,-47.16562,202408291114340107,
2-24,A_Baseline,1,Q3FrontDown,-63.86427,46.20842,69.81348,-27.68761,-126.9164,156.6417,-47.16562,202408291114340302,
2-24,A_Baseline,1,Q3FrontDown,-63.86427,46.20842,69.81348,-27.68761,-126.9164,156.6417,-47.16562,202408291114340597,
2-24,A_Baseline,1,Q3FrontDown,-63.94847,46.68732,69.81544,-27.57833,-126.787,156.6511,-47.16928,202408291114340763,
2-24,A_Baseline,1,Q3FrontDown,-63.94847,46.68732,69.81544,-27.57833,-126.787,156.6511,-47.16928,202408291114340931,
2-24,A_Baseline,1,Q3FrontDown,-63.94847,46.68732,69.81544,-27.57833,-126.787,156.6511,-47.16928,202408291114341100,
2-24,A_Baseline,1,Q3FrontDown,-63.94847,46.68732,69.81544,-27.57833,-126.787,156.6511,-47.16928,202408291114341359,
2-24,A_Baseline,1,Q3FrontDown,-63.9672,47.16218,69.79681,-27.54004,-126.7261,156.6497,-47.20189,202408291114341623,
2-24,A_Baseline,1,Q3FrontDown,-63.9672,47.16218,69.79681,-27.54004,-126.7261,156.6497,-47.20189,202408291114341964,
2-24,A_Baseline,1,Q3FrontDown,-63.94018,47.65584,69.74261,-27.5392,-126.7,156.6494,-47.2293,202408291114342145,
2-24,A_Baseline,1,Q3FrontDown,-63.94018,47.65584,69.74261,-27.5392,-126.7,156.6494,-47.2293,202408291114342443,
2-24,A_Baseline,1,Q3FrontDown,-63.9146,47.896,69.67242,-27.53926,-126.7,156.6497,-47.23758,202408291114342645,
2-24,A_Baseline,1,Q3FrontDown,-63.87154,48.14313,69.586,-27.53762,-126.699,156.6505,-47.26468,202408291114342817,
2-24,A_Baseline,1,Q3FrontDown,-63.87154,48.14313,69.586,-27.53762,-126.699,156.6505,-47.26468,202408291114343092,
2-24,A_Baseline,1,Q3FrontDown,-63.83207,48.38556,69.51452,-27.53334,-126.6985,156.6502,-47.27834,202408291114343252,
2-24,A_Baseline,1,Q3FrontDown,-63.78617,48.61286,69.45419,-27.52329,-126.6986,156.6501,-47.28191,202408291114343488,
2-24,A_Baseline,1,Q3FrontDown,-63.78617,48.61286,69.45419,-27.52329,-126.6986,156.6501,-47.28191,202408291114343674,
2-24,A_Baseline,1,Q3FrontDown,-63.72975,48.83858,69.3993,-27.52228,-126.6984,156.6498,-47.2844,202408291114343970,
2-24,A_Baseline,1,Q3FrontDown,-63.65628,49.05728,69.32736,-27.51764,-126.6881,156.6503,-47.29554,202408291114344132,
2-24,A_Baseline,1,Q3FrontDown,-63.58452,49.24469,69.25877,-27.51347,-126.6663,156.6497,-47.30981,202408291114344513,
2-24,A_Baseline,1,Q3FrontDown,-63.58452,49.24469,69.25877,-27.51347,-126.6663,156.6497,-47.30981,202408291114344767,
2-24,A_Baseline,1,Q3FrontDown,-63.38177,49.58311,69.08788,-27.51333,-126.6365,156.6465,-47.31413,202408291114345094,
2-24,A_Baseline,1,Q3FrontDown,-63.38177,49.58311,69.08788,-27.51333,-126.6365,156.6465,-47.31413,202408291114345243,
2-24,A_Baseline,1,Q3FrontDown,-63.38177,49.58311,69.08788,-27.51333,-126.6365,156.6465,-47.31413,202408291114345413,
2-24,A_Baseline,1,Q3FrontDown,-63.26662,49.70992,68.97742,-27.51251,-126.635,156.6467,-47.31482,202408291114345587,
2-24,A_Baseline,1,Q3FrontDown,-63.12581,49.83647,68.86552,-27.50749,-126.635,156.6465,-47.31486,202408291114345810,
2-24,A_Baseline,1,Q3FrontDown,-63.12581,49.83647,68.86552,-27.50749,-126.635,156.6465,-47.31486,202408291114346004,
2-24,A_Baseline,1,Q3FrontDown,-62.97213,49.9408,68.75166,-27.50583,-126.6348,156.6468,-47.31486,202408291114346266,
2-24,A_Baseline,1,Q3FrontDown,-62.80912,50.03376,68.6283,-27.50705,-126.6342,156.6471,-47.31492,202408291114346431,
2-24,A_Baseline,1,Q3FrontDown,-62.80912,50.03376,68.6283,-27.50705,-126.6342,156.6471,-47.31492,202408291114346648,
2-24,A_Baseline,1,Q3FrontDown,-62.65381,50.11022,68.50885,-27.50737,-126.6338,156.6469,-47.31485,202408291114346867,
2-24,A_Baseline,1,Q3FrontDown,-62.65381,50.11022,68.50885,-27.50737,-126.6338,156.6469,-47.31485,202408291114347128,
2-24,A_Baseline,1,Q3FrontDown,-62.47873,50.19452,68.38838,-27.50327,-126.6201,156.6458,-47.31486,202408291114347449,
2-24,A_Baseline,1,Q3FrontDown,-62.30186,50.27105,68.28717,-27.48904,-126.5956,156.6422,-47.31512,202408291114347628,
2-24,A_Baseline,1,Q3FrontDown,-62.30186,50.27105,68.28717,-27.48904,-126.5956,156.6422,-47.31512,202408291114347966,
2-24,A_Baseline,1,Q3FrontDown,-61.95781,50.38842,68.1208,-27.47905,-126.5466,156.6384,-47.31443,202408291114348270,
2-24,A_Baseline,1,Q3FrontDown,-61.7743,50.4415,68.0521,-27.46595,-126.5334,156.6382,-47.31437,202408291114348432,
2-24,A_Baseline,1,Q3FrontDown,-61.7743,50.4415,68.0521,-27.46595,-126.5334,156.6382,-47.31437,202408291114348608,
2-24,A_Baseline,1,Q3FrontDown,-61.57862,50.5047,67.97495,-27.45395,-126.5231,156.6386,-47.31412,202408291114348803,
2-24,A_Baseline,1,Q3FrontDown,-61.57862,50.5047,67.97495,-27.45395,-126.5231,156.6386,-47.31412,202408291114349017,
2-24,A_Baseline,1,Q3FrontDown,-61.40537,50.5414,67.89091,-27.43763,-126.5004,156.6381,-47.31416,202408291114349292,
2-24,A_Baseline,1,Q3FrontDown,-61.2337,50.57168,67.79047,-27.42563,-126.468,156.6367,-47.31456,202408291114349604,
2-24,A_Baseline,1,Q3FrontDown,-61.05436,50.61488,67.70248,-27.39293,-126.3975,156.6356,-47.31431,202408291114349805,
2-24,A_Baseline,1,Q3FrontDown,-61.05436,50.61488,67.70248,-27.39293,-126.3975,156.6356,-47.31431,202408291114349969,
2-24,A_Baseline,1,Q3FrontDown,-60.88087,50.65753,67.62442,-27.35854,-126.3323,156.6345,-47.31485,202408291114350247,
2-24,A_Baseline,1,Q3FrontDown,-60.88087,50.65753,67.62442,-27.35854,-126.3323,156.6345,-47.31485,202408291114350417,
2-24,A_Baseline,1,Q3FrontDown,-60.72206,50.68792,67.56633,-27.32425,-126.2702,156.6336,-47.31439,202408291114350597,
2-24,A_Baseline,1,Q3FrontDown,-60.55808,50.72237,67.48531,-27.28143,-126.2633,156.6338,-47.31429,202408291114350847,
2-24,A_Baseline,1,Q3FrontDown,-60.39072,50.76392,67.37121,-27.23849,-126.2611,156.6341,-47.31264,202408291114351101,
2-24,A_Baseline,1,Q3FrontDown,-60.39072,50.76392,67.37121,-27.23849,-126.2611,156.6341,-47.31264,202408291114351264,
2-24,A_Baseline,1,Q3FrontDown,-60.23151,50.81268,67.23812,-27.19702,-126.2609,156.6337,-47.30727,202408291114351458,
2-24,A_Baseline,1,Q3FrontDown,-60.05095,50.88886,67.09068,-27.10034,-126.2541,156.6338,-47.29695,202408291114351783,
2-24,A_Baseline,1,Q3FrontDown,-60.05095,50.88886,67.09068,-27.10034,-126.2541,156.6338,-47.29695,202408291114351970,
2-24,A_Baseline,1,Q3FrontDown,-59.86242,50.99146,66.93671,-26.96878,-126.2267,156.6336,-47.29512,202408291114352188,
2-24,A_Baseline,1,Q3FrontDown,-59.67808,51.10403,66.77283,-26.81662,-126.1931,156.6331,-47.29507,202408291114352431,
2-24,A_Baseline,1,Q3FrontDown,-59.51792,51.23555,66.62437,-26.69323,-126.1674,156.6326,-47.29523,202408291114352762,
2-24,A_Baseline,1,Q3FrontDown,-59.51792,51.23555,66.62437,-26.69323,-126.1674,156.6326,-47.29523,202408291114352931,
2-24,A_Baseline,1,Q3FrontDown,-59.51792,51.23555,66.62437,-26.69323,-126.1674,156.6326,-47.29523,202408291114353116,
2-24,A_Baseline,1,Q3FrontDown,-59.35237,51.37746,66.45596,-26.53941,-126.1207,156.6324,-47.2953,202408291114353302,
2-24,A_Baseline,1,Q3FrontDown,-59.18635,51.52486,66.27656,-26.36418,-126.0614,156.6321,-47.29536,202408291114353600,
2-24,A_Baseline,1,Q3FrontDown,-59.18635,51.52486,66.27656,-26.36418,-126.0614,156.6321,-47.29536,202408291114353788,
2-24,A_Baseline,1,Q3FrontDown,-59.01336,51.67851,66.08255,-26.13771,-125.9861,156.6328,-47.29649,202408291114354020,
2-24,A_Baseline,1,Q3FrontDown,-58.85532,51.86439,65.91975,-25.91545,-125.8735,156.6326,-47.29768,202408291114354351,
2-24,A_Baseline,1,Q3FrontDown,-58.71813,52.05912,65.78161,-25.6804,-125.7509,156.6326,-47.29892,202408291114354624,
2-24,A_Baseline,1,Q3FrontDown,-58.57785,52.27545,65.64162,-25.39961,-125.5944,156.633,-47.29904,202408291114354951,
2-24,A_Baseline,1,Q3FrontDown,-58.44533,52.49335,65.4922,-25.13445,-125.4538,156.6328,-47.29873,202408291114355268,
2-24,A_Baseline,1,Q3FrontDown,-58.33487,52.70536,65.3361,-24.87445,-125.3254,156.6322,-47.29907,202408291114355506,
2-24,A_Baseline,1,Q3FrontDown,-58.33487,52.70536,65.3361,-24.87445,-125.3254,156.6322,-47.29907,202408291114355741,
2-24,A_Baseline,1,Q3FrontDown,-58.33487,52.70536,65.3361,-24.87445,-125.3254,156.6322,-47.29907,202408291114355910,
2-24,A_Baseline,1,Q3FrontDown,-58.33487,52.70536,65.3361,-24.87445,-125.3254,156.6322,-47.29907,202408291114356082,
2-24,A_Baseline,1,Q3FrontDown,-58.19078,53.16189,65.07728,-24.39587,-125.0581,156.6322,-47.30202,202408291114356241,
2-24,A_Baseline,1,Q3FrontDown,-58.19078,53.16189,65.07728,-24.39587,-125.0581,156.6322,-47.30202,202408291114356468,
2-24,A_Baseline,1,Q3FrontDown,-58.15055,53.40064,64.98832,-24.17272,-124.91,156.6322,-47.31351,202408291114356682,
2-24,A_Baseline,1,Q3FrontDown,-58.11598,53.64495,64.85767,-23.9493,-124.7899,156.6329,-47.31954,202408291114357006,
2-24,A_Baseline,1,Q3FrontDown,-58.09851,53.89906,64.73901,-23.74276,-124.6636,156.6325,-47.32281,202408291114357289,
2-24,A_Baseline,1,Q3FrontDown,-58.08957,54.16179,64.64586,-23.56523,-124.5694,156.6322,-47.32465,202408291114357632,
2-24,A_Baseline,1,Q3FrontDown,-58.08006,54.43385,64.54592,-23.38155,-124.4779,156.6322,-47.32639,202408291114357920,
2-24,A_Baseline,1,Q3FrontDown,-58.07588,54.72092,64.46804,-23.18199,-124.3872,156.6323,-47.32653,202408291114358095,
2-24,A_Baseline,1,Q3FrontDown,-58.07588,54.72092,64.46804,-23.18199,-124.3872,156.6323,-47.32653,202408291114358258,
2-24,A_Baseline,1,Q3FrontDown,-58.0787,55.00429,64.40333,-23.00174,-124.2957,156.631,-47.3269,202408291114358431,
2-24,A_Baseline,1,Q3FrontDown,-58.0787,55.00429,64.40333,-23.00174,-124.2957,156.631,-47.3269,202408291114358695,
2-24,A_Baseline,1,Q3FrontDown,-58.07964,55.30116,64.33379,-22.83746,-124.2147,156.6303,-47.32715,202408291114358842,
2-24,A_Baseline,1,Q3FrontDown,-58.07896,55.59386,64.30605,-22.68606,-124.0793,156.6307,-47.32767,202408291114359125,
2-24,A_Baseline,1,Q3FrontDown,-58.07679,55.87474,64.30247,-22.54148,-123.9009,156.6305,-47.32845,202408291114359410,
2-24,A_Baseline,1,Q3FrontDown,-58.07679,55.87474,64.30247,-22.54148,-123.9009,156.6305,-47.32845,202408291114359616,
2-24,A_Baseline,1,Q3FrontDown,-58.07452,56.14255,64.30316,-22.41002,-123.7495,156.6307,-47.32867,202408291114359981,
2-24,A_Baseline,1,Q3FrontDown,-58.06861,56.41761,64.30375,-22.27045,-123.5745,156.6319,-47.32896,202408291114360161,
2-24,A_Baseline,1,Q3FrontDown,-58.06861,56.41761,64.30375,-22.27045,-123.5745,156.6319,-47.32896,202408291114360428,
2-24,A_Baseline,1,Q3FrontDown,-58.06435,56.67246,64.30305,-22.14032,-123.4264,156.6331,-47.32888,202408291114360754,
2-24,A_Baseline,1,Q3FrontDown,-58.05479,56.95391,64.30506,-21.96642,-123.2293,156.6499,-47.32893,202408291114360967,
2-24,A_Baseline,1,Q3FrontDown,-58.04805,57.23263,64.30649,-21.77715,-123.0259,156.6566,-47.32903,202408291114361178,
2-24,A_Baseline,1,Q3FrontDown,-58.04805,57.23263,64.30649,-21.77715,-123.0259,156.6566,-47.32903,202408291114361451,
2-24,A_Baseline,1,Q3FrontDown,-58.04702,57.49903,64.30724,-21.59303,-122.811,156.6578,-47.32991,202408291114361676,
2-24,A_Baseline,1,Q3FrontDown,-58.05204,57.75632,64.3075,-21.42068,-122.6088,156.6579,-47.32988,202408291114361977,
2-24,A_Baseline,1,Q3FrontDown,-58.05813,58.01908,64.30722,-21.23939,-122.3689,156.6612,-47.33004,202408291114362130,
2-24,A_Baseline,1,Q3FrontDown,-58.05813,58.01908,64.30722,-21.23939,-122.3689,156.6612,-47.33004,202408291114362313,
2-24,A_Baseline,1,Q3FrontDown,-58.06253,58.27252,64.30644,-21.06443,-122.1666,156.6707,-47.33037,202408291114362587,
2-24,A_Baseline,1,Q3FrontDown,-58.06253,58.27252,64.30644,-21.06443,-122.1666,156.6707,-47.33037,202408291114362752,
2-24,A_Baseline,1,Q3FrontDown,-58.06095,58.53553,64.30804,-20.88269,-121.9732,156.702,-47.33006,202408291114362913,
2-24,A_Baseline,1,Q3FrontDown,-58.06095,58.53553,64.30804,-20.88269,-121.9732,156.702,-47.33006,202408291114363088,
2-24,A_Baseline,1,Q3FrontDown,-58.06167,58.78628,64.30903,-20.73033,-121.8195,156.7376,-47.33004,202408291114363254,
2-24,A_Baseline,1,Q3FrontDown,-58.06282,59.03341,64.30897,-20.58489,-121.6847,156.7757,-47.33041,202408291114363507,
2-24,A_Baseline,1,Q3FrontDown,-58.06414,59.27789,64.30889,-20.43789,-121.5699,156.8151,-47.33037,202408291114363780,
2-24,A_Baseline,1,Q3FrontDown,-58.06414,59.27789,64.30889,-20.43789,-121.5699,156.8151,-47.33037,202408291114363963,
2-24,A_Baseline,1,Q3FrontDown,-58.06186,59.51906,64.30508,-20.29776,-121.5101,156.8613,-47.32935,202408291114364145,
2-24,A_Baseline,1,Q3FrontDown,-58.06186,59.51906,64.30508,-20.29776,-121.5101,156.8613,-47.32935,202408291114364319,
2-24,A_Baseline,1,Q3FrontDown,-58.06274,59.75662,64.2907,-20.16257,-121.4792,156.9282,-47.32666,202408291114364516,
2-24,A_Baseline,1,Q3FrontDown,-58.0506,60.01971,64.27025,-20.01168,-121.3583,157.0275,-47.3234,202408291114364776,
2-24,A_Baseline,1,Q3FrontDown,-58.0506,60.01971,64.27025,-20.01168,-121.3583,157.0275,-47.3234,202408291114364976,
2-24,A_Baseline,1,Q3FrontDown,-58.04993,60.25779,64.25119,-19.8822,-121.2564,157.1223,-47.32074,202408291114365251,
2-24,A_Baseline,1,Q3FrontDown,-58.05037,60.49447,64.22829,-19.75396,-121.173,157.2222,-47.31944,202408291114365431,
2-24,A_Baseline,1,Q3FrontDown,-58.05037,60.49447,64.22829,-19.75396,-121.173,157.2222,-47.31944,202408291114365643,
2-24,A_Baseline,1,Q3FrontDown,-58.0258,60.74635,64.18911,-19.58079,-121.0865,157.3026,-47.31925,202408291114365942,
2-24,A_Baseline,1,Q3FrontDown,-57.98523,61.02741,64.14177,-19.37325,-120.9636,157.3544,-47.32022,202408291114366130,
2-24,A_Baseline,1,Q3FrontDown,-57.98523,61.02741,64.14177,-19.37325,-120.9636,157.3544,-47.32022,202408291114366276,
2-24,A_Baseline,1,Q3FrontDown,-57.98523,61.02741,64.14177,-19.37325,-120.9636,157.3544,-47.32022,202408291114366473,
2-24,A_Baseline,1,Q3FrontDown,-57.94692,61.31149,64.09212,-19.16985,-120.8122,157.3715,-47.3218,202408291114366671,
2-24,A_Baseline,1,Q3FrontDown,-57.88694,61.63925,64.02687,-18.92896,-120.5284,157.4192,-47.32195,202408291114366956,
2-24,A_Baseline,1,Q3FrontDown,-57.8365,61.97915,63.9787,-18.69305,-120.3304,157.436,-47.34273,202408291114367113,
2-24,A_Baseline,1,Q3FrontDown,-57.8365,61.97915,63.9787,-18.69305,-120.3304,157.436,-47.34273,202408291114367275,
2-24,A_Baseline,1,Q3FrontDown,-57.80136,62.3212,63.95482,-18.50158,-120.1844,157.4366,-47.37752,202408291114367603,
2-24,A_Baseline,1,Q3FrontDown,-57.80136,62.3212,63.95482,-18.50158,-120.1844,157.4366,-47.37752,202408291114367812,
2-24,A_Baseline,1,Q3FrontDown,-57.76061,63.01875,63.85831,-18.18674,-119.9826,157.4356,-47.4438,202408291114368105,
2-24,A_Baseline,1,Q3FrontDown,-57.76061,63.01875,63.85831,-18.18674,-119.9826,157.4356,-47.4438,202408291114368355,
2-24,A_Baseline,1,Q3FrontDown,-57.73868,63.35869,63.79324,-18.04759,-119.9273,157.4355,-47.48186,202408291114368611,
2-24,A_Baseline,1,Q3FrontDown,-57.71728,63.69848,63.65084,-17.95334,-119.918,157.4354,-47.51873,202408291114368867,
2-24,A_Baseline,1,Q3FrontDown,-57.70948,64.01027,63.50848,-17.87621,-119.9151,157.435,-47.55441,202408291114369129,
2-24,A_Baseline,1,Q3FrontDown,-57.69671,64.33231,63.35367,-17.81917,-119.9141,157.4354,-47.58857,202408291114369465,
2-24,A_Baseline,1,Q3FrontDown,-57.67187,64.65019,63.16702,-17.76576,-119.8906,157.4356,-47.62481,202408291114369816,
2-24,A_Baseline,1,Q3FrontDown,-57.67187,64.65019,63.16702,-17.76576,-119.8906,157.4356,-47.62481,202408291114369981,
2-24,A_Baseline,1,Q3FrontDown,-57.6437,64.94332,62.97976,-17.71993,-119.8819,157.4352,-47.65269,202408291114370266,
2-24,A_Baseline,1,Q3FrontDown,-57.6437,64.94332,62.97976,-17.71993,-119.8819,157.4352,-47.65269,202408291114370429,
2-24,A_Baseline,1,Q3FrontDown,-57.6437,64.94332,62.97976,-17.71993,-119.8819,157.4352,-47.65269,202408291114370609,
2-24,A_Baseline,1,Q3FrontDown,-57.57307,65.48778,62.65664,-17.61101,-119.8752,157.4355,-47.70079,202408291114370777,
2-24,A_Baseline,1,Q3FrontDown,-57.57307,65.48778,62.65664,-17.61101,-119.8752,157.4355,-47.70079,202408291114370956,
2-24,A_Baseline,1,Q3FrontDown,-57.57307,65.48778,62.65664,-17.61101,-119.8752,157.4355,-47.70079,202408291114371195,
2-24,A_Baseline,1,Q3FrontDown,-57.45525,66.01477,62.31544,-17.4544,-119.5721,157.495,-47.71297,202408291114371431,
2-24,A_Baseline,1,Q3FrontDown,-57.45525,66.01477,62.31544,-17.4544,-119.5721,157.495,-47.71297,202408291114371638,
2-24,A_Baseline,1,Q3FrontDown,-57.39677,66.25004,62.17099,-17.37603,-119.3865,157.5326,-47.71329,202408291114371974,
2-24,A_Baseline,1,Q3FrontDown,-57.33242,66.46241,62.05309,-17.29475,-119.2534,157.5541,-47.7132,202408291114372158,
2-24,A_Baseline,1,Q3FrontDown,-57.26137,66.65501,61.95626,-17.20726,-119.1324,157.5612,-47.71316,202408291114372427,
2-24,A_Baseline,1,Q3FrontDown,-57.17815,66.84699,61.83073,-17.1298,-118.9526,157.567,-47.71327,202408291114372753,
2-24,A_Baseline,1,Q3FrontDown,-57.17815,66.84699,61.83073,-17.1298,-118.9526,157.567,-47.71327,202408291114372964,
2-24,A_Baseline,1,Q3FrontDown,-57.09304,67.01473,61.70118,-17.0638,-118.7733,157.5697,-47.71598,202408291114373295,
2-24,A_Baseline,1,Q3FrontDown,-56.99973,67.17671,61.59433,-17.01249,-118.5903,157.5712,-47.72059,202408291114373591,
2-24,A_Baseline,1,Q3FrontDown,-56.88459,67.33958,61.50152,-16.96091,-118.4616,157.5714,-47.72094,202408291114373778,
2-24,A_Baseline,1,Q3FrontDown,-56.88459,67.33958,61.50152,-16.96091,-118.4616,157.5714,-47.72094,202408291114373932,
2-24,A_Baseline,1,Q3FrontDown,-56.75658,67.50211,61.42554,-16.92237,-118.3666,157.5714,-47.72344,202408291114374152,
2-24,A_Baseline,1,Q3FrontDown,-56.75658,67.50211,61.42554,-16.92237,-118.3666,157.5714,-47.72344,202408291114374328,
2-24,A_Baseline,1,Q3FrontDown,-56.62653,67.64949,61.35968,-16.89206,-118.3173,157.5716,-47.72995,202408291114374566,
2-24,A_Baseline,1,Q3FrontDown,-56.62653,67.64949,61.35968,-16.89206,-118.3173,157.5716,-47.72995,202408291114374775,
2-24,A_Baseline,1,Q3FrontDown,-56.47899,67.78898,61.25644,-16.8887,-118.3176,157.5712,-47.73124,202408291114374953,
2-24,A_Baseline,1,Q3FrontDown,-56.32269,67.91309,61.16252,-16.88907,-118.3176,157.5713,-47.73191,202408291114375276,
2-24,A_Baseline,1,Q3FrontDown,-56.14576,68.04213,61.07208,-16.89067,-118.3179,157.5717,-47.73327,202408291114375480,
2-24,A_Baseline,1,Q3FrontDown,-55.95259,68.15294,60.99099,-16.89138,-118.3161,157.5715,-47.73951,202408291114375752,
2-24,A_Baseline,1,Q3FrontDown,-55.95259,68.15294,60.99099,-16.89138,-118.3161,157.5715,-47.73951,202408291114375930,
2-24,A_Baseline,1,Q3FrontDown,-55.73184,68.26332,60.86682,-16.90121,-118.2893,157.5722,-47.74496,202408291114376186,
2-24,A_Baseline,1,Q3FrontDown,-55.49978,68.34691,60.72933,-16.92318,-118.2573,157.5732,-47.7449,202408291114376514,
2-24,A_Baseline,1,Q3FrontDown,-55.25172,68.42381,60.59406,-16.96454,-118.2267,157.5742,-47.74523,202408291114376810,
2-24,A_Baseline,1,Q3FrontDown,-55.01039,68.47635,60.45905,-17.00867,-118.2027,157.576,-47.74533,202408291114377130,
2-24,A_Baseline,1,Q3FrontDown,-55.01039,68.47635,60.45905,-17.00867,-118.2027,157.576,-47.74533,202408291114377298,
2-24,A_Baseline,1,Q3FrontDown,-54.75021,68.51919,60.30965,-17.05532,-118.1829,157.5828,-47.74522,202408291114377629,
2-24,A_Baseline,1,Q3FrontDown,-54.44892,68.54391,60.07934,-17.08881,-118.1668,157.6253,-47.7451,202408291114377928,
2-24,A_Baseline,1,Q3FrontDown,-54.14753,68.55554,59.9099,-17.12037,-118.1622,157.6559,-47.74553,202408291114378247,
2-24,A_Baseline,1,Q3FrontDown,-53.80373,68.56134,59.77435,-17.16017,-118.1625,157.6748,-47.74539,202408291114378431,
2-24,A_Baseline,1,Q3FrontDown,-53.80373,68.56134,59.77435,-17.16017,-118.1625,157.6748,-47.74539,202408291114378612,
2-24,A_Baseline,1,Q3FrontDown,-53.46638,68.58306,59.72988,-17.16672,-118.1612,157.6948,-47.74565,202408291114378840,
2-24,A_Baseline,1,Q3FrontDown,-53.46638,68.58306,59.72988,-17.16672,-118.1612,157.6948,-47.74565,202408291114379179,
2-24,A_Baseline,1,Q3FrontDown,-52.76327,68.57264,59.53907,-17.1997,-118.16,157.7232,-47.74588,202408291114379467,
2-24,A_Baseline,2,Q1FrontUp,-50.36153,17.0654,62.41586,-22.35394,-116.2906,146.1761,-40.24018,202408291115013240,
2-24,A_Baseline,2,Q1FrontUp,-50.36164,17.06532,62.41585,-22.35386,-116.2908,146.1737,-40.23976,202408291115013552,
2-24,A_Baseline,2,Q1FrontUp,-50.36166,17.06519,62.4157,-22.35382,-116.2907,146.1713,-40.24018,202408291115013867,
2-24,A_Baseline,2,Q1FrontUp,-50.36165,17.06535,62.41619,-22.35406,-116.2907,146.1702,-40.24009,202408291115014050,
2-24,A_Baseline,2,Q1FrontUp,-50.36165,17.06535,62.41619,-22.35406,-116.2907,146.1702,-40.24009,202408291115014252,
2-24,A_Baseline,2,Q1FrontUp,-50.37242,17.06801,62.4711,-22.36403,-116.2908,146.1602,-40.24032,202408291115014616,
2-24,A_Baseline,2,Q1FrontUp,-50.39714,17.06777,62.57837,-22.3843,-116.2907,146.1303,-40.2423,202408291115014915,
2-24,A_Baseline,2,Q1FrontUp,-50.40173,17.06854,62.71283,-22.39946,-116.2844,146.1098,-40.24584,202408291115015266,
2-24,A_Baseline,2,Q1FrontUp,-50.40622,17.0652,62.84762,-22.41514,-116.2812,146.0903,-40.2481,202408291115015544,
2-24,A_Baseline,2,Q1FrontUp,-50.4072,17.06345,62.97017,-22.43731,-116.2811,146.0832,-40.25023,202408291115015805,
2-24,A_Baseline,2,Q1FrontUp,-50.4072,17.06345,62.97017,-22.43731,-116.2811,146.0832,-40.25023,202408291115016015,
2-24,A_Baseline,2,Q1FrontUp,-50.40827,17.06228,63.07034,-22.44997,-116.2812,146.0789,-40.25193,202408291115016211,
2-24,A_Baseline,2,Q1FrontUp,-50.40911,17.06077,63.15143,-22.46036,-116.2807,146.0723,-40.25425,202408291115016469,
2-24,A_Baseline,2,Q1FrontUp,-50.40911,17.06077,63.15143,-22.46036,-116.2807,146.0723,-40.25425,202408291115016648,
2-24,A_Baseline,2,Q1FrontUp,-50.40943,17.0603,63.21438,-22.46318,-116.2786,146.0625,-40.25667,202408291115016980,
2-24,A_Baseline,2,Q1FrontUp,-50.4092,17.05926,63.26604,-22.46898,-116.2765,146.0521,-40.26238,202408291115017389,
2-24,A_Baseline,2,Q1FrontUp,-50.40839,17.05865,63.31301,-22.47414,-116.2751,146.0465,-40.26624,202408291115017609,
2-24,A_Baseline,2,Q1FrontUp,-50.40872,17.05877,63.35666,-22.47596,-116.2752,146.0405,-40.26773,202408291115017779,
2-24,A_Baseline,2,Q1FrontUp,-50.40872,17.05877,63.35666,-22.47596,-116.2752,146.0405,-40.26773,202408291115018016,
2-24,A_Baseline,2,Q1FrontUp,-50.40815,17.05824,63.37289,-22.47595,-116.275,146.0369,-40.26938,202408291115018315,
2-24,A_Baseline,2,Q1FrontUp,-50.40815,17.05824,63.37289,-22.47595,-116.275,146.0369,-40.26938,202408291115018528,
2-24,A_Baseline,2,Q1FrontUp,-50.41597,17.05824,63.39302,-22.47556,-116.2749,146.0328,-40.27029,202408291115018822,
2-24,A_Baseline,2,Q1FrontUp,-50.41597,17.05824,63.39302,-22.47556,-116.2749,146.0328,-40.27029,202408291115018990,
2-24,A_Baseline,2,Q1FrontUp,-50.42461,17.05843,63.4006,-22.47595,-116.2751,146.0318,-40.27077,202408291115019187,
2-24,A_Baseline,2,Q1FrontUp,-50.42944,17.05926,63.40644,-22.47587,-116.2751,146.0309,-40.27055,202408291115019499,
2-24,A_Baseline,2,Q1FrontUp,-50.42944,17.05926,63.40644,-22.47587,-116.2751,146.0309,-40.27055,202408291115019785,
2-24,A_Baseline,2,Q1FrontUp,-50.42936,17.05958,63.41395,-22.47609,-116.2752,146.0307,-40.27055,202408291115019950,
2-24,A_Baseline,2,Q1FrontUp,-50.4304,17.05874,63.41531,-22.47566,-116.2751,146.0304,-40.2708,202408291115020112,
2-24,A_Baseline,2,Q1FrontUp,-50.4304,17.05874,63.41531,-22.47566,-116.2751,146.0304,-40.2708,202408291115020287,
2-24,A_Baseline,2,Q1FrontUp,-50.43057,17.05815,63.41552,-22.47415,-116.2753,146.0303,-40.2707,202408291115020475,
2-24,A_Baseline,2,Q1FrontUp,-50.43057,17.05815,63.41552,-22.47415,-116.2753,146.0303,-40.2707,202408291115020710,
2-24,A_Baseline,2,Q1FrontUp,-50.4307,17.05811,63.41553,-22.47302,-116.2751,146.0301,-40.27096,202408291115020955,
2-24,A_Baseline,2,Q1FrontUp,-50.43544,17.05845,63.41554,-22.47131,-116.2734,146.03,-40.27114,202408291115021295,
2-24,A_Baseline,2,Q1FrontUp,-50.44027,17.05847,63.41592,-22.46978,-116.2727,146.0301,-40.27114,202408291115021615,
2-24,A_Baseline,2,Q1FrontUp,-50.44087,17.05843,63.41571,-22.46868,-116.2727,146.03,-40.271,202408291115021846,
2-24,A_Baseline,2,Q1FrontUp,-50.44115,17.05862,63.4158,-22.46728,-116.2727,146.0301,-40.27069,202408291115022131,
2-24,A_Baseline,2,Q1FrontUp,-50.44082,17.05837,63.41592,-22.46174,-116.2669,146.0301,-40.27067,202408291115022456,
2-24,A_Baseline,2,Q1FrontUp,-50.44082,17.05837,63.41592,-22.46174,-116.2669,146.0301,-40.27067,202408291115022660,
2-24,A_Baseline,2,Q1FrontUp,-50.4407,17.05844,63.41581,-22.45215,-116.2516,146.03,-40.27126,202408291115022826,
2-24,A_Baseline,2,Q1FrontUp,-50.43955,17.05733,63.41564,-22.44021,-116.2151,146.0299,-40.27054,202408291115023119,
2-24,A_Baseline,2,Q1FrontUp,-50.43955,17.05733,63.41564,-22.44021,-116.2151,146.0299,-40.27054,202408291115023296,
2-24,A_Baseline,2,Q1FrontUp,-50.42203,17.05474,63.41253,-22.42401,-116.1144,146.0284,-40.27005,202408291115023496,
2-24,A_Baseline,2,Q1FrontUp,-50.42203,17.05474,63.41253,-22.42401,-116.1144,146.0284,-40.27005,202408291115023831,
2-24,A_Baseline,2,Q1FrontUp,-50.39458,17.04958,63.40768,-22.40012,-115.9629,146.0268,-40.27021,202408291115024038,
2-24,A_Baseline,2,Q1FrontUp,-50.22911,17.04062,63.3283,-22.34805,-115.6144,145.9536,-40.26946,202408291115024380,
2-24,A_Baseline,2,Q1FrontUp,-50.01722,17.00304,63.27064,-22.29903,-115.2305,145.8622,-40.26746,202408291115024642,
2-24,A_Baseline,2,Q1FrontUp,-49.7632,16.95066,63.23445,-22.25232,-114.8384,145.7498,-40.25895,202408291115024957,
2-24,A_Baseline,2,Q1FrontUp,-49.46306,16.87574,63.2352,-22.22994,-114.4295,145.6381,-40.2438,202408291115025195,
2-24,A_Baseline,2,Q1FrontUp,-49.46306,16.87574,63.2352,-22.22994,-114.4295,145.6381,-40.2438,202408291115025446,
2-24,A_Baseline,2,Q1FrontUp,-49.08368,16.76262,63.17443,-22.21216,-114.0265,145.5128,-40.22718,202408291115025613,
2-24,A_Baseline,2,Q1FrontUp,-48.6371,16.65306,63.08098,-22.1674,-113.6187,145.3768,-40.20391,202408291115025870,
2-24,A_Baseline,2,Q1FrontUp,-48.2142,16.49809,63.02623,-22.1332,-113.213,145.2764,-40.1905,202408291115026167,
2-24,A_Baseline,2,Q1FrontUp,-48.2142,16.49809,63.02623,-22.1332,-113.213,145.2764,-40.1905,202408291115026381,
2-24,A_Baseline,2,Q1FrontUp,-47.78835,16.35293,62.99463,-22.11469,-112.8896,145.1809,-40.18027,202408291115026645,
2-24,A_Baseline,2,Q1FrontUp,-47.35315,16.18383,62.97493,-22.10397,-112.5745,145.0775,-40.16777,202408291115026976,
2-24,A_Baseline,2,Q1FrontUp,-46.97776,16.02345,62.97506,-22.1044,-112.2939,144.9854,-40.16468,202408291115027350,
2-24,A_Baseline,2,Q1FrontUp,-46.62998,15.84569,62.97639,-22.1015,-112.0481,144.9069,-40.16132,202408291115027607,
2-24,A_Baseline,2,Q1FrontUp,-46.27809,15.65555,62.97548,-22.10148,-111.8054,144.8279,-40.15363,202408291115027928,
2-24,A_Baseline,2,Q1FrontUp,-45.81303,15.49336,62.86566,-22.09804,-111.6812,144.6421,-40.14966,202408291115028101,
2-24,A_Baseline,2,Q1FrontUp,-45.81303,15.49336,62.86566,-22.09804,-111.6812,144.6421,-40.14966,202408291115028279,
2-24,A_Baseline,2,Q1FrontUp,-45.81303,15.49336,62.86566,-22.09804,-111.6812,144.6421,-40.14966,202408291115028503,
2-24,A_Baseline,2,Q1FrontUp,-45.37677,15.3251,62.73985,-22.09833,-111.6134,144.396,-40.15018,202408291115028715,
2-24,A_Baseline,2,Q1FrontUp,-44.86761,15.1301,62.56098,-22.1168,-111.6082,144.0584,-40.15398,202408291115028981,
2-24,A_Baseline,2,Q1FrontUp,-44.38808,14.94559,62.4035,-22.14774,-111.6049,143.7921,-40.15648,202408291115029153,
2-24,A_Baseline,2,Q1FrontUp,-43.76667,14.79951,62.10401,-22.20993,-111.6579,143.5554,-40.26252,202408291115029495,
2-24,A_Baseline,2,Q1FrontUp,-43.76667,14.79951,62.10401,-22.20993,-111.6579,143.5554,-40.26252,202408291115029689,
2-24,A_Baseline,2,Q1FrontUp,-43.04031,14.6619,61.62622,-22.28058,-111.7522,143.3418,-40.40225,202408291115029930,
2-24,A_Baseline,2,Q1FrontUp,-42.36263,14.53215,61.22718,-22.33598,-111.8337,143.1428,-40.52774,202408291115030267,
2-24,A_Baseline,2,Q1FrontUp,-41.59579,14.40708,60.75838,-22.42354,-111.9085,142.9449,-40.66809,202408291115030530,
2-24,A_Baseline,2,Q1FrontUp,-40.81011,14.33943,60.29059,-22.51787,-111.9726,142.748,-40.80364,202408291115030779,
2-24,A_Baseline,2,Q1FrontUp,-40.81011,14.33943,60.29059,-22.51787,-111.9726,142.748,-40.80364,202408291115030950,
2-24,A_Baseline,2,Q1FrontUp,-40.81011,14.33943,60.29059,-22.51787,-111.9726,142.748,-40.80364,202408291115031152,
2-24,A_Baseline,2,Q1FrontUp,-39.16685,14.24543,59.29485,-22.82932,-112.1036,142.3121,-40.96302,202408291115031487,
2-24,A_Baseline,2,Q1FrontUp,-39.16685,14.24543,59.29485,-22.82932,-112.1036,142.3121,-40.96302,202408291115031655,
2-24,A_Baseline,2,Q1FrontUp,-38.36695,14.20417,58.82305,-23.04259,-112.1062,142.1164,-40.96376,202408291115031852,
2-24,A_Baseline,2,Q1FrontUp,-37.53419,14.19334,58.3054,-23.30431,-112.1076,141.9176,-40.9785,202408291115032105,
2-24,A_Baseline,2,Q1FrontUp,-37.53419,14.19334,58.3054,-23.30431,-112.1076,141.9176,-40.9785,202408291115032430,
2-24,A_Baseline,2,Q1FrontUp,-36.68933,14.18602,57.76546,-23.60601,-112.1091,141.7527,-40.99192,202408291115032601,
2-24,A_Baseline,2,Q1FrontUp,-35.82755,14.18451,57.18649,-23.95168,-112.1116,141.6183,-41.00446,202408291115032782,
2-24,A_Baseline,2,Q1FrontUp,-35.82755,14.18451,57.18649,-23.95168,-112.1116,141.6183,-41.00446,202408291115033027,
2-24,A_Baseline,2,Q1FrontUp,-34.98395,14.19859,56.62535,-24.32429,-112.1579,141.5135,-41.00858,202408291115033281,
2-24,A_Baseline,2,Q1FrontUp,-34.16458,14.20499,56.06322,-24.7479,-112.1785,141.4258,-41.01181,202408291115033474,
2-24,A_Baseline,2,Q1FrontUp,-34.16458,14.20499,56.06322,-24.7479,-112.1785,141.4258,-41.01181,202408291115033695,
2-24,A_Baseline,2,Q1FrontUp,-33.33674,14.22804,55.48757,-25.17452,-112.182,141.3522,-41.01329,202408291115034030,
2-24,A_Baseline,2,Q1FrontUp,-32.50267,14.24872,54.89341,-25.61972,-112.1872,141.2794,-41.01522,202408291115034306,
2-24,A_Baseline,2,Q1FrontUp,-31.71524,14.2583,54.33968,-26.078,-112.2019,141.2297,-41.01564,202408291115034488,
2-24,A_Baseline,2,Q1FrontUp,-30.94038,14.26219,53.80923,-26.57638,-112.2298,141.2145,-41.01618,202408291115034785,
2-24,A_Baseline,2,Q1FrontUp,-30.94038,14.26219,53.80923,-26.57638,-112.2298,141.2145,-41.01618,202408291115034973,
2-24,A_Baseline,2,Q1FrontUp,-30.94038,14.26219,53.80923,-26.57638,-112.2298,141.2145,-41.01618,202408291115035188,
2-24,A_Baseline,2,Q1FrontUp,-29.6005,14.29436,52.93518,-27.53194,-112.2731,141.1977,-41.01564,202408291115035443,
2-24,A_Baseline,2,Q1FrontUp,-29.6005,14.29436,52.93518,-27.53194,-112.2731,141.1977,-41.01564,202408291115035618,
2-24,A_Baseline,2,Q1FrontUp,-29.00361,14.29713,52.51377,-28.05426,-112.2991,141.1999,-41.01511,202408291115035788,
2-24,A_Baseline,2,Q1FrontUp,-29.00361,14.29713,52.51377,-28.05426,-112.2991,141.1999,-41.01511,202408291115035984,
2-24,A_Baseline,2,Q1FrontUp,-28.42032,14.28621,52.10857,-28.66702,-112.3599,141.2061,-41.0141,202408291115036127,
2-24,A_Baseline,2,Q1FrontUp,-28.42032,14.28621,52.10857,-28.66702,-112.3599,141.2061,-41.0141,202408291115036378,
2-24,A_Baseline,2,Q1FrontUp,-27.88642,14.25602,51.7066,-29.30551,-112.4176,141.247,-41.01184,202408291115036693,
2-24,A_Baseline,2,Q1FrontUp,-27.39708,14.2173,51.32315,-29.96614,-112.4842,141.3052,-41.00977,202408291115036962,
2-24,A_Baseline,2,Q1FrontUp,-26.86999,14.18738,50.95369,-30.71029,-112.5772,141.3977,-41.00733,202408291115037123,
2-24,A_Baseline,2,Q1FrontUp,-26.86999,14.18738,50.95369,-30.71029,-112.5772,141.3977,-41.00733,202408291115037298,
2-24,A_Baseline,2,Q1FrontUp,-26.36319,14.16748,50.56346,-31.50953,-112.6821,141.4922,-40.99684,202408291115037545,
2-24,A_Baseline,2,Q1FrontUp,-25.86745,14.14662,50.17373,-32.30148,-112.7911,141.6063,-40.97881,202408291115037774,
2-24,A_Baseline,2,Q1FrontUp,-25.86745,14.14662,50.17373,-32.30148,-112.7911,141.6063,-40.97881,202408291115037955,
2-24,A_Baseline,2,Q1FrontUp,-25.3954,14.15301,49.81092,-33.06804,-112.9041,141.7104,-40.96651,202408291115038369,
2-24,A_Baseline,2,Q1FrontUp,-24.90405,14.15723,49.45155,-33.86083,-113.0252,141.8063,-40.95282,202408291115038532,
2-24,A_Baseline,2,Q1FrontUp,-24.48456,14.16735,49.10885,-34.62779,-113.1385,141.8978,-40.94017,202408291115038826,
2-24,A_Baseline,2,Q1FrontUp,-24.48456,14.16735,49.10885,-34.62779,-113.1385,141.8978,-40.94017,202408291115038992,
2-24,A_Baseline,2,Q1FrontUp,-24.08175,14.17499,48.74323,-35.43903,-113.2496,142.0119,-40.91532,202408291115039158,
2-24,A_Baseline,2,Q1FrontUp,-23.70599,14.16829,48.37638,-36.25295,-113.3419,142.1055,-40.89466,202408291115039466,
2-24,A_Baseline,2,Q1FrontUp,-23.70599,14.16829,48.37638,-36.25295,-113.3419,142.1055,-40.89466,202408291115039684,
2-24,A_Baseline,2,Q1FrontUp,-23.37296,14.16701,48.07041,-36.93926,-113.3962,142.2029,-40.88095,202408291115039945,
2-24,A_Baseline,2,Q1FrontUp,-23.03453,14.1709,47.74016,-37.82586,-113.4803,142.311,-40.86508,202408291115040266,
2-24,A_Baseline,2,Q1FrontUp,-22.74782,14.17244,47.45604,-38.61861,-113.5525,142.4256,-40.84063,202408291115040429,
2-24,A_Baseline,2,Q1FrontUp,-22.74782,14.17244,47.45604,-38.61861,-113.5525,142.4256,-40.84063,202408291115040618,
2-24,A_Baseline,2,Q1FrontUp,-22.45669,14.17968,47.17936,-39.43193,-113.6323,142.5661,-40.81396,202408291115040866,
2-24,A_Baseline,2,Q1FrontUp,-22.1154,14.18717,46.81425,-40.22032,-113.6985,142.7207,-40.7857,202408291115041129,
2-24,A_Baseline,2,Q1FrontUp,-22.1154,14.18717,46.81425,-40.22032,-113.6985,142.7207,-40.7857,202408291115041313,
2-24,A_Baseline,2,Q1FrontUp,-21.72228,14.18532,46.39457,-41.01949,-113.7768,142.8486,-40.76743,202408291115041525,
2-24,A_Baseline,2,Q1FrontUp,-21.35967,14.18808,45.98411,-41.78421,-113.8529,142.9435,-40.74572,202408291115041839,
2-24,A_Baseline,2,Q1FrontUp,-20.96865,14.19689,45.62103,-42.51672,-113.9339,143.0492,-40.73077,202408291115042120,
2-24,A_Baseline,2,Q1FrontUp,-20.96865,14.19689,45.62103,-42.51672,-113.9339,143.0492,-40.73077,202408291115042285,
2-24,A_Baseline,2,Q1FrontUp,-20.58737,14.2121,45.23365,-43.24379,-114.029,143.1412,-40.70129,202408291115042607,
2-24,A_Baseline,2,Q1FrontUp,-20.18683,14.22025,44.82895,-43.99735,-114.126,143.2416,-40.67194,202408291115042790,
2-24,A_Baseline,2,Q1FrontUp,-20.18683,14.22025,44.82895,-43.99735,-114.126,143.2416,-40.67194,202408291115043027,
2-24,A_Baseline,2,Q1FrontUp,-19.82028,14.21656,44.40457,-44.79008,-114.1926,143.3385,-40.64309,202408291115043278,
2-24,A_Baseline,2,Q1FrontUp,-19.47161,14.20131,44.0602,-45.55716,-114.2715,143.4329,-40.61249,202408291115043444,
2-24,A_Baseline,2,Q1FrontUp,-19.47161,14.20131,44.0602,-45.55716,-114.2715,143.4329,-40.61249,202408291115043642,
2-24,A_Baseline,2,Q1FrontUp,-19.17318,14.19578,43.73845,-46.33546,-114.3563,143.524,-40.57635,202408291115043982,
2-24,A_Baseline,2,Q1FrontUp,-18.87822,14.2026,43.45192,-47.07969,-114.4419,143.6185,-40.54001,202408291115044206,
2-24,A_Baseline,2,Q1FrontUp,-18.87822,14.2026,43.45192,-47.07969,-114.4419,143.6185,-40.54001,202408291115044496,
2-24,A_Baseline,2,Q1FrontUp,-18.48435,14.21557,43.01221,-48.64456,-114.6043,143.8461,-40.47247,202408291115044775,
2-24,A_Baseline,2,Q1FrontUp,-18.48435,14.21557,43.01221,-48.64456,-114.6043,143.8461,-40.47247,202408291115044943,
2-24,A_Baseline,2,Q1FrontUp,-18.36527,14.22023,42.84614,-49.4389,-114.682,143.9653,-40.43012,202408291115045121,
2-24,A_Baseline,2,Q1FrontUp,-18.36527,14.22023,42.84614,-49.4389,-114.682,143.9653,-40.43012,202408291115045339,
2-24,A_Baseline,2,Q1FrontUp,-18.23864,14.22553,42.71482,-50.18972,-114.7702,144.0637,-40.39501,202408291115045630,
2-24,A_Baseline,2,Q1FrontUp,-18.12285,14.23769,42.57248,-50.89884,-114.8617,144.1557,-40.36089,202408291115045802,
2-24,A_Baseline,2,Q1FrontUp,-18.12285,14.23769,42.57248,-50.89884,-114.8617,144.1557,-40.36089,202408291115046031,
2-24,A_Baseline,2,Q1FrontUp,-17.97272,14.25158,42.39586,-51.58759,-114.9339,144.2811,-40.32493,202408291115046321,
2-24,A_Baseline,2,Q1FrontUp,-17.80708,14.25559,42.17677,-52.28515,-115.012,144.4034,-40.29147,202408291115046531,
2-24,A_Baseline,2,Q1FrontUp,-17.63429,14.25782,41.96032,-52.93005,-115.096,144.5365,-40.25715,202408291115046809,
2-24,A_Baseline,2,Q1FrontUp,-17.63429,14.25782,41.96032,-52.93005,-115.096,144.5365,-40.25715,202408291115047128,
2-24,A_Baseline,2,Q1FrontUp,-17.05666,14.25002,41.18676,-54.16671,-115.2387,144.7486,-40.17028,202408291115047460,
2-24,A_Baseline,2,Q1FrontUp,-17.05666,14.25002,41.18676,-54.16671,-115.2387,144.7486,-40.17028,202408291115047659,
2-24,A_Baseline,2,Q1FrontUp,-16.72352,14.25248,40.75725,-54.79881,-115.2956,144.8432,-40.12033,202408291115047995,
2-24,A_Baseline,2,Q1FrontUp,-16.24777,14.24113,40.19177,-55.42636,-115.3151,144.9157,-40.04844,202408291115048293,
2-24,A_Baseline,2,Q1FrontUp,-15.76475,14.24612,39.60228,-56.01717,-115.3509,144.9879,-39.97912,202408291115048498,
2-24,A_Baseline,2,Q1FrontUp,-15.76475,14.24612,39.60228,-56.01717,-115.3509,144.9879,-39.97912,202408291115048715,
2-24,A_Baseline,2,Q1FrontUp,-15.27438,14.24682,38.99166,-56.63216,-115.3953,145.0575,-39.9016,202408291115048996,
2-24,A_Baseline,2,Q1FrontUp,-14.68545,14.25823,38.349,-57.22195,-115.4427,145.1101,-39.81391,202408291115049184,
2-24,A_Baseline,2,Q1FrontUp,-14.0518,14.28298,37.65189,-57.80756,-115.4768,145.1589,-39.73102,202408291115049469,
2-24,A_Baseline,2,Q1FrontUp,-13.37172,14.29298,36.89753,-58.40241,-115.5013,145.2237,-39.64247,202408291115049851,
2-24,A_Baseline,2,Q1FrontUp,-12.5888,14.3247,36.03843,-58.94469,-115.5188,145.3017,-39.56332,202408291115050107,
2-24,A_Baseline,2,Q1FrontUp,-12.5888,14.3247,36.03843,-58.94469,-115.5188,145.3017,-39.56332,202408291115050275,
2-24,A_Baseline,2,Q1FrontUp,-11.84283,14.35625,35.28273,-59.48656,-115.5372,145.366,-39.48417,202408291115050447,
2-24,A_Baseline,2,Q1FrontUp,-11.84283,14.35625,35.28273,-59.48656,-115.5372,145.366,-39.48417,202408291115050628,
2-24,A_Baseline,2,Q1FrontUp,-11.12033,14.41304,34.55631,-60.00289,-115.5506,145.4231,-39.40089,202408291115050865,
2-24,A_Baseline,2,Q1FrontUp,-11.12033,14.41304,34.55631,-60.00289,-115.5506,145.4231,-39.40089,202408291115051118,
2-24,A_Baseline,2,Q1FrontUp,-10.3489,14.49719,33.80469,-60.50275,-115.5548,145.5233,-39.32569,202408291115051327,
2-24,A_Baseline,2,Q1FrontUp,-9.633689,14.55461,33.08749,-60.97618,-115.5656,145.6243,-39.25873,202408291115051501,
2-24,A_Baseline,2,Q1FrontUp,-9.633689,14.55461,33.08749,-60.97618,-115.5656,145.6243,-39.25873,202408291115051677,
2-24,A_Baseline,2,Q1FrontUp,-9.633689,14.55461,33.08749,-60.97618,-115.5656,145.6243,-39.25873,202408291115051860,
2-24,A_Baseline,2,Q1FrontUp,-8.229704,14.74456,31.74693,-61.80838,-115.6046,145.8139,-39.13135,202408291115052132,
2-24,A_Baseline,2,Q1FrontUp,-8.229704,14.74456,31.74693,-61.80838,-115.6046,145.8139,-39.13135,202408291115052343,
2-24,A_Baseline,2,Q1FrontUp,-7.570737,14.85275,31.18227,-62.19184,-115.6316,145.8845,-39.07795,202408291115052620,
2-24,A_Baseline,2,Q1FrontUp,-7.001368,14.9877,30.72182,-62.51842,-115.6601,145.9691,-39.03502,202408291115052796,
2-24,A_Baseline,2,Q1FrontUp,-7.001368,14.9877,30.72182,-62.51842,-115.6601,145.9691,-39.03502,202408291115053031,
2-24,A_Baseline,2,Q1FrontUp,-6.484411,15.10928,30.29642,-62.84377,-115.6811,146.0473,-38.99834,202408291115053292,
2-24,A_Baseline,2,Q1FrontUp,-5.983349,15.2612,29.95457,-63.15427,-115.7089,146.135,-38.95792,202408291115053479,
2-24,A_Baseline,2,Q1FrontUp,-5.577909,15.38338,29.70813,-63.43191,-115.7389,146.2189,-38.9178,202408291115053822,
2-24,A_Baseline,2,Q1FrontUp,-5.577909,15.38338,29.70813,-63.43191,-115.7389,146.2189,-38.9178,202408291115054041,
2-24,A_Baseline,2,Q1FrontUp,-5.137942,15.50499,29.39799,-63.7096,-115.7845,146.2428,-38.88579,202408291115054307,
2-24,A_Baseline,2,Q1FrontUp,-4.66513,15.6146,29.07528,-63.96864,-115.8124,146.2545,-38.87099,202408291115054627,
2-24,A_Baseline,2,Q1FrontUp,-4.158232,15.71892,28.71696,-64.21625,-115.8192,146.2548,-38.87053,202408291115054953,
2-24,A_Baseline,2,Q1FrontUp,-3.51034,15.80711,28.21376,-64.4234,-115.8386,146.2774,-38.85957,202408291115055184,
2-24,A_Baseline,2,Q1FrontUp,-2.800912,15.92224,27.65426,-64.60524,-115.8699,146.299,-38.84688,202408291115055454,
2-24,A_Baseline,2,Q1FrontUp,-2.800912,15.92224,27.65426,-64.60524,-115.8699,146.299,-38.84688,202408291115055694,
2-24,A_Baseline,2,Q1FrontUp,-2.030236,16.01911,27.0158,-64.78711,-115.912,146.3122,-38.83175,202408291115055974,
2-24,A_Baseline,2,Q1FrontUp,-1.320771,16.10434,26.50345,-64.98639,-115.9457,146.3244,-38.82143,202408291115056190,
2-24,A_Baseline,2,Q1FrontUp,-0.5401759,16.1775,25.86476,-65.19496,-115.9891,146.3451,-38.79201,202408291115056483,
2-24,A_Baseline,2,Q1FrontUp,0.3822882,16.23759,25.09201,-65.38025,-116.0512,146.3717,-38.75103,202408291115056820,
2-24,A_Baseline,2,Q1FrontUp,0.3822882,16.23759,25.09201,-65.38025,-116.0512,146.3717,-38.75103,202408291115056978,
2-24,A_Baseline,2,Q1FrontUp,1.247806,16.28304,24.34421,-65.60108,-116.13,146.3808,-38.69624,202408291115057167,
2-24,A_Baseline,2,Q1FrontUp,1.247806,16.28304,24.34421,-65.60108,-116.13,146.3808,-38.69624,202408291115057431,
2-24,A_Baseline,2,Q1FrontUp,2.135215,16.32389,23.69579,-65.85963,-116.2115,146.3972,-38.64966,202408291115057606,
2-24,A_Baseline,2,Q1FrontUp,2.989277,16.39637,23.06906,-66.10841,-116.304,146.4371,-38.60686,202408291115057781,
2-24,A_Baseline,2,Q1FrontUp,2.989277,16.39637,23.06906,-66.10841,-116.304,146.4371,-38.60686,202408291115057957,
2-24,A_Baseline,2,Q1FrontUp,3.780825,16.49959,22.62255,-66.36208,-116.4512,146.4478,-38.55253,202408291115058121,
2-24,A_Baseline,2,Q1FrontUp,3.780825,16.49959,22.62255,-66.36208,-116.4512,146.4478,-38.55253,202408291115058374,
2-24,A_Baseline,2,Q1FrontUp,4.488155,16.57482,22.29746,-66.6254,-116.5892,146.4493,-38.5122,202408291115058621,
2-24,A_Baseline,2,Q1FrontUp,5.201642,16.68007,22.00527,-66.89217,-116.7281,146.4495,-38.4835,202408291115058870,
2-24,A_Baseline,2,Q1FrontUp,5.805535,16.79326,21.85095,-67.16983,-116.8249,146.4558,-38.47023,202408291115059162,
2-24,A_Baseline,2,Q1FrontUp,5.805535,16.79326,21.85095,-67.16983,-116.8249,146.4558,-38.47023,202408291115059343,
2-24,A_Baseline,2,Q1FrontUp,6.418249,16.90773,21.75298,-67.45965,-116.9164,146.4704,-38.45478,202408291115059655,
2-24,A_Baseline,2,Q1FrontUp,6.98616,17.0408,21.67457,-67.68613,-117.0052,146.4883,-38.44489,202408291115059957,
2-24,A_Baseline,2,Q1FrontUp,7.534425,17.16692,21.62919,-67.93641,-117.0888,146.5077,-38.4401,202408291115060106,
2-24,A_Baseline,2,Q1FrontUp,7.534425,17.16692,21.62919,-67.93641,-117.0888,146.5077,-38.4401,202408291115060278,
2-24,A_Baseline,2,Q1FrontUp,8.058719,17.30156,21.61494,-68.20312,-117.1756,146.5255,-38.43848,202408291115060528,
2-24,A_Baseline,2,Q1FrontUp,8.537665,17.43573,21.61791,-68.44662,-117.2545,146.5537,-38.43714,202408291115060773,
2-24,A_Baseline,2,Q1FrontUp,8.537665,17.43573,21.61791,-68.44662,-117.2545,146.5537,-38.43714,202408291115060953,
2-24,A_Baseline,2,Q1FrontUp,9.054045,17.58538,21.61345,-68.68578,-117.3166,146.5897,-38.43571,202408291115061142,
2-24,A_Baseline,2,Q1FrontUp,9.054045,17.58538,21.61345,-68.68578,-117.3166,146.5897,-38.43571,202408291115061320,
2-24,A_Baseline,2,Q1FrontUp,9.570266,17.77883,21.64583,-68.89754,-117.3793,146.6413,-38.43401,202408291115061527,
2-24,A_Baseline,2,Q1FrontUp,10.04206,18.00384,21.7178,-69.05105,-117.4372,146.7149,-38.43156,202408291115061787,
2-24,A_Baseline,2,Q1FrontUp,10.04206,18.00384,21.7178,-69.05105,-117.4372,146.7149,-38.43156,202408291115061994,
2-24,A_Baseline,2,Q1FrontUp,10.51706,18.2313,21.81,-69.21634,-117.4874,146.8001,-38.42959,202408291115062289,
2-24,A_Baseline,2,Q1FrontUp,10.97622,18.46881,21.92099,-69.38622,-117.5361,146.8982,-38.42472,202408291115062659,
2-24,A_Baseline,2,Q1FrontUp,11.38521,18.70514,22.03877,-69.53391,-117.5785,147.0044,-38.41333,202408291115062952,
2-24,A_Baseline,2,Q1FrontUp,11.38521,18.70514,22.03877,-69.53391,-117.5785,147.0044,-38.41333,202408291115063116,
2-24,A_Baseline,2,Q1FrontUp,11.38521,18.70514,22.03877,-69.53391,-117.5785,147.0044,-38.41333,202408291115063315,
2-24,A_Baseline,2,Q1FrontUp,12.07405,19.24957,22.45224,-69.77252,-117.6703,147.1586,-38.40355,202408291115063573,
2-24,A_Baseline,2,Q1FrontUp,12.40406,19.55917,22.68455,-69.85236,-117.7143,147.2183,-38.40233,202408291115063865,
2-24,A_Baseline,2,Q1FrontUp,12.70373,19.89061,22.94293,-69.91818,-117.7767,147.254,-38.39416,202408291115064148,
2-24,A_Baseline,2,Q1FrontUp,12.70373,19.89061,22.94293,-69.91818,-117.7767,147.254,-38.39416,202408291115064310,
2-24,A_Baseline,2,Q1FrontUp,12.96216,20.22465,23.23848,-69.98536,-117.8491,147.3004,-38.38275,202408291115064639,
2-24,A_Baseline,2,Q1FrontUp,13.21075,20.53463,23.54001,-70.0552,-117.9095,147.3775,-38.36729,202408291115064822,
2-24,A_Baseline,2,Q1FrontUp,13.21075,20.53463,23.54001,-70.0552,-117.9095,147.3775,-38.36729,202408291115064984,
2-24,A_Baseline,2,Q1FrontUp,13.43081,20.83727,23.90619,-70.19965,-117.9068,147.3716,-38.4008,202408291115065282,
2-24,A_Baseline,2,Q1FrontUp,13.64531,21.13638,24.23993,-70.37766,-117.9065,147.3676,-38.45226,202408291115065452,
2-24,A_Baseline,2,Q1FrontUp,13.64531,21.13638,24.23993,-70.37766,-117.9065,147.3676,-38.45226,202408291115065622,
2-24,A_Baseline,2,Q1FrontUp,13.85141,21.446,24.56877,-70.57382,-117.9064,147.3575,-38.50886,202408291115065819,
2-24,A_Baseline,2,Q1FrontUp,13.85141,21.446,24.56877,-70.57382,-117.9064,147.3575,-38.50886,202408291115066028,
2-24,A_Baseline,2,Q1FrontUp,14.06001,21.73781,24.87204,-70.74629,-117.9062,147.3528,-38.55883,202408291115066306,
2-24,A_Baseline,2,Q1FrontUp,14.27707,21.99748,25.1311,-70.93409,-117.9061,147.3214,-38.62183,202408291115066475,
2-24,A_Baseline,2,Q1FrontUp,14.27707,21.99748,25.1311,-70.93409,-117.9061,147.3214,-38.62183,202408291115066672,
2-24,A_Baseline,2,Q1FrontUp,14.66511,22.50217,25.61719,-71.39286,-117.8699,147.1734,-38.81972,202408291115067029,
2-24,A_Baseline,2,Q1FrontUp,14.66511,22.50217,25.61719,-71.39286,-117.8699,147.1734,-38.81972,202408291115067282,
2-24,A_Baseline,2,Q1FrontUp,14.88911,22.72288,25.81627,-71.66084,-117.8423,147.0872,-38.95279,202408291115067467,
2-24,A_Baseline,2,Q1FrontUp,15.09063,22.92126,26.02052,-71.91671,-117.826,147.0061,-39.07885,202408291115067782,
2-24,A_Baseline,2,Q1FrontUp,15.09063,22.92126,26.02052,-71.91671,-117.826,147.0061,-39.07885,202408291115067957,
2-24,A_Baseline,2,Q1FrontUp,15.28212,23.14832,26.2746,-72.13577,-117.8042,146.8976,-39.21427,202408291115068146,
2-24,A_Baseline,2,Q1FrontUp,15.46252,23.3536,26.48487,-72.33266,-117.7887,146.8076,-39.34376,202408291115068472,
2-24,A_Baseline,2,Q1FrontUp,15.46252,23.3536,26.48487,-72.33266,-117.7887,146.8076,-39.34376,202408291115068651,
2-24,A_Baseline,2,Q1FrontUp,15.64314,23.53814,26.69234,-72.5518,-117.7785,146.7037,-39.46701,202408291115068819,
2-24,A_Baseline,2,Q1FrontUp,15.64314,23.53814,26.69234,-72.5518,-117.7785,146.7037,-39.46701,202408291115068995,
2-24,A_Baseline,2,Q1FrontUp,15.76916,23.72223,26.96967,-72.75006,-117.7379,146.5808,-39.6164,202408291115069217,
2-24,A_Baseline,2,Q1FrontUp,15.85737,23.94393,27.28587,-72.8652,-117.8696,146.6058,-39.60798,202408291115069474,
2-24,A_Baseline,2,Q1FrontUp,15.85737,23.94393,27.28587,-72.8652,-117.8696,146.6058,-39.60798,202408291115069666,
2-24,A_Baseline,2,Q1FrontUp,15.90666,24.17757,27.70441,-72.88867,-118.0547,146.8601,-39.46664,202408291115069949,
2-24,A_Baseline,2,Q1FrontUp,15.96817,24.38898,28.07694,-72.89547,-118.2414,147.0891,-39.33865,202408291115070122,
2-24,A_Baseline,2,Q1FrontUp,15.96817,24.38898,28.07694,-72.89547,-118.2414,147.0891,-39.33865,202408291115070346,
2-24,A_Baseline,2,Q1FrontUp,15.99174,24.58591,28.50933,-72.89941,-118.4012,147.3112,-39.21505,202408291115070622,
2-24,A_Baseline,2,Q1FrontUp,15.99693,24.76816,28.93257,-72.90656,-118.5455,147.5056,-39.0793,202408291115070813,
2-24,A_Baseline,2,Q1FrontUp,15.99693,24.76816,28.93257,-72.90656,-118.5455,147.5056,-39.0793,202408291115070956,
2-24,A_Baseline,2,Q1FrontUp,15.97293,24.90951,29.45922,-72.94323,-118.6761,147.6571,-38.97683,202408291115071158,
2-24,A_Baseline,2,Q1FrontUp,15.94076,25.06825,30.01983,-72.97212,-118.794,147.7829,-38.88511,202408291115071370,
2-24,A_Baseline,2,Q1FrontUp,15.94076,25.06825,30.01983,-72.97212,-118.794,147.7829,-38.88511,202408291115071630,
2-24,A_Baseline,2,Q1FrontUp,15.91686,25.19281,30.5533,-73.0154,-118.8943,147.8855,-38.80579,202408291115071812,
2-24,A_Baseline,2,Q1FrontUp,15.83035,25.33313,31.18177,-73.07838,-119.0251,148.0106,-38.70864,202408291115072119,
2-24,A_Baseline,2,Q1FrontUp,15.83035,25.33313,31.18177,-73.07838,-119.0251,148.0106,-38.70864,202408291115072281,
2-24,A_Baseline,2,Q1FrontUp,15.83035,25.33313,31.18177,-73.07838,-119.0251,148.0106,-38.70864,202408291115072490,
2-24,A_Baseline,2,Q1FrontUp,15.6037,25.56273,32.48389,-73.22874,-119.2107,148.2966,-38.55118,202408291115072781,
2-24,A_Baseline,2,Q1FrontUp,15.6037,25.56273,32.48389,-73.22874,-119.2107,148.2966,-38.55118,202408291115073021,
2-24,A_Baseline,2,Q1FrontUp,15.50188,25.65711,33.08253,-73.31916,-119.2608,148.3896,-38.49228,202408291115073276,
2-24,A_Baseline,2,Q1FrontUp,15.41752,25.76145,33.63921,-73.39201,-119.3141,148.4709,-38.42955,202408291115073461,
2-24,A_Baseline,2,Q1FrontUp,15.41752,25.76145,33.63921,-73.39201,-119.3141,148.4709,-38.42955,202408291115073696,
2-24,A_Baseline,2,Q1FrontUp,15.35281,25.82785,34.13037,-73.45246,-119.3634,148.539,-38.37485,202408291115073993,
2-24,A_Baseline,2,Q1FrontUp,15.19765,25.90958,34.74195,-73.52275,-119.4386,148.6058,-38.31322,202408291115074159,
2-24,A_Baseline,2,Q1FrontUp,15.19765,25.90958,34.74195,-73.52275,-119.4386,148.6058,-38.31322,202408291115074319,
2-24,A_Baseline,2,Q1FrontUp,15.0117,25.98526,35.3437,-73.58247,-119.5049,148.6684,-38.26579,202408291115074502,
2-24,A_Baseline,2,Q1FrontUp,15.0117,25.98526,35.3437,-73.58247,-119.5049,148.6684,-38.26579,202408291115074667,
2-24,A_Baseline,2,Q1FrontUp,14.78702,26.04623,35.95414,-73.66969,-119.5717,148.7268,-38.23254,202408291115074928,
2-24,A_Baseline,2,Q1FrontUp,14.45438,26.10045,36.67009,-73.82045,-119.6364,148.7584,-38.19341,202408291115075112,
2-24,A_Baseline,2,Q1FrontUp,14.45438,26.10045,36.67009,-73.82045,-119.6364,148.7584,-38.19341,202408291115075278,
2-24,A_Baseline,2,Q1FrontUp,14.0507,26.14131,37.45333,-73.99628,-119.6955,148.7916,-38.1716,202408291115075453,
2-24,A_Baseline,2,Q1FrontUp,14.0507,26.14131,37.45333,-73.99628,-119.6955,148.7916,-38.1716,202408291115075622,
2-24,A_Baseline,2,Q1FrontUp,13.53196,26.19935,38.32401,-74.2053,-119.7305,148.8282,-38.16382,202408291115075868,
2-24,A_Baseline,2,Q1FrontUp,13.06522,26.26158,39.08752,-74.3819,-119.767,148.8582,-38.15556,202408291115076105,
2-24,A_Baseline,2,Q1FrontUp,13.06522,26.26158,39.08752,-74.3819,-119.767,148.8582,-38.15556,202408291115076313,
2-24,A_Baseline,2,Q1FrontUp,12.54389,26.31295,39.89578,-74.57762,-119.8008,148.8825,-38.15045,202408291115076488,
2-24,A_Baseline,2,Q1FrontUp,12.00911,26.36838,40.67115,-74.7752,-119.8348,148.8881,-38.15017,202408291115076848,
2-24,A_Baseline,2,Q1FrontUp,12.00911,26.36838,40.67115,-74.7752,-119.8348,148.8881,-38.15017,202408291115077114,
2-24,A_Baseline,2,Q1FrontUp,12.00911,26.36838,40.67115,-74.7752,-119.8348,148.8881,-38.15017,202408291115077298,
2-24,A_Baseline,2,Q1FrontUp,10.66507,26.55657,42.52805,-75.21304,-119.8968,148.9161,-38.14977,202408291115077665,
2-24,A_Baseline,2,Q1FrontUp,9.951069,26.64141,43.46824,-75.44174,-119.923,148.9203,-38.14953,202408291115077864,
2-24,A_Baseline,2,Q1FrontUp,9.075401,26.77054,44.61438,-75.73029,-119.9465,148.9505,-38.14956,202408291115078109,
2-24,A_Baseline,2,Q1FrontUp,9.075401,26.77054,44.61438,-75.73029,-119.9465,148.9505,-38.14956,202408291115078289,
2-24,A_Baseline,2,Q1FrontUp,9.075401,26.77054,44.61438,-75.73029,-119.9465,148.9505,-38.14956,202408291115078484,
2-24,A_Baseline,2,Q1FrontUp,8.192898,26.89636,45.70415,-75.99008,-119.972,148.9919,-38.14972,202408291115078657,
2-24,A_Baseline,2,Q1FrontUp,7.290427,27.02486,46.78688,-76.29268,-119.9865,149.0068,-38.1495,202408291115078827,
2-24,A_Baseline,2,Q1FrontUp,7.290427,27.02486,46.78688,-76.29268,-119.9865,149.0068,-38.1495,202408291115079027,
2-24,A_Baseline,2,Q1FrontUp,6.514021,27.13387,47.7488,-76.5491,-120.0013,149.0221,-38.14971,202408291115079201,
2-24,A_Baseline,2,Q1FrontUp,5.703113,27.27875,48.6753,-76.77878,-120.0272,149.0287,-38.14968,202408291115079460,
2-24,A_Baseline,2,Q1FrontUp,5.703113,27.27875,48.6753,-76.77878,-120.0272,149.0287,-38.14968,202408291115079626,
2-24,A_Baseline,2,Q1FrontUp,4.881861,27.40277,49.6316,-77.05054,-120.0562,149.0289,-38.14985,202408291115079784,
2-24,A_Baseline,2,Q1FrontUp,4.881861,27.40277,49.6316,-77.05054,-120.0562,149.0289,-38.14985,202408291115079958,
2-24,A_Baseline,2,Q1FrontUp,4.06873,27.54659,50.51102,-77.29385,-120.0787,149.0318,-38.15026,202408291115080200,
2-24,A_Baseline,2,Q1FrontUp,3.337039,27.68079,51.293,-77.51567,-120.1081,149.0353,-38.15092,202408291115080461,
2-24,A_Baseline,2,Q1FrontUp,2.570185,27.81699,52.04253,-77.73209,-120.1369,149.0414,-38.15083,202408291115080871,
2-24,A_Baseline,2,Q1FrontUp,1.890164,27.96829,52.69657,-77.94022,-120.1659,149.0563,-38.15079,202408291115081168,
2-24,A_Baseline,2,Q1FrontUp,1.234485,28.11876,53.26957,-78.10145,-120.1841,149.0809,-38.15125,202408291115081374,
2-24,A_Baseline,2,Q1FrontUp,1.234485,28.11876,53.26957,-78.10145,-120.1841,149.0809,-38.15125,202408291115081630,
2-24,A_Baseline,2,Q1FrontUp,0.613588,28.27602,53.81644,-78.25253,-120.1987,149.1086,-38.15263,202408291115081815,
2-24,A_Baseline,2,Q1FrontUp,0.613588,28.27602,53.81644,-78.25253,-120.1987,149.1086,-38.15263,202408291115082113,
2-24,A_Baseline,2,Q1FrontUp,0.08042725,28.41144,54.23547,-78.38169,-120.2015,149.1524,-38.15947,202408291115082290,
2-24,A_Baseline,2,Q1FrontUp,0.08042725,28.41144,54.23547,-78.38169,-120.2015,149.1524,-38.15947,202408291115082497,
2-24,A_Baseline,2,Q1FrontUp,-0.8357692,28.645,54.93888,-78.63065,-120.205,149.2264,-38.17182,202408291115082786,
2-24,A_Baseline,2,Q1FrontUp,-0.8357692,28.645,54.93888,-78.63065,-120.205,149.2264,-38.17182,202408291115082950,
2-24,A_Baseline,2,Q1FrontUp,-1.20561,28.74462,55.21148,-78.73372,-120.2424,149.2652,-38.17149,202408291115083117,
2-24,A_Baseline,2,Q1FrontUp,-1.546753,28.83083,55.43855,-78.82274,-120.2739,149.3075,-38.17153,202408291115083511,
2-24,A_Baseline,2,Q1FrontUp,-1.546753,28.83083,55.43855,-78.82274,-120.2739,149.3075,-38.17153,202408291115083787,
2-24,A_Baseline,2,Q1FrontUp,-1.845525,28.91396,55.60432,-78.90332,-120.2991,149.3554,-38.17175,202408291115083977,
2-24,A_Baseline,2,Q1FrontUp,-2.05678,28.97293,55.70869,-78.95309,-120.3174,149.4114,-38.17158,202408291115084188,
2-24,A_Baseline,2,Q1FrontUp,-2.24026,29.03542,55.80865,-79.00608,-120.3461,149.4638,-38.17164,202408291115084491,
2-24,A_Baseline,2,Q1FrontUp,-2.24026,29.03542,55.80865,-79.00608,-120.3461,149.4638,-38.17164,202408291115084660,
2-24,A_Baseline,2,Q1FrontUp,-2.392587,29.085,55.90784,-79.05202,-120.3744,149.5152,-38.17164,202408291115084927,
2-24,A_Baseline,2,Q1FrontUp,-2.467948,29.12053,55.93244,-79.08156,-120.3869,149.5557,-38.17131,202408291115085112,
2-24,A_Baseline,2,Q1FrontUp,-2.467948,29.12053,55.93244,-79.08156,-120.3869,149.5557,-38.17131,202408291115085282,
2-24,A_Baseline,2,Q1FrontUp,-2.498835,29.15535,55.93691,-79.10573,-120.4033,149.592,-38.17133,202408291115085457,
2-24,A_Baseline,2,Q1FrontUp,-2.498835,29.15535,55.93691,-79.10573,-120.4033,149.592,-38.17133,202408291115085732,
2-24,A_Baseline,2,Q1FrontUp,-2.495393,29.1826,55.93856,-79.11094,-120.4208,149.6307,-38.171,202408291115085983,
2-24,A_Baseline,2,Q1FrontUp,-2.484244,29.20805,55.94104,-79.12546,-120.4316,149.6756,-38.17105,202408291115086141,
2-24,A_Baseline,2,Q1FrontUp,-2.484244,29.20805,55.94104,-79.12546,-120.4316,149.6756,-38.17105,202408291115086326,
2-24,A_Baseline,2,Q1FrontUp,-2.463075,29.22722,55.94019,-79.13641,-120.4476,149.7206,-38.17091,202408291115086631,
2-24,A_Baseline,2,Q1FrontUp,-2.436935,29.24387,55.93808,-79.14594,-120.4611,149.779,-38.17062,202408291115086825,
2-24,A_Baseline,2,Q1FrontUp,-2.436935,29.24387,55.93808,-79.14594,-120.4611,149.779,-38.17062,202408291115086995,
2-24,A_Baseline,2,Q1FrontUp,-2.436935,29.24387,55.93808,-79.14594,-120.4611,149.779,-38.17062,202408291115087168,
2-24,A_Baseline,2,Q1FrontUp,-2.444809,29.29053,56.02924,-79.16865,-120.4811,149.9033,-38.17008,202408291115087450,
2-24,A_Baseline,2,Q1FrontUp,-2.473281,29.32207,56.12556,-79.19538,-120.493,149.9575,-38.17005,202408291115087776,
2-24,A_Baseline,2,Q1FrontUp,-2.473281,29.32207,56.12556,-79.19538,-120.493,149.9575,-38.17005,202408291115087963,
2-24,A_Baseline,2,Q1FrontUp,-2.583272,29.37802,56.32693,-79.25224,-120.5,150.0254,-38.17,202408291115088214,
2-24,A_Baseline,2,Q1FrontUp,-2.583272,29.37802,56.32693,-79.25224,-120.5,150.0254,-38.17,202408291115088471,
2-24,A_Baseline,2,Q1FrontUp,-2.69265,29.43759,56.51831,-79.303,-120.5071,150.108,-38.17054,202408291115088627,
2-24,A_Baseline,2,Q1FrontUp,-2.794527,29.49025,56.7057,-79.3464,-120.5118,150.1916,-38.17066,202408291115088860,
2-24,A_Baseline,2,Q1FrontUp,-3.16097,29.61296,57.20639,-79.46083,-120.5116,150.2636,-38.17054,202408291115089185,
2-24,A_Baseline,2,Q1FrontUp,-3.60141,29.78955,57.86199,-79.55813,-120.5115,150.3542,-38.17059,202408291115089454,
2-24,A_Baseline,2,Q1FrontUp,-3.60141,29.78955,57.86199,-79.55813,-120.5115,150.3542,-38.17059,202408291115089620,
2-24,A_Baseline,2,Q1FrontUp,-4.096727,30.01516,58.65544,-79.65972,-120.5104,150.4616,-38.17035,202408291115089781,
2-24,A_Baseline,2,Q1FrontUp,-4.096727,30.01516,58.65544,-79.65972,-120.5104,150.4616,-38.17035,202408291115089948,
2-24,A_Baseline,2,Q1FrontUp,-4.57492,30.19921,59.33831,-79.73112,-120.5104,150.5634,-38.17023,202408291115090123,
