mpan31415/robot-x-ar/study2/data/raw_all_participants/Participant_2-7_1.csv
ParticipantID,Condition,Trial,PostureID,J1,J2,J3,J4,J5,J6,J7,Timestamp,
2-7,C_HumanVertical,1,Q3FrontUp,-49.32425,41.16768,100.5807,-49.17831,-135.635,133.3753,-37.88973,202408261621590623,
2-7,C_HumanVertical,1,Q3FrontUp,-49.32425,41.16768,100.5807,-49.17831,-135.635,133.3753,-37.88973,202408261621591015,
2-7,C_HumanVertical,1,Q3FrontUp,-49.3244,41.16764,100.5807,-49.17818,-135.635,133.3752,-37.89,202408261621591316,
2-7,C_HumanVertical,1,Q3FrontUp,-49.3244,41.16764,100.5807,-49.17818,-135.635,133.3752,-37.89,202408261621591549,
2-7,C_HumanVertical,1,Q3FrontUp,-49.32413,41.1676,100.5808,-49.17818,-135.6352,133.3755,-37.89014,202408261621591712,
2-7,C_HumanVertical,1,Q3FrontUp,-49.32299,41.16683,100.5537,-49.1801,-135.6359,133.3753,-37.89013,202408261621591888,
2-7,C_HumanVertical,1,Q3FrontUp,-49.32299,41.16683,100.5537,-49.1801,-135.6359,133.3753,-37.89013,202408261621592233,
2-7,C_HumanVertical,1,Q3FrontUp,-49.32387,41.16769,100.5318,-49.18155,-135.6361,133.3754,-37.89043,202408261621592412,
2-7,C_HumanVertical,1,Q3FrontUp,-49.3242,41.16994,100.5168,-49.18181,-135.6361,133.3751,-37.89001,202408261621592704,
2-7,C_HumanVertical,1,Q3FrontUp,-49.32419,41.17113,100.4971,-49.18199,-135.6362,133.3753,-37.89036,202408261621592870,
2-7,C_HumanVertical,1,Q3FrontUp,-49.32367,41.1727,100.4779,-49.18339,-135.6361,133.3755,-37.89037,202408261621593207,
2-7,C_HumanVertical,1,Q3FrontUp,-49.32367,41.1727,100.4779,-49.18339,-135.6361,133.3755,-37.89037,202408261621593481,
2-7,C_HumanVertical,1,Q3FrontUp,-49.32332,41.17282,100.4598,-49.18818,-135.6363,133.3757,-37.89026,202408261621593714,
2-7,C_HumanVertical,1,Q3FrontUp,-49.32389,41.17282,100.4516,-49.1894,-135.6362,133.3754,-37.89031,202408261621593992,
2-7,C_HumanVertical,1,Q3FrontUp,-49.32439,41.17281,100.4507,-49.1891,-135.6362,133.3755,-37.89008,202408261621594162,
2-7,C_HumanVertical,1,Q3FrontUp,-49.32439,41.17281,100.4507,-49.1891,-135.6362,133.3755,-37.89008,202408261621594494,
2-7,C_HumanVertical,1,Q3FrontUp,-49.32376,41.17247,100.4508,-49.18989,-135.636,133.3757,-37.89011,202408261621594699,
2-7,C_HumanVertical,1,Q3FrontUp,-49.32366,41.1724,100.4508,-49.19001,-135.6361,133.3757,-37.89015,202408261621595007,
2-7,C_HumanVertical,1,Q3FrontUp,-49.3236,41.17251,100.4509,-49.19011,-135.6364,133.3757,-37.89032,202408261621595282,
2-7,C_HumanVertical,1,Q3FrontUp,-49.3236,41.17251,100.4509,-49.19011,-135.6364,133.3757,-37.89032,202408261621595458,
2-7,C_HumanVertical,1,Q3FrontUp,-49.3236,41.17251,100.4509,-49.19011,-135.6364,133.3757,-37.89032,202408261621595637,
2-7,C_HumanVertical,1,Q3FrontUp,-49.32397,41.17294,100.4503,-49.18983,-135.6363,133.3757,-37.89048,202408261621595889,
2-7,C_HumanVertical,1,Q3FrontUp,-49.32397,41.17294,100.4503,-49.18983,-135.6363,133.3757,-37.89048,202408261621596133,
2-7,C_HumanVertical,1,Q3FrontUp,-49.32392,41.17252,100.4505,-49.18982,-135.6362,133.3757,-37.89068,202408261621596338,
2-7,C_HumanVertical,1,Q3FrontUp,-49.32359,41.17252,100.4506,-49.18977,-135.6361,133.3759,-37.89051,202408261621596531,
2-7,C_HumanVertical,1,Q3FrontUp,-49.32359,41.17252,100.4506,-49.18977,-135.6361,133.3759,-37.89051,202408261621596860,
2-7,C_HumanVertical,1,Q3FrontUp,-49.32358,41.17236,100.4505,-49.18991,-135.636,133.3757,-37.89025,202408261621597138,
2-7,C_HumanVertical,1,Q3FrontUp,-49.32299,41.17223,100.4451,-49.18941,-135.6367,133.3762,-37.89052,202408261621597460,
2-7,C_HumanVertical,1,Q3FrontUp,-49.32282,41.17144,100.4162,-49.19005,-135.6375,133.376,-37.89011,202408261621597666,
2-7,C_HumanVertical,1,Q3FrontUp,-49.3233,41.17211,100.3901,-49.1899,-135.6382,133.3759,-37.8903,202408261621597879,
2-7,C_HumanVertical,1,Q3FrontUp,-49.3233,41.17211,100.3901,-49.1899,-135.6382,133.3759,-37.8903,202408261621598092,
2-7,C_HumanVertical,1,Q3FrontUp,-49.32409,41.17379,100.3655,-49.19014,-135.6382,133.3754,-37.89028,202408261621598422,
2-7,C_HumanVertical,1,Q3FrontUp,-49.32414,41.18001,100.3589,-49.18943,-135.6382,133.3754,-37.89029,202408261621598637,
2-7,C_HumanVertical,1,Q3FrontUp,-49.32314,41.18674,100.3503,-49.19068,-135.6381,133.3754,-37.89064,202408261621598869,
2-7,C_HumanVertical,1,Q3FrontUp,-49.32314,41.18674,100.3503,-49.19068,-135.6381,133.3754,-37.89064,202408261621599155,
2-7,C_HumanVertical,1,Q3FrontUp,-49.32349,41.18777,100.3382,-49.19168,-135.6384,133.3755,-37.89094,202408261621599509,
2-7,C_HumanVertical,1,Q3FrontUp,-49.32349,41.18777,100.3382,-49.19168,-135.6384,133.3755,-37.89094,202408261621599679,
2-7,C_HumanVertical,1,Q3FrontUp,-49.32349,41.18777,100.3382,-49.19168,-135.6384,133.3755,-37.89094,202408261621599865,
2-7,C_HumanVertical,1,Q3FrontUp,-49.32414,41.18734,100.3377,-49.19043,-135.6378,133.3754,-37.89126,202408261622000207,
2-7,C_HumanVertical,1,Q3FrontUp,-49.32383,41.18691,100.3378,-49.19086,-135.6377,133.3755,-37.89137,202408261622000496,
2-7,C_HumanVertical,1,Q3FrontUp,-49.32303,41.18644,100.3379,-49.19149,-135.6375,133.3757,-37.89188,202408261622000658,
2-7,C_HumanVertical,1,Q3FrontUp,-49.32322,41.18716,100.3374,-49.19117,-135.6369,133.3756,-37.89223,202408261622001036,
2-7,C_HumanVertical,1,Q3FrontUp,-49.32335,41.18744,100.3364,-49.19106,-135.6368,133.3754,-37.89253,202408261622001334,
2-7,C_HumanVertical,1,Q3FrontUp,-49.32346,41.1881,100.3352,-49.19101,-135.6368,133.3755,-37.89255,202408261622001508,
2-7,C_HumanVertical,1,Q3FrontUp,-49.32346,41.1881,100.3352,-49.19101,-135.6368,133.3755,-37.89255,202408261622001779,
2-7,C_HumanVertical,1,Q3FrontUp,-49.32374,41.18728,100.3357,-49.19119,-135.6358,133.3756,-37.89275,202408261622001974,
2-7,C_HumanVertical,1,Q3FrontUp,-49.32352,41.18631,100.3365,-49.19119,-135.6353,133.3758,-37.89312,202408261622002344,
2-7,C_HumanVertical,1,Q3FrontUp,-49.32328,41.18642,100.3365,-49.19128,-135.6352,133.3758,-37.89354,202408261622002631,
2-7,C_HumanVertical,1,Q3FrontUp,-49.32328,41.18642,100.3365,-49.19128,-135.6352,133.3758,-37.89354,202408261622002792,
2-7,C_HumanVertical,1,Q3FrontUp,-49.32349,41.18633,100.3363,-49.191,-135.6349,133.3759,-37.89331,202408261622002965,
2-7,C_HumanVertical,1,Q3FrontUp,-49.32371,41.18657,100.3362,-49.19093,-135.6347,133.3759,-37.89335,202408261622003211,
2-7,C_HumanVertical,1,Q3FrontUp,-49.32371,41.18657,100.3362,-49.19093,-135.6347,133.3759,-37.89335,202408261622003457,
2-7,C_HumanVertical,1,Q3FrontUp,-49.32336,41.18679,100.3358,-49.19123,-135.6346,133.3759,-37.89346,202408261622003630,
2-7,C_HumanVertical,1,Q3FrontUp,-49.32336,41.18679,100.3358,-49.19123,-135.6346,133.3759,-37.89346,202408261622003822,
2-7,C_HumanVertical,1,Q3FrontUp,-49.32354,41.18659,100.3433,-49.19109,-135.6007,133.3759,-37.89353,202408261622004144,
2-7,C_HumanVertical,1,Q3FrontUp,-49.32414,41.18711,100.3603,-49.19088,-135.565,133.3754,-37.89412,202408261622004325,
2-7,C_HumanVertical,1,Q3FrontUp,-49.32414,41.18706,100.394,-49.18873,-135.5253,133.3758,-37.89499,202408261622004513,
2-7,C_HumanVertical,1,Q3FrontUp,-49.32414,41.18706,100.394,-49.18873,-135.5253,133.3758,-37.89499,202408261622004673,
2-7,C_HumanVertical,1,Q3FrontUp,-49.32383,41.18523,100.4301,-49.1885,-135.495,133.3759,-37.89531,202408261622004967,
2-7,C_HumanVertical,1,Q3FrontUp,-49.32383,41.18523,100.4301,-49.1885,-135.495,133.3759,-37.89531,202408261622005125,
2-7,C_HumanVertical,1,Q3FrontUp,-49.32155,41.17891,100.4567,-49.188,-135.4755,133.3763,-37.89554,202408261622005294,
2-7,C_HumanVertical,1,Q3FrontUp,-49.32155,41.17891,100.4567,-49.188,-135.4755,133.3763,-37.89554,202408261622005472,
2-7,C_HumanVertical,1,Q3FrontUp,-49.32155,41.17891,100.4567,-49.188,-135.4755,133.3763,-37.89554,202408261622005688,
2-7,C_HumanVertical,1,Q3FrontUp,-49.32024,41.16713,100.4513,-49.18826,-135.4726,133.3765,-37.92462,202408261622005958,
2-7,C_HumanVertical,1,Q3FrontUp,-49.32024,41.16713,100.4513,-49.18826,-135.4726,133.3765,-37.92462,202408261622006146,
2-7,C_HumanVertical,1,Q3FrontUp,-49.32088,41.16786,100.4455,-49.18779,-135.4726,133.3771,-37.92779,202408261622006355,
2-7,C_HumanVertical,1,Q3FrontUp,-49.32091,41.17033,100.4351,-49.1859,-135.4728,133.3773,-37.92839,202408261622006692,
2-7,C_HumanVertical,1,Q3FrontUp,-49.32091,41.17033,100.4351,-49.1859,-135.4728,133.3773,-37.92839,202408261622006962,
2-7,C_HumanVertical,1,Q3FrontUp,-49.32051,41.17206,100.4184,-49.18642,-135.4729,133.3775,-37.92852,202408261622007134,
2-7,C_HumanVertical,1,Q3FrontUp,-49.32022,41.17374,100.4,-49.1866,-135.4726,133.3779,-37.92998,202408261622007458,
2-7,C_HumanVertical,1,Q3FrontUp,-49.32084,41.17384,100.3854,-49.1861,-135.4729,133.3785,-37.93258,202408261622007615,
2-7,C_HumanVertical,1,Q3FrontUp,-49.31974,41.1734,100.3737,-49.17955,-135.4732,133.4016,-37.94135,202408261622007834,
2-7,C_HumanVertical,1,Q3FrontUp,-49.31974,41.1734,100.3737,-49.17955,-135.4732,133.4016,-37.94135,202408261622008001,
2-7,C_HumanVertical,1,Q3FrontUp,-49.31608,41.17471,100.372,-49.16722,-135.4725,133.4253,-37.94897,202408261622008287,
2-7,C_HumanVertical,1,Q3FrontUp,-49.31608,41.17471,100.372,-49.16722,-135.4725,133.4253,-37.94897,202408261622008469,
2-7,C_HumanVertical,1,Q3FrontUp,-49.29307,41.17567,100.3903,-49.1259,-135.4696,133.4544,-37.9587,202408261622008646,
2-7,C_HumanVertical,1,Q3FrontUp,-49.26336,41.17629,100.4148,-49.0838,-135.4669,133.4587,-37.96902,202408261622008858,
2-7,C_HumanVertical,1,Q3FrontUp,-49.22858,41.17535,100.4377,-49.03916,-135.4646,133.46,-37.98096,202408261622009156,
2-7,C_HumanVertical,1,Q3FrontUp,-49.22858,41.17535,100.4377,-49.03916,-135.4646,133.46,-37.98096,202408261622009478,
2-7,C_HumanVertical,1,Q3FrontUp,-49.19177,41.17294,100.4425,-48.99942,-135.4635,133.46,-38.00018,202408261622009694,
2-7,C_HumanVertical,1,Q3FrontUp,-49.16054,41.17119,100.4571,-48.95903,-135.4625,133.4607,-38.01458,202408261622009948,
2-7,C_HumanVertical,1,Q3FrontUp,-49.16054,41.17119,100.4571,-48.95903,-135.4625,133.4607,-38.01458,202408261622010124,
2-7,C_HumanVertical,1,Q3FrontUp,-49.16054,41.17119,100.4571,-48.95903,-135.4625,133.4607,-38.01458,202408261622010293,
2-7,C_HumanVertical,1,Q3FrontUp,-49.12927,41.17095,100.464,-48.91684,-135.464,133.4618,-38.03408,202408261622010455,
2-7,C_HumanVertical,1,Q3FrontUp,-49.08639,41.17193,100.4301,-48.87082,-135.4658,133.4611,-38.05038,202408261622010608,
2-7,C_HumanVertical,1,Q3FrontUp,-49.08639,41.17193,100.4301,-48.87082,-135.4658,133.4611,-38.05038,202408261622010798,
2-7,C_HumanVertical,1,Q3FrontUp,-49.02808,41.18062,100.3877,-48.82093,-135.4676,133.4612,-38.06829,202408261622011024,
2-7,C_HumanVertical,1,Q3FrontUp,-48.9655,41.19733,100.3508,-48.77477,-135.468,133.4609,-38.0909,202408261622011215,
2-7,C_HumanVertical,1,Q3FrontUp,-48.90307,41.2174,100.3409,-48.73188,-135.4679,133.461,-38.1111,202408261622011500,
2-7,C_HumanVertical,1,Q3FrontUp,-48.90307,41.2174,100.3409,-48.73188,-135.4679,133.461,-38.1111,202408261622011808,
2-7,C_HumanVertical,1,Q3FrontUp,-48.83998,41.23775,100.3287,-48.70159,-135.467,133.461,-38.13516,202408261622012019,
2-7,C_HumanVertical,1,Q3FrontUp,-48.77876,41.25024,100.3173,-48.67546,-135.4642,133.4609,-38.1597,202408261622012287,
2-7,C_HumanVertical,1,Q3FrontUp,-48.77876,41.25024,100.3173,-48.67546,-135.4642,133.4609,-38.1597,202408261622012462,
2-7,C_HumanVertical,1,Q3FrontUp,-48.71624,41.25151,100.3145,-48.63973,-135.4621,133.461,-38.19631,202408261622012626,
2-7,C_HumanVertical,1,Q3FrontUp,-48.66408,41.24998,100.3157,-48.61168,-135.4595,133.4613,-38.22512,202408261622012865,
2-7,C_HumanVertical,1,Q3FrontUp,-48.66408,41.24998,100.3157,-48.61168,-135.4595,133.4613,-38.22512,202408261622013122,
2-7,C_HumanVertical,1,Q3FrontUp,-48.6069,41.24806,100.3168,-48.58155,-135.4489,133.4615,-38.25702,202408261622013285,
2-7,C_HumanVertical,1,Q3FrontUp,-48.6069,41.24806,100.3168,-48.58155,-135.4489,133.4615,-38.25702,202408261622013481,
2-7,C_HumanVertical,1,Q3FrontUp,-48.6069,41.24806,100.3168,-48.58155,-135.4489,133.4615,-38.25702,202408261622013658,
2-7,C_HumanVertical,1,Q3FrontUp,-48.45105,41.24671,100.3251,-48.45861,-135.3863,133.4613,-38.3304,202408261622014007,
2-7,C_HumanVertical,1,Q3FrontUp,-48.36676,41.24545,100.325,-48.39247,-135.3496,133.4612,-38.36642,202408261622014196,
2-7,C_HumanVertical,1,Q3FrontUp,-48.36676,41.24545,100.325,-48.39247,-135.3496,133.4612,-38.36642,202408261622014459,
2-7,C_HumanVertical,1,Q3FrontUp,-48.27263,41.24586,100.322,-48.32924,-135.3111,133.461,-38.40382,202408261622014648,
2-7,C_HumanVertical,1,Q3FrontUp,-48.18039,41.24537,100.3193,-48.26661,-135.2771,133.461,-38.44343,202408261622014968,
2-7,C_HumanVertical,1,Q3FrontUp,-48.18039,41.24537,100.3193,-48.26661,-135.2771,133.461,-38.44343,202408261622015129,
2-7,C_HumanVertical,1,Q3FrontUp,-48.08823,41.24171,100.3192,-48.20195,-135.2341,133.4609,-38.48007,202408261622015325,
2-7,C_HumanVertical,1,Q3FrontUp,-47.97923,41.23617,100.3197,-48.11804,-135.1574,133.4609,-38.53143,202408261622015598,
2-7,C_HumanVertical,1,Q3FrontUp,-47.97923,41.23617,100.3197,-48.11804,-135.1574,133.4609,-38.53143,202408261622015783,
2-7,C_HumanVertical,1,Q3FrontUp,-47.86839,41.22771,100.3205,-48.02805,-135.0847,133.4609,-38.58456,202408261622016039,
2-7,C_HumanVertical,1,Q3FrontUp,-47.76719,41.21959,100.3211,-47.94024,-135.0217,133.4608,-38.63578,202408261622016341,
2-7,C_HumanVertical,1,Q3FrontUp,-47.67266,41.21042,100.322,-47.86063,-134.9631,133.4607,-38.68235,202408261622016654,
2-7,C_HumanVertical,1,Q3FrontUp,-47.58183,41.20485,100.3218,-47.78714,-134.893,133.4607,-38.74508,202408261622016968,
2-7,C_HumanVertical,1,Q3FrontUp,-47.48471,41.20044,100.3217,-47.70877,-134.8097,133.4608,-38.81773,202408261622017284,
2-7,C_HumanVertical,1,Q3FrontUp,-47.38078,41.19682,100.3217,-47.63037,-134.7301,133.4608,-38.88888,202408261622017505,
2-7,C_HumanVertical,1,Q3FrontUp,-47.38078,41.19682,100.3217,-47.63037,-134.7301,133.4608,-38.88888,202408261622017673,
2-7,C_HumanVertical,1,Q3FrontUp,-47.27627,41.19616,100.3212,-47.56228,-134.6654,133.4606,-38.95314,202408261622017957,
2-7,C_HumanVertical,1,Q3FrontUp,-47.27627,41.19616,100.3212,-47.56228,-134.6654,133.4606,-38.95314,202408261622018142,
2-7,C_HumanVertical,1,Q3FrontUp,-47.17383,41.1951,100.3203,-47.50308,-134.6,133.4605,-39.01987,202408261622018403,
2-7,C_HumanVertical,1,Q3FrontUp,-47.08191,41.1937,100.3201,-47.45569,-134.5152,133.4607,-39.08987,202408261622018630,
2-7,C_HumanVertical,1,Q3FrontUp,-47.08191,41.1937,100.3201,-47.45569,-134.5152,133.4607,-39.08987,202408261622018873,
2-7,C_HumanVertical,1,Q3FrontUp,-46.99604,41.19102,100.3206,-47.41288,-134.4354,133.4607,-39.15907,202408261622019148,
2-7,C_HumanVertical,1,Q3FrontUp,-46.92064,41.18576,100.3197,-47.37407,-134.3562,133.4613,-39.23137,202408261622019452,
2-7,C_HumanVertical,1,Q3FrontUp,-46.92064,41.18576,100.3197,-47.37407,-134.3562,133.4613,-39.23137,202408261622019634,
2-7,C_HumanVertical,1,Q3FrontUp,-46.86447,41.17451,100.3115,-47.35387,-134.282,133.4615,-39.31271,202408261622019836,
2-7,C_HumanVertical,1,Q3FrontUp,-46.81981,41.16552,100.3065,-47.34472,-134.1817,133.4633,-39.39265,202408261622020122,
2-7,C_HumanVertical,1,Q3FrontUp,-46.78211,41.15729,100.3049,-47.34303,-134.0556,133.4653,-39.48,202408261622020291,
2-7,C_HumanVertical,1,Q3FrontUp,-46.78211,41.15729,100.3049,-47.34303,-134.0556,133.4653,-39.48,202408261622020458,
2-7,C_HumanVertical,1,Q3FrontUp,-46.74709,41.14816,100.3053,-47.34165,-133.9241,133.4835,-39.58118,202408261622020689,
2-7,C_HumanVertical,1,Q3FrontUp,-46.74709,41.14816,100.3053,-47.34165,-133.9241,133.4835,-39.58118,202408261622020863,
2-7,C_HumanVertical,1,Q3FrontUp,-46.71313,41.14034,100.3055,-47.34108,-133.7961,133.4932,-39.67739,202408261622021125,
2-7,C_HumanVertical,1,Q3FrontUp,-46.67936,41.12793,100.3049,-47.34072,-133.6511,133.5062,-39.77353,202408261622021303,
2-7,C_HumanVertical,1,Q3FrontUp,-46.67936,41.12793,100.3049,-47.34072,-133.6511,133.5062,-39.77353,202408261622021479,
2-7,C_HumanVertical,1,Q3FrontUp,-46.64983,41.10884,100.3043,-47.34275,-133.5079,133.5247,-39.87499,202408261622021645,
2-7,C_HumanVertical,1,Q3FrontUp,-46.64983,41.10884,100.3043,-47.34275,-133.5079,133.5247,-39.87499,202408261622021805,
2-7,C_HumanVertical,1,Q3FrontUp,-46.62312,41.0862,100.304,-47.34384,-133.3869,133.5466,-39.97892,202408261622022003,
2-7,C_HumanVertical,1,Q3FrontUp,-46.62312,41.0862,100.304,-47.34384,-133.3869,133.5466,-39.97892,202408261622022177,
2-7,C_HumanVertical,1,Q3FrontUp,-46.59533,41.05801,100.3052,-47.34695,-133.2634,133.5605,-40.07914,202408261622022452,
2-7,C_HumanVertical,1,Q3FrontUp,-46.57721,41.02685,100.3061,-47.36233,-133.1579,133.5664,-40.15444,202408261622022613,
2-7,C_HumanVertical,1,Q3FrontUp,-46.57721,41.02685,100.3061,-47.36233,-133.1579,133.5664,-40.15444,202408261622022798,
2-7,C_HumanVertical,1,Q3FrontUp,-46.57122,40.98768,100.312,-47.38757,-133.0402,133.5731,-40.23309,202408261622022971,
2-7,C_HumanVertical,1,Q3FrontUp,-46.57174,40.94398,100.3158,-47.42229,-132.9002,133.5861,-40.319,202408261622023181,
2-7,C_HumanVertical,1,Q3FrontUp,-46.57174,40.94398,100.3158,-47.42229,-132.9002,133.5861,-40.319,202408261622023461,
2-7,C_HumanVertical,1,Q3FrontUp,-46.57344,40.89027,100.3152,-47.46697,-132.727,133.5992,-40.40165,202408261622023639,
2-7,C_HumanVertical,1,Q3FrontUp,-46.57344,40.89027,100.3152,-47.46697,-132.727,133.5992,-40.40165,202408261622023846,
2-7,C_HumanVertical,1,Q3FrontUp,-46.57465,40.82949,100.3115,-47.52554,-132.5463,133.6011,-40.49596,202408261622024150,
2-7,C_HumanVertical,1,Q3FrontUp,-46.5749,40.75613,100.31,-47.58871,-132.3838,133.5999,-40.59269,202408261622024356,
2-7,C_HumanVertical,1,Q3FrontUp,-46.5733,40.68312,100.3259,-47.65833,-132.2125,133.6002,-40.6908,202408261622024615,
2-7,C_HumanVertical,1,Q3FrontUp,-46.5733,40.68312,100.3259,-47.65833,-132.2125,133.6002,-40.6908,202408261622024796,
2-7,C_HumanVertical,1,Q3FrontUp,-46.57322,40.59909,100.3419,-47.73195,-132.0416,133.6009,-40.78333,202408261622025108,
2-7,C_HumanVertical,1,Q3FrontUp,-46.57296,40.50747,100.3523,-47.79337,-131.87,133.6002,-40.8677,202408261622025286,
2-7,C_HumanVertical,1,Q3FrontUp,-46.57296,40.50747,100.3523,-47.79337,-131.87,133.6002,-40.8677,202408261622025501,
2-7,C_HumanVertical,1,Q3FrontUp,-46.57182,40.42799,100.3799,-47.85495,-131.6662,133.6009,-40.94478,202408261622025814,
2-7,C_HumanVertical,1,Q3FrontUp,-46.57182,40.42799,100.3799,-47.85495,-131.6662,133.6009,-40.94478,202408261622025960,
2-7,C_HumanVertical,1,Q3FrontUp,-46.57182,40.42799,100.3799,-47.85495,-131.6662,133.6009,-40.94478,202408261622026159,
2-7,C_HumanVertical,1,Q3FrontUp,-46.58173,40.2449,100.3721,-47.99982,-131.2782,133.6004,-41.11238,202408261622026537,
2-7,C_HumanVertical,1,Q3FrontUp,-46.58176,40.16014,100.3711,-48.06804,-131.1024,133.6003,-41.18722,202408261622026799,
2-7,C_HumanVertical,1,Q3FrontUp,-46.58224,40.06559,100.3714,-48.14057,-130.9232,133.6005,-41.25643,202408261622027029,
2-7,C_HumanVertical,1,Q3FrontUp,-46.58201,39.98414,100.3716,-48.23153,-130.7537,133.6004,-41.31783,202408261622027283,
2-7,C_HumanVertical,1,Q3FrontUp,-46.58201,39.98414,100.3716,-48.23153,-130.7537,133.6004,-41.31783,202408261622027463,
2-7,C_HumanVertical,1,Q3FrontUp,-46.58278,39.9174,100.3725,-48.3401,-130.5855,133.6003,-41.38071,202408261622027672,
2-7,C_HumanVertical,1,Q3FrontUp,-46.58513,39.83665,100.373,-48.44875,-130.4254,133.6002,-41.44851,202408261622027956,
2-7,C_HumanVertical,1,Q3FrontUp,-46.58513,39.83665,100.373,-48.44875,-130.4254,133.6002,-41.44851,202408261622028135,
2-7,C_HumanVertical,1,Q3FrontUp,-46.58513,39.83665,100.373,-48.44875,-130.4254,133.6002,-41.44851,202408261622028299,
2-7,C_HumanVertical,1,Q3FrontUp,-46.58873,39.76263,100.3743,-48.55314,-130.2711,133.5997,-41.51221,202408261622028466,
2-7,C_HumanVertical,1,Q3FrontUp,-46.60094,39.70107,100.3742,-48.69325,-130.1304,133.5998,-41.572,202408261622028684,
2-7,C_HumanVertical,1,Q3FrontUp,-46.60773,39.65309,100.3735,-48.84612,-129.9782,133.5999,-41.64178,202408261622028882,
2-7,C_HumanVertical,1,Q3FrontUp,-46.60773,39.65309,100.3735,-48.84612,-129.9782,133.5999,-41.64178,202408261622029149,
2-7,C_HumanVertical,1,Q3FrontUp,-46.62125,39.61457,100.3734,-49.00299,-129.8311,133.5993,-41.7096,202408261622029512,
2-7,C_HumanVertical,1,Q3FrontUp,-46.63797,39.57381,100.3724,-49.154,-129.6911,133.599,-41.77848,202408261622029792,
2-7,C_HumanVertical,1,Q3FrontUp,-46.64793,39.5413,100.3703,-49.31054,-129.5206,133.5986,-41.83598,202408261622029993,
2-7,C_HumanVertical,1,Q3FrontUp,-46.64793,39.5413,100.3703,-49.31054,-129.5206,133.5986,-41.83598,202408261622030177,
2-7,C_HumanVertical,1,Q3FrontUp,-46.64812,39.5105,100.3635,-49.4516,-129.3558,133.5986,-41.88443,202408261622030442,
2-7,C_HumanVertical,1,Q3FrontUp,-46.64969,39.48207,100.3581,-49.59011,-129.1745,133.5987,-41.90903,202408261622030615,
2-7,C_HumanVertical,1,Q3FrontUp,-46.64969,39.48207,100.3581,-49.59011,-129.1745,133.5987,-41.90903,202408261622030798,
2-7,C_HumanVertical,1,Q3FrontUp,-46.65285,39.45384,100.3573,-49.73193,-129.0052,133.5988,-41.93734,202408261622030987,
2-7,C_HumanVertical,1,Q3FrontUp,-46.66364,39.42177,100.3575,-49.8827,-128.8431,133.5983,-41.96513,202408261622031182,
2-7,C_HumanVertical,1,Q3FrontUp,-46.66364,39.42177,100.3575,-49.8827,-128.8431,133.5983,-41.96513,202408261622031476,
2-7,C_HumanVertical,1,Q3FrontUp,-46.66473,39.38439,100.359,-50.01506,-128.6868,133.5983,-41.9869,202408261622031870,
2-7,C_HumanVertical,1,Q3FrontUp,-46.66345,39.32978,100.3687,-50.13731,-128.5139,133.5987,-42.0061,202408261622032136,
2-7,C_HumanVertical,1,Q3FrontUp,-46.66251,39.27337,100.375,-50.25112,-128.3251,133.5984,-42.02987,202408261622032334,
2-7,C_HumanVertical,1,Q3FrontUp,-46.66299,39.21662,100.3753,-50.3797,-128.0912,133.5986,-42.0762,202408261622032615,
2-7,C_HumanVertical,1,Q3FrontUp,-46.66299,39.21662,100.3753,-50.3797,-128.0912,133.5986,-42.0762,202408261622032777,
2-7,C_HumanVertical,1,Q3FrontUp,-46.66368,39.15729,100.3761,-50.50502,-127.8888,133.5991,-42.11786,202408261622032956,
2-7,C_HumanVertical,1,Q3FrontUp,-46.66368,39.15729,100.3761,-50.50502,-127.8888,133.5991,-42.11786,202408261622033155,
2-7,C_HumanVertical,1,Q3FrontUp,-46.67352,39.08181,100.3782,-50.62708,-127.6839,133.5976,-42.17756,202408261622033353,
2-7,C_HumanVertical,1,Q3FrontUp,-46.67352,39.08181,100.3782,-50.62708,-127.6839,133.5976,-42.17756,202408261622033627,
2-7,C_HumanVertical,1,Q3FrontUp,-46.67352,39.08181,100.3782,-50.62708,-127.6839,133.5976,-42.17756,202408261622033802,
2-7,C_HumanVertical,1,Q3FrontUp,-46.72295,38.95178,100.3778,-50.94984,-127.2327,133.5925,-42.34026,202408261622033980,
2-7,C_HumanVertical,1,Q3FrontUp,-46.72295,38.95178,100.3778,-50.94984,-127.2327,133.5925,-42.34026,202408261622034308,
2-7,C_HumanVertical,1,Q3FrontUp,-46.72808,38.89926,100.3773,-51.24949,-126.7945,133.5923,-42.43624,202408261622034504,
2-7,C_HumanVertical,1,Q3FrontUp,-46.72808,38.89926,100.3773,-51.24949,-126.7945,133.5923,-42.43624,202408261622034791,
2-7,C_HumanVertical,1,Q3FrontUp,-46.75571,38.88972,100.3764,-51.43612,-126.5362,133.5819,-42.52641,202408261622034995,
2-7,C_HumanVertical,1,Q3FrontUp,-46.79739,38.88885,100.3752,-51.63083,-126.2875,133.5558,-42.62142,202408261622035292,
2-7,C_HumanVertical,1,Q3FrontUp,-46.79739,38.88885,100.3752,-51.63083,-126.2875,133.5558,-42.62142,202408261622035467,
2-7,C_HumanVertical,1,Q3FrontUp,-46.79739,38.88885,100.3752,-51.63083,-126.2875,133.5558,-42.62142,202408261622035678,
2-7,C_HumanVertical,1,Q3FrontUp,-46.84957,38.88763,100.3757,-51.98325,-125.8405,133.5411,-42.73672,202408261622035972,
2-7,C_HumanVertical,1,Q3FrontUp,-46.84957,38.88763,100.3757,-51.98325,-125.8405,133.5411,-42.73672,202408261622036124,
2-7,C_HumanVertical,1,Q3FrontUp,-46.87884,38.88809,100.3779,-52.14935,-125.6341,133.5402,-42.76137,202408261622036312,
2-7,C_HumanVertical,1,Q3FrontUp,-46.87884,38.88809,100.3779,-52.14935,-125.6341,133.5402,-42.76137,202408261622036522,
2-7,C_HumanVertical,1,Q3FrontUp,-46.92574,38.88625,100.3769,-52.35372,-125.3981,133.532,-42.84394,202408261622036788,
2-7,C_HumanVertical,1,Q3FrontUp,-46.92574,38.88625,100.3769,-52.35372,-125.3981,133.532,-42.84394,202408261622036961,
2-7,C_HumanVertical,1,Q3FrontUp,-46.96388,38.873,100.3718,-52.69621,-124.9228,133.5053,-43.00073,202408261622037299,
2-7,C_HumanVertical,1,Q3FrontUp,-46.96388,38.873,100.3718,-52.69621,-124.9228,133.5053,-43.00073,202408261622037456,
2-7,C_HumanVertical,1,Q3FrontUp,-46.97186,38.86831,100.3482,-52.8655,-124.7093,133.5017,-43.06479,202408261622037627,
2-7,C_HumanVertical,1,Q3FrontUp,-46.97186,38.86831,100.3482,-52.8655,-124.7093,133.5017,-43.06479,202408261622037826,
2-7,C_HumanVertical,1,Q3FrontUp,-46.97736,38.86872,100.342,-53.04666,-124.4766,133.489,-43.12502,202408261622038000,
2-7,C_HumanVertical,1,Q3FrontUp,-46.97506,38.8676,100.335,-53.20939,-124.2659,133.4728,-43.17536,202408261622038294,
2-7,C_HumanVertical,1,Q3FrontUp,-46.97506,38.8676,100.335,-53.20939,-124.2659,133.4728,-43.17536,202408261622038473,
2-7,C_HumanVertical,1,Q3FrontUp,-46.97211,38.86587,100.3298,-53.38979,-124.0526,133.4561,-43.23344,202408261622038665,
2-7,C_HumanVertical,1,Q3FrontUp,-46.96088,38.86564,100.3157,-53.56459,-123.7814,133.4514,-43.33865,202408261622038868,
2-7,C_HumanVertical,1,Q3FrontUp,-46.96088,38.86564,100.3157,-53.56459,-123.7814,133.4514,-43.33865,202408261622039135,
2-7,C_HumanVertical,1,Q3FrontUp,-46.95023,38.86416,100.2947,-53.74107,-123.4929,133.4515,-43.44568,202408261622039308,
2-7,C_HumanVertical,1,Q3FrontUp,-46.937,38.84811,100.252,-53.90304,-123.2404,133.4514,-43.54515,202408261622039518,
2-7,C_HumanVertical,1,Q3FrontUp,-46.937,38.84811,100.252,-53.90304,-123.2404,133.4514,-43.54515,202408261622039743,
2-7,C_HumanVertical,1,Q3FrontUp,-46.91243,38.82223,100.2087,-54.04119,-122.9898,133.451,-43.64003,202408261622039971,
2-7,C_HumanVertical,1,Q3FrontUp,-46.91243,38.82223,100.2087,-54.04119,-122.9898,133.451,-43.64003,202408261622040160,
2-7,C_HumanVertical,1,Q3FrontUp,-46.88494,38.80687,100.1576,-54.17954,-122.7432,133.4506,-43.72783,202408261622040444,
2-7,C_HumanVertical,1,Q3FrontUp,-46.86901,38.7962,100.1096,-54.33698,-122.5098,133.4509,-43.79317,202408261622040608,
2-7,C_HumanVertical,1,Q3FrontUp,-46.86901,38.7962,100.1096,-54.33698,-122.5098,133.4509,-43.79317,202408261622040792,
2-7,C_HumanVertical,1,Q3FrontUp,-46.85545,38.78636,100.0654,-54.49335,-122.231,133.4509,-43.89997,202408261622041007,
2-7,C_HumanVertical,1,Q3FrontUp,-46.85545,38.78636,100.0654,-54.49335,-122.231,133.4509,-43.89997,202408261622041189,
2-7,C_HumanVertical,1,Q3FrontUp,-46.83579,38.77383,100.0271,-54.63866,-121.961,133.4497,-44.02355,202408261622041463,
2-7,C_HumanVertical,1,Q3FrontUp,-46.79487,38.76823,100.0179,-54.76141,-121.6943,133.4501,-44.14639,202408261622041807,
2-7,C_HumanVertical,1,Q3FrontUp,-46.74198,38.76752,100.0025,-54.89397,-121.4912,133.4497,-44.22126,202408261622042124,
2-7,C_HumanVertical,1,Q3FrontUp,-46.74198,38.76752,100.0025,-54.89397,-121.4912,133.4497,-44.22126,202408261622042334,
2-7,C_HumanVertical,1,Q3FrontUp,-46.66009,38.74792,99.97374,-55.19798,-121.2012,133.4501,-44.26895,202408261622042605,
2-7,C_HumanVertical,1,Q3FrontUp,-46.66009,38.74792,99.97374,-55.19798,-121.2012,133.4501,-44.26895,202408261622042832,
2-7,C_HumanVertical,1,Q3FrontUp,-46.62188,38.72208,99.95694,-55.35674,-121.0695,133.4508,-44.26928,202408261622043137,
2-7,C_HumanVertical,1,Q3FrontUp,-46.56742,38.69684,99.93374,-55.50135,-120.9361,133.451,-44.26906,202408261622043349,
2-7,C_HumanVertical,1,Q3FrontUp,-46.50304,38.6777,99.91255,-55.6328,-120.8121,133.451,-44.26869,202408261622043641,
2-7,C_HumanVertical,1,Q3FrontUp,-46.50304,38.6777,99.91255,-55.6328,-120.8121,133.451,-44.26869,202408261622043786,
2-7,C_HumanVertical,1,Q3FrontUp,-46.50304,38.6777,99.91255,-55.6328,-120.8121,133.451,-44.26869,202408261622043991,
2-7,C_HumanVertical,1,Q3FrontUp,-46.43901,38.62056,99.84264,-55.98244,-120.4125,133.4507,-44.26897,202408261622044334,
2-7,C_HumanVertical,1,Q3FrontUp,-46.43534,38.58045,99.78749,-56.18943,-120.1858,133.451,-44.26871,202408261622044626,
2-7,C_HumanVertical,1,Q3FrontUp,-46.41973,38.52343,99.736,-56.40369,-119.9231,133.4504,-44.26746,202408261622044946,
2-7,C_HumanVertical,1,Q3FrontUp,-46.41973,38.52343,99.736,-56.40369,-119.9231,133.4504,-44.26746,202408261622045114,
2-7,C_HumanVertical,1,Q3FrontUp,-46.40168,38.47482,99.68551,-56.62731,-119.6699,133.4497,-44.26694,202408261622045310,
2-7,C_HumanVertical,1,Q3FrontUp,-46.37633,38.43374,99.63731,-56.88163,-119.4115,133.4503,-44.26646,202408261622045513,
2-7,C_HumanVertical,1,Q3FrontUp,-46.37633,38.43374,99.63731,-56.88163,-119.4115,133.4503,-44.26646,202408261622045787,
2-7,C_HumanVertical,1,Q3FrontUp,-46.31072,38.39036,99.55949,-57.12979,-119.1252,133.4509,-44.26626,202408261622046025,
2-7,C_HumanVertical,1,Q3FrontUp,-46.24316,38.32936,99.47648,-57.3903,-118.8497,133.451,-44.26606,202408261622046283,
2-7,C_HumanVertical,1,Q3FrontUp,-46.17453,38.26738,99.39553,-57.63808,-118.6037,133.4513,-44.26588,202408261622046500,
2-7,C_HumanVertical,1,Q3FrontUp,-46.17453,38.26738,99.39553,-57.63808,-118.6037,133.4513,-44.26588,202408261622046667,
2-7,C_HumanVertical,1,Q3FrontUp,-46.08021,38.22814,99.27823,-57.88549,-118.3524,133.4585,-44.26561,202408261622046956,
2-7,C_HumanVertical,1,Q3FrontUp,-46.08021,38.22814,99.27823,-57.88549,-118.3524,133.4585,-44.26561,202408261622047127,
2-7,C_HumanVertical,1,Q3FrontUp,-45.97555,38.18794,99.14307,-58.15131,-118.069,133.4695,-44.26681,202408261622047285,
2-7,C_HumanVertical,1,Q3FrontUp,-45.97555,38.18794,99.14307,-58.15131,-118.069,133.4695,-44.26681,202408261622047514,
2-7,C_HumanVertical,1,Q3FrontUp,-45.85877,38.16563,99.01715,-58.40789,-117.7449,133.4989,-44.27303,202408261622047792,
2-7,C_HumanVertical,1,Q3FrontUp,-45.72254,38.15649,98.90515,-58.64738,-117.4615,133.5081,-44.28235,202408261622047962,
2-7,C_HumanVertical,1,Q3FrontUp,-45.72254,38.15649,98.90515,-58.64738,-117.4615,133.5081,-44.28235,202408261622048127,
2-7,C_HumanVertical,1,Q3FrontUp,-45.59419,38.15825,98.80706,-58.88545,-117.211,133.5101,-44.2869,202408261622048303,
2-7,C_HumanVertical,1,Q3FrontUp,-45.59419,38.15825,98.80706,-58.88545,-117.211,133.5101,-44.2869,202408261622048463,
2-7,C_HumanVertical,1,Q3FrontUp,-45.47203,38.16169,98.72489,-59.13135,-116.9887,133.5252,-44.28629,202408261622048642,
2-7,C_HumanVertical,1,Q3FrontUp,-45.47203,38.16169,98.72489,-59.13135,-116.9887,133.5252,-44.28629,202408261622048870,
2-7,C_HumanVertical,1,Q3FrontUp,-45.24651,38.15871,98.56361,-59.52748,-116.5801,133.5506,-44.28653,202408261622049150,
2-7,C_HumanVertical,1,Q3FrontUp,-45.24651,38.15871,98.56361,-59.52748,-116.5801,133.5506,-44.28653,202408261622049460,
2-7,C_HumanVertical,1,Q3FrontUp,-45.10384,38.15784,98.50809,-59.66283,-116.3206,133.6251,-44.28763,202408261622049805,
2-7,C_HumanVertical,1,Q3FrontUp,-44.9692,38.15759,98.46004,-59.78915,-116.0487,133.6947,-44.28968,202408261622050002,
2-7,C_HumanVertical,1,Q3FrontUp,-44.83648,38.15717,98.41584,-59.88995,-115.7963,133.7355,-44.29089,202408261622050294,
2-7,C_HumanVertical,1,Q3FrontUp,-44.83648,38.15717,98.41584,-59.88995,-115.7963,133.7355,-44.29089,202408261622050477,
2-7,C_HumanVertical,1,Q3FrontUp,-44.6884,38.15668,98.34962,-59.97327,-115.5807,133.7357,-44.2909,202408261622050683,
2-7,C_HumanVertical,1,Q3FrontUp,-44.5323,38.15664,98.25365,-60.0335,-115.4506,133.7382,-44.28824,202408261622051044,
2-7,C_HumanVertical,1,Q3FrontUp,-44.35841,38.15514,98.13316,-60.06204,-115.3283,133.7387,-44.28369,202408261622051323,
2-7,C_HumanVertical,1,Q3FrontUp,-44.15498,38.15486,97.99263,-60.06516,-115.1693,133.7388,-44.28414,202408261622051645,
2-7,C_HumanVertical,1,Q3FrontUp,-43.91141,38.15578,97.79063,-60.06985,-115.0238,133.741,-44.28431,202408261622051977,
2-7,C_HumanVertical,1,Q3FrontUp,-43.91141,38.15578,97.79063,-60.06985,-115.0238,133.741,-44.28431,202408261622052166,
2-7,C_HumanVertical,1,Q3FrontUp,-43.66072,38.15538,97.56591,-60.07291,-114.894,133.7419,-44.2843,202408261622052452,
2-7,C_HumanVertical,1,Q3FrontUp,-43.40831,38.15818,97.36629,-60.08466,-114.7721,133.7418,-44.28451,202408261622052608,
2-7,C_HumanVertical,1,Q3FrontUp,-43.40831,38.15818,97.36629,-60.08466,-114.7721,133.7418,-44.28451,202408261622052792,
2-7,C_HumanVertical,1,Q3FrontUp,-43.14484,38.17004,97.11577,-60.10432,-114.6748,133.7416,-44.28447,202408261622052974,
2-7,C_HumanVertical,1,Q3FrontUp,-43.14484,38.17004,97.11577,-60.10432,-114.6748,133.7416,-44.28447,202408261622053200,
2-7,C_HumanVertical,1,Q3FrontUp,-42.85858,38.17765,96.81275,-60.10254,-114.5791,133.7427,-44.28489,202408261622053466,
2-7,C_HumanVertical,1,Q3FrontUp,-42.55984,38.19284,96.46998,-60.10601,-114.4951,133.7419,-44.28442,202408261622053652,
2-7,C_HumanVertical,1,Q3FrontUp,-42.55984,38.19284,96.46998,-60.10601,-114.4951,133.7419,-44.28442,202408261622053862,
2-7,C_HumanVertical,1,Q3FrontUp,-42.25617,38.19364,96.13661,-60.10723,-114.4288,133.7422,-44.28411,202408261622054163,
2-7,C_HumanVertical,1,Q3FrontUp,-41.92316,38.20254,95.80874,-60.10582,-114.3652,133.7415,-44.28421,202408261622054335,
2-7,C_HumanVertical,1,Q3FrontUp,-41.57009,38.25904,95.4752,-60.10473,-114.2887,133.7417,-44.28423,202408261622054610,
2-7,C_HumanVertical,1,Q3FrontUp,-41.57009,38.25904,95.4752,-60.10473,-114.2887,133.7417,-44.28423,202408261622054792,
2-7,C_HumanVertical,1,Q3FrontUp,-41.22788,38.32014,95.14182,-60.10558,-114.2185,133.7413,-44.28473,202408261622054954,
2-7,C_HumanVertical,1,Q3FrontUp,-41.22788,38.32014,95.14182,-60.10558,-114.2185,133.7413,-44.28473,202408261622055127,
2-7,C_HumanVertical,1,Q3FrontUp,-40.90772,38.37162,94.84743,-60.10775,-114.1485,133.7426,-44.28456,202408261622055302,
2-7,C_HumanVertical,1,Q3FrontUp,-40.90772,38.37162,94.84743,-60.10775,-114.1485,133.7426,-44.28456,202408261622055526,
2-7,C_HumanVertical,1,Q3FrontUp,-40.56484,38.42767,94.53204,-60.10701,-114.0843,133.742,-44.28469,202408261622055784,
2-7,C_HumanVertical,1,Q3FrontUp,-40.2347,38.48615,94.24163,-60.10985,-114.0149,133.7416,-44.2848,202408261622055949,
2-7,C_HumanVertical,1,Q3FrontUp,-40.2347,38.48615,94.24163,-60.10985,-114.0149,133.7416,-44.2848,202408261622056138,
2-7,C_HumanVertical,1,Q3FrontUp,-39.9392,38.55498,93.94249,-60.10687,-113.9367,133.7417,-44.28455,202408261622056302,
2-7,C_HumanVertical,1,Q3FrontUp,-39.9392,38.55498,93.94249,-60.10687,-113.9367,133.7417,-44.28455,202408261622056552,
2-7,C_HumanVertical,1,Q3FrontUp,-39.66396,38.62619,93.67447,-60.10723,-113.8563,133.7417,-44.28492,202408261622056811,
2-7,C_HumanVertical,1,Q3FrontUp,-39.4016,38.71047,93.44099,-60.11031,-113.7785,133.7418,-44.28545,202408261622057002,
2-7,C_HumanVertical,1,Q3FrontUp,-39.12873,38.79471,93.17634,-60.10857,-113.7141,133.7423,-44.28518,202408261622057290,
2-7,C_HumanVertical,1,Q3FrontUp,-39.12873,38.79471,93.17634,-60.10857,-113.7141,133.7423,-44.28518,202408261622057460,
2-7,C_HumanVertical,1,Q3FrontUp,-38.87639,38.88732,92.95541,-60.10889,-113.6738,133.7425,-44.28529,202408261622057669,
2-7,C_HumanVertical,1,Q3FrontUp,-38.65781,38.99832,92.77466,-60.10867,-113.632,133.7422,-44.28531,202408261622057966,
2-7,C_HumanVertical,1,Q3FrontUp,-38.45707,39.10785,92.57484,-60.10765,-113.5952,133.7435,-44.28495,202408261622058296,
2-7,C_HumanVertical,1,Q3FrontUp,-38.45707,39.10785,92.57484,-60.10765,-113.5952,133.7435,-44.28495,202408261622058481,
2-7,C_HumanVertical,1,Q3FrontUp,-38.26391,39.22015,92.37823,-60.10632,-113.565,133.7452,-44.28505,202408261622058706,
2-7,C_HumanVertical,1,Q3FrontUp,-38.09854,39.31588,92.19735,-60.10892,-113.5391,133.746,-44.28501,202408261622058974,
2-7,C_HumanVertical,1,Q3FrontUp,-38.09854,39.31588,92.19735,-60.10892,-113.5391,133.746,-44.28501,202408261622059154,
2-7,C_HumanVertical,1,Q3FrontUp,-37.93573,39.43036,92.02731,-60.10952,-113.5102,133.7469,-44.28488,202408261622059459,
2-7,C_HumanVertical,1,Q3FrontUp,-37.93573,39.43036,92.02731,-60.10952,-113.5102,133.7469,-44.28488,202408261622059634,
2-7,C_HumanVertical,1,Q3FrontUp,-37.79689,39.52477,91.88061,-60.1075,-113.4671,133.7565,-44.28473,202408261622059843,
2-7,C_HumanVertical,1,Q3FrontUp,-37.66801,39.62912,91.72391,-60.10849,-113.4259,133.7649,-44.28497,202408261622060125,
2-7,C_HumanVertical,1,Q3FrontUp,-37.55609,39.72764,91.58704,-60.10805,-113.3873,133.7657,-44.28529,202408261622060359,
2-7,C_HumanVertical,1,Q3FrontUp,-37.4622,39.80016,91.47195,-60.10832,-113.3485,133.7654,-44.28563,202408261622060632,
2-7,C_HumanVertical,1,Q3FrontUp,-37.4622,39.80016,91.47195,-60.10832,-113.3485,133.7654,-44.28563,202408261622060813,
2-7,C_HumanVertical,1,Q3FrontUp,-37.4622,39.80016,91.47195,-60.10832,-113.3485,133.7654,-44.28563,202408261622061007,
2-7,C_HumanVertical,1,Q3FrontUp,-37.31697,39.96373,91.28011,-60.10867,-113.2977,133.7646,-44.28594,202408261622061352,
2-7,C_HumanVertical,1,Q3FrontUp,-37.26074,40.02464,91.20942,-60.1084,-113.2835,133.7648,-44.28586,202408261622061534,
2-7,C_HumanVertical,1,Q3FrontUp,-37.2191,40.06821,91.14619,-60.10715,-113.2655,133.765,-44.28552,202408261622061862,
2-7,C_HumanVertical,1,Q3FrontUp,-37.2191,40.06821,91.14619,-60.10715,-113.2655,133.765,-44.28552,202408261622062124,
2-7,C_HumanVertical,1,Q3FrontUp,-37.18887,40.09333,91.09462,-60.10558,-113.2485,133.7653,-44.28573,202408261622062283,
2-7,C_HumanVertical,1,Q3FrontUp,-37.18887,40.09333,91.09462,-60.10558,-113.2485,133.7653,-44.28573,202408261622062452,
2-7,C_HumanVertical,1,Q3FrontUp,-37.15154,40.10989,91.04705,-60.10586,-113.2296,133.7654,-44.28609,202408261622062603,
2-7,C_HumanVertical,1,Q3FrontUp,-37.15154,40.10989,91.04705,-60.10586,-113.2296,133.7654,-44.28609,202408261622062779,
2-7,C_HumanVertical,1,Q3FrontUp,-37.11261,40.12207,91.00726,-60.10524,-113.2101,133.7653,-44.28596,202408261622062965,
2-7,C_HumanVertical,1,Q3FrontUp,-37.07998,40.12479,90.97758,-60.10476,-113.196,133.7652,-44.28597,202408261622063180,
2-7,C_HumanVertical,1,Q3FrontUp,-37.07998,40.12479,90.97758,-60.10476,-113.196,133.7652,-44.28597,202408261622063364,
2-7,C_HumanVertical,1,Q3FrontUp,-37.03936,40.12717,90.94639,-60.10521,-113.1838,133.7651,-44.28639,202408261622063612,
2-7,C_HumanVertical,1,Q3FrontUp,-37.03936,40.12717,90.94639,-60.10521,-113.1838,133.7651,-44.28639,202408261622063807,
2-7,C_HumanVertical,1,Q3FrontUp,-36.99309,40.13048,90.91753,-60.10561,-113.1781,133.765,-44.28603,202408261622063980,
2-7,C_HumanVertical,1,Q3FrontUp,-36.94521,40.13395,90.89104,-60.10527,-113.1709,133.7651,-44.28645,202408261622064174,
2-7,C_HumanVertical,1,Q3FrontUp,-36.94521,40.13395,90.89104,-60.10527,-113.1709,133.7651,-44.28645,202408261622064461,
2-7,C_HumanVertical,1,Q3FrontUp,-36.89692,40.13686,90.866,-60.10561,-113.1651,133.7651,-44.28592,202408261622064630,
2-7,C_HumanVertical,1,Q3FrontUp,-36.89692,40.13686,90.866,-60.10561,-113.1651,133.7651,-44.28592,202408261622064789,
2-7,C_HumanVertical,1,Q3FrontUp,-36.84735,40.14067,90.84146,-60.10628,-113.1562,133.7649,-44.2864,202408261622065014,
2-7,C_HumanVertical,1,Q3FrontUp,-36.80271,40.14543,90.82175,-60.10583,-113.1488,133.7656,-44.28652,202408261622065298,
2-7,C_HumanVertical,1,Q3FrontUp,-36.80271,40.14543,90.82175,-60.10583,-113.1488,133.7656,-44.28652,202408261622065462,
2-7,C_HumanVertical,1,Q3FrontUp,-36.76298,40.15265,90.80044,-60.10612,-113.1477,133.7652,-44.28632,202408261622065631,
2-7,C_HumanVertical,1,Q3FrontUp,-36.76298,40.15265,90.80044,-60.10612,-113.1477,133.7652,-44.28632,202408261622065784,
2-7,C_HumanVertical,1,Q3FrontUp,-36.73183,40.16024,90.78568,-60.10659,-113.147,133.7649,-44.2869,202408261622065975,
2-7,C_HumanVertical,1,Q3FrontUp,-36.73183,40.16024,90.78568,-60.10659,-113.147,133.7649,-44.2869,202408261622066154,
2-7,C_HumanVertical,1,Q3FrontUp,-36.73183,40.16024,90.78568,-60.10659,-113.147,133.7649,-44.2869,202408261622066360,
2-7,C_HumanVertical,1,Q3FrontUp,-36.68646,40.18074,90.74507,-60.10619,-113.1447,133.765,-44.28733,202408261622066509,
2-7,C_HumanVertical,1,Q3FrontUp,-36.68646,40.18074,90.74507,-60.10619,-113.1447,133.765,-44.28733,202408261622066787,
2-7,C_HumanVertical,1,Q3FrontUp,-36.66856,40.19233,90.71754,-60.10658,-113.1316,133.7653,-44.2874,202408261622066962,
2-7,C_HumanVertical,1,Q3FrontUp,-36.65694,40.20277,90.68819,-60.10652,-113.1152,133.7656,-44.28724,202408261622067302,
2-7,C_HumanVertical,1,Q3FrontUp,-36.65694,40.20277,90.68819,-60.10652,-113.1152,133.7656,-44.28724,202408261622067487,
2-7,C_HumanVertical,1,Q3FrontUp,-36.64978,40.21239,90.66164,-60.10642,-113.1017,133.7657,-44.28766,202408261622067779,
2-7,C_HumanVertical,1,Q3FrontUp,-36.64374,40.22483,90.62425,-60.10791,-113.099,133.7654,-44.2879,202408261622067957,
2-7,C_HumanVertical,1,Q3FrontUp,-36.64374,40.22483,90.62425,-60.10791,-113.099,133.7654,-44.2879,202408261622068206,
2-7,C_HumanVertical,1,Q3FrontUp,-36.64008,40.23197,90.57581,-60.1087,-113.0983,133.7657,-44.28849,202408261622068488,
2-7,C_HumanVertical,1,Q3FrontUp,-36.63929,40.23611,90.51354,-60.11235,-113.0983,133.7654,-44.2884,202408261622068691,
2-7,C_HumanVertical,1,Q3FrontUp,-36.63927,40.23881,90.45186,-60.11479,-113.0985,133.7652,-44.28806,202408261622068977,
2-7,C_HumanVertical,1,Q3FrontUp,-36.63575,40.24354,90.3725,-60.11871,-113.0941,133.7654,-44.28809,202408261622069311,
2-7,C_HumanVertical,1,Q3FrontUp,-36.62565,40.24472,90.26776,-60.1264,-113.0696,133.7653,-44.28836,202408261622069693,
2-7,C_HumanVertical,1,Q3FrontUp,-36.6107,40.24646,90.15231,-60.14104,-113.0452,133.7653,-44.288,202408261622069960,
2-7,C_HumanVertical,1,Q3FrontUp,-36.6107,40.24646,90.15231,-60.14104,-113.0452,133.7653,-44.288,202408261622070126,
2-7,C_HumanVertical,1,Q3FrontUp,-36.59611,40.24896,90.02921,-60.1654,-113.0244,133.7652,-44.28809,202408261622070291,
2-7,C_HumanVertical,1,Q3FrontUp,-36.59611,40.24896,90.02921,-60.1654,-113.0244,133.7652,-44.28809,202408261622070464,
2-7,C_HumanVertical,1,Q3FrontUp,-36.58226,40.26166,89.91426,-60.20655,-112.9991,133.765,-44.28811,202408261622070623,
2-7,C_HumanVertical,1,Q3FrontUp,-36.56671,40.28479,89.80867,-60.25948,-112.9775,133.7651,-44.28849,202408261622070793,
2-7,C_HumanVertical,1,Q3FrontUp,-36.56671,40.28479,89.80867,-60.25948,-112.9775,133.7651,-44.28849,202408261622071059,
2-7,C_HumanVertical,1,Q3FrontUp,-36.54671,40.32403,89.70383,-60.32437,-112.9586,133.7651,-44.28828,202408261622071329,
2-7,C_HumanVertical,1,Q3FrontUp,-36.54671,40.32403,89.70383,-60.32437,-112.9586,133.7651,-44.28828,202408261622071669,
2-7,C_HumanVertical,1,Q3FrontUp,-36.47392,40.41846,89.44193,-60.49139,-112.919,133.7661,-44.28828,202408261622071832,
2-7,C_HumanVertical,1,Q3FrontUp,-36.47392,40.41846,89.44193,-60.49139,-112.919,133.7661,-44.28828,202408261622071996,
2-7,C_HumanVertical,1,Q3FrontUp,-36.47392,40.41846,89.44193,-60.49139,-112.919,133.7661,-44.28828,202408261622072312,
2-7,C_HumanVertical,1,Q3FrontUp,-36.3722,40.5309,89.09885,-60.70652,-112.9005,133.7665,-44.28849,202408261622072627,
2-7,C_HumanVertical,1,Q3FrontUp,-36.28786,40.61436,88.89349,-60.81746,-112.8997,133.7662,-44.28865,202408261622072870,
2-7,C_HumanVertical,1,Q3FrontUp,-36.28786,40.61436,88.89349,-60.81746,-112.8997,133.7662,-44.28865,202408261622073133,
2-7,C_HumanVertical,1,Q3FrontUp,-36.18354,40.71453,88.66396,-60.92325,-112.8986,133.766,-44.28812,202408261622073300,
2-7,C_HumanVertical,1,Q3FrontUp,-36.18354,40.71453,88.66396,-60.92325,-112.8986,133.766,-44.28812,202408261622073502,
2-7,C_HumanVertical,1,Q3FrontUp,-36.08213,40.81101,88.44341,-61.04325,-112.8983,133.7652,-44.28791,202408261622073804,
2-7,C_HumanVertical,1,Q3FrontUp,-35.95938,40.93135,88.26887,-61.15413,-112.8525,133.7641,-44.28781,202408261622073973,
2-7,C_HumanVertical,1,Q3FrontUp,-35.95938,40.93135,88.26887,-61.15413,-112.8525,133.7641,-44.28781,202408261622074226,
2-7,C_HumanVertical,1,Q3FrontUp,-35.70512,41.24434,87.89774,-61.39137,-112.8058,133.7666,-44.28797,202408261622074509,
2-7,C_HumanVertical,1,Q3FrontUp,-35.70512,41.24434,87.89774,-61.39137,-112.8058,133.7666,-44.28797,202408261622074798,
2-7,C_HumanVertical,1,Q3FrontUp,-35.59704,41.3771,87.69267,-61.50379,-112.8059,133.7648,-44.2885,202408261622075130,
2-7,C_HumanVertical,1,Q3FrontUp,-35.50008,41.53667,87.50358,-61.61346,-112.8058,133.7639,-44.28837,202408261622075334,
2-7,C_HumanVertical,1,Q3FrontUp,-35.40809,41.68711,87.33576,-61.67718,-112.8061,133.7642,-44.28806,202408261622075613,
2-7,C_HumanVertical,1,Q3FrontUp,-35.40809,41.68711,87.33576,-61.67718,-112.8061,133.7642,-44.28806,202408261622075789,
2-7,C_HumanVertical,1,Q3FrontUp,-35.30669,41.86684,87.16064,-61.74894,-112.8055,133.7637,-44.28815,202408261622076014,
2-7,C_HumanVertical,1,Q3FrontUp,-35.21497,42.04898,87.00269,-61.83952,-112.8053,133.7636,-44.28845,202408261622076357,
2-7,C_HumanVertical,1,Q3FrontUp,-35.16072,42.20641,86.88224,-61.92918,-112.805,133.7633,-44.28858,202408261622076636,
2-7,C_HumanVertical,1,Q3FrontUp,-35.16072,42.20641,86.88224,-61.92918,-112.805,133.7633,-44.28858,202408261622076803,
2-7,C_HumanVertical,1,Q3FrontUp,-35.10955,42.348,86.79223,-61.98856,-112.756,133.7646,-44.28868,202408261622077144,
2-7,C_HumanVertical,1,Q3FrontUp,-35.04074,42.50639,86.73769,-62.03017,-112.6956,133.764,-44.2888,202408261622077334,
2-7,C_HumanVertical,1,Q3FrontUp,-34.98387,42.64225,86.72179,-62.07148,-112.6246,133.7643,-44.28872,202408261622077515,
2-7,C_HumanVertical,1,Q3FrontUp,-34.98387,42.64225,86.72179,-62.07148,-112.6246,133.7643,-44.28872,202408261622077792,
2-7,C_HumanVertical,1,Q3FrontUp,-34.9246,42.76856,86.71823,-62.11544,-112.5467,133.7637,-44.28887,202408261622077976,
2-7,C_HumanVertical,1,Q3FrontUp,-34.9246,42.76856,86.71823,-62.11544,-112.5467,133.7637,-44.28887,202408261622078138,
2-7,C_HumanVertical,1,Q3FrontUp,-34.87154,42.83943,86.71584,-62.15661,-112.4752,133.7631,-44.28873,202408261622078308,
2-7,C_HumanVertical,1,Q3FrontUp,-34.80803,42.90484,86.71526,-62.19899,-112.4048,133.7631,-44.28851,202408261622078526,
2-7,C_HumanVertical,1,Q3FrontUp,-34.80803,42.90484,86.71526,-62.19899,-112.4048,133.7631,-44.28851,202408261622078797,
2-7,C_HumanVertical,1,Q3FrontUp,-34.80803,42.90484,86.71526,-62.19899,-112.4048,133.7631,-44.28851,202408261622078969,
2-7,C_HumanVertical,1,Q3FrontUp,-34.6514,42.98736,86.71584,-62.27665,-112.2657,133.7623,-44.28858,202408261622079187,
2-7,C_HumanVertical,1,Q3FrontUp,-34.6514,42.98736,86.71584,-62.27665,-112.2657,133.7623,-44.28858,202408261622079499,
2-7,C_HumanVertical,1,Q3FrontUp,-34.57777,42.99636,86.71814,-62.33746,-112.1913,133.7605,-44.28834,202408261622079799,
2-7,C_HumanVertical,1,Q3FrontUp,-34.49814,43.00013,86.73128,-62.42164,-112.1056,133.7607,-44.28857,202408261622080109,
2-7,C_HumanVertical,1,Q3FrontUp,-34.42574,43.00003,86.74783,-62.52964,-112.0227,133.7599,-44.28841,202408261622080292,
2-7,C_HumanVertical,1,Q3FrontUp,-34.42574,43.00003,86.74783,-62.52964,-112.0227,133.7599,-44.28841,202408261622080465,
2-7,C_HumanVertical,1,Q3FrontUp,-34.36481,42.99838,86.77901,-62.66946,-111.9513,133.7597,-44.28806,202408261622080687,
2-7,C_HumanVertical,1,Q3FrontUp,-34.30789,42.99798,86.81496,-62.82552,-111.8618,133.7601,-44.28827,202408261622080959,
2-7,C_HumanVertical,1,Q3FrontUp,-34.30789,42.99798,86.81496,-62.82552,-111.8618,133.7601,-44.28827,202408261622081126,
2-7,C_HumanVertical,1,Q3FrontUp,-34.23892,42.99767,86.83881,-62.9744,-111.7777,133.7601,-44.28831,202408261622081316,
2-7,C_HumanVertical,1,Q3FrontUp,-34.23892,42.99767,86.83881,-62.9744,-111.7777,133.7601,-44.28831,202408261622081487,
2-7,C_HumanVertical,1,Q3FrontUp,-34.17449,42.99807,86.85185,-63.12713,-111.6866,133.7599,-44.28831,202408261622081682,
2-7,C_HumanVertical,1,Q3FrontUp,-34.11459,42.99835,86.85888,-63.28091,-111.5811,133.7598,-44.28795,202408261622081966,
2-7,C_HumanVertical,1,Q3FrontUp,-34.11459,42.99835,86.85888,-63.28091,-111.5811,133.7598,-44.28795,202408261622082181,
2-7,C_HumanVertical,1,Q3FrontUp,-34.06336,42.99806,86.86045,-63.45053,-111.4782,133.7586,-44.2879,202408261622082450,
2-7,C_HumanVertical,1,Q3FrontUp,-34.0349,42.99796,86.8597,-63.65739,-111.3805,133.758,-44.28817,202408261622082606,
2-7,C_HumanVertical,1,Q3FrontUp,-34.0349,42.99796,86.8597,-63.65739,-111.3805,133.758,-44.28817,202408261622082826,
2-7,C_HumanVertical,1,Q3FrontUp,-33.99178,42.99883,86.85925,-63.84955,-111.2831,133.7579,-44.28796,202408261622083134,
2-7,C_HumanVertical,1,Q3FrontUp,-33.94925,42.99937,86.85716,-64.04439,-111.18,133.7568,-44.28852,202408261622083335,
2-7,C_HumanVertical,1,Q3FrontUp,-33.94925,42.99937,86.85716,-64.04439,-111.18,133.7568,-44.28852,202408261622083502,
2-7,C_HumanVertical,1,Q3FrontUp,-33.90587,42.99949,86.85485,-64.26846,-111.0828,133.7564,-44.28809,202408261622083673,
2-7,C_HumanVertical,1,Q3FrontUp,-33.83698,43.00297,86.83592,-64.48738,-111.0002,133.7569,-44.28719,202408261622083968,
2-7,C_HumanVertical,1,Q3FrontUp,-33.83698,43.00297,86.83592,-64.48738,-111.0002,133.7569,-44.28719,202408261622084158,
2-7,C_HumanVertical,1,Q3FrontUp,-33.75536,43.00695,86.80815,-64.69276,-110.9306,133.7569,-44.28646,202408261622084310,
2-7,C_HumanVertical,1,Q3FrontUp,-33.67403,43.00499,86.78883,-64.91274,-110.8652,133.7566,-44.28651,202408261622084660,
2-7,C_HumanVertical,1,Q3FrontUp,-33.59314,43.00666,86.77039,-65.15015,-110.7838,133.7568,-44.28575,202408261622084840,
2-7,C_HumanVertical,1,Q3FrontUp,-33.59314,43.00666,86.77039,-65.15015,-110.7838,133.7568,-44.28575,202408261622085123,
2-7,C_HumanVertical,1,Q3FrontUp,-33.49518,43.00664,86.72829,-65.39119,-110.7123,133.7566,-44.28595,202408261622085287,
2-7,C_HumanVertical,1,Q3FrontUp,-33.3984,43.00462,86.67855,-65.64311,-110.6544,133.7564,-44.28524,202408261622085535,
2-7,C_HumanVertical,1,Q3FrontUp,-33.3984,43.00462,86.67855,-65.64311,-110.6544,133.7564,-44.28524,202408261622085801,
2-7,C_HumanVertical,1,Q3FrontUp,-33.28498,43.00656,86.63466,-65.88847,-110.5975,133.7568,-44.28558,202408261622086053,
2-7,C_HumanVertical,1,Q3FrontUp,-33.13445,43.01233,86.55807,-66.10973,-110.528,133.7572,-44.28505,202408261622086308,
2-7,C_HumanVertical,1,Q3FrontUp,-32.97796,43.02032,86.45592,-66.34242,-110.422,133.7579,-44.28515,202408261622086500,
2-7,C_HumanVertical,1,Q3FrontUp,-32.97796,43.02032,86.45592,-66.34242,-110.422,133.7579,-44.28515,202408261622086799,
2-7,C_HumanVertical,1,Q3FrontUp,-32.97796,43.02032,86.45592,-66.34242,-110.422,133.7579,-44.28515,202408261622087046,
2-7,C_HumanVertical,1,Q3FrontUp,-32.6941,43.03542,86.27048,-66.83012,-110.2271,133.7587,-44.28533,202408261622087303,
2-7,C_HumanVertical,1,Q3FrontUp,-32.5646,43.05834,86.19197,-67.06477,-110.1216,133.7585,-44.28525,202408261622087603,
2-7,C_HumanVertical,1,Q3FrontUp,-32.5646,43.05834,86.19197,-67.06477,-110.1216,133.7585,-44.28525,202408261622087791,
2-7,C_HumanVertical,1,Q3FrontUp,-32.43715,43.09517,86.12741,-67.3103,-110.0731,133.7352,-44.28551,202408261622087950,
2-7,C_HumanVertical,1,Q3FrontUp,-32.43715,43.09517,86.12741,-67.3103,-110.0731,133.7352,-44.28551,202408261622088123,
2-7,C_HumanVertical,1,Q3FrontUp,-32.29719,43.1459,86.05593,-67.55849,-110.0319,133.6851,-44.28712,202408261622088372,
2-7,C_HumanVertical,1,Q3FrontUp,-32.16516,43.21154,85.99538,-67.80741,-109.9566,133.6122,-44.3016,202408261622088643,
2-7,C_HumanVertical,1,Q3FrontUp,-32.16516,43.21154,85.99538,-67.80741,-109.9566,133.6122,-44.3016,202408261622088823,
2-7,C_HumanVertical,1,Q3FrontUp,-32.05338,43.26239,85.93788,-68.06897,-109.8632,133.539,-44.34834,202408261622089171,
2-7,C_HumanVertical,1,Q3FrontUp,-31.94191,43.32592,85.85827,-68.32345,-109.7622,133.468,-44.40213,202408261622089325,
2-7,C_HumanVertical,1,Q3FrontUp,-31.8382,43.40945,85.77489,-68.56141,-109.6686,133.4032,-44.44754,202408261622089635,
2-7,C_HumanVertical,1,Q3FrontUp,-31.73404,43.49239,85.68591,-68.79349,-109.5773,133.3434,-44.49653,202408261622089956,
2-7,C_HumanVertical,1,Q3FrontUp,-31.73404,43.49239,85.68591,-68.79349,-109.5773,133.3434,-44.49653,202408261622090174,
2-7,C_HumanVertical,1,Q3FrontUp,-31.62817,43.56598,85.58924,-68.98752,-109.4981,133.2893,-44.5443,202408261622090473,
2-7,C_HumanVertical,1,Q3FrontUp,-31.51507,43.6699,85.50943,-69.13519,-109.3965,133.237,-44.5908,202408261622090794,
2-7,C_HumanVertical,1,Q3FrontUp,-31.51507,43.6699,85.50943,-69.13519,-109.3965,133.237,-44.5908,202408261622090968,
2-7,C_HumanVertical,1,Q3FrontUp,-31.41641,43.77539,85.44756,-69.2748,-109.2924,133.1811,-44.63247,202408261622091151,
2-7,C_HumanVertical,1,Q3FrontUp,-31.34455,43.87034,85.39012,-69.42332,-109.1977,133.1232,-44.67098,202408261622091323,
2-7,C_HumanVertical,1,Q3FrontUp,-31.29595,43.96593,85.33805,-69.55753,-109.1139,133.0723,-44.69699,202408261622091524,
2-7,C_HumanVertical,1,Q3FrontUp,-31.29595,43.96593,85.33805,-69.55753,-109.1139,133.0723,-44.69699,202408261622091793,
2-7,C_HumanVertical,1,Q3FrontUp,-31.24195,44.04698,85.28278,-69.67161,-109.0179,133.0206,-44.72429,202408261622091973,
2-7,C_HumanVertical,1,Q3FrontUp,-31.18789,44.13328,85.23338,-69.76646,-108.9233,132.9717,-44.75621,202408261622092285,
2-7,C_HumanVertical,1,Q3FrontUp,-31.18789,44.13328,85.23338,-69.76646,-108.9233,132.9717,-44.75621,202408261622092466,
2-7,C_HumanVertical,1,Q3FrontUp,-31.13227,44.23557,85.19698,-69.83887,-108.8417,132.9082,-44.79717,202408261622092660,
2-7,C_HumanVertical,1,Q3FrontUp,-31.07648,44.32724,85.14558,-69.91171,-108.7786,132.8468,-44.83833,202408261622092947,
2-7,C_HumanVertical,1,Q3FrontUp,-31.07648,44.32724,85.14558,-69.91171,-108.7786,132.8468,-44.83833,202408261622093127,
2-7,C_HumanVertical,1,Q3FrontUp,-31.02377,44.41794,85.08501,-69.98978,-108.7212,132.7858,-44.88142,202408261622093357,
2-7,C_HumanVertical,1,Q3FrontUp,-30.97035,44.50919,85.03419,-70.06115,-108.6599,132.7218,-44.93626,202408261622093681,
2-7,C_HumanVertical,1,Q3FrontUp,-30.9177,44.58475,84.97347,-70.12851,-108.6118,132.6655,-44.98056,202408261622093975,
2-7,C_HumanVertical,1,Q3FrontUp,-30.86627,44.66392,84.91242,-70.2002,-108.5675,132.6272,-45.01934,202408261622094142,
2-7,C_HumanVertical,1,Q3FrontUp,-30.86627,44.66392,84.91242,-70.2002,-108.5675,132.6272,-45.01934,202408261622094467,
2-7,C_HumanVertical,1,Q3FrontUp,-30.8184,44.75213,84.86566,-70.26376,-108.5399,132.6245,-45.03282,202408261622094626,
2-7,C_HumanVertical,1,Q3FrontUp,-30.8184,44.75213,84.86566,-70.26376,-108.5399,132.6245,-45.03282,202408261622094826,
2-7,C_HumanVertical,1,Q3FrontUp,-30.76591,44.84143,84.81462,-70.32317,-108.5133,132.6162,-45.05436,202408261622095111,
2-7,C_HumanVertical,1,Q3FrontUp,-30.71675,44.94299,84.78552,-70.36935,-108.4878,132.6035,-45.08113,202408261622095275,
2-7,C_HumanVertical,1,Q3FrontUp,-30.71675,44.94299,84.78552,-70.36935,-108.4878,132.6035,-45.08113,202408261622095453,
2-7,C_HumanVertical,1,Q3FrontUp,-30.67289,45.03267,84.76423,-70.40129,-108.4627,132.6021,-45.10415,202408261622095626,
2-7,C_HumanVertical,1,Q3FrontUp,-30.67289,45.03267,84.76423,-70.40129,-108.4627,132.6021,-45.10415,202408261622095815,
2-7,C_HumanVertical,1,Q3FrontUp,-30.62989,45.12686,84.72587,-70.43176,-108.4436,132.597,-45.1312,202408261622096026,
2-7,C_HumanVertical,1,Q3FrontUp,-30.60013,45.2141,84.6963,-70.45502,-108.4265,132.5843,-45.16112,202408261622096350,
2-7,C_HumanVertical,1,Q3FrontUp,-30.57892,45.27953,84.66174,-70.47584,-108.409,132.5535,-45.19164,202408261622096639,
2-7,C_HumanVertical,1,Q3FrontUp,-30.57892,45.27953,84.66174,-70.47584,-108.409,132.5535,-45.19164,202408261622096811,
2-7,C_HumanVertical,1,Q3FrontUp,-30.57892,45.27953,84.66174,-70.47584,-108.409,132.5535,-45.19164,202408261622097009,
2-7,C_HumanVertical,1,Q3FrontUp,-30.55508,45.38311,84.58959,-70.50229,-108.374,132.4937,-45.24929,202408261622097294,
2-7,C_HumanVertical,1,Q3FrontUp,-30.55508,45.38311,84.58959,-70.50229,-108.374,132.4937,-45.24929,202408261622097468,
2-7,C_HumanVertical,1,Q3FrontUp,-30.54169,45.44017,84.55455,-70.50674,-108.3551,132.4646,-45.27623,202408261622097788,
2-7,C_HumanVertical,1,Q3FrontUp,-30.53482,45.49681,84.52516,-70.51276,-108.3346,132.4346,-45.3113,202408261622098012,
2-7,C_HumanVertical,1,Q3FrontUp,-30.53228,45.54449,84.49625,-70.51634,-108.316,132.3994,-45.3497,202408261622098298,
2-7,C_HumanVertical,1,Q3FrontUp,-30.53228,45.54449,84.49625,-70.51634,-108.316,132.3994,-45.3497,202408261622098474,
2-7,C_HumanVertical,1,Q3FrontUp,-30.52825,45.60337,84.47212,-70.51821,-108.2872,132.3554,-45.39587,202408261622098633,
2-7,C_HumanVertical,1,Q3FrontUp,-30.52825,45.60337,84.47212,-70.51821,-108.2872,132.3554,-45.39587,202408261622098797,
2-7,C_HumanVertical,1,Q3FrontUp,-30.5229,45.67461,84.45025,-70.51848,-108.2641,132.3192,-45.43377,202408261622098981,
2-7,C_HumanVertical,1,Q3FrontUp,-30.5229,45.67461,84.45025,-70.51848,-108.2641,132.3192,-45.43377,202408261622099153,
2-7,C_HumanVertical,1,Q3FrontUp,-30.51942,45.75068,84.43051,-70.51851,-108.2438,132.2882,-45.47095,202408261622099362,
2-7,C_HumanVertical,1,Q3FrontUp,-30.51839,45.81392,84.40616,-70.51839,-108.2337,132.25,-45.49548,202408261622099607,
2-7,C_HumanVertical,1,Q3FrontUp,-30.51839,45.81392,84.40616,-70.51839,-108.2337,132.25,-45.49548,202408261622099787,
2-7,C_HumanVertical,1,Q3FrontUp,-30.51711,45.88725,84.38325,-70.51854,-108.2274,132.2111,-45.51975,202408261622099956,
2-7,C_HumanVertical,1,Q3FrontUp,-30.51711,45.88725,84.38325,-70.51854,-108.2274,132.2111,-45.51975,202408261622100103,
2-7,C_HumanVertical,1,Q3FrontUp,-30.51609,45.96588,84.36544,-70.51929,-108.2234,132.1739,-45.54173,202408261622100295,
2-7,C_HumanVertical,1,Q3FrontUp,-30.51609,45.96588,84.36544,-70.51929,-108.2234,132.1739,-45.54173,202408261622100494,
2-7,C_HumanVertical,1,Q3FrontUp,-30.51622,46.0279,84.34016,-70.52092,-108.2194,132.1334,-45.5635,202408261622100798,
2-7,C_HumanVertical,1,Q3FrontUp,-30.51617,46.08364,84.30466,-70.52099,-108.2113,132.0812,-45.59207,202408261622100992,
2-7,C_HumanVertical,1,Q3FrontUp,-30.51617,46.08364,84.30466,-70.52099,-108.2113,132.0812,-45.59207,202408261622101184,
2-7,C_HumanVertical,1,Q3FrontUp,-30.51266,46.18968,84.24432,-70.52197,-108.1927,131.9662,-45.65342,202408261622101547,
2-7,C_HumanVertical,1,Q3FrontUp,-30.51266,46.18968,84.24432,-70.52197,-108.1927,131.9662,-45.65342,202408261622101793,
2-7,C_HumanVertical,1,Q3FrontUp,-30.50778,46.24374,84.21478,-70.52181,-108.1846,131.9104,-45.68321,202408261622101977,
2-7,C_HumanVertical,1,Q3FrontUp,-30.50778,46.24374,84.21478,-70.52181,-108.1846,131.9104,-45.68321,202408261622102287,
2-7,C_HumanVertical,1,Q3FrontUp,-30.50453,46.28894,84.1802,-70.52153,-108.1729,131.8608,-45.71067,202408261622102461,
2-7,C_HumanVertical,1,Q3FrontUp,-30.49585,46.33495,84.13293,-70.52168,-108.1542,131.8195,-45.74565,202408261622102672,
2-7,C_HumanVertical,1,Q3FrontUp,-30.48416,46.38723,84.08852,-70.52205,-108.1363,131.7875,-45.77691,202408261622102857,
2-7,C_HumanVertical,1,Q3FrontUp,-30.48416,46.38723,84.08852,-70.52205,-108.1363,131.7875,-45.77691,202408261622103130,
2-7,C_HumanVertical,1,Q3FrontUp,-30.46967,46.45211,84.04828,-70.52222,-108.1226,131.7581,-45.80742,202408261622103314,
2-7,C_HumanVertical,1,Q3FrontUp,-30.46967,46.45211,84.04828,-70.52222,-108.1226,131.7581,-45.80742,202408261622103467,
2-7,C_HumanVertical,1,Q3FrontUp,-30.45528,46.50364,84.00658,-70.52227,-108.1037,131.7175,-45.83826,202408261622103654,
2-7,C_HumanVertical,1,Q3FrontUp,-30.45528,46.50364,84.00658,-70.52227,-108.1037,131.7175,-45.83826,202408261622103844,
2-7,C_HumanVertical,1,Q3FrontUp,-30.43409,46.5571,83.95652,-70.52254,-108.087,131.687,-45.86782,202408261622104135,
2-7,C_HumanVertical,1,Q3FrontUp,-30.43409,46.5571,83.95652,-70.52254,-108.087,131.687,-45.86782,202408261622104296,
2-7,C_HumanVertical,1,Q3FrontUp,-30.41146,46.61424,83.91151,-70.52311,-108.0744,131.6617,-45.89605,202408261622104524,
2-7,C_HumanVertical,1,Q3FrontUp,-30.38736,46.68895,83.88672,-70.52331,-108.0737,131.6446,-45.90858,202408261622104799,
2-7,C_HumanVertical,1,Q3FrontUp,-30.36694,46.76666,83.87881,-70.52431,-108.0736,131.6381,-45.91666,202408261622105026,
2-7,C_HumanVertical,1,Q3FrontUp,-30.34654,46.84507,83.87788,-70.52399,-108.0734,131.6358,-45.92166,202408261622105300,
2-7,C_HumanVertical,1,Q3FrontUp,-30.34654,46.84507,83.87788,-70.52399,-108.0734,131.6358,-45.92166,202408261622105469,
2-7,C_HumanVertical,1,Q3FrontUp,-30.32052,46.93659,83.87865,-70.52389,-108.0735,131.6357,-45.92593,202408261622105636,
2-7,C_HumanVertical,1,Q3FrontUp,-30.32052,46.93659,83.87865,-70.52389,-108.0735,131.6357,-45.92593,202408261622105800,
2-7,C_HumanVertical,1,Q3FrontUp,-30.29085,47.02555,83.87695,-70.52469,-108.0734,131.6351,-45.93275,202408261622106035,
2-7,C_HumanVertical,1,Q3FrontUp,-30.26003,47.12087,83.87737,-70.52505,-108.0734,131.6345,-45.93867,202408261622106313,
2-7,C_HumanVertical,1,Q3FrontUp,-30.26003,47.12087,83.87737,-70.52505,-108.0734,131.6345,-45.93867,202408261622106487,
2-7,C_HumanVertical,1,Q3FrontUp,-30.20197,47.33117,83.87805,-70.52715,-108.0737,131.6346,-45.95476,202408261622106811,
2-7,C_HumanVertical,1,Q3FrontUp,-30.20197,47.33117,83.87805,-70.52715,-108.0737,131.6346,-45.95476,202408261622107149,
2-7,C_HumanVertical,1,Q3FrontUp,-30.18066,47.45785,83.87898,-70.53672,-108.0737,131.6349,-45.95632,202408261622107339,
2-7,C_HumanVertical,1,Q3FrontUp,-30.18066,47.45785,83.87898,-70.53672,-108.0737,131.6349,-45.95632,202408261622107504,
2-7,C_HumanVertical,1,Q3FrontUp,-30.18066,47.45785,83.87898,-70.53672,-108.0737,131.6349,-45.95632,202408261622107791,
2-7,C_HumanVertical,1,Q3FrontUp,-30.15706,47.68556,83.8786,-70.53716,-108.0752,131.6349,-45.95626,202408261622107972,
2-7,C_HumanVertical,1,Q3FrontUp,-30.15706,47.68556,83.8786,-70.53716,-108.0752,131.6349,-45.95626,202408261622108308,
2-7,C_HumanVertical,1,Q3FrontUp,-30.15077,47.92426,83.88007,-70.53609,-108.0755,131.6352,-45.95612,202408261622108517,
2-7,C_HumanVertical,1,Q3FrontUp,-30.15077,47.92426,83.88007,-70.53609,-108.0755,131.6352,-45.95612,202408261622108805,
2-7,C_HumanVertical,1,Q3FrontUp,-30.15137,48.03507,83.87947,-70.53575,-108.0754,131.6346,-45.95629,202408261622108979,
2-7,C_HumanVertical,1,Q3FrontUp,-30.15096,48.14424,83.87864,-70.53593,-108.0756,131.6345,-45.95609,202408261622109180,
2-7,C_HumanVertical,1,Q3FrontUp,-30.15096,48.14424,83.87864,-70.53593,-108.0756,131.6345,-45.95609,202408261622109502,
2-7,C_HumanVertical,1,Q3FrontUp,-30.15101,48.34455,83.87801,-70.53614,-108.0773,131.6345,-45.95636,202408261622109790,
2-7,C_HumanVertical,1,Q3FrontUp,-30.15101,48.34455,83.87801,-70.53614,-108.0773,131.6345,-45.95636,202408261622109967,
2-7,C_HumanVertical,1,Q3FrontUp,-30.15101,48.34455,83.87801,-70.53614,-108.0773,131.6345,-45.95636,202408261622110129,
2-7,C_HumanVertical,1,Q3FrontUp,-30.15016,48.44084,83.88007,-70.53619,-108.0784,131.6349,-45.95617,202408261622110293,
2-7,C_HumanVertical,1,Q3FrontUp,-30.15016,48.44084,83.88007,-70.53619,-108.0784,131.6349,-45.95617,202408261622110471,
2-7,C_HumanVertical,1,Q3FrontUp,-30.15245,48.52412,83.8822,-70.53532,-108.079,131.6349,-45.95609,202408261622110697,
2-7,C_HumanVertical,1,Q3FrontUp,-30.15353,48.63196,83.89661,-70.53717,-108.0984,131.6358,-45.95564,202408261622110961,
2-7,C_HumanVertical,1,Q3FrontUp,-30.15353,48.63196,83.89661,-70.53717,-108.0984,131.6358,-45.95564,202408261622111160,
2-7,C_HumanVertical,1,Q3FrontUp,-30.16072,48.88413,83.95637,-70.53631,-108.1451,131.6372,-45.95406,202408261622111494,
2-7,C_HumanVertical,1,Q3FrontUp,-30.16072,48.88413,83.95637,-70.53631,-108.1451,131.6372,-45.95406,202408261622111691,
2-7,C_HumanVertical,1,Q3FrontUp,-30.1641,49.02535,83.97317,-70.53692,-108.1659,131.6376,-45.95324,202408261622111959,
2-7,C_HumanVertical,1,Q3FrontUp,-30.17513,49.14948,83.98263,-70.53751,-108.1833,131.6373,-45.95306,202408261622112126,
2-7,C_HumanVertical,1,Q3FrontUp,-30.17513,49.14948,83.98263,-70.53751,-108.1833,131.6373,-45.95306,202408261622112331,
2-7,C_HumanVertical,1,Q3FrontUp,-30.187,49.31578,84.01614,-70.53751,-108.2072,131.6378,-45.95333,202408261622112636,
2-7,C_HumanVertical,1,Q3FrontUp,-30.187,49.31578,84.01614,-70.53751,-108.2072,131.6378,-45.95333,202408261622112835,
2-7,C_HumanVertical,1,Q3FrontUp,-30.20114,49.49165,84.04831,-70.5376,-108.227,131.6377,-45.95346,202408261622113135,
2-7,C_HumanVertical,1,Q3FrontUp,-30.20114,49.49165,84.04831,-70.5376,-108.227,131.6377,-45.95346,202408261622113300,
2-7,C_HumanVertical,1,Q3FrontUp,-30.20114,49.49165,84.04831,-70.5376,-108.227,131.6377,-45.95346,202408261622113460,
2-7,C_HumanVertical,1,Q3FrontUp,-30.2432,49.77898,84.05893,-70.53696,-108.2559,131.6378,-45.95279,202408261622113652,
2-7,C_HumanVertical,1,Q3FrontUp,-30.25931,49.909,84.0582,-70.53675,-108.2684,131.6374,-45.95321,202408261622113872,
2-7,C_HumanVertical,1,Q3FrontUp,-30.25931,49.909,84.0582,-70.53675,-108.2684,131.6374,-45.95321,202408261622114152,
2-7,C_HumanVertical,1,Q3FrontUp,-30.27479,50.05142,84.05675,-70.5373,-108.2763,131.6373,-45.9531,202408261622114485,
2-7,C_HumanVertical,1,Q3FrontUp,-30.28904,50.16424,84.05642,-70.53665,-108.2769,131.637,-45.95301,202408261622114782,
2-7,C_HumanVertical,1,Q3FrontUp,-30.29837,50.26915,84.05508,-70.5362,-108.2769,131.6372,-45.95304,202408261622114969,
2-7,C_HumanVertical,1,Q3FrontUp,-30.30147,50.34258,84.04217,-70.53645,-108.2772,131.6372,-45.9527,202408261622115190,
2-7,C_HumanVertical,1,Q3FrontUp,-30.30147,50.34258,84.04217,-70.53645,-108.2772,131.6372,-45.9527,202408261622115336,
2-7,C_HumanVertical,1,Q3FrontUp,-30.30044,50.39072,84.01223,-70.53724,-108.2772,131.6367,-45.95272,202408261622115629,
2-7,C_HumanVertical,1,Q3FrontUp,-30.30044,50.39072,84.01223,-70.53724,-108.2772,131.6367,-45.95272,202408261622115812,
2-7,C_HumanVertical,1,Q3FrontUp,-30.30034,50.4244,84.0001,-70.53887,-108.277,131.6368,-45.95316,202408261622115961,
2-7,C_HumanVertical,1,Q3FrontUp,-30.30034,50.4244,84.0001,-70.53887,-108.277,131.6368,-45.95316,202408261622116169,
2-7,C_HumanVertical,1,Q3FrontUp,-30.29847,50.43982,83.99241,-70.54848,-108.277,131.6371,-45.95283,202408261622116336,
2-7,C_HumanVertical,1,Q3FrontUp,-30.29667,50.43917,83.98785,-70.55869,-108.277,131.6369,-45.95274,202408261622116608,
2-7,C_HumanVertical,1,Q3FrontUp,-30.29667,50.43917,83.98785,-70.55869,-108.277,131.6369,-45.95274,202408261622116802,
2-7,C_HumanVertical,1,Q3FrontUp,-30.29667,50.43917,83.98785,-70.55869,-108.277,131.6369,-45.95274,202408261622117015,
2-7,C_HumanVertical,1,Q3FrontUp,-30.26825,50.43723,83.98924,-70.58078,-108.2771,131.6375,-45.95258,202408261622117293,
2-7,C_HumanVertical,1,Q3FrontUp,-30.26825,50.43723,83.98924,-70.58078,-108.2771,131.6375,-45.95258,202408261622117508,
2-7,C_HumanVertical,1,Q3FrontUp,-30.24277,50.43665,83.98912,-70.59156,-108.277,131.6377,-45.95237,202408261622117795,
2-7,C_HumanVertical,1,Q3FrontUp,-30.21176,50.43656,83.98864,-70.61418,-108.2771,131.639,-45.95059,202408261622117962,
2-7,C_HumanVertical,1,Q3FrontUp,-30.21176,50.43656,83.98864,-70.61418,-108.2771,131.639,-45.95059,202408261622118133,
2-7,C_HumanVertical,1,Q3FrontUp,-30.16913,50.43626,83.98268,-70.64614,-108.2776,131.6396,-45.94559,202408261622118308,
2-7,C_HumanVertical,1,Q3FrontUp,-30.16913,50.43626,83.98268,-70.64614,-108.2776,131.6396,-45.94559,202408261622118525,
2-7,C_HumanVertical,1,Q3FrontUp,-30.11576,50.43404,83.96954,-70.68855,-108.278,131.6396,-45.92773,202408261622118783,
2-7,C_HumanVertical,1,Q3FrontUp,-30.05062,50.43251,83.95422,-70.74643,-108.2781,131.6398,-45.91247,202408261622118965,
2-7,C_HumanVertical,1,Q3FrontUp,-30.05062,50.43251,83.95422,-70.74643,-108.2781,131.6398,-45.91247,202408261622119126,
2-7,C_HumanVertical,1,Q3FrontUp,-29.97107,50.427,83.93819,-70.81735,-108.2848,131.6402,-45.89628,202408261622119319,
2-7,C_HumanVertical,1,Q3FrontUp,-29.88666,50.42251,83.92294,-70.90338,-108.3241,131.6402,-45.85682,202408261622119503,
2-7,C_HumanVertical,1,Q3FrontUp,-29.88666,50.42251,83.92294,-70.90338,-108.3241,131.6402,-45.85682,202408261622119800,
2-7,C_HumanVertical,1,Q3FrontUp,-29.80149,50.42101,83.91348,-71.00095,-108.357,131.6401,-45.82527,202408261622120007,
2-7,C_HumanVertical,1,Q3FrontUp,-29.70546,50.42077,83.90108,-71.10526,-108.3839,131.6401,-45.79516,202408261622120296,
2-7,C_HumanVertical,1,Q3FrontUp,-29.70546,50.42077,83.90108,-71.10526,-108.3839,131.6401,-45.79516,202408261622120457,
2-7,C_HumanVertical,1,Q3FrontUp,-29.60752,50.42032,83.88626,-71.20661,-108.403,131.64,-45.77879,202408261622120671,
2-7,C_HumanVertical,1,Q3FrontUp,-29.49998,50.42057,83.87051,-71.29933,-108.4091,131.64,-45.77286,202408261622120956,
2-7,C_HumanVertical,1,Q3FrontUp,-29.49998,50.42057,83.87051,-71.29933,-108.4091,131.64,-45.77286,202408261622121150,
2-7,C_HumanVertical,1,Q3FrontUp,-29.37749,50.42066,83.85255,-71.39445,-108.4276,131.6401,-45.7614,202408261622121313,
2-7,C_HumanVertical,1,Q3FrontUp,-29.37749,50.42066,83.85255,-71.39445,-108.4276,131.6401,-45.7614,202408261622121526,
2-7,C_HumanVertical,1,Q3FrontUp,-29.25269,50.41995,83.83739,-71.48837,-108.4971,131.6402,-45.70591,202408261622121798,
2-7,C_HumanVertical,1,Q3FrontUp,-29.12443,50.41936,83.82202,-71.58154,-108.5154,131.6405,-45.69026,202408261622122136,
2-7,C_HumanVertical,1,Q3FrontUp,-28.99337,50.41901,83.81032,-71.67944,-108.5164,131.6403,-45.69005,202408261622122444,
2-7,C_HumanVertical,1,Q3FrontUp,-28.87116,50.41872,83.80231,-71.77273,-108.517,131.6406,-45.68918,202408261622122625,
2-7,C_HumanVertical,1,Q3FrontUp,-28.87116,50.41872,83.80231,-71.77273,-108.517,131.6406,-45.68918,202408261622122832,
2-7,C_HumanVertical,1,Q3FrontUp,-28.74322,50.41882,83.79169,-71.84415,-108.5833,131.6406,-45.64066,202408261622123045,
2-7,C_HumanVertical,1,Q3FrontUp,-28.61225,50.41861,83.78242,-71.89249,-108.6441,131.6406,-45.5895,202408261622123307,
2-7,C_HumanVertical,1,Q3FrontUp,-28.61225,50.41861,83.78242,-71.89249,-108.6441,131.6406,-45.5895,202408261622123496,
2-7,C_HumanVertical,1,Q3FrontUp,-28.4846,50.41842,83.78072,-71.93262,-108.6453,131.6407,-45.58932,202408261622123656,
2-7,C_HumanVertical,1,Q3FrontUp,-28.4846,50.41842,83.78072,-71.93262,-108.6453,131.6407,-45.58932,202408261622123871,
2-7,C_HumanVertical,1,Q3FrontUp,-28.37472,50.41802,83.78072,-71.96458,-108.6452,131.6411,-45.58958,202408261622124161,
2-7,C_HumanVertical,1,Q3FrontUp,-28.27958,50.41761,83.78111,-71.99075,-108.641,131.6414,-45.59269,202408261622124478,
2-7,C_HumanVertical,1,Q3FrontUp,-28.19901,50.41692,83.78219,-71.98956,-108.6349,131.6423,-45.60778,202408261622124707,
2-7,C_HumanVertical,1,Q3FrontUp,-28.14059,50.41389,83.78225,-71.98806,-108.6333,131.6427,-45.62233,202408261622124955,
2-7,C_HumanVertical,1,Q3FrontUp,-28.14059,50.41389,83.78225,-71.98806,-108.6333,131.6427,-45.62233,202408261622125124,
2-7,C_HumanVertical,1,Q3FrontUp,-28.09495,50.41028,83.78248,-71.98276,-108.634,131.6443,-45.63124,202408261622125287,
2-7,C_HumanVertical,1,Q3FrontUp,-28.09495,50.41028,83.78248,-71.98276,-108.634,131.6443,-45.63124,202408261622125460,
2-7,C_HumanVertical,1,Q3FrontUp,-28.09495,50.41028,83.78248,-71.98276,-108.634,131.6443,-45.63124,202408261622125628,
2-7,C_HumanVertical,1,Q3FrontUp,-28.0596,50.41077,83.78203,-71.95702,-108.6347,131.6466,-45.63122,202408261622125793,
2-7,C_HumanVertical,1,Q3FrontUp,-28.03451,50.4094,83.78274,-71.91547,-108.635,131.6469,-45.63129,202408261622126023,
2-7,C_HumanVertical,1,Q3FrontUp,-28.03451,50.4094,83.78274,-71.91547,-108.635,131.6469,-45.63129,202408261622126192,
2-7,C_HumanVertical,1,Q3FrontUp,-28.01809,50.40881,83.7878,-71.85999,-108.6354,131.6472,-45.63154,202408261622126470,
2-7,C_HumanVertical,1,Q3FrontUp,-28.01132,50.40826,83.79048,-71.78815,-108.6355,131.6472,-45.63403,202408261622126640,
2-7,C_HumanVertical,1,Q3FrontUp,-28.01132,50.40826,83.79048,-71.78815,-108.6355,131.6472,-45.63403,202408261622126807,
2-7,C_HumanVertical,1,Q3FrontUp,-28.01224,50.40697,83.79116,-71.71931,-108.6357,131.6469,-45.6377,202408261622127004,
2-7,C_HumanVertical,1,Q3FrontUp,-28.01259,50.40626,83.79465,-71.64067,-108.6359,131.647,-45.64038,202408261622127286,
2-7,C_HumanVertical,1,Q3FrontUp,-28.01259,50.40626,83.79465,-71.64067,-108.6359,131.647,-45.64038,202408261622127456,
2-7,C_HumanVertical,1,Q3FrontUp,-28.01333,50.40646,83.80152,-71.54712,-108.6361,131.647,-45.64197,202408261622127622,
2-7,C_HumanVertical,1,Q3FrontUp,-28.01333,50.40646,83.80152,-71.54712,-108.6361,131.647,-45.64197,202408261622127864,
2-7,C_HumanVertical,1,Q3FrontUp,-28.01689,50.40625,83.81615,-71.45058,-108.6365,131.6468,-45.64318,202408261622128001,
2-7,C_HumanVertical,1,Q3FrontUp,-28.02389,50.40609,83.84086,-71.34641,-108.6362,131.6466,-45.64402,202408261622128299,
2-7,C_HumanVertical,1,Q3FrontUp,-28.02389,50.40609,83.84086,-71.34641,-108.6362,131.6466,-45.64402,202408261622128481,
2-7,C_HumanVertical,1,Q3FrontUp,-28.0466,50.40553,83.87256,-71.24903,-108.6363,131.6469,-45.64416,202408261622128833,
2-7,C_HumanVertical,1,Q3FrontUp,-28.08013,50.39711,83.90841,-71.15823,-108.636,131.6465,-45.64528,202408261622129002,
2-7,C_HumanVertical,1,Q3FrontUp,-28.13026,50.37939,83.94702,-71.08393,-108.6354,131.6461,-45.64808,202408261622129293,
2-7,C_HumanVertical,1,Q3FrontUp,-28.21132,50.35738,83.99265,-71.03741,-108.6353,131.6457,-45.64892,202408261622129535,
2-7,C_HumanVertical,1,Q3FrontUp,-28.21132,50.35738,83.99265,-71.03741,-108.6353,131.6457,-45.64892,202408261622129795,
2-7,C_HumanVertical,1,Q3FrontUp,-28.28838,50.33698,84.02413,-70.99258,-108.6356,131.6453,-45.65029,202408261622129964,
2-7,C_HumanVertical,1,Q3FrontUp,-28.28838,50.33698,84.02413,-70.99258,-108.6356,131.6453,-45.65029,202408261622130123,
2-7,C_HumanVertical,1,Q3FrontUp,-28.37717,50.31056,84.0496,-70.95686,-108.6206,131.645,-45.65959,202408261622130340,
2-7,C_HumanVertical,1,Q3FrontUp,-28.49448,50.2701,84.06715,-70.95958,-108.5761,131.6438,-45.69284,202408261622130614,
2-7,C_HumanVertical,1,Q3FrontUp,-28.49448,50.2701,84.06715,-70.95958,-108.5761,131.6438,-45.69284,202408261622130794,
2-7,C_HumanVertical,1,Q3FrontUp,-28.49448,50.2701,84.06715,-70.95958,-108.5761,131.6438,-45.69284,202408261622131004,
2-7,C_HumanVertical,1,Q3FrontUp,-28.71022,50.22123,84.09061,-70.96481,-108.5135,131.638,-45.75488,202408261622131332,
2-7,C_HumanVertical,1,Q3FrontUp,-28.71022,50.22123,84.09061,-70.96481,-108.5135,131.638,-45.75488,202408261622131612,
2-7,C_HumanVertical,1,Q3FrontUp,-28.84194,50.19889,84.10551,-70.99809,-108.4595,131.5802,-45.81518,202408261622131798,
2-7,C_HumanVertical,1,Q3FrontUp,-28.99453,50.16763,84.12881,-71.05167,-108.3854,131.5203,-45.88073,202408261622131985,
2-7,C_HumanVertical,1,Q3FrontUp,-29.15964,50.14852,84.14499,-71.1088,-108.3057,131.4611,-45.9501,202408261622132310,
2-7,C_HumanVertical,1,Q3FrontUp,-29.15964,50.14852,84.14499,-71.1088,-108.3057,131.4611,-45.9501,202408261622132492,
2-7,C_HumanVertical,1,Q3FrontUp,-29.32514,50.13554,84.1608,-71.15288,-108.2297,131.428,-46.02027,202408261622132772,
2-7,C_HumanVertical,1,Q3FrontUp,-29.32514,50.13554,84.1608,-71.15288,-108.2297,131.428,-46.02027,202408261622132946,
2-7,C_HumanVertical,1,Q3FrontUp,-29.48824,50.12069,84.17192,-71.17778,-108.1652,131.3896,-46.08006,202408261622133122,
2-7,C_HumanVertical,1,Q3FrontUp,-29.65534,50.09983,84.19061,-71.19745,-108.123,131.3577,-46.12929,202408261622133292,
2-7,C_HumanVertical,1,Q3FrontUp,-29.65534,50.09983,84.19061,-71.19745,-108.123,131.3577,-46.12929,202408261622133481,
2-7,C_HumanVertical,1,Q3FrontUp,-29.82686,50.08733,84.20918,-71.20921,-108.0921,131.3226,-46.16167,202408261622133686,
2-7,C_HumanVertical,1,Q3FrontUp,-29.99174,50.08144,84.22755,-71.21047,-108.0689,131.3065,-46.19249,202408261622133971,
2-7,C_HumanVertical,1,Q3FrontUp,-29.99174,50.08144,84.22755,-71.21047,-108.0689,131.3065,-46.19249,202408261622134178,
2-7,C_HumanVertical,1,Q3FrontUp,-30.15006,50.07687,84.25093,-71.21026,-108.048,131.2978,-46.23184,202408261622134456,
2-7,C_HumanVertical,1,Q3FrontUp,-30.28419,50.06345,84.26353,-71.21039,-108.0244,131.2598,-46.28373,202408261622134638,
2-7,C_HumanVertical,1,Q3FrontUp,-30.28419,50.06345,84.26353,-71.21039,-108.0244,131.2598,-46.28373,202408261622134829,
2-7,C_HumanVertical,1,Q3FrontUp,-30.41223,50.04459,84.27517,-71.21326,-108.0018,131.2242,-46.33432,202408261622135110,
2-7,C_HumanVertical,1,Q3FrontUp,-30.51562,50.03346,84.27757,-71.21737,-107.9885,131.1948,-46.37903,202408261622135288,
2-7,C_HumanVertical,1,Q3FrontUp,-30.51562,50.03346,84.27757,-71.21737,-107.9885,131.1948,-46.37903,202408261622135455,
2-7,C_HumanVertical,1,Q3FrontUp,-30.58723,50.02456,84.27772,-71.2159,-107.9884,131.1788,-46.39931,202408261622135612,
2-7,C_HumanVertical,1,Q3FrontUp,-30.58723,50.02456,84.27772,-71.2159,-107.9884,131.1788,-46.39931,202408261622135869,
2-7,C_HumanVertical,1,Q3FrontUp,-30.63816,50.01891,84.27816,-71.21629,-107.9884,131.1668,-46.41595,202408261622136008,
2-7,C_HumanVertical,1,Q3FrontUp,-30.65884,50.01165,84.27287,-71.21615,-107.9899,131.157,-46.43441,202408261622136304,
2-7,C_HumanVertical,1,Q3FrontUp,-30.64429,49.99986,84.2621,-71.21789,-107.9909,131.1575,-46.43407,202408261622136630,
2-7,C_HumanVertical,1,Q3FrontUp,-30.64429,49.99986,84.2621,-71.21789,-107.9909,131.1575,-46.43407,202408261622136804,
2-7,C_HumanVertical,1,Q3FrontUp,-30.59975,49.98917,84.23162,-71.21665,-108.0002,131.1612,-46.43317,202408261622137167,
2-7,C_HumanVertical,1,Q3FrontUp,-30.53494,49.96788,84.18745,-71.21685,-108.0117,131.1658,-46.42989,202408261622137335,
2-7,C_HumanVertical,1,Q3FrontUp,-30.43202,49.93871,84.13059,-71.2193,-108.0355,131.1775,-46.416,202408261622137610,
2-7,C_HumanVertical,1,Q3FrontUp,-30.43202,49.93871,84.13059,-71.2193,-108.0355,131.1775,-46.416,202408261622137787,
2-7,C_HumanVertical,1,Q3FrontUp,-30.30483,49.90707,84.06451,-71.2182,-108.054,131.1939,-46.39692,202408261622137958,
2-7,C_HumanVertical,1,Q3FrontUp,-30.15564,49.87344,83.98645,-71.21745,-108.0818,131.2079,-46.37955,202408261622138122,
2-7,C_HumanVertical,1,Q3FrontUp,-30.15564,49.87344,83.98645,-71.21745,-108.0818,131.2079,-46.37955,202408261622138340,
2-7,C_HumanVertical,1,Q3FrontUp,-29.96879,49.8489,83.84384,-71.2235,-108.1552,131.2405,-46.35997,202408261622138597,
2-7,C_HumanVertical,1,Q3FrontUp,-29.96879,49.8489,83.84384,-71.2235,-108.1552,131.2405,-46.35997,202408261622138795,
2-7,C_HumanVertical,1,Q3FrontUp,-29.96879,49.8489,83.84384,-71.2235,-108.1552,131.2405,-46.35997,202408261622139012,
2-7,C_HumanVertical,1,Q3FrontUp,-29.63105,49.82094,83.60628,-71.25073,-108.2646,131.2708,-46.32606,202408261622139344,
2-7,C_HumanVertical,1,Q3FrontUp,-29.47034,49.81945,83.46426,-71.25396,-108.3311,131.2801,-46.30949,202408261622139648,
2-7,C_HumanVertical,1,Q3FrontUp,-29.31693,49.82193,83.31243,-71.26653,-108.3822,131.2814,-46.29399,202408261622139960,
2-7,C_HumanVertical,1,Q3FrontUp,-29.31693,49.82193,83.31243,-71.26653,-108.3822,131.2814,-46.29399,202408261622140110,
2-7,C_HumanVertical,1,Q3FrontUp,-29.31693,49.82193,83.31243,-71.26653,-108.3822,131.2814,-46.29399,202408261622140291,
2-7,C_HumanVertical,1,Q3FrontUp,-29.09745,49.82672,83.18806,-71.35853,-108.3944,131.2798,-46.28831,202408261622140497,
2-7,C_HumanVertical,1,Q3FrontUp,-29.09745,49.82672,83.18806,-71.35853,-108.3944,131.2798,-46.28831,202408261622140797,
2-7,C_HumanVertical,1,Q3FrontUp,-29.01701,49.8245,83.18926,-71.41621,-108.3945,131.2802,-46.28534,202408261622140959,
2-7,C_HumanVertical,1,Q3FrontUp,-29.01701,49.8245,83.18926,-71.41621,-108.3945,131.2802,-46.28534,202408261622141123,
2-7,C_HumanVertical,1,Q3FrontUp,-28.93366,49.81516,83.19191,-71.45889,-108.3954,131.2804,-46.26904,202408261622141303,
2-7,C_HumanVertical,1,Q3FrontUp,-28.93366,49.81516,83.19191,-71.45889,-108.3954,131.2804,-46.26904,202408261622141480,
2-7,C_HumanVertical,1,Q3FrontUp,-28.85921,49.77901,83.20676,-71.50091,-108.3954,131.2814,-46.25682,202408261622141685,
2-7,C_HumanVertical,1,Q3FrontUp,-28.78897,49.73153,83.23218,-71.52876,-108.3946,131.2817,-46.25398,202408261622142005,
2-7,C_HumanVertical,1,Q3FrontUp,-28.71887,49.69048,83.26504,-71.53326,-108.3945,131.2813,-46.25396,202408261622142284,
2-7,C_HumanVertical,1,Q3FrontUp,-28.71887,49.69048,83.26504,-71.53326,-108.3945,131.2813,-46.25396,202408261622142451,
2-7,C_HumanVertical,1,Q3FrontUp,-28.64327,49.65871,83.2835,-71.53408,-108.3949,131.2815,-46.25422,202408261622142610,
2-7,C_HumanVertical,1,Q3FrontUp,-28.64327,49.65871,83.2835,-71.53408,-108.3949,131.2815,-46.25422,202408261622142836,
2-7,C_HumanVertical,1,Q3FrontUp,-28.57054,49.62792,83.29063,-71.53393,-108.3951,131.2814,-46.25432,202408261622143123,
2-7,C_HumanVertical,1,Q3FrontUp,-28.50829,49.58646,83.29485,-71.53,-108.3957,131.2815,-46.25415,202408261622143295,
2-7,C_HumanVertical,1,Q3FrontUp,-28.50829,49.58646,83.29485,-71.53,-108.3957,131.2815,-46.25415,202408261622143466,
2-7,C_HumanVertical,1,Q3FrontUp,-28.45311,49.54589,83.29821,-71.51569,-108.3958,131.2813,-46.25394,202408261622143704,
2-7,C_HumanVertical,1,Q3FrontUp,-28.40527,49.5137,83.30301,-71.49876,-108.3986,131.2818,-46.25386,202408261622143970,
2-7,C_HumanVertical,1,Q3FrontUp,-28.37036,49.49134,83.30632,-71.48582,-108.4016,131.282,-46.25346,202408261622144308,
2-7,C_HumanVertical,1,Q3FrontUp,-28.34943,49.47342,83.31269,-71.47257,-108.4055,131.2823,-46.25351,202408261622144620,
2-7,C_HumanVertical,1,Q3FrontUp,-28.34943,49.47342,83.31269,-71.47257,-108.4055,131.2823,-46.25351,202408261622144799,
2-7,C_HumanVertical,1,Q3FrontUp,-28.33567,49.45628,83.31536,-71.46117,-108.409,131.283,-46.2529,202408261622145000,
2-7,C_HumanVertical,1,Q3FrontUp,-28.33567,49.45628,83.31536,-71.46117,-108.409,131.283,-46.2529,202408261622145165,
2-7,C_HumanVertical,1,Q3FrontUp,-28.32922,49.4444,83.31522,-71.45171,-108.4102,131.283,-46.25303,202408261622145460,
2-7,C_HumanVertical,1,Q3FrontUp,-28.32922,49.4444,83.31522,-71.45171,-108.4102,131.283,-46.25303,202408261622145608,
2-7,C_HumanVertical,1,Q3FrontUp,-28.32908,49.41372,83.31497,-71.4354,-108.4109,131.2827,-46.25347,202408261622145938,
2-7,C_HumanVertical,1,Q3FrontUp,-28.32812,49.39374,83.31389,-71.40984,-108.4117,131.2831,-46.25329,202408261622146169,
2-7,C_HumanVertical,1,Q3FrontUp,-28.32812,49.39374,83.31389,-71.40984,-108.4117,131.2831,-46.25329,202408261622146470,
2-7,C_HumanVertical,1,Q3FrontUp,-28.32391,49.35431,83.31739,-71.34383,-108.4127,131.2827,-46.25293,202408261622146642,
2-7,C_HumanVertical,1,Q3FrontUp,-28.32391,49.35431,83.31739,-71.34383,-108.4127,131.2827,-46.25293,202408261622146844,
2-7,C_HumanVertical,1,Q3FrontUp,-28.32512,49.31016,83.32191,-71.26343,-108.4135,131.2827,-46.25314,202408261622147163,
2-7,C_HumanVertical,1,Q3FrontUp,-28.32429,49.2577,83.32651,-71.15566,-108.4443,131.2873,-46.24925,202408261622147457,
2-7,C_HumanVertical,1,Q3FrontUp,-28.32318,49.22535,83.326,-70.98147,-108.5526,131.3491,-46.22169,202408261622147779,
2-7,C_HumanVertical,1,Q3FrontUp,-28.32969,49.18171,83.32332,-70.76978,-108.6565,131.4073,-46.19835,202408261622147961,
2-7,C_HumanVertical,1,Q3FrontUp,-28.32969,49.18171,83.32332,-70.76978,-108.6565,131.4073,-46.19835,202408261622148123,
2-7,C_HumanVertical,1,Q3FrontUp,-28.34066,49.1357,83.32229,-70.5512,-108.7292,131.4556,-46.17314,202408261622148351,
2-7,C_HumanVertical,1,Q3FrontUp,-28.36525,49.09048,83.3222,-70.28178,-108.7797,131.5017,-46.14864,202408261622148531,
2-7,C_HumanVertical,1,Q3FrontUp,-28.36525,49.09048,83.3222,-70.28178,-108.7797,131.5017,-46.14864,202408261622148793,
2-7,C_HumanVertical,1,Q3FrontUp,-28.40097,49.05276,83.32281,-70.04253,-108.8355,131.5348,-46.12408,202408261622148980,
2-7,C_HumanVertical,1,Q3FrontUp,-28.40097,49.05276,83.32281,-70.04253,-108.8355,131.5348,-46.12408,202408261622149152,
2-7,C_HumanVertical,1,Q3FrontUp,-28.43389,49.00735,83.32545,-69.7972,-108.8726,131.5663,-46.10191,202408261622149335,
2-7,C_HumanVertical,1,Q3FrontUp,-28.49249,48.95707,83.33434,-69.55192,-108.8877,131.5965,-46.09658,202408261622149628,
2-7,C_HumanVertical,1,Q3FrontUp,-28.55287,48.90097,83.34169,-69.33232,-108.8979,131.6217,-46.08758,202408261622149946,
2-7,C_HumanVertical,1,Q3FrontUp,-28.55287,48.90097,83.34169,-69.33232,-108.8979,131.6217,-46.08758,202408261622150179,
2-7,C_HumanVertical,1,Q3FrontUp,-28.60423,48.83642,83.34505,-69.11147,-108.9044,131.6342,-46.07644,202408261622150458,
2-7,C_HumanVertical,1,Q3FrontUp,-28.65212,48.78564,83.3485,-68.90887,-108.9083,131.6624,-46.06358,202408261622150600,
2-7,C_HumanVertical,1,Q3FrontUp,-28.69746,48.74301,83.35157,-68.73967,-108.9166,131.6811,-46.04573,202408261622150787,
2-7,C_HumanVertical,1,Q3FrontUp,-28.69746,48.74301,83.35157,-68.73967,-108.9166,131.6811,-46.04573,202408261622150945,
2-7,C_HumanVertical,1,Q3FrontUp,-28.69746,48.74301,83.35157,-68.73967,-108.9166,131.6811,-46.04573,202408261622151126,
2-7,C_HumanVertical,1,Q3FrontUp,-28.73729,48.70607,83.35709,-68.59126,-108.9237,131.7014,-46.03348,202408261622151329,
2-7,C_HumanVertical,1,Q3FrontUp,-28.73729,48.70607,83.35709,-68.59126,-108.9237,131.7014,-46.03348,202408261622151525,
2-7,C_HumanVertical,1,Q3FrontUp,-28.77232,48.67556,83.35873,-68.46113,-108.932,131.7216,-46.01726,202408261622151800,
2-7,C_HumanVertical,1,Q3FrontUp,-28.80233,48.64592,83.35812,-68.33362,-108.9372,131.7419,-46.01509,202408261622152134,
2-7,C_HumanVertical,1,Q3FrontUp,-28.84031,48.6034,83.35841,-68.09019,-108.9487,131.7718,-46.00611,202408261622152485,
2-7,C_HumanVertical,1,Q3FrontUp,-28.84031,48.6034,83.35841,-68.09019,-108.9487,131.7718,-46.00611,202408261622152754,
2-7,C_HumanVertical,1,Q3FrontUp,-28.84031,48.6034,83.35841,-68.09019,-108.9487,131.7718,-46.00611,202408261622152946,
2-7,C_HumanVertical,1,Q3FrontUp,-28.86716,48.57804,83.35873,-67.99611,-108.9561,131.7795,-45.99538,202408261622153114,
2-7,C_HumanVertical,1,Q3FrontUp,-28.89039,48.54396,83.35841,-67.91232,-108.9618,131.7931,-45.9885,202408261622153343,
2-7,C_HumanVertical,1,Q3FrontUp,-28.90171,48.51165,83.36016,-67.80441,-108.9658,131.8261,-45.98478,202408261622153685,
2-7,C_HumanVertical,1,Q3FrontUp,-28.91413,48.48076,83.36584,-67.69028,-108.9749,131.8303,-45.98441,202408261622153955,
2-7,C_HumanVertical,1,Q3FrontUp,-28.91413,48.48076,83.36584,-67.69028,-108.9749,131.8303,-45.98441,202408261622154140,
2-7,C_HumanVertical,1,Q3FrontUp,-28.93401,48.40907,83.38622,-67.42547,-108.9932,131.8281,-45.98446,202408261622154475,
2-7,C_HumanVertical,1,Q3FrontUp,-28.93401,48.40907,83.38622,-67.42547,-108.9932,131.8281,-45.98446,202408261622154680,
2-7,C_HumanVertical,1,Q3FrontUp,-28.9567,48.35276,83.40475,-67.28353,-109.0004,131.8279,-45.98459,202408261622154954,
2-7,C_HumanVertical,1,Q3FrontUp,-28.97934,48.29308,83.436,-67.13657,-109.0063,131.8272,-45.98443,202408261622155285,
2-7,C_HumanVertical,1,Q3FrontUp,-28.97934,48.29308,83.436,-67.13657,-109.0063,131.8272,-45.98443,202408261622155450,
2-7,C_HumanVertical,1,Q3FrontUp,-28.995,48.23753,83.49091,-66.97541,-109.0096,131.8277,-45.98437,202408261622155633,
2-7,C_HumanVertical,1,Q3FrontUp,-28.995,48.23753,83.49091,-66.97541,-109.0096,131.8277,-45.98437,202408261622155842,
2-7,C_HumanVertical,1,Q3FrontUp,-29.01195,48.18332,83.55756,-66.80981,-109.0113,131.8281,-45.98447,202408261622156150,
2-7,C_HumanVertical,1,Q3FrontUp,-29.03313,48.09657,83.63263,-66.64622,-109.0127,131.8277,-45.98446,202408261622156524,
2-7,C_HumanVertical,1,Q3FrontUp,-29.103,47.92281,83.79298,-66.43297,-109.0259,131.8282,-45.98395,202408261622156841,
2-7,C_HumanVertical,1,Q3FrontUp,-29.103,47.92281,83.79298,-66.43297,-109.0259,131.8282,-45.98395,202408261622157005,
2-7,C_HumanVertical,1,Q3FrontUp,-29.12618,47.83367,83.85876,-66.34731,-109.0311,131.8284,-45.98344,202408261622157283,
2-7,C_HumanVertical,1,Q3FrontUp,-29.12618,47.83367,83.85876,-66.34731,-109.0311,131.8284,-45.98344,202408261622157446,
2-7,C_HumanVertical,1,Q3FrontUp,-29.14454,47.72974,83.8987,-66.28057,-109.0327,131.8284,-45.98378,202408261622157601,
2-7,C_HumanVertical,1,Q3FrontUp,-29.14454,47.72974,83.8987,-66.28057,-109.0327,131.8284,-45.98378,202408261622157781,
2-7,C_HumanVertical,1,Q3FrontUp,-29.14873,47.62516,83.92409,-66.22009,-109.0344,131.8287,-45.98407,202408261622157951,
2-7,C_HumanVertical,1,Q3FrontUp,-29.14642,47.51774,83.93047,-66.17483,-109.0376,131.8286,-45.98405,202408261622158161,
2-7,C_HumanVertical,1,Q3FrontUp,-29.14642,47.51774,83.93047,-66.17483,-109.0376,131.8286,-45.98405,202408261622158457,
2-7,C_HumanVertical,1,Q3FrontUp,-29.14178,47.43837,83.93336,-66.14665,-109.0416,131.8287,-45.98419,202408261622158640,
2-7,C_HumanVertical,1,Q3FrontUp,-29.14178,47.43837,83.93336,-66.14665,-109.0416,131.8287,-45.98419,202408261622158798,
2-7,C_HumanVertical,1,Q3FrontUp,-29.13892,47.3511,83.94085,-66.1208,-109.0503,131.8287,-45.98381,202408261622158971,
2-7,C_HumanVertical,1,Q3FrontUp,-29.13892,47.3511,83.94085,-66.1208,-109.0503,131.8287,-45.98381,202408261622159187,
2-7,C_HumanVertical,1,Q3FrontUp,-29.13511,47.28588,83.94092,-66.09624,-109.056,131.8287,-45.98389,202408261622159457,
2-7,C_HumanVertical,1,Q3FrontUp,-29.1223,47.24329,83.94215,-66.05111,-109.0596,131.8287,-45.98426,202408261622159633,
2-7,C_HumanVertical,1,Q3FrontUp,-29.1223,47.24329,83.94215,-66.05111,-109.0596,131.8287,-45.98426,202408261622159835,
2-7,C_HumanVertical,1,Q3FrontUp,-29.11526,47.21711,83.94331,-66.01218,-109.0705,131.8289,-45.98362,202408261622160121,
2-7,C_HumanVertical,1,Q3FrontUp,-29.11536,47.19998,83.94331,-65.98251,-109.0836,131.8289,-45.9841,202408261622160327,
2-7,C_HumanVertical,1,Q3FrontUp,-29.11613,47.19278,83.94339,-65.94539,-109.095,131.8287,-45.98413,202408261622160604,
2-7,C_HumanVertical,1,Q3FrontUp,-29.11613,47.19278,83.94339,-65.94539,-109.095,131.8287,-45.98413,202408261622160786,
2-7,C_HumanVertical,1,Q3FrontUp,-29.11613,47.19278,83.94339,-65.94539,-109.095,131.8287,-45.98413,202408261622160952,
2-7,C_HumanVertical,1,Q3FrontUp,-29.11703,47.19349,83.94241,-65.91153,-109.1052,131.8283,-45.98387,202408261622161144,
2-7,C_HumanVertical,1,Q3FrontUp,-29.11801,47.19415,83.94141,-65.88791,-109.1138,131.8284,-45.98378,202408261622161357,
2-7,C_HumanVertical,1,Q3FrontUp,-29.11801,47.19415,83.94141,-65.88791,-109.1138,131.8284,-45.98378,202408261622161521,
2-7,C_HumanVertical,1,Q3FrontUp,-29.12011,47.19485,83.94139,-65.87489,-109.115,131.8281,-45.98405,202408261622161800,
2-7,C_HumanVertical,1,Q3FrontUp,-29.12,47.19458,83.94117,-65.87322,-109.1152,131.8284,-45.98403,202408261622161981,
2-7,C_HumanVertical,1,Q3FrontUp,-29.12,47.19458,83.94117,-65.87322,-109.1152,131.8284,-45.98403,202408261622162309,
2-7,C_HumanVertical,1,Q3FrontUp,-29.11879,47.19324,83.94189,-65.87872,-109.115,131.829,-45.9841,202408261622162490,
2-7,C_HumanVertical,1,Q3FrontUp,-29.1193,47.1925,83.93913,-65.90511,-109.1152,131.8305,-45.98429,202408261622162792,
2-7,C_HumanVertical,1,Q3FrontUp,-29.1193,47.1925,83.93913,-65.90511,-109.1152,131.8305,-45.98429,202408261622162956,
2-7,C_HumanVertical,1,Q3FrontUp,-29.11815,47.19246,83.92743,-65.96348,-109.1153,131.8338,-45.9838,202408261622163180,
2-7,C_HumanVertical,1,Q3FrontUp,-29.11815,47.19246,83.92743,-65.96348,-109.1153,131.8338,-45.9838,202408261622163481,
2-7,C_HumanVertical,1,Q3FrontUp,-29.12295,47.19121,83.88663,-66.03571,-109.1157,131.8331,-45.98333,202408261622163710,
2-7,C_HumanVertical,1,Q3FrontUp,-29.12877,47.19624,83.89281,-66.13069,-109.1088,131.8326,-45.98403,202408261622163973,
2-7,C_HumanVertical,1,Q3FrontUp,-29.12877,47.19624,83.89281,-66.13069,-109.1088,131.8326,-45.98403,202408261622164142,
2-7,C_HumanVertical,1,Q3FrontUp,-29.12291,47.20315,83.88633,-66.24488,-109.1055,131.8346,-45.98449,202408261622164312,
2-7,C_HumanVertical,1,Q3FrontUp,-29.12291,47.20315,83.88633,-66.24488,-109.1055,131.8346,-45.98449,202408261622164480,
2-7,C_HumanVertical,1,Q3FrontUp,-29.11101,47.20536,83.82076,-66.37675,-109.1069,131.8327,-45.98536,202408261622164674,
2-7,C_HumanVertical,1,Q3FrontUp,-29.08563,47.2122,83.75334,-66.50803,-109.108,131.8323,-45.98601,202408261622164959,
2-7,C_HumanVertical,1,Q3FrontUp,-29.05305,47.2263,83.65576,-66.66092,-109.1068,131.828,-45.99685,202408261622165271,
2-7,C_HumanVertical,1,Q3FrontUp,-29.05305,47.2263,83.65576,-66.66092,-109.1068,131.828,-45.99685,202408261622165449,
2-7,C_HumanVertical,1,Q3FrontUp,-29.02545,47.23511,83.5517,-66.80578,-109.1053,131.8043,-46.06075,202408261622165623,
2-7,C_HumanVertical,1,Q3FrontUp,-28.98276,47.26425,83.43626,-66.94601,-109.1047,131.7766,-46.10998,202408261622165844,
2-7,C_HumanVertical,1,Q3FrontUp,-28.98276,47.26425,83.43626,-66.94601,-109.1047,131.7766,-46.10998,202408261622166125,
2-7,C_HumanVertical,1,Q3FrontUp,-28.94242,47.29989,83.30628,-67.10381,-109.1046,131.7611,-46.14537,202408261622166354,
2-7,C_HumanVertical,1,Q3FrontUp,-28.91997,47.3297,83.18079,-67.27216,-109.1048,131.7606,-46.16267,202408261622166642,
2-7,C_HumanVertical,1,Q3FrontUp,-28.91997,47.3297,83.18079,-67.27216,-109.1048,131.7606,-46.16267,202408261622166854,
2-7,C_HumanVertical,1,Q3FrontUp,-28.89279,47.36088,83.06822,-67.41844,-109.1048,131.7565,-46.19187,202408261622167135,
2-7,C_HumanVertical,1,Q3FrontUp,-28.85006,47.39582,82.95614,-67.54569,-109.1047,131.7478,-46.22322,202408261622167445,
2-7,C_HumanVertical,1,Q3FrontUp,-28.80075,47.42909,82.84712,-67.64676,-109.1044,131.7467,-46.24301,202408261622167602,
2-7,C_HumanVertical,1,Q3FrontUp,-28.80075,47.42909,82.84712,-67.64676,-109.1044,131.7467,-46.24301,202408261622167789,
2-7,C_HumanVertical,1,Q3FrontUp,-28.76695,47.44606,82.80342,-67.74222,-109.0764,131.7364,-46.25254,202408261622168003,
2-7,C_HumanVertical,1,Q3FrontUp,-28.76695,47.44606,82.80342,-67.74222,-109.0764,131.7364,-46.25254,202408261622168274,
2-7,C_HumanVertical,1,Q3FrontUp,-28.7258,47.4748,82.80125,-67.83257,-109.0441,131.7243,-46.26237,202408261622168436,
2-7,C_HumanVertical,1,Q3FrontUp,-28.67822,47.47367,82.81166,-67.91349,-109.0003,131.7003,-46.28723,202408261622168600,
2-7,C_HumanVertical,1,Q3FrontUp,-28.67822,47.47367,82.81166,-67.91349,-109.0003,131.7003,-46.28723,202408261622168784,
2-7,C_HumanVertical,1,Q3FrontUp,-28.62648,47.47059,82.82182,-67.98874,-108.9912,131.6916,-46.29236,202408261622168965,
2-7,C_HumanVertical,1,Q3FrontUp,-28.57103,47.45995,82.84341,-68.07352,-108.9905,131.6916,-46.29379,202408261622169183,
2-7,C_HumanVertical,1,Q3FrontUp,-28.57103,47.45995,82.84341,-68.07352,-108.9905,131.6916,-46.29379,202408261622169457,
2-7,C_HumanVertical,1,Q3FrontUp,-28.51164,47.44413,82.88098,-68.13387,-108.9903,131.6918,-46.29504,202408261622169662,
2-7,C_HumanVertical,1,Q3FrontUp,-28.44996,47.44297,82.87962,-68.1812,-108.9955,131.6921,-46.29738,202408261622169968,
2-7,C_HumanVertical,1,Q3FrontUp,-28.44996,47.44297,82.87962,-68.1812,-108.9955,131.6921,-46.29738,202408261622170168,
2-7,C_HumanVertical,1,Q3FrontUp,-28.39566,47.44222,82.84216,-68.23264,-109.0047,131.6918,-46.29936,202408261622170454,
2-7,C_HumanVertical,1,Q3FrontUp,-28.3671,47.44976,82.79836,-68.30086,-109.0144,131.6907,-46.30023,202408261622170605,
2-7,C_HumanVertical,1,Q3FrontUp,-28.3671,47.44976,82.79836,-68.30086,-109.0144,131.6907,-46.30023,202408261622170791,
2-7,C_HumanVertical,1,Q3FrontUp,-28.36212,47.45468,82.78292,-68.37611,-109.0088,131.6682,-46.31821,202408261622170945,
2-7,C_HumanVertical,1,Q3FrontUp,-28.35963,47.46133,82.77957,-68.43484,-109,131.6395,-46.33081,202408261622171111,
2-7,C_HumanVertical,1,Q3FrontUp,-28.35963,47.46133,82.77957,-68.43484,-109,131.6395,-46.33081,202408261622171343,
2-7,C_HumanVertical,1,Q3FrontUp,-28.34987,47.46645,82.7813,-68.49236,-108.9919,131.6161,-46.33162,202408261622171617,
2-7,C_HumanVertical,1,Q3FrontUp,-28.34987,47.46645,82.7813,-68.49236,-108.9919,131.6161,-46.33162,202408261622171807,
2-7,C_HumanVertical,1,Q3FrontUp,-28.33307,47.47091,82.78347,-68.54669,-108.9911,131.6081,-46.33241,202408261622171967,
2-7,C_HumanVertical,1,Q3FrontUp,-28.33307,47.47091,82.78347,-68.54669,-108.9911,131.6081,-46.33241,202408261622172123,
2-7,C_HumanVertical,1,Q3FrontUp,-28.31465,47.46745,82.79004,-68.58791,-108.9908,131.6062,-46.33323,202408261622172329,
2-7,C_HumanVertical,1,Q3FrontUp,-28.29181,47.46563,82.81181,-68.61902,-108.9903,131.6058,-46.33376,202408261622172631,
2-7,C_HumanVertical,1,Q3FrontUp,-28.28045,47.46609,82.83906,-68.66228,-108.9802,131.6059,-46.34871,202408261622172823,
2-7,C_HumanVertical,1,Q3FrontUp,-28.28045,47.46609,82.83906,-68.66228,-108.9802,131.6059,-46.34871,202408261622173097,
2-7,C_HumanVertical,1,Q3FrontUp,-28.27869,47.47006,82.85809,-68.72581,-108.9705,131.6054,-46.37291,202408261622173288,
2-7,C_HumanVertical,1,Q3FrontUp,-28.28471,47.49463,82.88997,-68.80141,-108.9657,131.6056,-46.3877,202408261622173502,
2-7,C_HumanVertical,1,Q3FrontUp,-28.28471,47.49463,82.88997,-68.80141,-108.9657,131.6056,-46.3877,202408261622173778,
2-7,C_HumanVertical,1,Q3FrontUp,-28.28984,47.51441,82.91724,-68.86964,-108.9628,131.6057,-46.40342,202408261622173965,
2-7,C_HumanVertical,1,Q3FrontUp,-28.28984,47.51441,82.91724,-68.86964,-108.9628,131.6057,-46.40342,202408261622174135,
2-7,C_HumanVertical,1,Q3FrontUp,-28.29828,47.53292,82.94892,-68.92191,-108.9614,131.6048,-46.41609,202408261622174312,
2-7,C_HumanVertical,1,Q3FrontUp,-28.29828,47.53292,82.94892,-68.92191,-108.9614,131.6048,-46.41609,202408261622174500,
2-7,C_HumanVertical,1,Q3FrontUp,-28.36984,47.63449,83.10107,-69.0144,-108.9622,131.6025,-46.42793,202408261622174801,
2-7,C_HumanVertical,1,Q3FrontUp,-28.36984,47.63449,83.10107,-69.0144,-108.9622,131.6025,-46.42793,202408261622174972,
2-7,C_HumanVertical,1,Q3FrontUp,-28.36984,47.63449,83.10107,-69.0144,-108.9622,131.6025,-46.42793,202408261622175124,
2-7,C_HumanVertical,1,Q3FrontUp,-28.4325,47.70523,83.19141,-69.04282,-108.9619,131.6025,-46.42698,202408261622175289,
2-7,C_HumanVertical,1,Q3FrontUp,-28.4325,47.70523,83.19141,-69.04282,-108.9619,131.6025,-46.42698,202408261622175458,
2-7,C_HumanVertical,1,Q3FrontUp,-28.5216,47.78003,83.29465,-69.06393,-108.9616,131.603,-46.42763,202408261622175670,
2-7,C_HumanVertical,1,Q3FrontUp,-28.61829,47.85128,83.37065,-69.07632,-108.9585,131.6025,-46.43132,202408261622175973,
2-7,C_HumanVertical,1,Q3FrontUp,-28.61829,47.85128,83.37065,-69.07632,-108.9585,131.6025,-46.43132,202408261622176176,
2-7,C_HumanVertical,1,Q3FrontUp,-28.73373,47.94337,83.45785,-69.0899,-108.9482,131.6023,-46.43618,202408261622176491,
2-7,C_HumanVertical,1,Q3FrontUp,-28.86351,48.02996,83.53471,-69.10956,-108.9298,131.6009,-46.45431,202408261622176769,
2-7,C_HumanVertical,1,Q3FrontUp,-29.00514,48.1059,83.58945,-69.14088,-108.9008,131.5773,-46.48656,202408261622177045,
2-7,C_HumanVertical,1,Q3FrontUp,-29.15704,48.19077,83.63974,-69.16298,-108.8812,131.5518,-46.51915,202408261622177282,
2-7,C_HumanVertical,1,Q3FrontUp,-29.15704,48.19077,83.63974,-69.16298,-108.8812,131.5518,-46.51915,202408261622177457,
2-7,C_HumanVertical,1,Q3FrontUp,-29.29477,48.27738,83.68397,-69.17258,-108.8755,131.5378,-46.53484,202408261622177624,
2-7,C_HumanVertical,1,Q3FrontUp,-29.29477,48.27738,83.68397,-69.17258,-108.8755,131.5378,-46.53484,202408261622177822,
2-7,C_HumanVertical,1,Q3FrontUp,-29.42772,48.35449,83.71255,-69.18296,-108.8715,131.5221,-46.55289,202408261622178098,
2-7,C_HumanVertical,1,Q3FrontUp,-29.56758,48.43754,83.75155,-69.18985,-108.8631,131.5083,-46.57376,202408261622178277,
2-7,C_HumanVertical,1,Q3FrontUp,-29.56758,48.43754,83.75155,-69.18985,-108.8631,131.5083,-46.57376,202408261622178442,
2-7,C_HumanVertical,1,Q3FrontUp,-29.71939,48.52021,83.79803,-69.22423,-108.839,131.4966,-46.6021,202408261622178603,
2-7,C_HumanVertical,1,Q3FrontUp,-29.71939,48.52021,83.79803,-69.22423,-108.839,131.4966,-46.6021,202408261622178800,
2-7,C_HumanVertical,1,Q3FrontUp,-29.86939,48.59713,83.82316,-69.25996,-108.8249,131.4855,-46.63309,202408261622179023,
2-7,C_HumanVertical,1,Q3FrontUp,-30.02984,48.68443,83.85644,-69.29154,-108.8082,131.4778,-46.66337,202408261622179326,
2-7,C_HumanVertical,1,Q3FrontUp,-30.02984,48.68443,83.85644,-69.29154,-108.8082,131.4778,-46.66337,202408261622179630,
2-7,C_HumanVertical,1,Q3FrontUp,-30.20179,48.76231,83.91216,-69.34226,-108.7758,131.478,-46.69047,202408261622179798,
2-7,C_HumanVertical,1,Q3FrontUp,-30.37593,48.82582,83.9567,-69.39561,-108.7477,131.4761,-46.72311,202408261622179987,
2-7,C_HumanVertical,1,Q3FrontUp,-30.37593,48.82582,83.9567,-69.39561,-108.7477,131.4761,-46.72311,202408261622180280,
2-7,C_HumanVertical,1,Q3FrontUp,-30.56916,48.89332,84.00493,-69.44973,-108.7255,131.4756,-46.75772,202408261622180443,
2-7,C_HumanVertical,1,Q3FrontUp,-30.75914,48.96112,84.04566,-69.48366,-108.7109,131.4757,-46.78822,202408261622180606,
2-7,C_HumanVertical,1,Q3FrontUp,-30.75914,48.96112,84.04566,-69.48366,-108.7109,131.4757,-46.78822,202408261622180794,
2-7,C_HumanVertical,1,Q3FrontUp,-30.96165,49.01134,84.09287,-69.51137,-108.7004,131.4752,-46.81345,202408261622181022,
2-7,C_HumanVertical,1,Q3FrontUp,-31.1686,49.05271,84.14,-69.53458,-108.6867,131.4747,-46.83857,202408261622181330,
2-7,C_HumanVertical,1,Q3FrontUp,-31.37256,49.09442,84.17615,-69.53963,-108.6741,131.4739,-46.87149,202408261622181658,
2-7,C_HumanVertical,1,Q3FrontUp,-31.55146,49.137,84.19263,-69.53857,-108.6656,131.4736,-46.89428,202408261622181988,
2-7,C_HumanVertical,1,Q3FrontUp,-31.72282,49.17876,84.20994,-69.53985,-108.6606,131.4737,-46.91705,202408261622182333,
