mpan31415/robot-x-ar/study2/data/raw_all_participants/Participant_2-13_1.csv
ParticipantID,Condition,Trial,PostureID,J1,J2,J3,J4,J5,J6,J7,Timestamp,
2-13,A_Baseline,1,Q1FrontUp,-49.59336,24.20653,97.59476,-25.28371,-110.3724,154.1057,-36.77021,202408261107186131,
2-13,A_Baseline,1,Q1FrontUp,-49.59336,24.20653,97.59476,-25.28371,-110.3724,154.1057,-36.77021,202408261107186515,
2-13,A_Baseline,1,Q1FrontUp,-49.59339,24.20638,97.60384,-25.28338,-110.3874,154.1056,-36.76992,202408261107186853,
2-13,A_Baseline,1,Q1FrontUp,-49.59339,24.20638,97.60384,-25.28338,-110.3874,154.1056,-36.76992,202408261107187051,
2-13,A_Baseline,1,Q1FrontUp,-49.5911,24.20317,97.72281,-25.28485,-110.3061,154.1055,-36.77014,202408261107187359,
2-13,A_Baseline,1,Q1FrontUp,-49.5911,24.20317,97.72281,-25.28485,-110.3061,154.1055,-36.77014,202408261107187526,
2-13,A_Baseline,1,Q1FrontUp,-49.5895,24.19586,97.78684,-25.28473,-110.2727,154.1056,-36.76992,202408261107187808,
2-13,A_Baseline,1,Q1FrontUp,-49.5895,24.19586,97.78684,-25.28473,-110.2727,154.1056,-36.76992,202408261107187980,
2-13,A_Baseline,1,Q1FrontUp,-49.58927,24.18368,97.79664,-25.28449,-110.3077,154.1056,-36.77017,202408261107188199,
2-13,A_Baseline,1,Q1FrontUp,-49.59023,24.17461,97.76356,-25.2833,-110.379,154.1063,-36.77017,202408261107188470,
2-13,A_Baseline,1,Q1FrontUp,-49.59149,24.16965,97.76364,-25.27769,-110.3769,154.1059,-36.77023,202408261107188776,
2-13,A_Baseline,1,Q1FrontUp,-49.59149,24.16965,97.76364,-25.27769,-110.3769,154.1059,-36.77023,202408261107188941,
2-13,A_Baseline,1,Q1FrontUp,-49.59163,24.1713,97.74267,-25.27811,-110.3979,154.106,-36.77014,202408261107189202,
2-13,A_Baseline,1,Q1FrontUp,-49.59172,24.18161,97.69573,-25.27992,-110.4456,154.1058,-36.77024,202408261107189462,
2-13,A_Baseline,1,Q1FrontUp,-49.59172,24.18161,97.69573,-25.27992,-110.4456,154.1058,-36.77024,202408261107189671,
2-13,A_Baseline,1,Q1FrontUp,-49.58866,24.18609,97.70045,-25.28223,-110.4407,154.1052,-36.77042,202408261107189815,
2-13,A_Baseline,1,Q1FrontUp,-49.58866,24.18609,97.70045,-25.28223,-110.4407,154.1052,-36.77042,202408261107189990,
2-13,A_Baseline,1,Q1FrontUp,-49.58685,24.19063,97.7135,-25.28321,-110.4275,154.105,-36.77028,202408261107190161,
2-13,A_Baseline,1,Q1FrontUp,-49.58685,24.19063,97.7135,-25.28321,-110.4275,154.105,-36.77028,202408261107190318,
2-13,A_Baseline,1,Q1FrontUp,-49.58785,24.19048,97.73459,-25.28167,-110.4113,154.1054,-36.77021,202408261107190520,
2-13,A_Baseline,1,Q1FrontUp,-49.58695,24.18442,97.79278,-25.28219,-110.3697,154.1057,-36.77001,202408261107190804,
2-13,A_Baseline,1,Q1FrontUp,-49.58695,24.18442,97.79278,-25.28219,-110.3697,154.1057,-36.77001,202408261107191137,
2-13,A_Baseline,1,Q1FrontUp,-49.58706,24.14677,97.91866,-25.2803,-110.3206,154.1057,-36.7701,202408261107191449,
2-13,A_Baseline,1,Q1FrontUp,-49.58706,24.14677,97.91866,-25.2803,-110.3206,154.1057,-36.7701,202408261107191671,
2-13,A_Baseline,1,Q1FrontUp,-49.58585,24.13052,97.98392,-25.28146,-110.2954,154.1056,-36.77024,202408261107191942,
2-13,A_Baseline,1,Q1FrontUp,-49.58364,24.1204,98.04681,-25.2817,-110.2824,154.1057,-36.77006,202408261107192130,
2-13,A_Baseline,1,Q1FrontUp,-49.58193,24.10958,98.10468,-25.28148,-110.2787,154.1059,-36.76997,202408261107192349,
2-13,A_Baseline,1,Q1FrontUp,-49.58193,24.10958,98.10468,-25.28148,-110.2787,154.1059,-36.76997,202408261107192694,
2-13,A_Baseline,1,Q1FrontUp,-49.58151,24.10763,98.15182,-25.28149,-110.2708,154.1057,-36.77042,202408261107192958,
2-13,A_Baseline,1,Q1FrontUp,-49.58193,24.10645,98.19104,-25.28104,-110.2635,154.1057,-36.7703,202408261107193142,
2-13,A_Baseline,1,Q1FrontUp,-49.58193,24.10645,98.19104,-25.28104,-110.2635,154.1057,-36.7703,202408261107193300,
2-13,A_Baseline,1,Q1FrontUp,-49.58171,24.10101,98.23527,-25.28116,-110.2558,154.1058,-36.77019,202408261107193603,
2-13,A_Baseline,1,Q1FrontUp,-49.58162,24.09771,98.26643,-25.28116,-110.2524,154.1057,-36.76987,202408261107193832,
2-13,A_Baseline,1,Q1FrontUp,-49.58091,24.09642,98.27694,-25.28134,-110.2548,154.1057,-36.77037,202408261107194112,
2-13,A_Baseline,1,Q1FrontUp,-49.58091,24.09642,98.27694,-25.28134,-110.2548,154.1057,-36.77037,202408261107194279,
2-13,A_Baseline,1,Q1FrontUp,-49.58123,24.09642,98.27531,-25.28134,-110.2659,154.1061,-36.77014,202408261107194436,
2-13,A_Baseline,1,Q1FrontUp,-49.58123,24.09642,98.27531,-25.28134,-110.2659,154.1061,-36.77014,202408261107194633,
2-13,A_Baseline,1,Q1FrontUp,-49.58162,24.09835,98.2944,-25.28116,-110.2559,154.1056,-36.7705,202408261107194839,
2-13,A_Baseline,1,Q1FrontUp,-49.58162,24.09835,98.2944,-25.28116,-110.2559,154.1056,-36.7705,202408261107195136,
2-13,A_Baseline,1,Q1FrontUp,-49.5812,24.09694,98.33134,-25.28138,-110.2415,154.1056,-36.77005,202408261107195470,
2-13,A_Baseline,1,Q1FrontUp,-49.58034,24.0944,98.33921,-25.28213,-110.2408,154.1057,-36.77037,202408261107195682,
2-13,A_Baseline,1,Q1FrontUp,-49.58034,24.0944,98.33921,-25.28213,-110.2408,154.1057,-36.77037,202408261107195832,
2-13,A_Baseline,1,Q1FrontUp,-49.58043,24.08946,98.35121,-25.28159,-110.2393,154.1058,-36.77032,202408261107196124,
2-13,A_Baseline,1,Q1FrontUp,-49.58067,24.08867,98.36149,-25.28131,-110.2374,154.1055,-36.76997,202408261107196440,
2-13,A_Baseline,1,Q1FrontUp,-49.58067,24.08867,98.36149,-25.28131,-110.2374,154.1055,-36.76997,202408261107196611,
2-13,A_Baseline,1,Q1FrontUp,-49.58035,24.08888,98.36081,-25.28127,-110.239,154.1057,-36.77044,202408261107196781,
2-13,A_Baseline,1,Q1FrontUp,-49.58035,24.08888,98.36081,-25.28127,-110.239,154.1057,-36.77044,202408261107196990,
2-13,A_Baseline,1,Q1FrontUp,-49.58006,24.08762,98.3621,-25.2811,-110.2378,154.1059,-36.77039,202408261107197172,
2-13,A_Baseline,1,Q1FrontUp,-49.57978,24.08677,98.36731,-25.28139,-110.237,154.1059,-36.77024,202408261107197452,
2-13,A_Baseline,1,Q1FrontUp,-49.57978,24.08677,98.36731,-25.28139,-110.237,154.1059,-36.77024,202408261107197623,
2-13,A_Baseline,1,Q1FrontUp,-49.57992,24.08841,98.37154,-25.28144,-110.2363,154.1058,-36.77014,202408261107197789,
2-13,A_Baseline,1,Q1FrontUp,-49.57992,24.08841,98.37154,-25.28144,-110.2363,154.1058,-36.77014,202408261107198007,
2-13,A_Baseline,1,Q1FrontUp,-49.57982,24.08852,98.37145,-25.28162,-110.2365,154.1057,-36.77006,202408261107198280,
2-13,A_Baseline,1,Q1FrontUp,-49.57982,24.08779,98.37184,-25.28144,-110.2366,154.1058,-36.77001,202408261107198468,
2-13,A_Baseline,1,Q1FrontUp,-49.57982,24.08779,98.37184,-25.28144,-110.2366,154.1058,-36.77001,202408261107198627,
2-13,A_Baseline,1,Q1FrontUp,-49.57971,24.08705,98.37543,-25.28134,-110.2359,154.1057,-36.77019,202408261107198883,
2-13,A_Baseline,1,Q1FrontUp,-49.57971,24.08705,98.37543,-25.28134,-110.2359,154.1057,-36.77019,202408261107199184,
2-13,A_Baseline,1,Q1FrontUp,-49.57951,24.08632,98.38674,-25.28134,-110.2346,154.1057,-36.77037,202408261107199446,
2-13,A_Baseline,1,Q1FrontUp,-49.57951,24.08632,98.38674,-25.28134,-110.2346,154.1057,-36.77037,202408261107199617,
2-13,A_Baseline,1,Q1FrontUp,-49.57961,24.08657,98.39118,-25.28149,-110.2259,154.1056,-36.77028,202408261107199787,
2-13,A_Baseline,1,Q1FrontUp,-49.57994,24.08706,98.39325,-25.28134,-110.2191,154.1057,-36.7701,202408261107199990,
2-13,A_Baseline,1,Q1FrontUp,-49.57994,24.08706,98.39325,-25.28134,-110.2191,154.1057,-36.7701,202408261107200190,
2-13,A_Baseline,1,Q1FrontUp,-49.57994,24.08706,98.39325,-25.28134,-110.2191,154.1057,-36.7701,202408261107200372,
2-13,A_Baseline,1,Q1FrontUp,-49.57973,24.08653,98.39567,-25.28144,-110.2146,154.1057,-36.77001,202408261107200655,
2-13,A_Baseline,1,Q1FrontUp,-49.57973,24.08653,98.39567,-25.28144,-110.2146,154.1057,-36.77001,202408261107200961,
2-13,A_Baseline,1,Q1FrontUp,-49.57984,24.08647,98.39626,-25.28146,-110.2122,154.1059,-36.77022,202408261107201149,
2-13,A_Baseline,1,Q1FrontUp,-49.57961,24.08571,98.39748,-25.28133,-110.2091,154.1057,-36.77004,202408261107201352,
2-13,A_Baseline,1,Q1FrontUp,-49.57961,24.08571,98.39748,-25.28133,-110.2091,154.1057,-36.77004,202408261107201605,
2-13,A_Baseline,1,Q1FrontUp,-49.57961,24.08491,98.39786,-25.2813,-110.2003,154.1057,-36.77041,202408261107201786,
2-13,A_Baseline,1,Q1FrontUp,-49.57999,24.08498,98.39774,-25.28136,-110.1938,154.1057,-36.7698,202408261107202029,
2-13,A_Baseline,1,Q1FrontUp,-49.57999,24.08498,98.39774,-25.28136,-110.1938,154.1057,-36.7698,202408261107202332,
2-13,A_Baseline,1,Q1FrontUp,-49.57971,24.08511,98.39792,-25.28132,-110.1885,154.1057,-36.77036,202408261107202519,
2-13,A_Baseline,1,Q1FrontUp,-49.57981,24.08546,98.39832,-25.28144,-110.1852,154.1057,-36.76997,202408261107202781,
2-13,A_Baseline,1,Q1FrontUp,-49.57981,24.08546,98.39832,-25.28144,-110.1852,154.1057,-36.76997,202408261107202971,
2-13,A_Baseline,1,Q1FrontUp,-49.57982,24.08532,98.39812,-25.28137,-110.1844,154.1057,-36.77041,202408261107203157,
2-13,A_Baseline,1,Q1FrontUp,-49.57982,24.08487,98.39812,-25.28134,-110.1843,154.1055,-36.7701,202408261107203578,
2-13,A_Baseline,1,Q1FrontUp,-49.57968,24.08455,98.40022,-25.2816,-110.1734,154.1059,-36.76994,202408261107203942,
2-13,A_Baseline,1,Q1FrontUp,-49.5797,24.08418,98.40283,-25.28138,-110.1632,154.1058,-36.77008,202408261107204117,
2-13,A_Baseline,1,Q1FrontUp,-49.5797,24.08418,98.40283,-25.28138,-110.1632,154.1058,-36.77008,202408261107204282,
2-13,A_Baseline,1,Q1FrontUp,-49.5797,24.08418,98.40283,-25.28138,-110.1632,154.1058,-36.77008,202408261107204457,
2-13,A_Baseline,1,Q1FrontUp,-49.57982,24.08388,98.40328,-25.2816,-110.1495,154.1058,-36.76992,202408261107204622,
2-13,A_Baseline,1,Q1FrontUp,-49.57959,24.08392,98.40363,-25.2816,-110.1402,154.1058,-36.77014,202408261107204846,
2-13,A_Baseline,1,Q1FrontUp,-49.57959,24.08392,98.40363,-25.2816,-110.1402,154.1058,-36.77014,202408261107205036,
2-13,A_Baseline,1,Q1FrontUp,-49.57908,24.08419,98.39137,-25.28147,-110.1416,154.106,-36.76991,202408261107205288,
2-13,A_Baseline,1,Q1FrontUp,-49.57979,24.08521,98.36595,-25.28109,-110.1514,154.1061,-36.77004,202408261107205454,
2-13,A_Baseline,1,Q1FrontUp,-49.5793,24.08602,98.38222,-25.28056,-110.1112,154.1057,-36.77037,202408261107205816,
2-13,A_Baseline,1,Q1FrontUp,-49.57197,24.0863,98.3935,-25.28081,-110.0554,154.1058,-36.77016,202408261107206011,
2-13,A_Baseline,1,Q1FrontUp,-49.57197,24.0863,98.3935,-25.28081,-110.0554,154.1058,-36.77016,202408261107206284,
2-13,A_Baseline,1,Q1FrontUp,-49.55503,24.08525,98.39892,-25.28009,-110.0053,154.1059,-36.77012,202408261107206454,
2-13,A_Baseline,1,Q1FrontUp,-49.5336,24.07953,98.40415,-25.28031,-109.9689,154.1058,-36.77028,202408261107206671,
2-13,A_Baseline,1,Q1FrontUp,-49.5336,24.07953,98.40415,-25.28031,-109.9689,154.1058,-36.77028,202408261107206965,
2-13,A_Baseline,1,Q1FrontUp,-49.50651,24.06871,98.40746,-25.27947,-109.9165,154.1057,-36.7702,202408261107207189,
2-13,A_Baseline,1,Q1FrontUp,-49.48288,24.05365,98.40788,-25.27943,-109.86,154.1058,-36.77023,202408261107207460,
2-13,A_Baseline,1,Q1FrontUp,-49.48288,24.05365,98.40788,-25.27943,-109.86,154.1058,-36.77023,202408261107207607,
2-13,A_Baseline,1,Q1FrontUp,-49.48288,24.05365,98.40788,-25.27943,-109.86,154.1058,-36.77023,202408261107207796,
2-13,A_Baseline,1,Q1FrontUp,-49.40129,24.03435,98.28242,-25.26434,-109.858,154.1063,-36.77113,202408261107208134,
2-13,A_Baseline,1,Q1FrontUp,-49.40129,24.03435,98.28242,-25.26434,-109.858,154.1063,-36.77113,202408261107208354,
2-13,A_Baseline,1,Q1FrontUp,-49.36641,24.0259,98.21688,-25.25586,-109.852,154.1062,-36.77113,202408261107208621,
2-13,A_Baseline,1,Q1FrontUp,-49.33228,24.02658,98.14682,-25.2455,-109.806,154.1061,-36.77122,202408261107208790,
2-13,A_Baseline,1,Q1FrontUp,-49.33228,24.02658,98.14682,-25.2455,-109.806,154.1061,-36.77122,202408261107208958,
2-13,A_Baseline,1,Q1FrontUp,-49.28698,24.02879,98.07945,-25.23861,-109.7564,154.1059,-36.77164,202408261107209295,
2-13,A_Baseline,1,Q1FrontUp,-49.23086,24.0285,98.01064,-25.22992,-109.6945,154.1061,-36.77245,202408261107209522,
2-13,A_Baseline,1,Q1FrontUp,-49.15272,24.02691,97.92119,-25.20743,-109.6041,154.1058,-36.77229,202408261107209788,
2-13,A_Baseline,1,Q1FrontUp,-49.15272,24.02691,97.92119,-25.20743,-109.6041,154.1058,-36.77229,202408261107210021,
2-13,A_Baseline,1,Q1FrontUp,-49.06549,24.02029,97.82567,-25.18196,-109.5067,154.1059,-36.77375,202408261107210280,
2-13,A_Baseline,1,Q1FrontUp,-48.96901,24.00873,97.73086,-25.15385,-109.3935,154.1061,-36.7761,202408261107210469,
2-13,A_Baseline,1,Q1FrontUp,-48.96901,24.00873,97.73086,-25.15385,-109.3935,154.1061,-36.7761,202408261107210674,
2-13,A_Baseline,1,Q1FrontUp,-48.87252,24.00106,97.65168,-25.12569,-109.2719,154.1059,-36.77845,202408261107210950,
2-13,A_Baseline,1,Q1FrontUp,-48.7817,23.99598,97.58455,-25.10205,-109.1664,154.1059,-36.78239,202408261107211123,
2-13,A_Baseline,1,Q1FrontUp,-48.7817,23.99598,97.58455,-25.10205,-109.1664,154.1059,-36.78239,202408261107211284,
2-13,A_Baseline,1,Q1FrontUp,-48.6116,23.98652,97.4606,-25.06701,-108.9397,154.1059,-36.7905,202408261107211690,
2-13,A_Baseline,1,Q1FrontUp,-48.6116,23.98652,97.4606,-25.06701,-108.9397,154.1059,-36.7905,202408261107211833,
2-13,A_Baseline,1,Q1FrontUp,-48.5464,23.97824,97.38301,-25.04389,-108.8187,154.1058,-36.81448,202408261107212123,
2-13,A_Baseline,1,Q1FrontUp,-48.5464,23.97824,97.38301,-25.04389,-108.8187,154.1058,-36.81448,202408261107212293,
2-13,A_Baseline,1,Q1FrontUp,-48.5464,23.97824,97.38301,-25.04389,-108.8187,154.1058,-36.81448,202408261107212458,
2-13,A_Baseline,1,Q1FrontUp,-48.48736,23.9679,97.30018,-25.02091,-108.707,154.1059,-36.85723,202408261107212667,
2-13,A_Baseline,1,Q1FrontUp,-48.43333,23.95694,97.19947,-24.99612,-108.5444,154.106,-36.93029,202408261107213015,
2-13,A_Baseline,1,Q1FrontUp,-48.37935,23.94492,97.08089,-24.96602,-108.3841,154.1058,-37.00046,202408261107213281,
2-13,A_Baseline,1,Q1FrontUp,-48.30846,23.93344,96.94414,-24.92425,-108.2101,154.1059,-37.0574,202408261107213479,
2-13,A_Baseline,1,Q1FrontUp,-48.20684,23.92438,96.82348,-24.87532,-107.9771,154.1055,-37.10888,202408261107213802,
2-13,A_Baseline,1,Q1FrontUp,-48.08671,23.9178,96.7412,-24.82799,-107.6808,154.1051,-37.14535,202408261107213998,
2-13,A_Baseline,1,Q1FrontUp,-48.08671,23.9178,96.7412,-24.82799,-107.6808,154.1051,-37.14535,202408261107214275,
2-13,A_Baseline,1,Q1FrontUp,-47.95386,23.9093,96.68837,-24.78,-107.3699,154.1054,-37.17636,202408261107214456,
2-13,A_Baseline,1,Q1FrontUp,-47.95386,23.9093,96.68837,-24.78,-107.3699,154.1054,-37.17636,202408261107214623,
2-13,A_Baseline,1,Q1FrontUp,-47.82914,23.89171,96.64249,-24.75207,-107.0504,154.1054,-37.209,202408261107214862,
2-13,A_Baseline,1,Q1FrontUp,-47.82914,23.89171,96.64249,-24.75207,-107.0504,154.1054,-37.209,202408261107215035,
2-13,A_Baseline,1,Q1FrontUp,-47.69918,23.86486,96.61253,-24.72808,-106.7011,154.1053,-37.23986,202408261107215280,
2-13,A_Baseline,1,Q1FrontUp,-47.57849,23.82834,96.60371,-24.70333,-106.3773,154.1056,-37.2646,202408261107215497,
2-13,A_Baseline,1,Q1FrontUp,-47.44438,23.78138,96.6013,-24.67549,-106.0404,154.1057,-37.29531,202408261107215850,
2-13,A_Baseline,1,Q1FrontUp,-47.30061,23.71826,96.6007,-24.65511,-105.6851,154.1066,-37.32479,202408261107216184,
2-13,A_Baseline,1,Q1FrontUp,-47.16738,23.64774,96.60204,-24.64767,-105.3488,154.1651,-37.35246,202408261107216440,
2-13,A_Baseline,1,Q1FrontUp,-47.16738,23.64774,96.60204,-24.64767,-105.3488,154.1651,-37.35246,202408261107216622,
2-13,A_Baseline,1,Q1FrontUp,-47.05548,23.55978,96.60212,-24.64699,-105.0407,154.2119,-37.38308,202408261107216781,
2-13,A_Baseline,1,Q1FrontUp,-47.05548,23.55978,96.60212,-24.64699,-105.0407,154.2119,-37.38308,202408261107216945,
2-13,A_Baseline,1,Q1FrontUp,-46.94487,23.45866,96.60448,-24.6465,-104.6991,154.2796,-37.40719,202408261107217120,
2-13,A_Baseline,1,Q1FrontUp,-46.94487,23.45866,96.60448,-24.6465,-104.6991,154.2796,-37.40719,202408261107217349,
2-13,A_Baseline,1,Q1FrontUp,-46.83743,23.3647,96.61404,-24.64638,-104.3482,154.3714,-37.4248,202408261107217613,
2-13,A_Baseline,1,Q1FrontUp,-46.72186,23.26212,96.63635,-24.64258,-104.0168,154.45,-37.43465,202408261107217775,
2-13,A_Baseline,1,Q1FrontUp,-46.72186,23.26212,96.63635,-24.64258,-104.0168,154.45,-37.43465,202408261107218000,
2-13,A_Baseline,1,Q1FrontUp,-46.59954,23.15523,96.66705,-24.64103,-103.7046,154.5392,-37.43935,202408261107218351,
2-13,A_Baseline,1,Q1FrontUp,-46.47464,23.05564,96.70895,-24.6407,-103.4278,154.631,-37.43938,202408261107218627,
2-13,A_Baseline,1,Q1FrontUp,-46.36613,22.9425,96.75157,-24.64104,-103.1324,154.7418,-37.43898,202408261107218960,
2-13,A_Baseline,1,Q1FrontUp,-46.25441,22.8313,96.78487,-24.64219,-102.8587,154.8486,-37.43898,202408261107219123,
2-13,A_Baseline,1,Q1FrontUp,-46.25441,22.8313,96.78487,-24.64219,-102.8587,154.8486,-37.43898,202408261107219341,
2-13,A_Baseline,1,Q1FrontUp,-46.15703,22.71806,96.81154,-24.64164,-102.5896,154.9589,-37.43902,202408261107219528,
2-13,A_Baseline,1,Q1FrontUp,-46.05501,22.60473,96.84289,-24.64178,-102.2851,155.0775,-37.44238,202408261107219794,
2-13,A_Baseline,1,Q1FrontUp,-46.05501,22.60473,96.84289,-24.64178,-102.2851,155.0775,-37.44238,202408261107219992,
2-13,A_Baseline,1,Q1FrontUp,-45.95832,22.4941,96.87601,-24.63921,-101.9852,155.1821,-37.45464,202408261107220325,
2-13,A_Baseline,1,Q1FrontUp,-45.8686,22.38492,96.90536,-24.63778,-101.7134,155.28,-37.47127,202408261107220505,
2-13,A_Baseline,1,Q1FrontUp,-45.78308,22.28465,96.95444,-24.63815,-101.4515,155.4007,-37.49162,202408261107220713,
2-13,A_Baseline,1,Q1FrontUp,-45.78308,22.28465,96.95444,-24.63815,-101.4515,155.4007,-37.49162,202408261107220993,
2-13,A_Baseline,1,Q1FrontUp,-45.70892,22.18439,97.00751,-24.63922,-101.1956,155.5293,-37.50557,202408261107221239,
2-13,A_Baseline,1,Q1FrontUp,-45.64601,22.10033,97.05728,-24.63974,-100.9773,155.6359,-37.50841,202408261107221486,
2-13,A_Baseline,1,Q1FrontUp,-45.64601,22.10033,97.05728,-24.63974,-100.9773,155.6359,-37.50841,202408261107221633,
2-13,A_Baseline,1,Q1FrontUp,-45.64601,22.10033,97.05728,-24.63974,-100.9773,155.6359,-37.50841,202408261107221884,
2-13,A_Baseline,1,Q1FrontUp,-45.56332,21.91265,97.16393,-24.63929,-100.5809,155.8655,-37.51263,202408261107222117,
2-13,A_Baseline,1,Q1FrontUp,-45.56332,21.91265,97.16393,-24.63929,-100.5809,155.8655,-37.51263,202408261107222426,
2-13,A_Baseline,1,Q1FrontUp,-45.53404,21.83301,97.22673,-24.63925,-100.3983,155.9714,-37.51265,202408261107222612,
2-13,A_Baseline,1,Q1FrontUp,-45.51492,21.74769,97.3007,-24.63875,-100.2179,156.0694,-37.51264,202408261107222855,
2-13,A_Baseline,1,Q1FrontUp,-45.49348,21.67363,97.36307,-24.63917,-100.0532,156.1691,-37.51274,202408261107223121,
2-13,A_Baseline,1,Q1FrontUp,-45.49348,21.67363,97.36307,-24.63917,-100.0532,156.1691,-37.51274,202408261107223302,
2-13,A_Baseline,1,Q1FrontUp,-45.47013,21.61292,97.41281,-24.63919,-99.88197,156.2759,-37.51312,202408261107223632,
2-13,A_Baseline,1,Q1FrontUp,-45.45123,21.55467,97.45189,-24.63918,-99.75247,156.3636,-37.51369,202408261107223949,
2-13,A_Baseline,1,Q1FrontUp,-45.44042,21.49751,97.49474,-24.63903,-99.64689,156.4311,-37.51384,202408261107224190,
2-13,A_Baseline,1,Q1FrontUp,-45.43645,21.44521,97.53197,-24.63884,-99.56264,156.4828,-37.5136,202408261107224438,
2-13,A_Baseline,1,Q1FrontUp,-45.43645,21.44521,97.53197,-24.63884,-99.56264,156.4828,-37.5136,202408261107224612,
2-13,A_Baseline,1,Q1FrontUp,-45.42731,21.39598,97.55466,-24.63919,-99.48121,156.5389,-37.51358,202408261107224788,
2-13,A_Baseline,1,Q1FrontUp,-45.42731,21.39598,97.55466,-24.63919,-99.48121,156.5389,-37.51358,202408261107224953,
2-13,A_Baseline,1,Q1FrontUp,-45.41656,21.35369,97.577,-24.63925,-99.42242,156.5877,-37.51353,202408261107225201,
2-13,A_Baseline,1,Q1FrontUp,-45.41317,21.31198,97.603,-24.63915,-99.3684,156.6314,-37.51378,202408261107225448,
2-13,A_Baseline,1,Q1FrontUp,-45.41317,21.31198,97.603,-24.63915,-99.3684,156.6314,-37.51378,202408261107225632,
2-13,A_Baseline,1,Q1FrontUp,-45.41313,21.27455,97.64023,-24.63893,-99.30862,156.713,-37.51557,202408261107225807,
2-13,A_Baseline,1,Q1FrontUp,-45.41307,21.23863,97.67263,-24.6393,-99.25645,156.7957,-37.51594,202408261107226031,
2-13,A_Baseline,1,Q1FrontUp,-45.41307,21.23863,97.67263,-24.6393,-99.25645,156.7957,-37.51594,202408261107226302,
2-13,A_Baseline,1,Q1FrontUp,-45.41307,21.23863,97.67263,-24.6393,-99.25645,156.7957,-37.51594,202408261107226615,
2-13,A_Baseline,1,Q1FrontUp,-45.41255,21.16278,97.74421,-24.63961,-99.18887,156.9372,-37.51608,202408261107226791,
2-13,A_Baseline,1,Q1FrontUp,-45.41255,21.16278,97.74421,-24.63961,-99.18887,156.9372,-37.51608,202408261107226954,
2-13,A_Baseline,1,Q1FrontUp,-45.41305,21.13231,97.78773,-24.63976,-99.16881,156.9994,-37.51637,202408261107227138,
2-13,A_Baseline,1,Q1FrontUp,-45.41269,21.10465,97.84522,-24.64018,-99.15566,157.0394,-37.51653,202408261107227377,
2-13,A_Baseline,1,Q1FrontUp,-45.41269,21.10465,97.84522,-24.64018,-99.15566,157.0394,-37.51653,202408261107227631,
2-13,A_Baseline,1,Q1FrontUp,-45.41279,21.07872,97.9016,-24.64014,-99.13942,157.075,-37.5163,202408261107227979,
2-13,A_Baseline,1,Q1FrontUp,-45.41401,21.0573,97.98661,-24.64663,-99.10633,157.1147,-37.51677,202408261107228123,
2-13,A_Baseline,1,Q1FrontUp,-45.41401,21.0573,97.98661,-24.64663,-99.10633,157.1147,-37.51677,202408261107228303,
2-13,A_Baseline,1,Q1FrontUp,-45.41317,21.04116,98.10793,-24.6551,-99.05611,157.1585,-37.5187,202408261107228505,
2-13,A_Baseline,1,Q1FrontUp,-45.41365,21.02076,98.21813,-24.66725,-99.01382,157.2113,-37.51921,202408261107228790,
2-13,A_Baseline,1,Q1FrontUp,-45.41365,21.02076,98.21813,-24.66725,-99.01382,157.2113,-37.51921,202408261107228948,
2-13,A_Baseline,1,Q1FrontUp,-45.41446,20.99425,98.33517,-24.68174,-98.95345,157.2571,-37.52033,202408261107229157,
2-13,A_Baseline,1,Q1FrontUp,-45.41467,20.96228,98.44925,-24.7016,-98.86947,157.2983,-37.5224,202408261107229466,
2-13,A_Baseline,1,Q1FrontUp,-45.41467,20.96228,98.44925,-24.7016,-98.86947,157.2983,-37.5224,202408261107229690,
2-13,A_Baseline,1,Q1FrontUp,-45.41525,20.92348,98.56305,-24.71286,-98.83841,157.3271,-37.5234,202408261107229948,
2-13,A_Baseline,1,Q1FrontUp,-45.41535,20.89007,98.69713,-24.7269,-98.80879,157.3495,-37.52815,202408261107230121,
2-13,A_Baseline,1,Q1FrontUp,-45.41535,20.89007,98.69713,-24.7269,-98.80879,157.3495,-37.52815,202408261107230294,
2-13,A_Baseline,1,Q1FrontUp,-45.4151,20.86393,98.86569,-24.74799,-98.78489,157.3678,-37.53715,202408261107230459,
2-13,A_Baseline,1,Q1FrontUp,-45.4151,20.86393,98.86569,-24.74799,-98.78489,157.3678,-37.53715,202408261107230684,
2-13,A_Baseline,1,Q1FrontUp,-45.41541,20.83897,99.01781,-24.76393,-98.76452,157.3839,-37.54343,202408261107230838,
2-13,A_Baseline,1,Q1FrontUp,-45.41544,20.80953,99.14946,-24.7758,-98.73375,157.3917,-37.57568,202408261107231121,
2-13,A_Baseline,1,Q1FrontUp,-45.41544,20.80953,99.14946,-24.7758,-98.73375,157.3917,-37.57568,202408261107231291,
2-13,A_Baseline,1,Q1FrontUp,-45.41526,20.77411,99.25512,-24.78646,-98.70151,157.3917,-37.63236,202408261107231451,
2-13,A_Baseline,1,Q1FrontUp,-45.41526,20.77411,99.25512,-24.78646,-98.70151,157.3917,-37.63236,202408261107231612,
2-13,A_Baseline,1,Q1FrontUp,-45.41448,20.72145,99.27832,-24.7913,-98.63048,157.3915,-37.74771,202408261107231797,
2-13,A_Baseline,1,Q1FrontUp,-45.41448,20.72145,99.27832,-24.7913,-98.63048,157.3915,-37.74771,202408261107232015,
2-13,A_Baseline,1,Q1FrontUp,-45.41417,20.67201,99.30783,-24.79394,-98.5961,157.3914,-37.81606,202408261107232186,
2-13,A_Baseline,1,Q1FrontUp,-45.41417,20.67201,99.30783,-24.79394,-98.5961,157.3914,-37.81606,202408261107232461,
2-13,A_Baseline,1,Q1FrontUp,-45.41353,20.62861,99.34896,-24.80253,-98.5878,157.3912,-37.85529,202408261107232660,
2-13,A_Baseline,1,Q1FrontUp,-45.41347,20.58295,99.38044,-24.80855,-98.58776,157.3878,-37.90375,202408261107232981,
2-13,A_Baseline,1,Q1FrontUp,-45.41368,20.54279,99.41985,-24.81717,-98.58788,157.3766,-37.94405,202408261107233189,
2-13,A_Baseline,1,Q1FrontUp,-45.41355,20.50848,99.47218,-24.82997,-98.58806,157.358,-37.98236,202408261107233459,
2-13,A_Baseline,1,Q1FrontUp,-45.41355,20.50848,99.47218,-24.82997,-98.58806,157.358,-37.98236,202408261107233668,
2-13,A_Baseline,1,Q1FrontUp,-45.41357,20.46767,99.53271,-24.84204,-98.58768,157.3134,-38.02265,202408261107233927,
2-13,A_Baseline,1,Q1FrontUp,-45.41348,20.43066,99.59061,-24.85681,-98.58792,157.2799,-38.05753,202408261107234125,
2-13,A_Baseline,1,Q1FrontUp,-45.41348,20.43066,99.59061,-24.85681,-98.58792,157.2799,-38.05753,202408261107234331,
2-13,A_Baseline,1,Q1FrontUp,-45.41301,20.39621,99.64532,-24.87309,-98.58765,157.2586,-38.09426,202408261107234610,
2-13,A_Baseline,1,Q1FrontUp,-45.40195,20.35695,99.67433,-24.87847,-98.58766,157.2346,-38.13385,202408261107234772,
2-13,A_Baseline,1,Q1FrontUp,-45.40195,20.35695,99.67433,-24.87847,-98.58766,157.2346,-38.13385,202408261107234939,
2-13,A_Baseline,1,Q1FrontUp,-45.39006,20.32181,99.70815,-24.88453,-98.5875,157.2199,-38.18053,202408261107235110,
2-13,A_Baseline,1,Q1FrontUp,-45.39006,20.32181,99.70815,-24.88453,-98.5875,157.2199,-38.18053,202408261107235310,
2-13,A_Baseline,1,Q1FrontUp,-45.37749,20.29092,99.74744,-24.89627,-98.58676,157.2067,-38.23399,202408261107235490,
2-13,A_Baseline,1,Q1FrontUp,-45.331,20.25856,99.75294,-24.90398,-98.58684,157.2071,-38.27501,202408261107235783,
2-13,A_Baseline,1,Q1FrontUp,-45.331,20.25856,99.75294,-24.90398,-98.58684,157.2071,-38.27501,202408261107235948,
2-13,A_Baseline,1,Q1FrontUp,-45.24417,20.22862,99.75306,-24.9101,-98.5867,157.2072,-38.31844,202408261107236139,
2-13,A_Baseline,1,Q1FrontUp,-45.12433,20.20227,99.75125,-24.91141,-98.58678,157.2073,-38.3633,202408261107236458,
2-13,A_Baseline,1,Q1FrontUp,-44.99411,20.17108,99.75066,-24.91707,-98.58666,157.2074,-38.40596,202408261107236694,
2-13,A_Baseline,1,Q1FrontUp,-44.99411,20.17108,99.75066,-24.91707,-98.58666,157.2074,-38.40596,202408261107236956,
2-13,A_Baseline,1,Q1FrontUp,-44.87168,20.14263,99.74888,-24.93771,-98.58685,157.2077,-38.44728,202408261107237189,
2-13,A_Baseline,1,Q1FrontUp,-44.75435,20.11722,99.74609,-24.96839,-98.58665,157.2074,-38.48444,202408261107237480,
2-13,A_Baseline,1,Q1FrontUp,-44.75435,20.11722,99.74609,-24.96839,-98.58665,157.2074,-38.48444,202408261107237715,
2-13,A_Baseline,1,Q1FrontUp,-44.63511,20.09394,99.73219,-25.00202,-98.58715,157.2076,-38.53325,202408261107237972,
2-13,A_Baseline,1,Q1FrontUp,-44.50435,20.06587,99.7095,-25.03507,-98.5876,157.2078,-38.58274,202408261107238137,
2-13,A_Baseline,1,Q1FrontUp,-44.50435,20.06587,99.7095,-25.03507,-98.5876,157.2078,-38.58274,202408261107238296,
2-13,A_Baseline,1,Q1FrontUp,-44.35477,20.04029,99.68158,-25.06552,-98.58767,157.2082,-38.62891,202408261107238470,
2-13,A_Baseline,1,Q1FrontUp,-44.35477,20.04029,99.68158,-25.06552,-98.58767,157.2082,-38.62891,202408261107238681,
2-13,A_Baseline,1,Q1FrontUp,-44.21177,20.00588,99.67055,-25.1205,-98.58774,157.2074,-38.67597,202408261107238838,
2-13,A_Baseline,1,Q1FrontUp,-44.08058,19.96412,99.64518,-25.1893,-98.5878,157.2081,-38.71964,202408261107239105,
2-13,A_Baseline,1,Q1FrontUp,-44.08058,19.96412,99.64518,-25.1893,-98.5878,157.2081,-38.71964,202408261107239290,
2-13,A_Baseline,1,Q1FrontUp,-43.94462,19.91546,99.60925,-25.25801,-98.58772,157.2082,-38.7606,202408261107239438,
2-13,A_Baseline,1,Q1FrontUp,-43.94462,19.91546,99.60925,-25.25801,-98.58772,157.2082,-38.7606,202408261107239621,
2-13,A_Baseline,1,Q1FrontUp,-43.78909,19.86527,99.56746,-25.32477,-98.58768,157.2086,-38.81126,202408261107239799,
2-13,A_Baseline,1,Q1FrontUp,-43.78909,19.86527,99.56746,-25.32477,-98.58768,157.2086,-38.81126,202408261107240006,
2-13,A_Baseline,1,Q1FrontUp,-43.6354,19.81321,99.52626,-25.38006,-98.58774,157.213,-38.85343,202408261107240167,
2-13,A_Baseline,1,Q1FrontUp,-43.48805,19.75473,99.47849,-25.43345,-98.58765,157.2202,-38.89248,202408261107240469,
2-13,A_Baseline,1,Q1FrontUp,-43.48805,19.75473,99.47849,-25.43345,-98.58765,157.2202,-38.89248,202408261107240635,
2-13,A_Baseline,1,Q1FrontUp,-43.3599,19.69039,99.43016,-25.48596,-98.58797,157.2278,-38.92771,202408261107240795,
2-13,A_Baseline,1,Q1FrontUp,-43.3599,19.69039,99.43016,-25.48596,-98.58797,157.2278,-38.92771,202408261107241012,
2-13,A_Baseline,1,Q1FrontUp,-43.24739,19.63814,99.38442,-25.54497,-98.58803,157.2309,-38.96513,202408261107241289,
2-13,A_Baseline,1,Q1FrontUp,-43.13887,19.59704,99.34545,-25.60675,-98.58796,157.2309,-39.00655,202408261107241460,
2-13,A_Baseline,1,Q1FrontUp,-43.13887,19.59704,99.34545,-25.60675,-98.58796,157.2309,-39.00655,202408261107241611,
2-13,A_Baseline,1,Q1FrontUp,-42.99998,19.56658,99.25281,-25.67081,-98.5881,157.2313,-39.07848,202408261107241846,
2-13,A_Baseline,1,Q1FrontUp,-42.99998,19.56658,99.25281,-25.67081,-98.5881,157.2313,-39.07848,202408261107242013,
2-13,A_Baseline,1,Q1FrontUp,-42.84773,19.53926,99.14885,-25.73043,-98.58797,157.2322,-39.12449,202408261107242294,
2-13,A_Baseline,1,Q1FrontUp,-42.84773,19.53926,99.14885,-25.73043,-98.58797,157.2322,-39.12449,202408261107242457,
2-13,A_Baseline,1,Q1FrontUp,-42.68946,19.52436,99.04324,-25.80488,-98.58817,157.2317,-39.15359,202408261107242639,
2-13,A_Baseline,1,Q1FrontUp,-42.53003,19.51851,98.91443,-25.90864,-98.58798,157.2335,-39.18569,202408261107242804,
2-13,A_Baseline,1,Q1FrontUp,-42.53003,19.51851,98.91443,-25.90864,-98.58798,157.2335,-39.18569,202408261107242981,
2-13,A_Baseline,1,Q1FrontUp,-42.37579,19.5195,98.7859,-26.04227,-98.58759,157.2344,-39.24947,202408261107243179,
2-13,A_Baseline,1,Q1FrontUp,-42.37579,19.5195,98.7859,-26.04227,-98.58759,157.2344,-39.24947,202408261107243339,
2-13,A_Baseline,1,Q1FrontUp,-42.21737,19.52157,98.62895,-26.1687,-98.58736,157.2338,-39.33638,202408261107243613,
2-13,A_Baseline,1,Q1FrontUp,-42.05544,19.5233,98.47203,-26.28847,-98.58736,157.2329,-39.41736,202408261107243820,
2-13,A_Baseline,1,Q1FrontUp,-41.90823,19.52506,98.32649,-26.41338,-98.58727,157.2331,-39.5074,202408261107244111,
2-13,A_Baseline,1,Q1FrontUp,-41.90823,19.52506,98.32649,-26.41338,-98.58727,157.2331,-39.5074,202408261107244336,
2-13,A_Baseline,1,Q1FrontUp,-41.78424,19.52723,98.19202,-26.5473,-98.58757,157.2328,-39.60758,202408261107244612,
2-13,A_Baseline,1,Q1FrontUp,-41.66475,19.53829,98.0375,-26.69473,-98.58997,157.2336,-39.63689,202408261107244791,
2-13,A_Baseline,1,Q1FrontUp,-41.66475,19.53829,98.0375,-26.69473,-98.58997,157.2336,-39.63689,202408261107245024,
2-13,A_Baseline,1,Q1FrontUp,-41.39053,19.55208,97.65611,-26.95627,-98.59068,157.2336,-39.77022,202408261107245361,
2-13,A_Baseline,1,Q1FrontUp,-41.39053,19.55208,97.65611,-26.95627,-98.59068,157.2336,-39.77022,202408261107245637,
2-13,A_Baseline,1,Q1FrontUp,-41.24345,19.5725,97.49044,-27.08315,-98.59113,157.2331,-39.84024,202408261107245967,
2-13,A_Baseline,1,Q1FrontUp,-41.10473,19.61048,97.32231,-27.23176,-98.59089,157.2334,-39.89723,202408261107246290,
2-13,A_Baseline,1,Q1FrontUp,-40.98016,19.65296,97.13525,-27.39601,-98.59112,157.2338,-39.9413,202408261107246506,
2-13,A_Baseline,1,Q1FrontUp,-40.84734,19.69975,96.89295,-27.56903,-98.59258,157.2333,-39.99414,202408261107246779,
2-13,A_Baseline,1,Q1FrontUp,-40.84734,19.69975,96.89295,-27.56903,-98.59258,157.2333,-39.99414,202408261107246953,
2-13,A_Baseline,1,Q1FrontUp,-40.68583,19.74011,96.65196,-27.71354,-98.5948,157.2339,-40.05105,202408261107247115,
2-13,A_Baseline,1,Q1FrontUp,-40.68583,19.74011,96.65196,-27.71354,-98.5948,157.2339,-40.05105,202408261107247277,
2-13,A_Baseline,1,Q1FrontUp,-40.48037,19.7933,96.38026,-27.85349,-98.59774,157.2331,-40.10519,202408261107247451,
2-13,A_Baseline,1,Q1FrontUp,-40.28279,19.87155,96.10394,-28.03961,-98.59772,157.2331,-40.13968,202408261107247682,
2-13,A_Baseline,1,Q1FrontUp,-40.28279,19.87155,96.10394,-28.03961,-98.59772,157.2331,-40.13968,202408261107248030,
2-13,A_Baseline,1,Q1FrontUp,-40.10989,19.94936,95.87898,-28.22719,-98.59814,157.234,-40.17007,202408261107248304,
2-13,A_Baseline,1,Q1FrontUp,-39.92917,20.04168,95.67093,-28.39742,-98.59862,157.2336,-40.19807,202408261107248672,
2-13,A_Baseline,1,Q1FrontUp,-39.73154,20.15671,95.4566,-28.56207,-98.62083,157.2327,-40.22801,202408261107248933,
2-13,A_Baseline,1,Q1FrontUp,-39.56703,20.26685,95.24869,-28.74657,-98.6311,157.2335,-40.26055,202408261107249106,
2-13,A_Baseline,1,Q1FrontUp,-39.56703,20.26685,95.24869,-28.74657,-98.6311,157.2335,-40.26055,202408261107249270,
2-13,A_Baseline,1,Q1FrontUp,-39.43816,20.39111,95.06436,-28.95174,-98.6321,157.2333,-40.29453,202408261107249439,
2-13,A_Baseline,1,Q1FrontUp,-39.33007,20.49911,94.87357,-29.14137,-98.64203,157.233,-40.30525,202408261107249700,
2-13,A_Baseline,1,Q1FrontUp,-39.33007,20.49911,94.87357,-29.14137,-98.64203,157.233,-40.30525,202408261107249855,
2-13,A_Baseline,1,Q1FrontUp,-39.2029,20.61248,94.6775,-29.31739,-98.67599,157.2333,-40.32259,202408261107250141,
2-13,A_Baseline,1,Q1FrontUp,-39.2029,20.61248,94.6775,-29.31739,-98.67599,157.2333,-40.32259,202408261107250305,
2-13,A_Baseline,1,Q1FrontUp,-39.08085,20.73024,94.51603,-29.49575,-98.71301,157.2329,-40.34272,202408261107250634,
2-13,A_Baseline,1,Q1FrontUp,-38.95811,20.86573,94.38376,-29.68068,-98.71428,157.2336,-40.35902,202408261107250806,
2-13,A_Baseline,1,Q1FrontUp,-38.95811,20.86573,94.38376,-29.68068,-98.71428,157.2336,-40.35902,202408261107251018,
2-13,A_Baseline,1,Q1FrontUp,-38.95811,20.86573,94.38376,-29.68068,-98.71428,157.2336,-40.35902,202408261107251187,
2-13,A_Baseline,1,Q1FrontUp,-38.75461,21.1246,94.15341,-30.00323,-98.71513,157.2353,-40.38419,202408261107251444,
2-13,A_Baseline,1,Q1FrontUp,-38.64603,21.24146,94.01198,-30.14169,-98.71485,157.2352,-40.39605,202408261107251778,
2-13,A_Baseline,1,Q1FrontUp,-38.64603,21.24146,94.01198,-30.14169,-98.71485,157.2352,-40.39605,202408261107251974,
2-13,A_Baseline,1,Q1FrontUp,-38.56074,21.35463,93.8827,-30.27083,-98.71728,157.235,-40.40622,202408261107252232,
2-13,A_Baseline,1,Q1FrontUp,-38.56074,21.35463,93.8827,-30.27083,-98.71728,157.235,-40.40622,202408261107252445,
2-13,A_Baseline,1,Q1FrontUp,-38.48176,21.46647,93.79207,-30.38868,-98.72427,157.235,-40.41556,202408261107252652,
2-13,A_Baseline,1,Q1FrontUp,-38.41822,21.57691,93.72991,-30.52192,-98.72439,157.2349,-40.41989,202408261107252860,
2-13,A_Baseline,1,Q1FrontUp,-38.35308,21.69477,93.67371,-30.65403,-98.73058,157.235,-40.43716,202408261107253276,
2-13,A_Baseline,1,Q1FrontUp,-38.29625,21.80596,93.6082,-30.77392,-98.74464,157.2347,-40.46312,202408261107253482,
2-13,A_Baseline,1,Q1FrontUp,-38.2511,21.93321,93.55419,-30.9337,-98.7522,157.2348,-40.46567,202408261107253810,
2-13,A_Baseline,1,Q1FrontUp,-38.2511,21.93321,93.55419,-30.9337,-98.7522,157.2348,-40.46567,202408261107253971,
2-13,A_Baseline,1,Q1FrontUp,-38.22906,22.0506,93.48241,-31.10093,-98.77502,157.2365,-40.46718,202408261107254157,
2-13,A_Baseline,1,Q1FrontUp,-38.21188,22.17668,93.39226,-31.28158,-98.8067,157.2366,-40.46878,202408261107254417,
2-13,A_Baseline,1,Q1FrontUp,-38.21188,22.17668,93.39226,-31.28158,-98.8067,157.2366,-40.46878,202408261107254653,
2-13,A_Baseline,1,Q1FrontUp,-38.18977,22.28438,93.30143,-31.43488,-98.83004,157.2366,-40.47055,202408261107254789,
2-13,A_Baseline,1,Q1FrontUp,-38.18977,22.28438,93.30143,-31.43488,-98.83004,157.2366,-40.47055,202408261107254988,
2-13,A_Baseline,1,Q1FrontUp,-38.12634,22.56105,93.09974,-31.76161,-98.86983,157.2453,-40.47201,202408261107255351,
2-13,A_Baseline,1,Q1FrontUp,-38.12634,22.56105,93.09974,-31.76161,-98.86983,157.2453,-40.47201,202408261107255525,
2-13,A_Baseline,1,Q1FrontUp,-38.07255,22.72109,92.9304,-31.93895,-98.91078,157.251,-40.47258,202408261107255869,
2-13,A_Baseline,1,Q1FrontUp,-38.02743,22.85781,92.78945,-32.08257,-98.96656,157.2543,-40.47315,202408261107256131,
2-13,A_Baseline,1,Q1FrontUp,-38.02743,22.85781,92.78945,-32.08257,-98.96656,157.2543,-40.47315,202408261107256294,
2-13,A_Baseline,1,Q1FrontUp,-38.02743,22.85781,92.78945,-32.08257,-98.96656,157.2543,-40.47315,202408261107256458,
2-13,A_Baseline,1,Q1FrontUp,-37.88701,23.20144,92.47179,-32.39845,-99.09791,157.261,-40.47318,202408261107256690,
2-13,A_Baseline,1,Q1FrontUp,-37.88701,23.20144,92.47179,-32.39845,-99.09791,157.261,-40.47318,202408261107256960,
2-13,A_Baseline,1,Q1FrontUp,-37.81916,23.39634,92.3098,-32.57091,-99.16943,157.2622,-40.47326,202408261107257299,
2-13,A_Baseline,1,Q1FrontUp,-37.74819,23.60217,92.14046,-32.74773,-99.25269,157.2621,-40.47309,202408261107257518,
2-13,A_Baseline,1,Q1FrontUp,-37.67198,23.81602,91.97709,-32.90466,-99.34251,157.2622,-40.47318,202408261107257804,
2-13,A_Baseline,1,Q1FrontUp,-37.57465,24.03527,91.76464,-33.04943,-99.43703,157.2626,-40.47345,202408261107257979,
2-13,A_Baseline,1,Q1FrontUp,-37.57465,24.03527,91.76464,-33.04943,-99.43703,157.2626,-40.47345,202408261107258292,
2-13,A_Baseline,1,Q1FrontUp,-37.47938,24.25761,91.53488,-33.19515,-99.52969,157.2626,-40.47349,202408261107258457,
2-13,A_Baseline,1,Q1FrontUp,-37.3952,24.49275,91.2948,-33.3626,-99.6171,157.2625,-40.47363,202408261107258826,
2-13,A_Baseline,1,Q1FrontUp,-37.32046,24.73381,91.03603,-33.53252,-99.72241,157.2646,-40.47381,202408261107259023,
2-13,A_Baseline,1,Q1FrontUp,-37.32046,24.73381,91.03603,-33.53252,-99.72241,157.2646,-40.47381,202408261107259290,
2-13,A_Baseline,1,Q1FrontUp,-37.24457,24.96614,90.75746,-33.68767,-99.8335,157.2642,-40.47351,202408261107259445,
2-13,A_Baseline,1,Q1FrontUp,-37.24457,24.96614,90.75746,-33.68767,-99.8335,157.2642,-40.47351,202408261107259610,
2-13,A_Baseline,1,Q1FrontUp,-37.15181,25.2297,90.46857,-33.84913,-99.93753,157.2646,-40.47435,202408261107259804,
2-13,A_Baseline,1,Q1FrontUp,-37.15181,25.2297,90.46857,-33.84913,-99.93753,157.2646,-40.47435,202408261107260010,
2-13,A_Baseline,1,Q1FrontUp,-37.03704,25.51904,90.1497,-34.01627,-100.0118,157.2646,-40.47486,202408261107260292,
2-13,A_Baseline,1,Q1FrontUp,-36.91706,25.81043,89.86575,-34.16745,-100.0717,157.2642,-40.47541,202408261107260460,
2-13,A_Baseline,1,Q1FrontUp,-36.78685,26.13025,89.57301,-34.3335,-100.1733,157.2656,-40.47565,202408261107260723,
2-13,A_Baseline,1,Q1FrontUp,-36.78685,26.13025,89.57301,-34.3335,-100.1733,157.2656,-40.47565,202408261107260949,
2-13,A_Baseline,1,Q1FrontUp,-36.66557,26.42093,89.29315,-34.47258,-100.2661,157.2653,-40.47544,202408261107261161,
2-13,A_Baseline,1,Q1FrontUp,-36.56021,26.72139,89.03919,-34.62386,-100.3604,157.2647,-40.47569,202408261107261454,
2-13,A_Baseline,1,Q1FrontUp,-36.56021,26.72139,89.03919,-34.62386,-100.3604,157.2647,-40.47569,202408261107261617,
2-13,A_Baseline,1,Q1FrontUp,-36.56021,26.72139,89.03919,-34.62386,-100.3604,157.2647,-40.47569,202408261107261789,
2-13,A_Baseline,1,Q1FrontUp,-36.43992,27.02603,88.74355,-34.7751,-100.409,157.2629,-40.47555,202408261107261971,
2-13,A_Baseline,1,Q1FrontUp,-36.33879,27.30922,88.46329,-34.93472,-100.4657,157.2628,-40.47506,202408261107262205,
2-13,A_Baseline,1,Q1FrontUp,-36.33879,27.30922,88.46329,-34.93472,-100.4657,157.2628,-40.47506,202408261107262470,
2-13,A_Baseline,1,Q1FrontUp,-36.23763,27.58478,88.23618,-35.09695,-100.533,157.263,-40.47542,202408261107262651,
2-13,A_Baseline,1,Q1FrontUp,-35.96878,28.09327,87.81226,-35.40115,-100.6021,157.2631,-40.47633,202408261107262998,
2-13,A_Baseline,1,Q1FrontUp,-35.96878,28.09327,87.81226,-35.40115,-100.6021,157.2631,-40.47633,202408261107263177,
2-13,A_Baseline,1,Q1FrontUp,-35.84712,28.33172,87.64222,-35.57004,-100.6311,157.263,-40.47689,202408261107263437,
2-13,A_Baseline,1,Q1FrontUp,-35.84712,28.33172,87.64222,-35.57004,-100.6311,157.263,-40.47689,202408261107263617,
2-13,A_Baseline,1,Q1FrontUp,-35.84712,28.33172,87.64222,-35.57004,-100.6311,157.263,-40.47689,202408261107263813,
2-13,A_Baseline,1,Q1FrontUp,-35.60043,28.75522,87.36629,-35.90413,-100.6476,157.2625,-40.47789,202408261107264156,
2-13,A_Baseline,1,Q1FrontUp,-35.46746,28.92243,87.26337,-36.03271,-100.6475,157.2624,-40.47892,202408261107264379,
2-13,A_Baseline,1,Q1FrontUp,-35.46746,28.92243,87.26337,-36.03271,-100.6475,157.2624,-40.47892,202408261107264661,
2-13,A_Baseline,1,Q1FrontUp,-35.32146,29.06723,87.08195,-36.13252,-100.7312,157.2639,-40.47964,202408261107264819,
2-13,A_Baseline,1,Q1FrontUp,-35.32146,29.06723,87.08195,-36.13252,-100.7312,157.2639,-40.47964,202408261107265010,
2-13,A_Baseline,1,Q1FrontUp,-35.19656,29.19445,86.96124,-36.21754,-100.7876,157.2641,-40.47968,202408261107265182,
2-13,A_Baseline,1,Q1FrontUp,-35.09446,29.29668,86.8766,-36.28459,-100.8154,157.2637,-40.47995,202408261107265437,
2-13,A_Baseline,1,Q1FrontUp,-35.09446,29.29668,86.8766,-36.28459,-100.8154,157.2637,-40.47995,202408261107265643,
2-13,A_Baseline,1,Q1FrontUp,-34.9738,29.37922,86.81984,-36.29716,-100.8146,157.2625,-40.4806,202408261107265954,
2-13,A_Baseline,1,Q1FrontUp,-34.83747,29.46013,86.76991,-36.30882,-100.8148,157.2621,-40.48219,202408261107266131,
2-13,A_Baseline,1,Q1FrontUp,-34.83747,29.46013,86.76991,-36.30882,-100.8148,157.2621,-40.48219,202408261107266299,
2-13,A_Baseline,1,Q1FrontUp,-34.69908,29.49991,86.72318,-36.31974,-100.8144,157.2628,-40.48283,202408261107266490,
2-13,A_Baseline,1,Q1FrontUp,-34.52102,29.50129,86.69062,-36.30568,-100.8,157.2631,-40.48317,202408261107266781,
2-13,A_Baseline,1,Q1FrontUp,-34.52102,29.50129,86.69062,-36.30568,-100.8,157.2631,-40.48317,202408261107267026,
2-13,A_Baseline,1,Q1FrontUp,-34.31485,29.48512,86.65378,-36.2509,-100.7582,157.2655,-40.48354,202408261107267281,
2-13,A_Baseline,1,Q1FrontUp,-34.05733,29.45286,86.61475,-36.14228,-100.7088,157.2775,-40.48366,202408261107267453,
2-13,A_Baseline,1,Q1FrontUp,-34.05733,29.45286,86.61475,-36.14228,-100.7088,157.2775,-40.48366,202408261107267674,
2-13,A_Baseline,1,Q1FrontUp,-33.49911,29.33816,86.5416,-35.90808,-100.583,157.2986,-40.48396,202408261107267976,
2-13,A_Baseline,1,Q1FrontUp,-33.49911,29.33816,86.5416,-35.90808,-100.583,157.2986,-40.48396,202408261107268307,
2-13,A_Baseline,1,Q1FrontUp,-33.19754,29.24916,86.46505,-35.76072,-100.4832,157.3091,-40.48375,202408261107268513,
2-13,A_Baseline,1,Q1FrontUp,-32.85131,29.14649,86.37493,-35.57752,-100.3196,157.3188,-40.48401,202408261107268777,
2-13,A_Baseline,1,Q1FrontUp,-32.52497,29.03559,86.31281,-35.39422,-100.1763,157.3337,-40.48417,202408261107269112,
2-13,A_Baseline,1,Q1FrontUp,-32.52497,29.03559,86.31281,-35.39422,-100.1763,157.3337,-40.48417,202408261107269278,
2-13,A_Baseline,1,Q1FrontUp,-32.22735,28.92273,86.26192,-35.20354,-100.0462,157.3406,-40.4841,202408261107269448,
2-13,A_Baseline,1,Q1FrontUp,-32.22735,28.92273,86.26192,-35.20354,-100.0462,157.3406,-40.4841,202408261107269618,
2-13,A_Baseline,1,Q1FrontUp,-31.95598,28.74848,86.25803,-34.98708,-99.83598,157.3527,-40.48462,202408261107269831,
2-13,A_Baseline,1,Q1FrontUp,-31.95598,28.74848,86.25803,-34.98708,-99.83598,157.3527,-40.48462,202408261107270010,
2-13,A_Baseline,1,Q1FrontUp,-31.70689,28.59096,86.25778,-34.78533,-99.675,157.3579,-40.48474,202408261107270297,
2-13,A_Baseline,1,Q1FrontUp,-31.46923,28.39749,86.26186,-34.56258,-99.52946,157.3598,-40.48558,202408261107270472,
2-13,A_Baseline,1,Q1FrontUp,-31.46923,28.39749,86.26186,-34.56258,-99.52946,157.3598,-40.48558,202408261107270626,
2-13,A_Baseline,1,Q1FrontUp,-31.27414,28.18911,86.26826,-34.35138,-99.37852,157.364,-40.48568,202408261107270857,
2-13,A_Baseline,1,Q1FrontUp,-31.11537,27.95685,86.27843,-34.14794,-99.23158,157.3679,-40.48646,202408261107271101,
2-13,A_Baseline,1,Q1FrontUp,-31.11537,27.95685,86.27843,-34.14794,-99.23158,157.3679,-40.48646,202408261107271289,
2-13,A_Baseline,1,Q1FrontUp,-30.95053,27.72103,86.29443,-33.93836,-99.09045,157.3767,-40.48618,202408261107271654,
2-13,A_Baseline,1,Q1FrontUp,-30.80833,27.50467,86.31152,-33.73234,-98.98164,157.387,-40.48669,202408261107271831,
2-13,A_Baseline,1,Q1FrontUp,-30.68939,27.2645,86.33688,-33.54264,-98.86643,157.3898,-40.50368,202408261107272114,
2-13,A_Baseline,1,Q1FrontUp,-30.68939,27.2645,86.33688,-33.54264,-98.86643,157.3898,-40.50368,202408261107272283,
2-13,A_Baseline,1,Q1FrontUp,-30.68939,27.2645,86.33688,-33.54264,-98.86643,157.3898,-40.50368,202408261107272460,
2-13,A_Baseline,1,Q1FrontUp,-30.60011,27.02809,86.37037,-33.38573,-98.77278,157.3901,-40.52751,202408261107272620,
2-13,A_Baseline,1,Q1FrontUp,-30.51428,26.8072,86.40046,-33.23494,-98.70506,157.3923,-40.52903,202408261107272845,
2-13,A_Baseline,1,Q1FrontUp,-30.51428,26.8072,86.40046,-33.23494,-98.70506,157.3923,-40.52903,202408261107273013,
2-13,A_Baseline,1,Q1FrontUp,-30.40849,26.59192,86.41051,-33.08048,-98.6622,157.3938,-40.53086,202408261107273221,
2-13,A_Baseline,1,Q1FrontUp,-30.28341,26.39386,86.41073,-32.9239,-98.64039,157.3954,-40.53503,202408261107273456,
2-13,A_Baseline,1,Q1FrontUp,-30.28341,26.39386,86.41073,-32.9239,-98.64039,157.3954,-40.53503,202408261107273619,
2-13,A_Baseline,1,Q1FrontUp,-30.13201,26.19993,86.411,-32.77446,-98.62277,157.3968,-40.53854,202408261107273797,
2-13,A_Baseline,1,Q1FrontUp,-30.13201,26.19993,86.411,-32.77446,-98.62277,157.3968,-40.53854,202408261107273955,
2-13,A_Baseline,1,Q1FrontUp,-29.96328,26.05616,86.3886,-32.67207,-98.6143,157.3988,-40.54836,202408261107274153,
2-13,A_Baseline,1,Q1FrontUp,-29.77805,25.90049,86.35407,-32.57623,-98.61455,157.4199,-40.57162,202408261107274446,
2-13,A_Baseline,1,Q1FrontUp,-29.77805,25.90049,86.35407,-32.57623,-98.61455,157.4199,-40.57162,202408261107274613,
2-13,A_Baseline,1,Q1FrontUp,-29.52922,25.77748,86.24454,-32.49001,-98.61691,157.4556,-40.58375,202408261107274849,
2-13,A_Baseline,1,Q1FrontUp,-29.23163,25.66304,86.09901,-32.41342,-98.62,157.4787,-40.60164,202408261107275098,
2-13,A_Baseline,1,Q1FrontUp,-28.90879,25.5619,85.90732,-32.36821,-98.62341,157.494,-40.62233,202408261107275348,
2-13,A_Baseline,1,Q1FrontUp,-28.90879,25.5619,85.90732,-32.36821,-98.62341,157.494,-40.62233,202408261107275640,
2-13,A_Baseline,1,Q1FrontUp,-28.45315,25.44859,85.53292,-32.3176,-98.64681,157.5014,-40.64985,202408261107275785,
2-13,A_Baseline,1,Q1FrontUp,-27.97996,25.36868,85.17761,-32.29346,-98.66756,157.5051,-40.675,202408261107276107,
2-13,A_Baseline,1,Q1FrontUp,-27.97996,25.36868,85.17761,-32.29346,-98.66756,157.5051,-40.675,202408261107276324,
2-13,A_Baseline,1,Q1FrontUp,-27.48853,25.31267,84.7778,-32.26198,-98.67936,157.5052,-40.6966,202408261107276615,
2-13,A_Baseline,1,Q1FrontUp,-26.91317,25.2575,84.32304,-32.24652,-98.67928,157.5185,-40.71064,202408261107276937,
2-13,A_Baseline,1,Q1FrontUp,-26.31716,25.21193,83.83882,-32.24306,-98.67989,157.5277,-40.7255,202408261107277265,
2-13,A_Baseline,1,Q1FrontUp,-25.76076,25.18816,83.3933,-32.24862,-98.68042,157.528,-40.74565,202408261107277454,
2-13,A_Baseline,1,Q1FrontUp,-25.76076,25.18816,83.3933,-32.24862,-98.68042,157.528,-40.74565,202408261107277756,
2-13,A_Baseline,1,Q1FrontUp,-25.20367,25.16835,82.99377,-32.26381,-98.68061,157.5281,-40.76563,202408261107277931,
2-13,A_Baseline,1,Q1FrontUp,-24.65288,25.14715,82.55277,-32.26813,-98.68116,157.5311,-40.78413,202408261107278171,
2-13,A_Baseline,1,Q1FrontUp,-24.1678,25.12599,82.16669,-32.28003,-98.68404,157.5337,-40.79976,202408261107278502,
2-13,A_Baseline,1,Q1FrontUp,-23.73204,25.11888,81.82332,-32.30106,-98.70891,157.5337,-40.81289,202408261107278779,
2-13,A_Baseline,1,Q1FrontUp,-23.31991,25.10959,81.52471,-32.32137,-98.7278,157.5341,-40.82505,202408261107279094,
2-13,A_Baseline,1,Q1FrontUp,-23.31991,25.10959,81.52471,-32.32137,-98.7278,157.5341,-40.82505,202408261107279261,
2-13,A_Baseline,1,Q1FrontUp,-22.95992,25.10373,81.23682,-32.33571,-98.73595,157.5343,-40.83752,202408261107279427,
2-13,A_Baseline,1,Q1FrontUp,-22.59864,25.09557,80.93343,-32.34411,-98.73605,157.5338,-40.86168,202408261107279694,
2-13,A_Baseline,1,Q1FrontUp,-22.59864,25.09557,80.93343,-32.34411,-98.73605,157.5338,-40.86168,202408261107279949,
2-13,A_Baseline,1,Q1FrontUp,-22.24446,25.08458,80.67845,-32.3555,-98.73632,157.5345,-40.88202,202408261107280269,
2-13,A_Baseline,1,Q1FrontUp,-22.24446,25.08458,80.67845,-32.3555,-98.73632,157.5345,-40.88202,202408261107280453,
2-13,A_Baseline,1,Q1FrontUp,-22.24446,25.08458,80.67845,-32.3555,-98.73632,157.5345,-40.88202,202408261107280607,
2-13,A_Baseline,1,Q1FrontUp,-21.62177,25.07945,80.21976,-32.364,-98.73825,157.5359,-40.90269,202408261107280850,
2-13,A_Baseline,1,Q1FrontUp,-21.35174,25.07738,80.04126,-32.38494,-98.73934,157.5375,-40.90848,202408261107281105,
2-13,A_Baseline,1,Q1FrontUp,-21.35174,25.07738,80.04126,-32.38494,-98.73934,157.5375,-40.90848,202408261107281318,
2-13,A_Baseline,1,Q1FrontUp,-21.07876,25.06743,79.85566,-32.39689,-98.73994,157.5384,-40.91373,202408261107281596,
2-13,A_Baseline,1,Q1FrontUp,-20.79755,25.04988,79.65073,-32.39642,-98.74007,157.5386,-40.93406,202408261107281778,
2-13,A_Baseline,1,Q1FrontUp,-20.79755,25.04988,79.65073,-32.39642,-98.74007,157.5386,-40.93406,202408261107282011,
2-13,A_Baseline,1,Q1FrontUp,-20.52191,25.03876,79.4561,-32.39272,-98.74194,157.5384,-40.94784,202408261107282257,
2-13,A_Baseline,1,Q1FrontUp,-20.24845,25.02824,79.27955,-32.38752,-98.75116,157.5386,-40.95444,202408261107282418,
2-13,A_Baseline,1,Q1FrontUp,-20.24845,25.02824,79.27955,-32.38752,-98.75116,157.5386,-40.95444,202408261107282618,
2-13,A_Baseline,1,Q1FrontUp,-19.93483,25.00963,79.0424,-32.38625,-98.75253,157.5387,-40.97049,202408261107282759,
2-13,A_Baseline,1,Q1FrontUp,-19.93483,25.00963,79.0424,-32.38625,-98.75253,157.5387,-40.97049,202408261107282996,
2-13,A_Baseline,1,Q1FrontUp,-19.62711,24.99226,78.81882,-32.38921,-98.75402,157.5388,-40.99157,202408261107283257,
2-13,A_Baseline,1,Q1FrontUp,-19.31861,24.98159,78.64157,-32.39886,-98.75459,157.5392,-41.01086,202408261107283437,
2-13,A_Baseline,1,Q1FrontUp,-19.31861,24.98159,78.64157,-32.39886,-98.75459,157.5392,-41.01086,202408261107283604,
2-13,A_Baseline,1,Q1FrontUp,-18.98546,24.97277,78.42976,-32.4012,-98.75416,157.5395,-41.04359,202408261107283943,
2-13,A_Baseline,1,Q1FrontUp,-18.64324,24.95958,78.18157,-32.39942,-98.74868,157.5398,-41.1118,202408261107284104,
2-13,A_Baseline,1,Q1FrontUp,-18.64324,24.95958,78.18157,-32.39942,-98.74868,157.5398,-41.1118,202408261107284313,
2-13,A_Baseline,1,Q1FrontUp,-18.29766,24.93897,77.93607,-32.40519,-98.73901,157.54,-41.21463,202408261107284587,
2-13,A_Baseline,1,Q1FrontUp,-17.8701,24.92647,77.65623,-32.40261,-98.7253,157.5396,-41.3288,202408261107284759,
2-13,A_Baseline,1,Q1FrontUp,-17.8701,24.92647,77.65623,-32.40261,-98.7253,157.5396,-41.3288,202408261107284932,
2-13,A_Baseline,1,Q1FrontUp,-17.45211,24.91644,77.34888,-32.40125,-98.72406,157.5401,-41.41029,202408261107285104,
2-13,A_Baseline,1,Q1FrontUp,-17.45211,24.91644,77.34888,-32.40125,-98.72406,157.5401,-41.41029,202408261107285285,
2-13,A_Baseline,1,Q1FrontUp,-17.04894,24.91641,77.05527,-32.39651,-98.7241,157.5399,-41.47364,202408261107285497,
2-13,A_Baseline,1,Q1FrontUp,-16.55293,24.9079,76.6593,-32.3912,-98.7243,157.5397,-41.52859,202408261107285821,
2-13,A_Baseline,1,Q1FrontUp,-16.04385,24.89214,76.2729,-32.39184,-98.72606,157.5397,-41.56282,202408261107286044,
2-13,A_Baseline,1,Q1FrontUp,-15.56298,24.89095,75.87668,-32.39391,-98.72691,157.5399,-41.58698,202408261107286326,
2-13,A_Baseline,1,Q1FrontUp,-15.56298,24.89095,75.87668,-32.39391,-98.72691,157.5399,-41.58698,202408261107286488,
2-13,A_Baseline,1,Q1FrontUp,-15.10122,24.88988,75.53465,-32.41689,-98.72825,157.54,-41.60825,202408261107286755,
2-13,A_Baseline,1,Q1FrontUp,-15.10122,24.88988,75.53465,-32.41689,-98.72825,157.54,-41.60825,202408261107286919,
2-13,A_Baseline,1,Q1FrontUp,-15.10122,24.88988,75.53465,-32.41689,-98.72825,157.54,-41.60825,202408261107287081,
2-13,A_Baseline,1,Q1FrontUp,-14.12788,24.88822,74.77222,-32.43505,-98.775,157.5403,-41.62259,202408261107287414,
2-13,A_Baseline,1,Q1FrontUp,-14.12788,24.88822,74.77222,-32.43505,-98.775,157.5403,-41.62259,202408261107287650,
2-13,A_Baseline,1,Q1FrontUp,-14.12788,24.88822,74.77222,-32.43505,-98.775,157.5403,-41.62259,202408261107287812,
2-13,A_Baseline,1,Q1FrontUp,-13.2098,24.88835,74.05724,-32.45943,-98.80066,157.5403,-41.62493,202408261107288091,
2-13,A_Baseline,1,Q1FrontUp,-13.2098,24.88835,74.05724,-32.45943,-98.80066,157.5403,-41.62493,202408261107288279,
2-13,A_Baseline,1,Q1FrontUp,-12.71795,24.88832,73.65025,-32.45938,-98.80087,157.5405,-41.62535,202408261107288451,
2-13,A_Baseline,1,Q1FrontUp,-12.2285,24.88842,73.23071,-32.46112,-98.81322,157.5401,-41.62553,202408261107288668,
2-13,A_Baseline,1,Q1FrontUp,-12.2285,24.88842,73.23071,-32.46112,-98.81322,157.5401,-41.62553,202408261107288940,
2-13,A_Baseline,1,Q1FrontUp,-11.68309,24.88164,72.77058,-32.46162,-98.82479,157.5415,-41.62581,202408261107289267,
2-13,A_Baseline,1,Q1FrontUp,-11.14223,24.87971,72.32686,-32.46361,-98.8345,157.5434,-41.6254,202408261107289484,
2-13,A_Baseline,1,Q1FrontUp,-11.14223,24.87971,72.32686,-32.46361,-98.8345,157.5434,-41.6254,202408261107289682,
2-13,A_Baseline,1,Q1FrontUp,-10.64358,24.87989,71.91415,-32.48814,-98.84374,157.5437,-41.62568,202408261107289948,
2-13,A_Baseline,1,Q1FrontUp,-10.15692,24.87913,71.53957,-32.51908,-98.8764,157.5444,-41.6254,202408261107290093,
2-13,A_Baseline,1,Q1FrontUp,-10.15692,24.87913,71.53957,-32.51908,-98.8764,157.5444,-41.6254,202408261107290293,
2-13,A_Baseline,1,Q1FrontUp,-9.70312,24.87967,71.19714,-32.55915,-98.92026,157.5443,-41.62545,202408261107290460,
2-13,A_Baseline,1,Q1FrontUp,-9.70312,24.87967,71.19714,-32.55915,-98.92026,157.5443,-41.62545,202408261107290631,
2-13,A_Baseline,1,Q1FrontUp,-9.279119,24.87996,70.87025,-32.60166,-98.97375,157.5484,-41.62544,202408261107290818,
2-13,A_Baseline,1,Q1FrontUp,-8.857093,24.87778,70.53573,-32.63939,-99.03084,157.5715,-41.62555,202408261107291023,
2-13,A_Baseline,1,Q1FrontUp,-8.857093,24.87778,70.53573,-32.63939,-99.03084,157.5715,-41.62555,202408261107291258,
2-13,A_Baseline,1,Q1FrontUp,-8.455813,24.87495,70.2465,-32.68817,-99.08669,157.5712,-41.62537,202408261107291460,
2-13,A_Baseline,1,Q1FrontUp,-8.055377,24.87477,69.93593,-32.71126,-99.14545,157.5715,-41.62532,202408261107291769,
2-13,A_Baseline,1,Q1FrontUp,-8.055377,24.87477,69.93593,-32.71126,-99.14545,157.5715,-41.62532,202408261107291974,
2-13,A_Baseline,1,Q1FrontUp,-7.651253,24.87469,69.62047,-32.74547,-99.21414,157.5547,-41.62516,202408261107292272,
2-13,A_Baseline,1,Q1FrontUp,-7.252778,24.87461,69.30331,-32.7675,-99.28226,157.5047,-41.62499,202408261107292427,
2-13,A_Baseline,1,Q1FrontUp,-7.252778,24.87461,69.30331,-32.7675,-99.28226,157.5047,-41.62499,202408261107292694,
2-13,A_Baseline,1,Q1FrontUp,-6.758434,24.87389,68.89104,-32.77727,-99.32597,157.4184,-41.62541,202408261107292946,
2-13,A_Baseline,1,Q1FrontUp,-6.342934,24.87337,68.55836,-32.78786,-99.36726,157.3584,-41.62526,202408261107293150,
2-13,A_Baseline,1,Q1FrontUp,-5.91147,24.87405,68.23742,-32.80908,-99.4108,157.3055,-41.62532,202408261107293430,
2-13,A_Baseline,1,Q1FrontUp,-5.91147,24.87405,68.23742,-32.80908,-99.4108,157.3055,-41.62532,202408261107293606,
2-13,A_Baseline,1,Q1FrontUp,-5.422711,24.87476,67.81781,-32.81521,-99.44347,157.2691,-41.62567,202408261107293962,
2-13,A_Baseline,1,Q1FrontUp,-4.925887,24.87439,67.37595,-32.81464,-99.47176,157.2611,-41.62531,202408261107294137,
2-13,A_Baseline,1,Q1FrontUp,-4.925887,24.87439,67.37595,-32.81464,-99.47176,157.2611,-41.62531,202408261107294426,
2-13,A_Baseline,1,Q1FrontUp,-4.439806,24.87425,66.96375,-32.81575,-99.49325,157.2921,-41.6257,202408261107294605,
2-13,A_Baseline,1,Q1FrontUp,-3.866036,24.87487,66.46427,-32.81163,-99.49448,157.2728,-41.62577,202408261107294771,
2-13,A_Baseline,1,Q1FrontUp,-3.866036,24.87487,66.46427,-32.81163,-99.49448,157.2728,-41.62577,202408261107294950,
2-13,A_Baseline,1,Q1FrontUp,-3.260365,24.87666,65.93531,-32.81099,-99.49521,157.261,-41.62583,202408261107295120,
2-13,A_Baseline,1,Q1FrontUp,-3.260365,24.87666,65.93531,-32.81099,-99.49521,157.261,-41.62583,202408261107295356,
2-13,A_Baseline,1,Q1FrontUp,-2.659989,24.87842,65.43729,-32.8132,-99.49583,157.2621,-41.62573,202408261107295595,
2-13,A_Baseline,1,Q1FrontUp,-2.659989,24.87842,65.43729,-32.8132,-99.49583,157.2621,-41.62573,202408261107295844,
2-13,A_Baseline,1,Q1FrontUp,-1.514561,24.88838,64.56162,-32.85072,-99.52381,157.2853,-41.6258,202408261107296099,
2-13,A_Baseline,1,Q1FrontUp,-1.514561,24.88838,64.56162,-32.85072,-99.52381,157.2853,-41.6258,202408261107296290,
2-13,A_Baseline,1,Q1FrontUp,-1.039845,24.89334,64.24004,-32.88102,-99.5623,157.3262,-41.62543,202408261107296490,
2-13,A_Baseline,1,Q1FrontUp,-0.5348688,24.89324,63.81132,-32.88306,-99.58153,157.3887,-41.62564,202408261107296759,
2-13,A_Baseline,1,Q1FrontUp,-0.5348688,24.89324,63.81132,-32.88306,-99.58153,157.3887,-41.62564,202408261107296936,
2-13,A_Baseline,1,Q1FrontUp,-0.5348688,24.89324,63.81132,-32.88306,-99.58153,157.3887,-41.62564,202408261107297104,
2-13,A_Baseline,1,Q1FrontUp,-0.03813539,24.89186,63.42099,-32.87787,-99.59293,157.425,-41.62566,202408261107297286,
2-13,A_Baseline,1,Q1FrontUp,0.4468431,24.89202,63.00164,-32.86629,-99.5941,157.4359,-41.62561,202408261107297535,
2-13,A_Baseline,1,Q1FrontUp,0.4468431,24.89202,63.00164,-32.86629,-99.5941,157.4359,-41.62561,202408261107297737,
2-13,A_Baseline,1,Q1FrontUp,0.9298924,24.89298,62.60914,-32.86552,-99.59661,157.4692,-41.62564,202408261107297990,
2-13,A_Baseline,1,Q1FrontUp,1.395202,24.9024,62.22413,-32.87627,-99.60362,157.5077,-41.62564,202408261107298304,
2-13,A_Baseline,1,Q1FrontUp,1.822611,24.91146,61.89656,-32.88079,-99.60799,157.5356,-41.62564,202408261107298671,
2-13,A_Baseline,1,Q1FrontUp,2.237392,24.9232,61.53897,-32.8825,-99.6081,157.5401,-41.62574,202408261107298952,
2-13,A_Baseline,1,Q1FrontUp,2.619771,24.9262,61.2312,-32.88282,-99.60807,157.5415,-41.62561,202408261107299295,
2-13,A_Baseline,1,Q1FrontUp,2.975797,24.92545,60.92732,-32.88024,-99.60791,157.5425,-41.62551,202408261107299471,
2-13,A_Baseline,1,Q1FrontUp,2.975797,24.92545,60.92732,-32.88024,-99.60791,157.5425,-41.62551,202408261107299618,
2-13,A_Baseline,1,Q1FrontUp,3.347024,24.9294,60.62951,-32.88174,-99.60838,157.5428,-41.62564,202408261107299816,
2-13,A_Baseline,1,Q1FrontUp,3.704341,24.94094,60.3284,-32.87915,-99.60871,157.5429,-41.62577,202408261107300082,
2-13,A_Baseline,1,Q1FrontUp,3.704341,24.94094,60.3284,-32.87915,-99.60871,157.5429,-41.62577,202408261107300303,
2-13,A_Baseline,1,Q1FrontUp,4.021647,24.94257,60.04347,-32.88348,-99.60973,157.5424,-41.62551,202408261107300649,
2-13,A_Baseline,1,Q1FrontUp,4.340107,24.94861,59.81249,-32.88275,-99.60978,157.5421,-41.62583,202408261107300870,
2-13,A_Baseline,1,Q1FrontUp,4.614561,24.96962,59.62134,-32.88567,-99.63963,157.5428,-41.62582,202408261107301045,
2-13,A_Baseline,1,Q1FrontUp,4.614561,24.96962,59.62134,-32.88567,-99.63963,157.5428,-41.62582,202408261107301297,
2-13,A_Baseline,1,Q1FrontUp,4.843802,24.98434,59.46174,-32.88563,-99.68459,157.5427,-41.62566,202408261107301598,
2-13,A_Baseline,1,Q1FrontUp,5.075594,25.00655,59.28541,-32.8703,-99.72568,157.5423,-41.62584,202408261107301939,
2-13,A_Baseline,1,Q1FrontUp,5.325309,25.02608,59.09343,-32.86002,-99.74945,157.5427,-41.62555,202408261107302217,
2-13,A_Baseline,1,Q1FrontUp,5.325309,25.02608,59.09343,-32.86002,-99.74945,157.5427,-41.62555,202408261107302556,
2-13,A_Baseline,1,Q1FrontUp,5.94823,25.07436,58.49538,-32.80783,-99.76462,157.5424,-41.62601,202408261107302787,
2-13,A_Baseline,1,Q1FrontUp,5.94823,25.07436,58.49538,-32.80783,-99.76462,157.5424,-41.62601,202408261107303045,
2-13,A_Baseline,1,Q1FrontUp,6.705343,25.16405,57.83878,-32.74662,-99.76933,157.5424,-41.62577,202408261107303493,
2-13,A_Baseline,1,Q1FrontUp,6.705343,25.16405,57.83878,-32.74662,-99.76933,157.5424,-41.62577,202408261107303640,
2-13,A_Baseline,1,Q1FrontUp,7.064902,25.22918,57.56171,-32.73438,-99.76982,157.5422,-41.62567,202408261107303827,
2-13,A_Baseline,1,Q1FrontUp,7.499049,25.30909,57.20423,-32.72075,-99.7698,157.5433,-41.62555,202408261107304104,
2-13,A_Baseline,1,Q1FrontUp,7.499049,25.30909,57.20423,-32.72075,-99.7698,157.5433,-41.62555,202408261107304361,
2-13,A_Baseline,1,Q1FrontUp,7.934622,25.39491,56.83209,-32.68829,-99.77034,157.5427,-41.62588,202408261107304628,
2-13,A_Baseline,1,Q1FrontUp,8.922001,25.60877,55.97846,-32.57197,-99.76865,157.5421,-41.62567,202408261107305002,
2-13,A_Baseline,1,Q1FrontUp,8.922001,25.60877,55.97846,-32.57197,-99.76865,157.5421,-41.62567,202408261107305168,
2-13,A_Baseline,1,Q1FrontUp,8.922001,25.60877,55.97846,-32.57197,-99.76865,157.5421,-41.62567,202408261107305500,
2-13,A_Baseline,1,Q1FrontUp,9.392588,25.72416,55.58819,-32.54814,-99.76913,157.5419,-41.62561,202408261107305776,
2-13,A_Baseline,1,Q1FrontUp,9.858338,25.84014,55.20341,-32.53306,-99.76852,157.5424,-41.62584,202408261107305990,
2-13,A_Baseline,1,Q1FrontUp,10.33205,25.96434,54.78882,-32.52072,-99.76443,157.5417,-41.62587,202408261107306176,
2-13,A_Baseline,1,Q1FrontUp,10.33205,25.96434,54.78882,-32.52072,-99.76443,157.5417,-41.62587,202408261107306441,
2-13,A_Baseline,1,Q1FrontUp,10.84642,26.07179,54.36466,-32.48604,-99.75864,157.5417,-41.62577,202408261107306607,
2-13,A_Baseline,1,Q1FrontUp,11.37119,26.21708,53.92866,-32.45908,-99.74226,157.5412,-41.62595,202408261107306792,
2-13,A_Baseline,1,Q1FrontUp,11.88102,26.34938,53.54599,-32.44372,-99.73735,157.5415,-41.62577,202408261107307105,
2-13,A_Baseline,1,Q1FrontUp,11.88102,26.34938,53.54599,-32.44372,-99.73735,157.5415,-41.62577,202408261107307399,
2-13,A_Baseline,1,Q1FrontUp,12.39834,26.49951,53.16624,-32.4077,-99.73473,157.5405,-41.62616,202408261107307683,
2-13,A_Baseline,1,Q1FrontUp,12.92388,26.64131,52.77081,-32.36594,-99.73457,157.5414,-41.62568,202408261107307944,
2-13,A_Baseline,1,Q1FrontUp,13.38995,26.78704,52.43522,-32.34748,-99.73429,157.5412,-41.62577,202408261107308138,
2-13,A_Baseline,1,Q1FrontUp,13.85171,26.92689,52.12894,-32.33263,-99.73389,157.5409,-41.62595,202408261107308453,
2-13,A_Baseline,1,Q1FrontUp,14.31098,27.06633,51.75563,-32.2971,-99.70744,157.5409,-41.62569,202408261107308773,
2-13,A_Baseline,1,Q1FrontUp,14.31098,27.06633,51.75563,-32.2971,-99.70744,157.5409,-41.62569,202408261107309078,
2-13,A_Baseline,1,Q1FrontUp,14.7296,27.21447,51.42442,-32.2668,-99.69725,157.5416,-41.62561,202408261107309282,
2-13,A_Baseline,1,Q1FrontUp,15.15097,27.34061,51.06472,-32.22934,-99.69138,157.5414,-41.62591,202408261107309435,
2-13,A_Baseline,1,Q1FrontUp,15.15097,27.34061,51.06472,-32.22934,-99.69138,157.5414,-41.62591,202408261107309626,
2-13,A_Baseline,1,Q1FrontUp,15.53198,27.48484,50.77773,-32.20592,-99.68884,157.5407,-41.62562,202408261107309832,
2-13,A_Baseline,1,Q1FrontUp,15.92928,27.61533,50.42651,-32.17064,-99.66117,157.5419,-41.62568,202408261107310125,
2-13,A_Baseline,1,Q1FrontUp,16.29663,27.75833,50.0738,-32.13828,-99.63303,157.541,-41.62595,202408261107310498,
2-13,A_Baseline,1,Q1FrontUp,16.66057,27.90113,49.75677,-32.12556,-99.63419,157.5412,-41.6259,202408261107310790,
2-13,A_Baseline,1,Q1FrontUp,16.66057,27.90113,49.75677,-32.12556,-99.63419,157.5412,-41.6259,202408261107311005,
2-13,A_Baseline,1,Q1FrontUp,17.00809,28.04162,49.46913,-32.12531,-99.62872,157.5403,-41.62607,202408261107311259,
2-13,A_Baseline,1,Q1FrontUp,17.33759,28.16693,49.21456,-32.12609,-99.60846,157.5404,-41.62582,202408261107311437,
2-13,A_Baseline,1,Q1FrontUp,17.33759,28.16693,49.21456,-32.12609,-99.60846,157.5404,-41.62582,202408261107311604,
2-13,A_Baseline,1,Q1FrontUp,17.64211,28.31874,48.96723,-32.12789,-99.60809,157.5395,-41.62584,202408261107311756,
2-13,A_Baseline,1,Q1FrontUp,17.64211,28.31874,48.96723,-32.12789,-99.60809,157.5395,-41.62584,202408261107311939,
2-13,A_Baseline,1,Q1FrontUp,18.03712,28.4712,48.66097,-32.12175,-99.56008,157.539,-41.62583,202408261107312170,
2-13,A_Baseline,1,Q1FrontUp,18.44905,28.59041,48.28493,-32.12709,-99.4911,157.5398,-41.6256,202408261107312426,
2-13,A_Baseline,1,Q1FrontUp,18.44905,28.59041,48.28493,-32.12709,-99.4911,157.5398,-41.6256,202408261107312626,
2-13,A_Baseline,1,Q1FrontUp,18.85074,28.70858,47.94428,-32.12494,-99.4366,157.539,-41.62584,202408261107312932,
2-13,A_Baseline,1,Q1FrontUp,19.26159,28.84454,47.6056,-32.12577,-99.38643,157.5395,-41.62571,202408261107313093,
2-13,A_Baseline,1,Q1FrontUp,19.26159,28.84454,47.6056,-32.12577,-99.38643,157.5395,-41.62571,202408261107313334,
2-13,A_Baseline,1,Q1FrontUp,20.13774,29.10335,46.85095,-32.1091,-99.33476,157.5395,-41.62559,202408261107313645,
2-13,A_Baseline,1,Q1FrontUp,20.13774,29.10335,46.85095,-32.1091,-99.33476,157.5395,-41.62559,202408261107313808,
2-13,A_Baseline,1,Q1FrontUp,20.57538,29.24703,46.43504,-32.07824,-99.31896,157.5395,-41.62595,202408261107314113,
2-13,A_Baseline,1,Q1FrontUp,20.57538,29.24703,46.43504,-32.07824,-99.31896,157.5395,-41.62595,202408261107314321,
2-13,A_Baseline,1,Q1FrontUp,21.00254,29.38292,46.06564,-32.07022,-99.29582,157.5401,-41.62606,202408261107314609,
2-13,A_Baseline,1,Q1FrontUp,21.416,29.55718,45.68011,-32.05844,-99.24202,157.5391,-41.62544,202408261107314779,
2-13,A_Baseline,1,Q1FrontUp,21.416,29.55718,45.68011,-32.05844,-99.24202,157.5391,-41.62544,202408261107314960,
2-13,A_Baseline,1,Q1FrontUp,21.80268,29.73547,45.32085,-32.03181,-99.21748,157.5406,-41.62443,202408261107315166,
2-13,A_Baseline,1,Q1FrontUp,22.12057,29.92399,45.02002,-32.01547,-99.21793,157.5403,-41.62296,202408261107315340,
2-13,A_Baseline,1,Q1FrontUp,22.12057,29.92399,45.02002,-32.01547,-99.21793,157.5403,-41.62296,202408261107315618,
2-13,A_Baseline,1,Q1FrontUp,22.43326,30.13548,44.76455,-32.00372,-99.21821,157.5412,-41.6216,202408261107315801,
2-13,A_Baseline,1,Q1FrontUp,22.6837,30.34601,44.53131,-32.00227,-99.2183,157.5428,-41.61881,202408261107316120,
2-13,A_Baseline,1,Q1FrontUp,22.6837,30.34601,44.53131,-32.00227,-99.2183,157.5428,-41.61881,202408261107316277,
2-13,A_Baseline,1,Q1FrontUp,22.88212,30.55175,44.31916,-31.9981,-99.21876,157.544,-41.61169,202408261107316491,
2-13,A_Baseline,1,Q1FrontUp,23.03955,30.79761,44.14597,-31.98314,-99.21959,157.5433,-41.61146,202408261107316778,
2-13,A_Baseline,1,Q1FrontUp,23.18908,31.03306,43.97447,-31.98016,-99.22042,157.5436,-41.61198,202408261107317107,
2-13,A_Baseline,1,Q1FrontUp,23.18908,31.03306,43.97447,-31.98016,-99.22042,157.5436,-41.61198,202408261107317278,
2-13,A_Baseline,1,Q1FrontUp,23.30529,31.25626,43.78762,-31.97895,-99.22128,157.5434,-41.61185,202408261107317499,
2-13,A_Baseline,1,Q1FrontUp,23.37978,31.50043,43.65306,-31.97963,-99.22923,157.5421,-41.61732,202408261107317769,
2-13,A_Baseline,1,Q1FrontUp,23.37978,31.50043,43.65306,-31.97963,-99.22923,157.5421,-41.61732,202408261107317951,
2-13,A_Baseline,1,Q1FrontUp,23.41431,31.75535,43.54908,-31.9817,-99.24788,157.5402,-41.62622,202408261107318122,
2-13,A_Baseline,1,Q1FrontUp,23.41393,31.99131,43.46473,-31.97999,-99.2651,157.5355,-41.63173,202408261107318345,
2-13,A_Baseline,1,Q1FrontUp,23.41393,31.99131,43.46473,-31.97999,-99.2651,157.5355,-41.63173,202408261107318597,
2-13,A_Baseline,1,Q1FrontUp,23.38718,32.23473,43.41457,-31.9803,-99.26736,157.5347,-41.63179,202408261107318768,
2-13,A_Baseline,1,Q1FrontUp,23.38718,32.23473,43.41457,-31.9803,-99.26736,157.5347,-41.63179,202408261107318938,
2-13,A_Baseline,1,Q1FrontUp,23.38718,32.23473,43.41457,-31.9803,-99.26736,157.5347,-41.63179,202408261107319101,
2-13,A_Baseline,1,Q1FrontUp,23.34121,32.48271,43.38031,-31.98471,-99.27763,157.5343,-41.63239,202408261107319271,
2-13,A_Baseline,1,Q1FrontUp,23.28331,32.73417,43.3594,-31.99133,-99.28944,157.5335,-41.63232,202408261107319438,
2-13,A_Baseline,1,Q1FrontUp,23.28331,32.73417,43.3594,-31.99133,-99.28944,157.5335,-41.63232,202408261107319706,
2-13,A_Baseline,1,Q1FrontUp,23.23248,32.98427,43.34115,-31.99497,-99.29811,157.5332,-41.63232,202408261107319941,
2-13,A_Baseline,1,Q1FrontUp,23.17433,33.23347,43.33431,-32.00974,-99.30142,157.5331,-41.63246,202408261107320116,
2-13,A_Baseline,1,Q1FrontUp,23.17433,33.23347,43.33431,-32.00974,-99.30142,157.5331,-41.63246,202408261107320281,
2-13,A_Baseline,1,Q1FrontUp,23.10436,33.46771,43.33442,-32.02968,-99.30174,157.5328,-41.63242,202408261107320439,
2-13,A_Baseline,1,Q1FrontUp,23.10436,33.46771,43.33442,-32.02968,-99.30174,157.5328,-41.63242,202408261107320631,
2-13,A_Baseline,1,Q1FrontUp,23.02576,33.70318,43.3457,-32.04634,-99.31177,157.5328,-41.63232,202408261107320817,
2-13,A_Baseline,1,Q1FrontUp,22.95148,33.92659,43.35316,-32.06606,-99.31499,157.5331,-41.63206,202408261107321123,
2-13,A_Baseline,1,Q1FrontUp,22.86775,34.14204,43.35273,-32.08755,-99.31533,157.5327,-41.632,202408261107321492,
2-13,A_Baseline,1,Q1FrontUp,22.76938,34.37153,43.37794,-32.10688,-99.31314,157.5325,-41.63242,202408261107321770,
2-13,A_Baseline,1,Q1FrontUp,22.76938,34.37153,43.37794,-32.10688,-99.31314,157.5325,-41.63242,202408261107321968,
2-13,A_Baseline,1,Q1FrontUp,22.64342,34.59934,43.42625,-32.13414,-99.31587,157.5325,-41.63224,202408261107322276,
2-13,A_Baseline,1,Q1FrontUp,22.49939,34.81173,43.49056,-32.18249,-99.32421,157.5326,-41.63213,202408261107322428,
2-13,A_Baseline,1,Q1FrontUp,22.49939,34.81173,43.49056,-32.18249,-99.32421,157.5326,-41.63213,202408261107322626,
2-13,A_Baseline,1,Q1FrontUp,22.35719,35.02413,43.54318,-32.20531,-99.32558,157.533,-41.63223,202408261107322784,
2-13,A_Baseline,1,Q1FrontUp,22.20941,35.23915,43.58638,-32.2249,-99.32638,157.5332,-41.63225,202408261107323006,
2-13,A_Baseline,1,Q1FrontUp,22.20941,35.23915,43.58638,-32.2249,-99.32638,157.5332,-41.63225,202408261107323278,
2-13,A_Baseline,1,Q1FrontUp,22.05573,35.44059,43.61051,-32.24714,-99.32762,157.533,-41.63243,202408261107323638,
2-13,A_Baseline,1,Q1FrontUp,21.87954,35.64821,43.6398,-32.27794,-99.33543,157.5329,-41.63253,202408261107323936,
2-13,A_Baseline,1,Q1FrontUp,21.71082,35.8433,43.66062,-32.30003,-99.34543,157.5327,-41.63242,202408261107324136,
2-13,A_Baseline,1,Q1FrontUp,21.53788,36.04408,43.67411,-32.31598,-99.35489,157.5326,-41.6321,202408261107324422,
2-13,A_Baseline,1,Q1FrontUp,21.53788,36.04408,43.67411,-32.31598,-99.35489,157.5326,-41.6321,202408261107324659,
2-13,A_Baseline,1,Q1FrontUp,21.3554,36.24343,43.70288,-32.33412,-99.35558,157.5326,-41.63241,202408261107324947,
2-13,A_Baseline,1,Q1FrontUp,21.18107,36.43322,43.72629,-32.34286,-99.35558,157.5327,-41.63223,202408261107325101,
2-13,A_Baseline,1,Q1FrontUp,21.01319,36.62793,43.7459,-32.34316,-99.35604,157.5323,-41.6321,202408261107325374,
2-13,A_Baseline,1,Q1FrontUp,21.01319,36.62793,43.7459,-32.34316,-99.35604,157.5323,-41.6321,202408261107325619,
2-13,A_Baseline,1,Q1FrontUp,20.85099,36.83168,43.77547,-32.34459,-99.35604,157.5322,-41.63223,202408261107325789,
2-13,A_Baseline,1,Q1FrontUp,20.85099,36.83168,43.77547,-32.34459,-99.35604,157.5322,-41.63223,202408261107325950,
2-13,A_Baseline,1,Q1FrontUp,20.70448,37.03643,43.80716,-32.34544,-99.35687,157.5329,-41.63222,202408261107326156,
2-13,A_Baseline,1,Q1FrontUp,20.55892,37.22639,43.84516,-32.35388,-99.35873,157.5327,-41.63257,202408261107326469,
2-13,A_Baseline,1,Q1FrontUp,20.40796,37.43162,43.88208,-32.3582,-99.36473,157.5329,-41.63249,202408261107326759,
2-13,A_Baseline,1,Q1FrontUp,20.40796,37.43162,43.88208,-32.3582,-99.36473,157.5329,-41.63249,202408261107326932,
2-13,A_Baseline,1,Q1FrontUp,20.40796,37.43162,43.88208,-32.3582,-99.36473,157.5329,-41.63249,202408261107327110,
2-13,A_Baseline,1,Q1FrontUp,20.26554,37.62283,43.90766,-32.36065,-99.38979,157.5325,-41.63219,202408261107327280,
2-13,A_Baseline,1,Q1FrontUp,20.13138,37.80796,43.92008,-32.3642,-99.42786,157.5323,-41.63196,202408261107327508,
2-13,A_Baseline,1,Q1FrontUp,20.00456,37.98049,43.93214,-32.36555,-99.4603,157.5325,-41.63206,202408261107327696,
2-13,A_Baseline,1,Q1FrontUp,20.00456,37.98049,43.93214,-32.36555,-99.4603,157.5325,-41.63206,202408261107327954,
2-13,A_Baseline,1,Q1FrontUp,19.86858,38.16538,43.95184,-32.36627,-99.47663,157.5326,-41.63231,202408261107328149,
2-13,A_Baseline,1,Q1FrontUp,19.7373,38.34353,43.97897,-32.36766,-99.48193,157.5322,-41.63235,202408261107328444,
2-13,A_Baseline,1,Q1FrontUp,19.62445,38.51405,43.98004,-32.36659,-99.48674,157.5326,-41.63263,202408261107328672,
2-13,A_Baseline,1,Q1FrontUp,19.62445,38.51405,43.98004,-32.36659,-99.48674,157.5326,-41.63263,202408261107328936,
2-13,A_Baseline,1,Q1FrontUp,19.52725,38.68231,43.97817,-32.3613,-99.4886,157.5327,-41.63249,202408261107329090,
2-13,A_Baseline,1,Q1FrontUp,19.52725,38.68231,43.97817,-32.3613,-99.4886,157.5327,-41.63249,202408261107329308,
2-13,A_Baseline,1,Q1FrontUp,19.44943,38.85777,43.97363,-32.3474,-99.48892,157.5318,-41.63224,202408261107329603,
2-13,A_Baseline,1,Q1FrontUp,19.40897,39.029,43.9703,-32.32932,-99.4884,157.5323,-41.6322,202408261107329838,
2-13,A_Baseline,1,Q1FrontUp,19.39413,39.17976,43.96382,-32.323,-99.4872,157.5324,-41.63212,202408261107330115,
2-13,A_Baseline,1,Q1FrontUp,19.39413,39.17976,43.96382,-32.323,-99.4872,157.5324,-41.63212,202408261107330454,
2-13,A_Baseline,1,Q1FrontUp,19.39706,39.32628,43.96003,-32.3148,-99.48553,157.5316,-41.63229,202408261107330621,
2-13,A_Baseline,1,Q1FrontUp,19.43307,39.45368,43.93605,-32.30102,-99.45812,157.5318,-41.63209,202408261107330906,
2-13,A_Baseline,1,Q1FrontUp,19.4784,39.57586,43.90434,-32.28658,-99.45261,157.5317,-41.63221,202408261107331172,
2-13,A_Baseline,1,Q1FrontUp,19.53452,39.67301,43.87656,-32.27993,-99.45347,157.5314,-41.63235,202408261107331419,
2-13,A_Baseline,1,Q1FrontUp,19.53452,39.67301,43.87656,-32.27993,-99.45347,157.5314,-41.63235,202408261107331587,
2-13,A_Baseline,1,Q1FrontUp,19.53452,39.67301,43.87656,-32.27993,-99.45347,157.5314,-41.63235,202408261107331770,
2-13,A_Baseline,1,Q1FrontUp,19.65744,39.84455,43.81628,-32.26984,-99.45163,157.5312,-41.63235,202408261107332005,
2-13,A_Baseline,1,Q1FrontUp,19.65744,39.84455,43.81628,-32.26984,-99.45163,157.5312,-41.63235,202408261107332272,
2-13,A_Baseline,1,Q1FrontUp,19.73277,39.90845,43.7478,-32.26661,-99.44975,157.5311,-41.63247,202408261107332479,
2-13,A_Baseline,1,Q1FrontUp,19.82443,39.96926,43.67675,-32.25291,-99.45255,157.5312,-41.63254,202408261107332792,
2-13,A_Baseline,1,Q1FrontUp,19.82443,39.96926,43.67675,-32.25291,-99.45255,157.5312,-41.63254,202408261107332998,
2-13,A_Baseline,1,Q1FrontUp,19.91402,40.02652,43.62376,-32.24143,-99.45422,157.5313,-41.63229,202408261107333290,
2-13,A_Baseline,1,Q1FrontUp,20.01233,40.06695,43.58607,-32.23798,-99.45487,157.5312,-41.63221,202408261107333619,
2-13,A_Baseline,1,Q1FrontUp,20.12964,40.09784,43.51222,-32.22123,-99.45915,157.5309,-41.63227,202408261107333961,
2-13,A_Baseline,1,Q1FrontUp,20.25537,40.1277,43.43745,-32.21003,-99.46203,157.5313,-41.6325,202408261107334139,
2-13,A_Baseline,1,Q1FrontUp,20.37984,40.15215,43.36728,-32.20558,-99.46481,157.5315,-41.63236,202408261107334415,
2-13,A_Baseline,1,Q1FrontUp,20.37984,40.15215,43.36728,-32.20558,-99.46481,157.5315,-41.63236,202408261107334595,
2-13,A_Baseline,1,Q1FrontUp,20.50767,40.16725,43.31655,-32.20304,-99.46928,157.5314,-41.63216,202408261107334758,
2-13,A_Baseline,1,Q1FrontUp,20.50767,40.16725,43.31655,-32.20304,-99.46928,157.5314,-41.63216,202408261107334930,
2-13,A_Baseline,1,Q1FrontUp,20.63616,40.17988,43.26671,-32.20269,-99.47339,157.5314,-41.6321,202408261107335132,
2-13,A_Baseline,1,Q1FrontUp,20.63616,40.17988,43.26671,-32.20269,-99.47339,157.5314,-41.6321,202408261107335338,
2-13,A_Baseline,1,Q1FrontUp,20.76796,40.19495,43.21377,-32.20215,-99.47506,157.5314,-41.63212,202408261107335616,
2-13,A_Baseline,1,Q1FrontUp,20.93342,40.20322,43.08934,-32.19117,-99.47502,157.5308,-41.63248,202408261107335839,
2-13,A_Baseline,1,Q1FrontUp,21.10639,40.20912,42.96407,-32.1866,-99.47496,157.5309,-41.63209,202408261107336125,
2-13,A_Baseline,1,Q1FrontUp,21.10639,40.20912,42.96407,-32.1866,-99.47496,157.5309,-41.63209,202408261107336311,
2-13,A_Baseline,1,Q1FrontUp,21.27415,40.21413,42.85275,-32.1865,-99.47498,157.5307,-41.63257,202408261107336593,
2-13,A_Baseline,1,Q1FrontUp,21.43456,40.22741,42.77412,-32.18494,-99.47519,157.5311,-41.63219,202408261107336757,
2-13,A_Baseline,1,Q1FrontUp,21.43456,40.22741,42.77412,-32.18494,-99.47519,157.5311,-41.63219,202408261107336929,
2-13,A_Baseline,1,Q1FrontUp,21.60184,40.24095,42.70296,-32.18198,-99.47539,157.5307,-41.63206,202408261107337094,
2-13,A_Baseline,1,Q1FrontUp,21.60184,40.24095,42.70296,-32.18198,-99.47539,157.5307,-41.63206,202408261107337280,
2-13,A_Baseline,1,Q1FrontUp,21.76738,40.25398,42.65041,-32.18123,-99.47558,157.5309,-41.63258,202408261107337491,
2-13,A_Baseline,1,Q1FrontUp,21.93227,40.26517,42.61059,-32.18289,-99.47533,157.5311,-41.63217,202408261107337784,
2-13,A_Baseline,1,Q1FrontUp,21.93227,40.26517,42.61059,-32.18289,-99.47533,157.5311,-41.63217,202408261107337960,
2-13,A_Baseline,1,Q1FrontUp,22.11829,40.27211,42.54715,-32.17702,-99.47388,157.5315,-41.63218,202408261107338285,
2-13,A_Baseline,1,Q1FrontUp,22.33146,40.27349,42.43279,-32.15805,-99.47305,157.5317,-41.63233,202408261107338448,
2-13,A_Baseline,1,Q1FrontUp,22.54828,40.27369,42.32233,-32.1451,-99.47256,157.5317,-41.6325,202408261107338682,
2-13,A_Baseline,1,Q1FrontUp,22.54828,40.27369,42.32233,-32.1451,-99.47256,157.5317,-41.6325,202408261107338946,
2-13,A_Baseline,1,Q1FrontUp,22.76132,40.27467,42.20961,-32.13623,-99.46561,157.5321,-41.63213,202408261107339170,
2-13,A_Baseline,1,Q1FrontUp,22.97616,40.27644,42.09504,-32.12458,-99.45625,157.5323,-41.63247,202408261107339427,
2-13,A_Baseline,1,Q1FrontUp,22.97616,40.27644,42.09504,-32.12458,-99.45625,157.5323,-41.63247,202408261107339601,
2-13,A_Baseline,1,Q1FrontUp,23.21742,40.27577,41.95701,-32.12088,-99.34039,157.5355,-41.63239,202408261107339837,
2-13,A_Baseline,1,Q1FrontUp,23.4413,40.27905,41.84665,-32.12447,-99.28475,157.537,-41.63231,202408261107340106,
2-13,A_Baseline,1,Q1FrontUp,23.4413,40.27905,41.84665,-32.12447,-99.28475,157.537,-41.63231,202408261107340284,
2-13,A_Baseline,1,Q1FrontUp,23.66973,40.28889,41.76101,-32.1283,-99.25935,157.5374,-41.63203,202408261107340458,
2-13,A_Baseline,1,Q1FrontUp,23.90398,40.29189,41.67723,-32.12796,-99.2952,157.5373,-41.6318,202408261107340686,
2-13,A_Baseline,1,Q1FrontUp,23.90398,40.29189,41.67723,-32.12796,-99.2952,157.5373,-41.6318,202408261107340862,
2-13,A_Baseline,1,Q1FrontUp,23.90398,40.29189,41.67723,-32.12796,-99.2952,157.5373,-41.6318,202408261107341127,
2-13,A_Baseline,1,Q1FrontUp,24.37649,40.2916,41.43848,-32.16989,-98.78822,157.7946,-41.63171,202408261107341429,
2-13,A_Baseline,1,Q1FrontUp,24.37649,40.2916,41.43848,-32.16989,-98.78822,157.7946,-41.63171,202408261107341605,
2-13,A_Baseline,1,Q1FrontUp,24.61032,40.29327,41.32124,-32.204,-98.49818,157.974,-41.63131,202408261107341789,
2-13,A_Baseline,1,Q1FrontUp,24.8611,40.29383,41.20916,-32.23648,-98.22849,158.1392,-41.63126,202408261107341982,
2-13,A_Baseline,1,Q1FrontUp,24.8611,40.29383,41.20916,-32.23648,-98.22849,158.1392,-41.63126,202408261107342140,
2-13,A_Baseline,1,Q1FrontUp,24.8611,40.29383,41.20916,-32.23648,-98.22849,158.1392,-41.63126,202408261107342413,
2-13,A_Baseline,1,Q1FrontUp,25.11605,40.29425,41.1041,-32.2664,-97.97483,158.2638,-41.63108,202408261107342593,
2-13,A_Baseline,1,Q1FrontUp,25.40147,40.29292,41.00293,-32.26252,-97.95296,158.2702,-41.63118,202408261107342769,
2-13,A_Baseline,1,Q1FrontUp,25.40147,40.29292,41.00293,-32.26252,-97.95296,158.2702,-41.63118,202408261107342968,
2-13,A_Baseline,1,Q1FrontUp,25.70734,40.29012,40.87793,-32.25576,-97.93018,158.2765,-41.63043,202408261107343174,
2-13,A_Baseline,1,Q1FrontUp,26.00066,40.29033,40.74573,-32.23838,-97.90244,158.2839,-41.63009,202408261107343438,
2-13,A_Baseline,1,Q1FrontUp,26.00066,40.29033,40.74573,-32.23838,-97.90244,158.2839,-41.63009,202408261107343625,
2-13,A_Baseline,1,Q1FrontUp,26.28635,40.29401,40.62343,-32.22849,-97.61018,158.4306,-41.62727,202408261107343815,
2-13,A_Baseline,1,Q1FrontUp,26.54388,40.29815,40.53645,-32.23038,-97.36514,158.5864,-41.62103,202408261107344105,
2-13,A_Baseline,1,Q1FrontUp,26.54388,40.29815,40.53645,-32.23038,-97.36514,158.5864,-41.62103,202408261107344304,
2-13,A_Baseline,1,Q1FrontUp,26.80427,40.29928,40.46229,-32.22896,-97.13329,158.7203,-41.61456,202408261107344586,
2-13,A_Baseline,1,Q1FrontUp,27.05833,40.29895,40.39815,-32.22673,-97.00159,158.8163,-41.6019,202408261107344760,
2-13,A_Baseline,1,Q1FrontUp,27.05833,40.29895,40.39815,-32.22673,-97.00159,158.8163,-41.6019,202408261107344928,
2-13,A_Baseline,1,Q1FrontUp,27.31191,40.29804,40.35413,-32.20632,-96.85077,158.902,-41.59614,202408261107345117,
2-13,A_Baseline,1,Q1FrontUp,27.31191,40.29804,40.35413,-32.20632,-96.85077,158.902,-41.59614,202408261107345322,
2-13,A_Baseline,1,Q1FrontUp,27.54855,40.29942,40.31966,-32.15708,-96.68937,158.9801,-41.59365,202408261107345495,
2-13,A_Baseline,1,Q1FrontUp,27.79679,40.29935,40.25709,-32.11688,-96.49796,159.05,-41.58065,202408261107345802,
2-13,A_Baseline,1,Q1FrontUp,28.01683,40.29858,40.20759,-32.09694,-96.38097,159.1122,-41.56881,202408261107346138,
2-13,A_Baseline,1,Q1FrontUp,28.23389,40.29723,40.1617,-32.07537,-96.28633,159.1621,-41.55621,202408261107346340,
2-13,A_Baseline,1,Q1FrontUp,28.23389,40.29723,40.1617,-32.07537,-96.28633,159.1621,-41.55621,202408261107346590,
2-13,A_Baseline,1,Q1FrontUp,28.45922,40.29596,40.12532,-32.05605,-96.19365,159.2122,-41.54972,202408261107346754,
2-13,A_Baseline,1,Q1FrontUp,28.45922,40.29596,40.12532,-32.05605,-96.19365,159.2122,-41.54972,202408261107346926,
2-13,A_Baseline,1,Q1FrontUp,28.68228,40.29714,40.08941,-32.03827,-96.07352,159.271,-41.54286,202408261107347167,
2-13,A_Baseline,1,Q1FrontUp,28.68228,40.29714,40.08941,-32.03827,-96.07352,159.271,-41.54286,202408261107347316,
2-13,A_Baseline,1,Q1FrontUp,28.88225,40.29873,40.04101,-32.02424,-95.94233,159.3214,-41.54166,202408261107347587,
2-13,A_Baseline,1,Q1FrontUp,29.08414,40.29925,39.98591,-32.00045,-95.92445,159.3219,-41.54062,202408261107347761,
2-13,A_Baseline,1,Q1FrontUp,29.08414,40.29925,39.98591,-32.00045,-95.92445,159.3219,-41.54062,202408261107347936,
2-13,A_Baseline,1,Q1FrontUp,29.27975,40.29898,39.94152,-31.97303,-95.91901,159.3219,-41.53895,202408261107348092,
2-13,A_Baseline,1,Q1FrontUp,29.27975,40.29898,39.94152,-31.97303,-95.91901,159.3219,-41.53895,202408261107348261,
2-13,A_Baseline,1,Q1FrontUp,29.45499,40.29888,39.911,-31.94198,-95.9194,159.3217,-41.53521,202408261107348493,
2-13,A_Baseline,1,Q1FrontUp,29.64337,40.30368,39.9082,-31.86877,-95.9682,159.3134,-41.5353,202408261107348775,
2-13,A_Baseline,1,Q1FrontUp,29.64337,40.30368,39.9082,-31.86877,-95.9682,159.3134,-41.5353,202408261107349093,
2-13,A_Baseline,1,Q1FrontUp,29.8389,40.30841,39.90329,-31.76849,-95.99742,159.2978,-41.53571,202408261107349259,
2-13,A_Baseline,1,Q1FrontUp,30.0241,40.31187,39.90067,-31.65018,-96.00429,159.2785,-41.53524,202408261107349471,
2-13,A_Baseline,1,Q1FrontUp,30.19967,40.32524,39.90086,-31.51159,-96.00444,159.2656,-41.53537,202408261107349746,
2-13,A_Baseline,1,Q1FrontUp,30.19967,40.32524,39.90086,-31.51159,-96.00444,159.2656,-41.53537,202408261107349916,
2-13,A_Baseline,1,Q1FrontUp,30.37422,40.32725,39.90077,-31.37084,-96.00448,159.2586,-41.53526,202408261107350082,
2-13,A_Baseline,1,Q1FrontUp,30.37422,40.32725,39.90077,-31.37084,-96.00448,159.2586,-41.53526,202408261107350335,
2-13,A_Baseline,1,Q1FrontUp,30.52438,40.32595,39.90078,-31.24912,-96.00352,159.2563,-41.5356,202408261107350592,
2-13,A_Baseline,1,Q1FrontUp,30.66489,40.33484,39.88498,-31.11857,-95.9771,159.257,-41.53553,202408261107350788,
2-13,A_Baseline,1,Q1FrontUp,30.79831,40.36635,39.87763,-30.97013,-95.966,159.2569,-41.53537,202408261107351130,
2-13,A_Baseline,1,Q1FrontUp,30.91646,40.40859,39.87639,-30.80793,-95.96402,159.258,-41.53568,202408261107351456,
2-13,A_Baseline,1,Q1FrontUp,30.91646,40.40859,39.87639,-30.80793,-95.96402,159.258,-41.53568,202408261107351642,
2-13,A_Baseline,1,Q1FrontUp,30.98909,40.47478,39.87372,-30.67993,-95.62321,159.3167,-41.53547,202408261107351933,
2-13,A_Baseline,1,Q1FrontUp,31.04116,40.53394,39.87257,-30.57929,-95.30008,159.3748,-41.53574,202408261107352095,
2-13,A_Baseline,1,Q1FrontUp,31.04116,40.53394,39.87257,-30.57929,-95.30008,159.3748,-41.53574,202408261107352273,
2-13,A_Baseline,1,Q1FrontUp,31.06126,40.59708,39.86639,-30.50983,-95.03822,159.4276,-41.53502,202408261107352604,
2-13,A_Baseline,1,Q1FrontUp,31.06421,40.69761,39.86206,-30.40452,-94.90475,159.4424,-41.53107,202408261107352831,
2-13,A_Baseline,1,Q1FrontUp,31.06421,40.69761,39.86206,-30.40452,-94.90475,159.4424,-41.53107,202408261107353117,
2-13,A_Baseline,1,Q1FrontUp,31.05935,40.98037,39.86343,-30.07176,-94.86976,159.4114,-41.53279,202408261107353579,
2-13,A_Baseline,1,Q1FrontUp,31.03718,41.1343,39.8693,-29.91149,-94.84637,159.4106,-41.54305,202408261107353895,
2-13,A_Baseline,1,Q1FrontUp,30.99612,41.32024,39.86875,-29.7774,-94.8272,159.4099,-41.55247,202408261107354126,
2-13,A_Baseline,1,Q1FrontUp,30.99612,41.32024,39.86875,-29.7774,-94.8272,159.4099,-41.55247,202408261107354417,
2-13,A_Baseline,1,Q1FrontUp,30.95087,41.49859,39.86917,-29.68693,-94.81423,159.4097,-41.55625,202408261107354591,
2-13,A_Baseline,1,Q1FrontUp,30.88526,41.69949,39.8748,-29.59387,-94.82576,159.3819,-41.55922,202408261107354756,
2-13,A_Baseline,1,Q1FrontUp,30.88526,41.69949,39.8748,-29.59387,-94.82576,159.3819,-41.55922,202408261107354927,
2-13,A_Baseline,1,Q1FrontUp,30.81029,41.89118,39.91031,-29.50917,-94.86038,159.3497,-41.56379,202408261107355156,
2-13,A_Baseline,1,Q1FrontUp,30.71799,42.09133,39.95908,-29.44087,-94.89371,159.3142,-41.5706,202408261107355420,
2-13,A_Baseline,1,Q1FrontUp,30.71799,42.09133,39.95908,-29.44087,-94.89371,159.3142,-41.5706,202408261107355600,
2-13,A_Baseline,1,Q1FrontUp,30.59394,42.27504,40.05182,-29.40829,-94.90579,159.281,-41.57743,202408261107355761,
2-13,A_Baseline,1,Q1FrontUp,30.59394,42.27504,40.05182,-29.40829,-94.90579,159.281,-41.57743,202408261107355958,
2-13,A_Baseline,1,Q1FrontUp,30.43218,42.45046,40.18106,-29.38829,-94.92699,159.247,-41.58654,202408261107356158,
2-13,A_Baseline,1,Q1FrontUp,30.24851,42.61572,40.34493,-29.38285,-94.9464,159.2274,-41.59321,202408261107356437,
2-13,A_Baseline,1,Q1FrontUp,30.24851,42.61572,40.34493,-29.38285,-94.9464,159.2274,-41.59321,202408261107356631,
2-13,A_Baseline,1,Q1FrontUp,30.05302,42.78462,40.49002,-29.36855,-94.95912,159.2082,-41.59939,202408261107356913,
2-13,A_Baseline,1,Q1FrontUp,29.84207,42.92837,40.644,-29.36291,-94.9938,159.1868,-41.60318,202408261107357095,
2-13,A_Baseline,1,Q1FrontUp,29.84207,42.92837,40.644,-29.36291,-94.9938,159.1868,-41.60318,202408261107357324,
2-13,A_Baseline,1,Q1FrontUp,29.60008,43.08112,40.8247,-29.36402,-95.03348,159.1765,-41.60507,202408261107357583,
2-13,A_Baseline,1,Q1FrontUp,29.32424,43.23026,41.07572,-29.36616,-95.13899,159.1632,-41.60627,202408261107357775,
2-13,A_Baseline,1,Q1FrontUp,29.32424,43.23026,41.07572,-29.36616,-95.13899,159.1632,-41.60627,202408261107357929,
2-13,A_Baseline,1,Q1FrontUp,29.04062,43.35508,41.3143,-29.3652,-95.1983,159.1488,-41.60803,202408261107358124,
2-13,A_Baseline,1,Q1FrontUp,29.04062,43.35508,41.3143,-29.3652,-95.1983,159.1488,-41.60803,202408261107358331,
2-13,A_Baseline,1,Q1FrontUp,28.72357,43.47517,41.53159,-29.36315,-95.23206,159.1347,-41.61086,202408261107358598,
2-13,A_Baseline,1,Q1FrontUp,28.37419,43.58349,41.80514,-29.36456,-95.259,159.0991,-41.62392,202408261107358777,
2-13,A_Baseline,1,Q1FrontUp,28.37419,43.58349,41.80514,-29.36456,-95.259,159.0991,-41.62392,202408261107358939,
2-13,A_Baseline,1,Q1FrontUp,28.00874,43.70423,42.09019,-29.37898,-95.27995,159.0702,-41.63191,202408261107359269,
2-13,A_Baseline,1,Q1FrontUp,27.66797,43.79838,42.33561,-29.39501,-95.29686,159.0577,-41.63452,202408261107359468,
2-13,A_Baseline,1,Q1FrontUp,27.66797,43.79838,42.33561,-29.39501,-95.29686,159.0577,-41.63452,202408261107359751,
2-13,A_Baseline,1,Q1FrontUp,27.34768,43.87411,42.57099,-29.39707,-95.30699,159.0437,-41.63727,202408261107359956,
2-13,A_Baseline,1,Q1FrontUp,27.01026,43.95148,42.79617,-29.39721,-95.34167,159.0176,-41.64071,202408261107360241,
2-13,A_Baseline,1,Q1FrontUp,26.67793,44.02286,43.00468,-29.39717,-95.37611,158.9892,-41.64533,202408261107360447,
2-13,A_Baseline,1,Q1FrontUp,26.67793,44.02286,43.00468,-29.39717,-95.37611,158.9892,-41.64533,202408261107360657,
2-13,A_Baseline,1,Q1FrontUp,26.34113,44.09212,43.23956,-29.42501,-95.39619,158.9776,-41.64793,202408261107360959,
2-13,A_Baseline,1,Q1FrontUp,26.0225,44.15265,43.47761,-29.44515,-95.40359,158.9736,-41.64898,202408261107361123,
2-13,A_Baseline,1,Q1FrontUp,25.68534,44.22523,43.69918,-29.46735,-95.40359,158.9724,-41.64935,202408261107361470,
2-13,A_Baseline,1,Q1FrontUp,25.32948,44.30402,43.92859,-29.49074,-95.40334,158.9718,-41.64965,202408261107361634,
2-13,A_Baseline,1,Q1FrontUp,25.32948,44.30402,43.92859,-29.49074,-95.40334,158.9718,-41.64965,202408261107361918,
2-13,A_Baseline,1,Q1FrontUp,24.99458,44.37841,44.16786,-29.53279,-95.40286,158.9721,-41.64954,202408261107362079,
2-13,A_Baseline,1,Q1FrontUp,24.99458,44.37841,44.16786,-29.53279,-95.40286,158.9721,-41.64954,202408261107362261,
2-13,A_Baseline,1,Q1FrontUp,24.67841,44.44473,44.39448,-29.57419,-95.40107,158.9717,-41.6494,202408261107362414,
2-13,A_Baseline,1,Q1FrontUp,24.67841,44.44473,44.39448,-29.57419,-95.40107,158.9717,-41.6494,202408261107362627,
2-13,A_Baseline,1,Q1FrontUp,24.38267,44.52306,44.58617,-29.59469,-95.40097,158.9717,-41.64962,202408261107362833,
2-13,A_Baseline,1,Q1FrontUp,24.38267,44.52306,44.58617,-29.59469,-95.40097,158.9717,-41.64962,202408261107363105,
2-13,A_Baseline,1,Q1FrontUp,24.06426,44.60751,44.79841,-29.616,-95.39931,158.9715,-41.64967,202408261107363281,
2-13,A_Baseline,1,Q1FrontUp,23.7676,44.69484,45.00544,-29.6208,-95.39681,158.9713,-41.64984,202408261107363441,
2-13,A_Baseline,1,Q1FrontUp,23.7676,44.69484,45.00544,-29.6208,-95.39681,158.9713,-41.64984,202408261107363617,
2-13,A_Baseline,1,Q1FrontUp,23.47681,44.78804,45.18991,-29.63264,-95.39589,158.9684,-41.67055,202408261107363800,
2-13,A_Baseline,1,Q1FrontUp,23.18888,44.88286,45.34793,-29.63121,-95.41515,158.9541,-41.68299,202408261107364105,
2-13,A_Baseline,1,Q1FrontUp,23.18888,44.88286,45.34793,-29.63121,-95.41515,158.9541,-41.68299,202408261107364427,
2-13,A_Baseline,1,Q1FrontUp,22.63205,45.09422,45.58398,-29.57851,-95.47374,158.9508,-41.68267,202408261107364669,
2-13,A_Baseline,1,Q1FrontUp,22.63205,45.09422,45.58398,-29.57851,-95.47374,158.9508,-41.68267,202408261107364819,
2-13,A_Baseline,1,Q1FrontUp,22.35891,45.198,45.62873,-29.53223,-95.48239,158.9485,-41.68246,202408261107365097,
2-13,A_Baseline,1,Q1FrontUp,22.35891,45.198,45.62873,-29.53223,-95.48239,158.9485,-41.68246,202408261107365269,
2-13,A_Baseline,1,Q1FrontUp,22.12216,45.30666,45.64023,-29.47383,-95.48221,158.9475,-41.68244,202408261107365444,
2-13,A_Baseline,1,Q1FrontUp,22.12216,45.30666,45.64023,-29.47383,-95.48221,158.9475,-41.68244,202408261107365619,
2-13,A_Baseline,1,Q1FrontUp,21.89621,45.40056,45.64701,-29.43946,-95.48226,158.9458,-41.68237,202408261107365815,
2-13,A_Baseline,1,Q1FrontUp,21.72105,45.48131,45.64496,-29.39239,-95.47174,158.9442,-41.68382,202408261107365993,
2-13,A_Baseline,1,Q1FrontUp,21.72105,45.48131,45.64496,-29.39239,-95.47174,158.9442,-41.68382,202408261107366153,
2-13,A_Baseline,1,Q1FrontUp,21.58841,45.55282,45.64065,-29.31471,-95.45415,158.9442,-41.68678,202408261107366438,
2-13,A_Baseline,1,Q1FrontUp,21.51789,45.60004,45.5745,-29.21767,-95.45525,158.8937,-41.68726,202408261107366789,
2-13,A_Baseline,1,Q1FrontUp,21.48983,45.64139,45.48468,-29.12441,-95.45521,158.8319,-41.68858,202408261107367146,
2-13,A_Baseline,1,Q1FrontUp,21.50421,45.64893,45.37185,-29.04798,-95.45467,158.7796,-41.69176,202408261107367423,
2-13,A_Baseline,1,Q1FrontUp,21.50421,45.64893,45.37185,-29.04798,-95.45467,158.7796,-41.69176,202408261107367588,
2-13,A_Baseline,1,Q1FrontUp,21.58734,45.64768,45.18684,-28.91578,-95.45139,158.7493,-41.69258,202408261107367825,
2-13,A_Baseline,1,Q1FrontUp,21.73378,45.65186,44.95236,-28.71947,-95.45094,158.7177,-41.69384,202408261107368159,
2-13,A_Baseline,1,Q1FrontUp,21.73378,45.65186,44.95236,-28.71947,-95.45094,158.7177,-41.69384,202408261107368352,
2-13,A_Baseline,1,Q1FrontUp,21.91335,45.66545,44.69564,-28.47952,-95.45095,158.6681,-41.69468,202408261107368591,
2-13,A_Baseline,1,Q1FrontUp,22.12298,45.68828,44.39023,-28.21095,-95.45322,158.6557,-41.69466,202408261107368774,
2-13,A_Baseline,1,Q1FrontUp,22.12298,45.68828,44.39023,-28.21095,-95.45322,158.6557,-41.69466,202408261107368949,
2-13,A_Baseline,1,Q1FrontUp,22.34073,45.71958,44.13261,-27.94439,-95.46253,158.6458,-41.69516,202408261107369334,
2-13,A_Baseline,1,Q1FrontUp,22.5574,45.76476,43.90889,-27.66947,-95.4717,158.6411,-41.69489,202408261107369577,
2-13,A_Baseline,1,Q1FrontUp,22.5574,45.76476,43.90889,-27.66947,-95.4717,158.6411,-41.69489,202408261107369745,
2-13,A_Baseline,1,Q1FrontUp,22.5574,45.76476,43.90889,-27.66947,-95.4717,158.6411,-41.69489,202408261107369921,
2-13,A_Baseline,1,Q1FrontUp,22.97026,45.81482,43.38478,-27.20154,-95.47162,158.6352,-41.69479,202408261107370096,
2-13,A_Baseline,1,Q1FrontUp,22.97026,45.81482,43.38478,-27.20154,-95.47162,158.6352,-41.69479,202408261107370275,
2-13,A_Baseline,1,Q1FrontUp,23.21494,45.84428,43.01993,-26.92836,-95.46592,158.6259,-41.69498,202408261107370438,
2-13,A_Baseline,1,Q1FrontUp,23.46613,45.87408,42.64198,-26.69381,-95.4473,158.6177,-41.69455,202408261107370690,
2-13,A_Baseline,1,Q1FrontUp,23.46613,45.87408,42.64198,-26.69381,-95.4473,158.6177,-41.69455,202408261107370930,
2-13,A_Baseline,1,Q1FrontUp,23.74281,45.91448,42.28737,-26.47884,-95.43954,158.6062,-41.69463,202408261107371106,
2-13,A_Baseline,1,Q1FrontUp,24.0294,45.96277,41.97568,-26.27495,-95.43643,158.5981,-41.69492,202408261107371428,
2-13,A_Baseline,1,Q1FrontUp,24.28437,46.01317,41.75325,-26.11158,-95.39408,158.5988,-41.69483,202408261107371798,
2-13,A_Baseline,1,Q1FrontUp,24.53458,46.05574,41.51468,-25.97668,-95.38133,158.5985,-41.69447,202408261107372093,
2-13,A_Baseline,1,Q1FrontUp,24.53458,46.05574,41.51468,-25.97668,-95.38133,158.5985,-41.69447,202408261107372256,
2-13,A_Baseline,1,Q1FrontUp,24.78526,46.09989,41.29558,-25.85766,-95.38172,158.5985,-41.69498,202408261107372470,
2-13,A_Baseline,1,Q1FrontUp,25.01265,46.1541,41.13221,-25.75414,-95.38201,158.5986,-41.69468,202408261107372820,
2-13,A_Baseline,1,Q1FrontUp,25.01265,46.1541,41.13221,-25.75414,-95.38201,158.5986,-41.69468,202408261107373122,
2-13,A_Baseline,1,Q1FrontUp,25.4915,46.24936,40.83029,-25.56698,-95.38032,158.5993,-41.69473,202408261107373424,
2-13,A_Baseline,1,Q1FrontUp,25.70241,46.27666,40.68909,-25.54202,-95.18304,158.6152,-41.69516,202408261107373768,
2-13,A_Baseline,1,Q1FrontUp,25.70241,46.27666,40.68909,-25.54202,-95.18304,158.6152,-41.69516,202408261107373981,
2-13,A_Baseline,1,Q1FrontUp,25.91726,46.30732,40.55954,-25.50842,-95.11491,158.6243,-41.69507,202408261107374249,
2-13,A_Baseline,1,Q1FrontUp,25.91726,46.30732,40.55954,-25.50842,-95.11491,158.6243,-41.69507,202408261107374421,
2-13,A_Baseline,1,Q1FrontUp,26.14161,46.34034,40.44326,-25.45083,-95.1184,158.6039,-41.69456,202408261107374594,
2-13,A_Baseline,1,Q1FrontUp,26.35843,46.36873,40.3813,-25.41944,-95.11865,158.5921,-41.69448,202408261107374758,
2-13,A_Baseline,1,Q1FrontUp,26.35843,46.36873,40.3813,-25.41944,-95.11865,158.5921,-41.69448,202408261107374929,
2-13,A_Baseline,1,Q1FrontUp,26.56365,46.39931,40.34267,-25.4154,-94.99288,158.5928,-41.69489,202408261107375156,
2-13,A_Baseline,1,Q1FrontUp,26.78151,46.42197,40.31884,-25.41562,-94.79399,158.6306,-41.69523,202408261107375442,
2-13,A_Baseline,1,Q1FrontUp,27.00814,46.4507,40.31161,-25.38241,-94.84357,158.623,-41.69459,202408261107375655,
2-13,A_Baseline,1,Q1FrontUp,27.00814,46.4507,40.31161,-25.38241,-94.84357,158.623,-41.69459,202408261107375967,
2-13,A_Baseline,1,Q1FrontUp,27.21754,46.47244,40.30916,-25.35352,-94.87511,158.6152,-41.69477,202408261107376180,
2-13,A_Baseline,1,Q1FrontUp,27.40988,46.49917,40.3066,-25.33081,-94.89165,158.6077,-41.69494,202408261107376440,
2-13,A_Baseline,1,Q1FrontUp,27.59199,46.51936,40.29842,-25.32555,-94.78415,158.6129,-41.69492,202408261107376888,
2-13,A_Baseline,1,Q1FrontUp,27.77,46.54379,40.29008,-25.31621,-94.69262,158.6202,-41.69501,202408261107377116,
2-13,A_Baseline,1,Q1FrontUp,27.77,46.54379,40.29008,-25.31621,-94.69262,158.6202,-41.69501,202408261107377312,
2-13,A_Baseline,1,Q1FrontUp,27.9395,46.56695,40.28585,-25.3085,-94.61684,158.6221,-41.69474,202408261107377589,
2-13,A_Baseline,1,Q1FrontUp,28.11974,46.58736,40.2691,-25.29757,-94.5243,158.6313,-41.69476,202408261107377761,
2-13,A_Baseline,1,Q1FrontUp,28.11974,46.58736,40.2691,-25.29757,-94.5243,158.6313,-41.69476,202408261107377930,
2-13,A_Baseline,1,Q1FrontUp,28.28495,46.60075,40.2541,-25.28652,-94.43272,158.6424,-41.69493,202408261107378116,
2-13,A_Baseline,1,Q1FrontUp,28.44581,46.60817,40.24014,-25.27449,-94.34324,158.6482,-41.69458,202408261107378338,
2-13,A_Baseline,1,Q1FrontUp,28.44581,46.60817,40.24014,-25.27449,-94.34324,158.6482,-41.69458,202408261107378634,
2-13,A_Baseline,1,Q1FrontUp,28.61442,46.62657,40.23812,-25.22533,-94.3611,158.6458,-41.69489,202408261107378824,
2-13,A_Baseline,1,Q1FrontUp,28.76484,46.64312,40.23656,-25.18646,-94.28825,158.6484,-41.69457,202408261107379113,
2-13,A_Baseline,1,Q1FrontUp,28.89349,46.65367,40.23543,-25.15094,-94.1476,158.6823,-41.69507,202408261107379320,
2-13,A_Baseline,1,Q1FrontUp,28.89349,46.65367,40.23543,-25.15094,-94.1476,158.6823,-41.69507,202408261107379608,
2-13,A_Baseline,1,Q1FrontUp,29.02692,46.67408,40.22829,-25.0794,-93.98222,158.733,-41.6946,202408261107379772,
2-13,A_Baseline,1,Q1FrontUp,29.02692,46.67408,40.22829,-25.0794,-93.98222,158.733,-41.6946,202408261107379953,
2-13,A_Baseline,1,Q1FrontUp,29.16227,46.70028,40.21804,-24.96062,-93.98459,158.7458,-41.69365,202408261107380112,
2-13,A_Baseline,1,Q1FrontUp,29.16227,46.70028,40.21804,-24.96062,-93.98459,158.7458,-41.69365,202408261107380302,
2-13,A_Baseline,1,Q1FrontUp,29.30058,46.73369,40.19945,-24.79946,-94.0831,158.7003,-41.69394,202408261107380514,
2-13,A_Baseline,1,Q1FrontUp,29.41597,46.74583,40.16753,-24.66026,-93.96215,158.7048,-41.69344,202408261107380793,
2-13,A_Baseline,1,Q1FrontUp,29.41597,46.74583,40.16753,-24.66026,-93.96215,158.7048,-41.69344,202408261107380953,
2-13,A_Baseline,1,Q1FrontUp,29.52178,46.7486,40.1327,-24.50081,-93.951,158.7021,-41.69421,202408261107381271,
2-13,A_Baseline,1,Q1FrontUp,29.62499,46.74831,40.09283,-24.29773,-93.97972,158.6725,-41.69414,202408261107381454,
2-13,A_Baseline,1,Q1FrontUp,29.62499,46.74831,40.09283,-24.29773,-93.97972,158.6725,-41.69414,202408261107381647,
2-13,A_Baseline,1,Q1FrontUp,29.71849,46.74719,40.04752,-24.0718,-93.99281,158.645,-41.69412,202408261107381935,
2-13,A_Baseline,1,Q1FrontUp,29.83,46.74697,39.9754,-23.81808,-93.99836,158.629,-41.69468,202408261107382169,
2-13,A_Baseline,1,Q1FrontUp,29.94892,46.74706,39.87346,-23.55116,-93.99825,158.615,-41.69449,202408261107382451,
2-13,A_Baseline,1,Q1FrontUp,29.94892,46.74706,39.87346,-23.55116,-93.99825,158.615,-41.69449,202408261107382626,
2-13,A_Baseline,1,Q1FrontUp,30.08364,46.74886,39.7636,-23.22838,-93.99832,158.6026,-41.69512,202408261107382876,
2-13,A_Baseline,1,Q1FrontUp,30.1995,46.74726,39.66,-22.91506,-93.9982,158.5999,-41.69498,202408261107383134,
2-13,A_Baseline,1,Q1FrontUp,30.31225,46.7443,39.5611,-22.55957,-93.99644,158.6,-41.6951,202408261107383469,
2-13,A_Baseline,1,Q1FrontUp,30.31225,46.7443,39.5611,-22.55957,-93.99644,158.6,-41.6951,202408261107383659,
2-13,A_Baseline,1,Q1FrontUp,30.42938,46.74009,39.44899,-22.18226,-93.94894,158.6002,-41.70259,202408261107383941,
2-13,A_Baseline,1,Q1FrontUp,30.54184,46.73165,39.34838,-21.8315,-93.89867,158.5981,-41.7121,202408261107384105,
2-13,A_Baseline,1,Q1FrontUp,30.54184,46.73165,39.34838,-21.8315,-93.89867,158.5981,-41.7121,202408261107384272,
2-13,A_Baseline,1,Q1FrontUp,30.64818,46.71281,39.26952,-21.49522,-93.84262,158.5974,-41.71619,202408261107384432,
2-13,A_Baseline,1,Q1FrontUp,30.64818,46.71281,39.26952,-21.49522,-93.84262,158.5974,-41.71619,202408261107384608,
2-13,A_Baseline,1,Q1FrontUp,30.73061,46.67955,39.19405,-21.19095,-93.79707,158.5968,-41.72247,202408261107384799,
2-13,A_Baseline,1,Q1FrontUp,30.73061,46.67955,39.19405,-21.19095,-93.79707,158.5968,-41.72247,202408261107385024,
2-13,A_Baseline,1,Q1FrontUp,30.80948,46.62926,39.1423,-20.90269,-93.71459,158.597,-41.72965,202408261107385291,
2-13,A_Baseline,1,Q1FrontUp,30.86822,46.56124,39.12022,-20.67676,-93.5778,158.5976,-41.74245,202408261107385490,
2-13,A_Baseline,1,Q1FrontUp,30.86822,46.56124,39.12022,-20.67676,-93.5778,158.5976,-41.74245,202408261107385807,
2-13,A_Baseline,1,Q1FrontUp,30.91783,46.49735,39.10971,-20.46736,-93.4589,158.5981,-41.75383,202408261107385997,
2-13,A_Baseline,1,Q1FrontUp,30.94826,46.43781,39.1086,-20.24986,-93.39978,158.5983,-41.76276,202408261107386272,
2-13,A_Baseline,1,Q1FrontUp,30.94826,46.43781,39.1086,-20.24986,-93.39978,158.5983,-41.76276,202408261107386466,
2-13,A_Baseline,1,Q1FrontUp,30.95441,46.25208,39.10975,-19.96364,-93.33514,158.5981,-41.778,202408261107386819,
2-13,A_Baseline,1,Q1FrontUp,30.93731,46.14845,39.11603,-19.89243,-93.25441,158.5991,-41.77945,202408261107386988,
