mpan31415/robot-x-ar/study2/data/raw_all_participants/Participant_2-2_1.csv
ParticipantID,Condition,Trial,PostureID,J1,J2,J3,J4,J5,J6,J7,Timestamp,
2-2J,C_HumanVertical,1,Q1FrontDown,-24.77345,30.61526,35.41366,-19.31537,-112.1615,147.4348,-53.92968,202408221806411836,
2-2J,C_HumanVertical,1,Q1FrontDown,-24.77348,30.61502,35.41378,-19.31519,-112.1633,147.4346,-53.93307,202408221806412145,
2-2J,C_HumanVertical,1,Q1FrontDown,-24.77342,30.61523,35.41403,-19.31531,-112.1644,147.4346,-53.93514,202408221806412481,
2-2J,C_HumanVertical,1,Q1FrontDown,-24.7734,30.61513,35.41496,-19.31529,-112.1646,147.4346,-53.93922,202408221806412817,
2-2J,C_HumanVertical,1,Q1FrontDown,-24.77346,30.61628,35.43921,-19.31454,-112.1789,147.4334,-53.96949,202408221806413355,
2-2J,C_HumanVertical,1,Q1FrontDown,-24.7734,30.6163,35.45304,-19.31385,-112.181,147.4332,-53.98491,202408221806413649,
2-2J,C_HumanVertical,1,Q1FrontDown,-24.7734,30.6163,35.45304,-19.31385,-112.181,147.4332,-53.98491,202408221806413895,
2-2J,C_HumanVertical,1,Q1FrontDown,-24.77319,30.61613,35.46739,-19.31367,-112.1826,147.433,-54.0027,202408221806414069,
2-2J,C_HumanVertical,1,Q1FrontDown,-24.77299,30.61626,35.48241,-19.3134,-112.1838,147.4326,-54.02188,202408221806414251,
2-2J,C_HumanVertical,1,Q1FrontDown,-24.77299,30.61626,35.48241,-19.3134,-112.1838,147.4326,-54.02188,202408221806414429,
2-2J,C_HumanVertical,1,Q1FrontDown,-24.77295,30.61614,35.48769,-19.31184,-112.1872,147.4326,-54.0375,202408221806414783,
2-2J,C_HumanVertical,1,Q1FrontDown,-24.77173,30.61688,35.49438,-19.30525,-112.1887,147.4322,-54.05362,202408221806414948,
2-2J,C_HumanVertical,1,Q1FrontDown,-24.77143,30.61709,35.50477,-19.30035,-112.1886,147.4321,-54.07109,202408221806415211,
2-2J,C_HumanVertical,1,Q1FrontDown,-24.77143,30.61709,35.50477,-19.30035,-112.1886,147.4321,-54.07109,202408221806415397,
2-2J,C_HumanVertical,1,Q1FrontDown,-24.77136,30.61675,35.51635,-19.29778,-112.1887,147.4317,-54.08732,202408221806415712,
2-2J,C_HumanVertical,1,Q1FrontDown,-24.77106,30.61681,35.5243,-19.29519,-112.1889,147.4317,-54.09891,202408221806415886,
2-2J,C_HumanVertical,1,Q1FrontDown,-24.77106,30.61681,35.5243,-19.29519,-112.1889,147.4317,-54.09891,202408221806416097,
2-2J,C_HumanVertical,1,Q1FrontDown,-24.77084,30.61658,35.52956,-19.29248,-112.1895,147.4318,-54.11518,202408221806416380,
2-2J,C_HumanVertical,1,Q1FrontDown,-24.77084,30.61658,35.52956,-19.29248,-112.1895,147.4318,-54.11518,202408221806416556,
2-2J,C_HumanVertical,1,Q1FrontDown,-24.77084,30.61655,35.53896,-19.28921,-112.1918,147.4318,-54.13033,202408221806416797,
2-2J,C_HumanVertical,1,Q1FrontDown,-24.77098,30.61693,35.54541,-19.28654,-112.1951,147.4315,-54.1457,202408221806417085,
2-2J,C_HumanVertical,1,Q1FrontDown,-24.77098,30.61693,35.54541,-19.28654,-112.1951,147.4315,-54.1457,202408221806417292,
2-2J,C_HumanVertical,1,Q1FrontDown,-24.77093,30.61709,35.56397,-19.28518,-112.2083,147.4314,-54.16843,202408221806417579,
2-2J,C_HumanVertical,1,Q1FrontDown,-24.77082,30.61718,35.57798,-19.28413,-112.2206,147.4315,-54.18145,202408221806417878,
2-2J,C_HumanVertical,1,Q1FrontDown,-24.77082,30.61718,35.57798,-19.28413,-112.2206,147.4315,-54.18145,202408221806418060,
2-2J,C_HumanVertical,1,Q1FrontDown,-24.77094,30.61748,35.58765,-19.28304,-112.2369,147.4314,-54.19043,202408221806418293,
2-2J,C_HumanVertical,1,Q1FrontDown,-24.77094,30.61727,35.59931,-19.28191,-112.2472,147.4314,-54.19899,202408221806418556,
2-2J,C_HumanVertical,1,Q1FrontDown,-24.77094,30.61727,35.59931,-19.28191,-112.2472,147.4314,-54.19899,202408221806418727,
2-2J,C_HumanVertical,1,Q1FrontDown,-24.77116,30.61736,35.61274,-19.28008,-112.2544,147.431,-54.20873,202408221806418895,
2-2J,C_HumanVertical,1,Q1FrontDown,-24.77084,30.61736,35.6286,-19.27855,-112.2583,147.4313,-54.21331,202408221806419213,
2-2J,C_HumanVertical,1,Q1FrontDown,-24.77084,30.61736,35.6286,-19.27855,-112.2583,147.4313,-54.21331,202408221806419391,
2-2J,C_HumanVertical,1,Q1FrontDown,-24.77106,30.61758,35.64368,-19.27736,-112.2612,147.4313,-54.22294,202408221806419631,
2-2J,C_HumanVertical,1,Q1FrontDown,-24.77082,30.61748,35.65699,-19.27623,-112.2631,147.4312,-54.22743,202408221806419904,
2-2J,C_HumanVertical,1,Q1FrontDown,-24.771,30.6176,35.6721,-19.27541,-112.2647,147.4312,-54.23255,202408221806420229,
2-2J,C_HumanVertical,1,Q1FrontDown,-24.771,30.6176,35.6721,-19.27541,-112.2647,147.4312,-54.23255,202408221806420396,
2-2J,C_HumanVertical,1,Q1FrontDown,-24.77158,30.61736,35.69047,-19.27485,-112.2663,147.4313,-54.23692,202408221806420597,
2-2J,C_HumanVertical,1,Q1FrontDown,-24.77139,30.61749,35.70591,-19.27399,-112.2677,147.4313,-54.23883,202408221806420895,
2-2J,C_HumanVertical,1,Q1FrontDown,-24.77139,30.61749,35.70591,-19.27399,-112.2677,147.4313,-54.23883,202408221806421058,
2-2J,C_HumanVertical,1,Q1FrontDown,-24.77129,30.61736,35.72001,-19.27331,-112.2691,147.4313,-54.24055,202408221806421231,
2-2J,C_HumanVertical,1,Q1FrontDown,-24.77129,30.61736,35.72001,-19.27331,-112.2691,147.4313,-54.24055,202408221806421477,
2-2J,C_HumanVertical,1,Q1FrontDown,-24.77145,30.61727,35.73537,-19.27314,-112.2702,147.4313,-54.24274,202408221806421745,
2-2J,C_HumanVertical,1,Q1FrontDown,-24.77182,30.61738,35.75541,-19.27259,-112.2718,147.4312,-54.24969,202408221806422078,
2-2J,C_HumanVertical,1,Q1FrontDown,-24.77159,30.61766,35.77592,-19.2727,-112.2736,147.431,-54.25708,202408221806422411,
2-2J,C_HumanVertical,1,Q1FrontDown,-24.77157,30.61745,35.79041,-19.27216,-112.2757,147.4313,-54.25909,202408221806422775,
2-2J,C_HumanVertical,1,Q1FrontDown,-24.77157,30.61751,35.81108,-19.27196,-112.2836,147.4312,-54.26104,202408221806422942,
2-2J,C_HumanVertical,1,Q1FrontDown,-24.77157,30.61751,35.81108,-19.27196,-112.2836,147.4312,-54.26104,202408221806423226,
2-2J,C_HumanVertical,1,Q1FrontDown,-24.77157,30.61751,35.81108,-19.27196,-112.2836,147.4312,-54.26104,202408221806423394,
2-2J,C_HumanVertical,1,Q1FrontDown,-24.77151,30.61759,35.83146,-19.27177,-112.291,147.4312,-54.26153,202408221806423554,
2-2J,C_HumanVertical,1,Q1FrontDown,-24.77172,30.61778,35.85304,-19.27102,-112.2948,147.4312,-54.26239,202408221806423734,
2-2J,C_HumanVertical,1,Q1FrontDown,-24.77172,30.61778,35.85304,-19.27102,-112.2948,147.4312,-54.26239,202408221806423954,
2-2J,C_HumanVertical,1,Q1FrontDown,-24.77121,30.61799,35.90471,-19.27082,-112.3046,147.431,-54.26358,202408221806424221,
2-2J,C_HumanVertical,1,Q1FrontDown,-24.77121,30.61799,35.90471,-19.27082,-112.3046,147.431,-54.26358,202408221806424417,
2-2J,C_HumanVertical,1,Q1FrontDown,-24.77151,30.618,35.92482,-19.27028,-112.3077,147.431,-54.26413,202408221806424624,
2-2J,C_HumanVertical,1,Q1FrontDown,-24.77136,30.61777,35.94285,-19.27005,-112.3098,147.4312,-54.26434,202408221806424998,
2-2J,C_HumanVertical,1,Q1FrontDown,-24.77136,30.61777,35.94285,-19.27005,-112.3098,147.4312,-54.26434,202408221806425305,
2-2J,C_HumanVertical,1,Q1FrontDown,-24.77161,30.61786,35.96874,-19.26938,-112.3124,147.4311,-54.26492,202408221806425568,
2-2J,C_HumanVertical,1,Q1FrontDown,-24.77161,30.61786,35.96874,-19.26938,-112.3124,147.4311,-54.26492,202408221806425733,
2-2J,C_HumanVertical,1,Q1FrontDown,-24.77135,30.6179,35.97903,-19.26654,-112.3128,147.4313,-54.26353,202408221806425893,
2-2J,C_HumanVertical,1,Q1FrontDown,-24.77135,30.6179,35.97903,-19.26654,-112.3128,147.4313,-54.26353,202408221806426140,
2-2J,C_HumanVertical,1,Q1FrontDown,-24.77123,30.61861,35.98902,-19.25865,-112.3132,147.4312,-54.26154,202408221806426295,
2-2J,C_HumanVertical,1,Q1FrontDown,-24.77123,30.61861,35.98902,-19.25865,-112.3132,147.4312,-54.26154,202408221806426563,
2-2J,C_HumanVertical,1,Q1FrontDown,-24.77145,30.61905,35.99693,-19.25345,-112.3133,147.4312,-54.26041,202408221806426747,
2-2J,C_HumanVertical,1,Q1FrontDown,-24.77145,30.61882,36.00435,-19.24887,-112.3139,147.4313,-54.26007,202408221806427125,
2-2J,C_HumanVertical,1,Q1FrontDown,-24.77136,30.61892,36.00907,-19.24341,-112.3145,147.4315,-54.2601,202408221806427408,
2-2J,C_HumanVertical,1,Q1FrontDown,-24.77133,30.61839,36.01387,-19.23538,-112.3145,147.4315,-54.26001,202408221806427585,
2-2J,C_HumanVertical,1,Q1FrontDown,-24.77136,30.6186,36.01983,-19.22908,-112.3146,147.4314,-54.25945,202408221806427953,
2-2J,C_HumanVertical,1,Q1FrontDown,-24.77136,30.6186,36.01983,-19.22908,-112.3146,147.4314,-54.25945,202408221806428216,
2-2J,C_HumanVertical,1,Q1FrontDown,-24.77123,30.61901,36.02278,-19.22466,-112.3148,147.4315,-54.25886,202408221806428379,
2-2J,C_HumanVertical,1,Q1FrontDown,-24.77157,30.61861,36.02378,-19.22348,-112.3152,147.4314,-54.25881,202408221806428550,
2-2J,C_HumanVertical,1,Q1FrontDown,-24.77157,30.61861,36.02378,-19.22348,-112.3152,147.4314,-54.25881,202408221806428717,
2-2J,C_HumanVertical,1,Q1FrontDown,-24.77117,30.6187,36.0247,-19.22287,-112.3151,147.4315,-54.25966,202408221806428910,
2-2J,C_HumanVertical,1,Q1FrontDown,-24.77117,30.6187,36.0247,-19.22287,-112.3151,147.4315,-54.25966,202408221806429059,
2-2J,C_HumanVertical,1,Q1FrontDown,-24.77127,30.6187,36.02542,-19.2229,-112.3147,147.4315,-54.26034,202408221806429307,
2-2J,C_HumanVertical,1,Q1FrontDown,-24.77127,30.6187,36.02542,-19.2229,-112.3147,147.4315,-54.26034,202408221806429461,
2-2J,C_HumanVertical,1,Q1FrontDown,-24.77121,30.6188,36.02575,-19.22216,-112.315,147.4314,-54.26092,202408221806429750,
2-2J,C_HumanVertical,1,Q1FrontDown,-24.77121,30.6188,36.02575,-19.22216,-112.315,147.4314,-54.26092,202408221806429910,
2-2J,C_HumanVertical,1,Q1FrontDown,-24.77117,30.61883,36.02698,-19.22217,-112.3142,147.4315,-54.26138,202408221806430293,
2-2J,C_HumanVertical,1,Q1FrontDown,-24.77117,30.61883,36.02698,-19.22217,-112.3142,147.4315,-54.26138,202408221806430555,
2-2J,C_HumanVertical,1,Q1FrontDown,-24.76648,30.61891,36.03514,-19.22206,-112.3118,147.4314,-54.26178,202408221806430733,
2-2J,C_HumanVertical,1,Q1FrontDown,-24.73342,30.62071,36.0357,-19.21918,-112.1819,147.4463,-54.23175,202408221806430895,
2-2J,C_HumanVertical,1,Q1FrontDown,-24.73342,30.62071,36.0357,-19.21918,-112.1819,147.4463,-54.23175,202408221806431134,
2-2J,C_HumanVertical,1,Q1FrontDown,-24.68593,30.61883,36.03573,-19.21165,-112.011,147.5051,-54.16689,202408221806431371,
2-2J,C_HumanVertical,1,Q1FrontDown,-24.60279,30.61931,36.05308,-19.20551,-111.568,147.6797,-54.03209,202408221806431548,
2-2J,C_HumanVertical,1,Q1FrontDown,-24.60279,30.61931,36.05308,-19.20551,-111.568,147.6797,-54.03209,202408221806431710,
2-2J,C_HumanVertical,1,Q1FrontDown,-24.60279,30.61931,36.05308,-19.20551,-111.568,147.6797,-54.03209,202408221806431883,
2-2J,C_HumanVertical,1,Q1FrontDown,-24.47375,30.61697,36.08987,-19.20416,-111.113,147.875,-53.89218,202408221806432096,
2-2J,C_HumanVertical,1,Q1FrontDown,-24.33483,30.60488,36.13138,-19.20672,-110.7894,148.0336,-53.7952,202408221806432443,
2-2J,C_HumanVertical,1,Q1FrontDown,-24.22295,30.59528,36.1308,-19.26469,-110.827,148.0372,-53.80025,202408221806432606,
2-2J,C_HumanVertical,1,Q1FrontDown,-24.13552,30.59638,36.12915,-19.29002,-110.825,148.036,-53.80086,202408221806432879,
2-2J,C_HumanVertical,1,Q1FrontDown,-24.13552,30.59638,36.12915,-19.29002,-110.825,148.036,-53.80086,202408221806433050,
2-2J,C_HumanVertical,1,Q1FrontDown,-24.13552,30.59638,36.12915,-19.29002,-110.825,148.036,-53.80086,202408221806433220,
2-2J,C_HumanVertical,1,Q1FrontDown,-24.07894,30.60517,36.12509,-19.32577,-110.8102,148.0349,-53.79909,202408221806433394,
2-2J,C_HumanVertical,1,Q1FrontDown,-24.05004,30.62507,36.11667,-19.34925,-110.7441,148.0342,-53.79255,202408221806433631,
2-2J,C_HumanVertical,1,Q1FrontDown,-23.9943,30.64824,36.10685,-19.37921,-110.6129,148.0509,-53.76128,202408221806433914,
2-2J,C_HumanVertical,1,Q1FrontDown,-23.9943,30.64824,36.10685,-19.37921,-110.6129,148.0509,-53.76128,202408221806434054,
2-2J,C_HumanVertical,1,Q1FrontDown,-23.91892,30.67196,36.10047,-19.41276,-110.4402,148.0915,-53.72249,202408221806434302,
2-2J,C_HumanVertical,1,Q1FrontDown,-23.83095,30.67747,36.09307,-19.43475,-110.1356,148.1874,-53.64208,202408221806434618,
2-2J,C_HumanVertical,1,Q1FrontDown,-23.69271,30.67685,36.0843,-19.45,-109.7098,148.3192,-53.52163,202408221806434893,
2-2J,C_HumanVertical,1,Q1FrontDown,-23.69271,30.67685,36.0843,-19.45,-109.7098,148.3192,-53.52163,202408221806435066,
2-2J,C_HumanVertical,1,Q1FrontDown,-23.51569,30.67352,36.07928,-19.45925,-109.2225,148.4624,-53.39942,202408221806435385,
2-2J,C_HumanVertical,1,Q1FrontDown,-23.29257,30.66918,36.07531,-19.46631,-108.5943,148.6567,-53.23083,202408221806435574,
2-2J,C_HumanVertical,1,Q1FrontDown,-23.29257,30.66918,36.07531,-19.46631,-108.5943,148.6567,-53.23083,202408221806435767,
2-2J,C_HumanVertical,1,Q1FrontDown,-23.02878,30.64463,36.07563,-19.48213,-107.9142,148.8997,-53.04696,202408221806436049,
2-2J,C_HumanVertical,1,Q1FrontDown,-22.70643,30.60689,36.07378,-19.50454,-107.1707,149.1978,-52.83966,202408221806436380,
2-2J,C_HumanVertical,1,Q1FrontDown,-22.3346,30.57653,36.07671,-19.53114,-106.3044,149.5276,-52.6036,202408221806436559,
2-2J,C_HumanVertical,1,Q1FrontDown,-22.3346,30.57653,36.07671,-19.53114,-106.3044,149.5276,-52.6036,202408221806436763,
2-2J,C_HumanVertical,1,Q1FrontDown,-21.93531,30.53911,36.07716,-19.56455,-105.4178,149.8637,-52.33997,202408221806436963,
2-2J,C_HumanVertical,1,Q1FrontDown,-21.93531,30.53911,36.07716,-19.56455,-105.4178,149.8637,-52.33997,202408221806437257,
2-2J,C_HumanVertical,1,Q1FrontDown,-21.51178,30.48099,36.07733,-19.59169,-104.4959,150.232,-52.06734,202408221806437451,
2-2J,C_HumanVertical,1,Q1FrontDown,-21.05906,30.40483,36.07842,-19.64114,-103.546,150.6355,-51.76952,202408221806437716,
2-2J,C_HumanVertical,1,Q1FrontDown,-21.05906,30.40483,36.07842,-19.64114,-103.546,150.6355,-51.76952,202408221806437896,
2-2J,C_HumanVertical,1,Q1FrontDown,-21.05906,30.40483,36.07842,-19.64114,-103.546,150.6355,-51.76952,202408221806438105,
2-2J,C_HumanVertical,1,Q1FrontDown,-20.1055,30.21428,36.08365,-19.77581,-101.6178,151.399,-51.17335,202408221806438385,
2-2J,C_HumanVertical,1,Q1FrontDown,-19.64252,30.08242,36.09391,-19.86197,-100.7046,151.7848,-50.8875,202408221806438557,
2-2J,C_HumanVertical,1,Q1FrontDown,-19.64252,30.08242,36.09391,-19.86197,-100.7046,151.7848,-50.8875,202408221806438729,
2-2J,C_HumanVertical,1,Q1FrontDown,-19.17778,29.93656,36.10714,-19.95032,-99.81738,152.125,-50.61147,202408221806438896,
2-2J,C_HumanVertical,1,Q1FrontDown,-19.17778,29.93656,36.10714,-19.95032,-99.81738,152.125,-50.61147,202408221806439126,
2-2J,C_HumanVertical,1,Q1FrontDown,-19.17778,29.93656,36.10714,-19.95032,-99.81738,152.125,-50.61147,202408221806439294,
2-2J,C_HumanVertical,1,Q1FrontDown,-18.32177,29.62866,36.13364,-20.10048,-98.26115,152.7834,-50.08702,202408221806439577,
2-2J,C_HumanVertical,1,Q1FrontDown,-18.32177,29.62866,36.13364,-20.10048,-98.26115,152.7834,-50.08702,202408221806439745,
2-2J,C_HumanVertical,1,Q1FrontDown,-17.9934,29.5252,36.16082,-20.14224,-98.00472,152.8871,-50.0168,202408221806440076,
2-2J,C_HumanVertical,1,Q1FrontDown,-17.7357,29.40486,36.1749,-20.19032,-98.00533,152.886,-50.01933,202408221806440442,
2-2J,C_HumanVertical,1,Q1FrontDown,-17.57703,29.34403,36.16431,-20.22786,-98.00583,152.8835,-50.0239,202408221806440604,
2-2J,C_HumanVertical,1,Q1FrontDown,-17.48018,29.32317,36.0939,-20.27927,-98.00626,152.8729,-50.02714,202408221806440887,
2-2J,C_HumanVertical,1,Q1FrontDown,-17.48018,29.32317,36.0939,-20.27927,-98.00626,152.8729,-50.02714,202408221806441049,
2-2J,C_HumanVertical,1,Q1FrontDown,-17.44086,29.32866,35.97925,-20.34355,-98.00643,152.8348,-50.03019,202408221806441247,
2-2J,C_HumanVertical,1,Q1FrontDown,-17.44086,29.32866,35.97925,-20.34355,-98.00643,152.8348,-50.03019,202408221806441462,
2-2J,C_HumanVertical,1,Q1FrontDown,-17.36299,29.3485,35.79852,-20.51279,-98.00718,152.7865,-50.03233,202408221806441752,
2-2J,C_HumanVertical,1,Q1FrontDown,-17.2563,29.37918,35.51823,-20.75657,-98.00797,152.7336,-50.03415,202408221806441922,
2-2J,C_HumanVertical,1,Q1FrontDown,-17.13548,29.43758,35.20869,-21.03501,-98.00778,152.6661,-50.0359,202408221806442295,
2-2J,C_HumanVertical,1,Q1FrontDown,-16.9401,29.52569,34.78009,-21.41107,-98.00843,152.5736,-50.03822,202408221806442564,
2-2J,C_HumanVertical,1,Q1FrontDown,-16.9401,29.52569,34.78009,-21.41107,-98.00843,152.5736,-50.03822,202408221806442907,
2-2J,C_HumanVertical,1,Q1FrontDown,-16.39243,29.73993,33.74471,-22.38731,-98.00861,152.2816,-50.05017,202408221806443229,
2-2J,C_HumanVertical,1,Q1FrontDown,-16.02848,29.90811,33.09283,-22.99676,-98.00935,152.0724,-50.05445,202408221806443611,
2-2J,C_HumanVertical,1,Q1FrontDown,-16.02848,29.90811,33.09283,-22.99676,-98.00935,152.0724,-50.05445,202408221806443784,
2-2J,C_HumanVertical,1,Q1FrontDown,-15.59706,30.11112,32.37804,-23.68444,-98.00961,151.8234,-50.05757,202408221806444069,
2-2J,C_HumanVertical,1,Q1FrontDown,-15.12644,30.33753,31.65558,-24.42965,-98.00864,151.5924,-50.06615,202408221806444248,
2-2J,C_HumanVertical,1,Q1FrontDown,-15.12644,30.33753,31.65558,-24.42965,-98.00864,151.5924,-50.06615,202408221806444425,
2-2J,C_HumanVertical,1,Q1FrontDown,-14.59498,30.62108,30.84158,-25.25245,-98.01059,151.3315,-50.07413,202408221806444603,
2-2J,C_HumanVertical,1,Q1FrontDown,-14.00975,30.93105,29.98776,-26.12546,-98.01386,151.0349,-50.08124,202408221806444905,
2-2J,C_HumanVertical,1,Q1FrontDown,-14.00975,30.93105,29.98776,-26.12546,-98.01386,151.0349,-50.08124,202408221806445222,
2-2J,C_HumanVertical,1,Q1FrontDown,-13.38117,31.3051,29.12119,-27.08401,-98.01673,150.716,-50.09233,202408221806445461,
2-2J,C_HumanVertical,1,Q1FrontDown,-12.73282,31.71243,28.20493,-28.05926,-98.01858,150.4007,-50.10195,202408221806445647,
2-2J,C_HumanVertical,1,Q1FrontDown,-12.73282,31.71243,28.20493,-28.05926,-98.01858,150.4007,-50.10195,202408221806445896,
2-2J,C_HumanVertical,1,Q1FrontDown,-12.05959,32.17479,27.28847,-29.062,-98.01854,150.0923,-50.11491,202408221806446055,
2-2J,C_HumanVertical,1,Q1FrontDown,-11.35579,32.66141,26.37122,-30.12518,-98.02155,149.7423,-50.12406,202408221806446249,
2-2J,C_HumanVertical,1,Q1FrontDown,-11.35579,32.66141,26.37122,-30.12518,-98.02155,149.7423,-50.12406,202408221806446413,
2-2J,C_HumanVertical,1,Q1FrontDown,-11.35579,32.66141,26.37122,-30.12518,-98.02155,149.7423,-50.12406,202408221806446586,
2-2J,C_HumanVertical,1,Q1FrontDown,-10.67601,33.19094,25.44992,-31.15888,-98.02341,149.4085,-50.13546,202408221806446796,
2-2J,C_HumanVertical,1,Q1FrontDown,-9.962454,33.75838,24.55325,-32.22823,-98.02372,149.0941,-50.14785,202408221806446977,
2-2J,C_HumanVertical,1,Q1FrontDown,-9.309306,34.33356,23.71335,-33.24411,-98.02747,148.7738,-50.15734,202408221806447263,
2-2J,C_HumanVertical,1,Q1FrontDown,-8.650529,34.93133,22.90959,-34.23994,-98.02834,148.4539,-50.16757,202408221806447587,
2-2J,C_HumanVertical,1,Q1FrontDown,-8.650529,34.93133,22.90959,-34.23994,-98.02834,148.4539,-50.16757,202408221806447870,
2-2J,C_HumanVertical,1,Q1FrontDown,-7.447283,36.15971,21.43989,-36.12159,-98.036,147.9378,-50.19052,202408221806448147,
2-2J,C_HumanVertical,1,Q1FrontDown,-7.447283,36.15971,21.43989,-36.12159,-98.036,147.9378,-50.19052,202408221806448397,
2-2J,C_HumanVertical,1,Q1FrontDown,-6.91438,36.7642,20.82909,-36.94289,-98.03847,147.7048,-50.19772,202408221806448640,
2-2J,C_HumanVertical,1,Q1FrontDown,-6.598168,37.35971,20.56326,-37.57534,-98.05713,147.6089,-50.19914,202408221806448899,
2-2J,C_HumanVertical,1,Q1FrontDown,-6.598168,37.35971,20.56326,-37.57534,-98.05713,147.6089,-50.19914,202408221806449059,
2-2J,C_HumanVertical,1,Q1FrontDown,-6.391028,38.02506,20.56997,-37.87081,-98.06047,147.608,-50.19886,202408221806449233,
2-2J,C_HumanVertical,1,Q1FrontDown,-6.391028,38.02506,20.56997,-37.87081,-98.06047,147.608,-50.19886,202408221806449429,
2-2J,C_HumanVertical,1,Q1FrontDown,-6.280325,38.53817,20.55403,-38.13535,-98.06388,147.6084,-50.19877,202408221806449775,
2-2J,C_HumanVertical,1,Q1FrontDown,-6.280325,38.53817,20.55403,-38.13535,-98.06388,147.6084,-50.19877,202408221806449942,
2-2J,C_HumanVertical,1,Q1FrontDown,-6.188643,38.97617,20.47566,-38.32088,-98.08006,147.6079,-50.1985,202408221806450130,
2-2J,C_HumanVertical,1,Q1FrontDown,-6.166528,39.29801,20.33773,-38.49593,-98.10561,147.6079,-50.19851,202408221806450376,
2-2J,C_HumanVertical,1,Q1FrontDown,-6.142134,39.47466,20.11827,-38.6182,-98.16105,147.606,-50.19876,202408221806450551,
2-2J,C_HumanVertical,1,Q1FrontDown,-6.142134,39.47466,20.11827,-38.6182,-98.16105,147.606,-50.19876,202408221806450716,
2-2J,C_HumanVertical,1,Q1FrontDown,-6.119268,39.58707,19.80494,-38.68779,-98.2365,147.597,-50.19879,202408221806450893,
2-2J,C_HumanVertical,1,Q1FrontDown,-6.119268,39.58707,19.80494,-38.68779,-98.2365,147.597,-50.19879,202408221806451138,
2-2J,C_HumanVertical,1,Q1FrontDown,-6.109949,39.66182,19.42444,-38.75137,-98.31477,147.5664,-50.19865,202408221806451429,
2-2J,C_HumanVertical,1,Q1FrontDown,-6.093358,39.69987,18.91429,-38.82852,-98.42583,147.5152,-50.19913,202408221806451572,
2-2J,C_HumanVertical,1,Q1FrontDown,-6.093358,39.69987,18.91429,-38.82852,-98.42583,147.5152,-50.19913,202408221806451818,
2-2J,C_HumanVertical,1,Q1FrontDown,-6.077884,39.70575,18.32814,-38.87959,-98.55345,147.4574,-50.19984,202408221806452098,
2-2J,C_HumanVertical,1,Q1FrontDown,-6.07058,39.70211,17.66553,-38.9088,-98.69912,147.3791,-50.20086,202408221806452308,
2-2J,C_HumanVertical,1,Q1FrontDown,-6.046808,39.70264,16.85804,-38.94881,-98.87595,147.2758,-50.20693,202408221806452571,
2-2J,C_HumanVertical,1,Q1FrontDown,-6.046808,39.70264,16.85804,-38.94881,-98.87595,147.2758,-50.20693,202408221806452750,
2-2J,C_HumanVertical,1,Q1FrontDown,-6.020065,39.70812,15.96835,-39.00843,-99.10954,147.1702,-50.21406,202408221806453054,
2-2J,C_HumanVertical,1,Q1FrontDown,-6.005966,39.71962,14.98369,-39.08809,-99.39518,147.0459,-50.22582,202408221806453247,
2-2J,C_HumanVertical,1,Q1FrontDown,-6.005966,39.71962,14.98369,-39.08809,-99.39518,147.0459,-50.22582,202408221806453486,
2-2J,C_HumanVertical,1,Q1FrontDown,-5.990921,39.74929,13.89955,-39.20193,-99.73357,146.9047,-50.24837,202408221806453738,
2-2J,C_HumanVertical,1,Q1FrontDown,-5.97198,39.79874,12.69637,-39.35226,-100.0663,146.728,-50.26842,202408221806453902,
2-2J,C_HumanVertical,1,Q1FrontDown,-5.97198,39.79874,12.69637,-39.35226,-100.0663,146.728,-50.26842,202408221806454069,
2-2J,C_HumanVertical,1,Q1FrontDown,-5.974302,39.87098,11.51059,-39.53956,-100.4222,146.5295,-50.2989,202408221806454263,
2-2J,C_HumanVertical,1,Q1FrontDown,-5.964355,39.96419,10.18817,-39.75835,-100.8457,146.3014,-50.33464,202408221806454469,
2-2J,C_HumanVertical,1,Q1FrontDown,-5.964355,39.96419,10.18817,-39.75835,-100.8457,146.3014,-50.33464,202408221806454742,
2-2J,C_HumanVertical,1,Q1FrontDown,-5.954618,40.11024,8.775535,-39.98798,-101.2846,146.0684,-50.37605,202408221806454955,
2-2J,C_HumanVertical,1,Q1FrontDown,-5.961659,40.27755,7.398997,-40.24673,-101.7595,145.851,-50.41211,202408221806455219,
2-2J,C_HumanVertical,1,Q1FrontDown,-5.961659,40.27755,7.398997,-40.24673,-101.7595,145.851,-50.41211,202408221806455397,
2-2J,C_HumanVertical,1,Q1FrontDown,-5.96106,40.50679,5.940872,-40.51848,-102.2386,145.6129,-50.4511,202408221806455596,
2-2J,C_HumanVertical,1,Q1FrontDown,-5.962766,40.79102,4.42384,-40.79381,-102.7414,145.3318,-50.49041,202408221806455877,
2-2J,C_HumanVertical,1,Q1FrontDown,-5.962766,40.79102,4.42384,-40.79381,-102.7414,145.3318,-50.49041,202408221806456050,
2-2J,C_HumanVertical,1,Q1FrontDown,-5.984482,41.07735,2.970262,-41.09511,-103.2423,145.0471,-50.52999,202408221806456222,
2-2J,C_HumanVertical,1,Q1FrontDown,-5.984482,41.07735,2.970262,-41.09511,-103.2423,145.0471,-50.52999,202408221806456394,
2-2J,C_HumanVertical,1,Q1FrontDown,-5.993884,41.39707,1.49155,-41.39576,-103.76,144.7828,-50.56907,202408221806456632,
2-2J,C_HumanVertical,1,Q1FrontDown,-5.993884,41.39707,1.49155,-41.39576,-103.76,144.7828,-50.56907,202408221806456780,
2-2J,C_HumanVertical,1,Q1FrontDown,-6.017753,41.76094,-0.003198055,-41.74156,-104.3099,144.509,-50.61163,202408221806457080,
2-2J,C_HumanVertical,1,Q1FrontDown,-6.017753,41.76094,-0.003198055,-41.74156,-104.3099,144.509,-50.61163,202408221806457242,
2-2J,C_HumanVertical,1,Q1FrontDown,-6.093164,42.5313,-2.768558,-42.38631,-105.2926,143.9536,-50.69627,202408221806457567,
2-2J,C_HumanVertical,1,Q1FrontDown,-6.093164,42.5313,-2.768558,-42.38631,-105.2926,143.9536,-50.69627,202408221806457741,
2-2J,C_HumanVertical,1,Q1FrontDown,-6.14957,42.93024,-4.103045,-42.73352,-105.7756,143.7054,-50.74042,202408221806457943,
2-2J,C_HumanVertical,1,Q1FrontDown,-6.212292,43.32042,-5.323137,-43.04985,-106.2534,143.4857,-50.78688,202408221806458218,
2-2J,C_HumanVertical,1,Q1FrontDown,-6.212292,43.32042,-5.323137,-43.04985,-106.2534,143.4857,-50.78688,202408221806458557,
2-2J,C_HumanVertical,1,Q1FrontDown,-6.285862,43.70889,-6.448233,-43.38603,-106.6749,143.2612,-50.83404,202408221806458726,
2-2J,C_HumanVertical,1,Q1FrontDown,-6.379469,44.09193,-7.475811,-43.65551,-107.0476,143.047,-50.87706,202408221806458902,
2-2J,C_HumanVertical,1,Q1FrontDown,-6.379469,44.09193,-7.475811,-43.65551,-107.0476,143.047,-50.87706,202408221806459134,
2-2J,C_HumanVertical,1,Q1FrontDown,-6.501339,44.46773,-8.405356,-43.92094,-107.3804,142.8655,-50.90616,202408221806459414,
2-2J,C_HumanVertical,1,Q1FrontDown,-6.843149,44.73659,-8.5439,-44.09325,-107.3686,142.8379,-50.90438,202408221806459794,
2-2J,C_HumanVertical,1,Q1FrontDown,-7.104057,45.00035,-8.683404,-44.23436,-107.3687,142.8368,-50.90473,202408221806460092,
2-2J,C_HumanVertical,1,Q1FrontDown,-7.297848,45.18235,-8.846427,-44.33057,-107.3702,142.8379,-50.90508,202408221806460394,
2-2J,C_HumanVertical,1,Q1FrontDown,-7.389756,45.30212,-9.111138,-44.44171,-107.3925,142.8396,-50.90642,202408221806460718,
2-2J,C_HumanVertical,1,Q1FrontDown,-7.389756,45.30212,-9.111138,-44.44171,-107.3925,142.8396,-50.90642,202408221806460883,
2-2J,C_HumanVertical,1,Q1FrontDown,-7.418895,45.35018,-9.463475,-44.53054,-107.4472,142.8409,-50.92026,202408221806461059,
2-2J,C_HumanVertical,1,Q1FrontDown,-7.433828,45.37656,-9.90622,-44.61319,-107.5315,142.8424,-50.94664,202408221806461307,
2-2J,C_HumanVertical,1,Q1FrontDown,-7.433828,45.37656,-9.90622,-44.61319,-107.5315,142.8424,-50.94664,202408221806461458,
2-2J,C_HumanVertical,1,Q1FrontDown,-7.427851,45.37668,-10.51502,-44.6964,-107.6776,142.8451,-50.99496,202408221806461752,
2-2J,C_HumanVertical,1,Q1FrontDown,-7.420591,45.371,-11.20236,-44.78025,-107.8511,142.8503,-51.06328,202408221806462095,
2-2J,C_HumanVertical,1,Q1FrontDown,-7.459918,45.37018,-11.9973,-44.84957,-108.0691,142.8515,-51.14396,202408221806462319,
2-2J,C_HumanVertical,1,Q1FrontDown,-7.532215,45.36859,-12.8927,-44.91477,-108.3406,142.8514,-51.23465,202408221806462566,
2-2J,C_HumanVertical,1,Q1FrontDown,-7.532215,45.36859,-12.8927,-44.91477,-108.3406,142.8514,-51.23465,202408221806462744,
2-2J,C_HumanVertical,1,Q1FrontDown,-7.642477,45.36801,-13.80737,-44.98469,-108.6308,142.8503,-51.31979,202408221806463106,
2-2J,C_HumanVertical,1,Q1FrontDown,-7.826566,45.36983,-14.75039,-45.05564,-108.8972,142.8526,-51.40827,202408221806463293,
2-2J,C_HumanVertical,1,Q1FrontDown,-7.826566,45.36983,-14.75039,-45.05564,-108.8972,142.8526,-51.40827,202408221806463555,
2-2J,C_HumanVertical,1,Q1FrontDown,-8.061671,45.37046,-15.63369,-45.13345,-109.1437,142.8526,-51.49425,202408221806463721,
2-2J,C_HumanVertical,1,Q1FrontDown,-8.338943,45.36801,-16.45732,-45.21195,-109.3656,142.8512,-51.56721,202408221806463885,
2-2J,C_HumanVertical,1,Q1FrontDown,-8.338943,45.36801,-16.45732,-45.21195,-109.3656,142.8512,-51.56721,202408221806464051,
2-2J,C_HumanVertical,1,Q1FrontDown,-8.659797,45.36551,-17.22295,-45.27574,-109.5613,142.8492,-51.61692,202408221806464240,
2-2J,C_HumanVertical,1,Q1FrontDown,-8.659797,45.36551,-17.22295,-45.27574,-109.5613,142.8492,-51.61692,202408221806464457,
2-2J,C_HumanVertical,1,Q1FrontDown,-9.114023,45.36214,-17.39559,-45.2828,-109.551,142.818,-51.61107,202408221806464628,
2-2J,C_HumanVertical,1,Q1FrontDown,-9.491098,45.35985,-17.55483,-45.28689,-109.5507,142.8253,-51.61053,202408221806464920,
2-2J,C_HumanVertical,1,Q1FrontDown,-9.491098,45.35985,-17.55483,-45.28689,-109.5507,142.8253,-51.61053,202408221806465226,
2-2J,C_HumanVertical,1,Q1FrontDown,-9.744067,45.35184,-17.70066,-45.29636,-109.5515,142.8519,-51.61198,202408221806465433,
2-2J,C_HumanVertical,1,Q1FrontDown,-9.889881,45.34603,-17.89664,-45.31994,-109.5633,142.977,-51.61869,202408221806465730,
2-2J,C_HumanVertical,1,Q1FrontDown,-9.975157,45.3342,-18.10822,-45.3595,-109.6103,143.2047,-51.65325,202408221806465901,
2-2J,C_HumanVertical,1,Q1FrontDown,-9.975157,45.3342,-18.10822,-45.3595,-109.6103,143.2047,-51.65325,202408221806466065,
2-2J,C_HumanVertical,1,Q1FrontDown,-10.04134,45.32904,-18.36296,-45.44672,-109.6785,143.5302,-51.70267,202408221806466307,
2-2J,C_HumanVertical,1,Q1FrontDown,-10.04134,45.32904,-18.36296,-45.44672,-109.6785,143.5302,-51.70267,202408221806466457,
2-2J,C_HumanVertical,1,Q1FrontDown,-10.07994,45.29328,-18.71118,-45.57315,-109.8169,144.0117,-51.79337,202408221806466750,
2-2J,C_HumanVertical,1,Q1FrontDown,-10.11567,45.23243,-19.10802,-45.70944,-109.9916,144.5858,-51.91077,202408221806467094,
2-2J,C_HumanVertical,1,Q1FrontDown,-10.17975,45.18829,-19.53631,-45.84192,-110.1779,145.2032,-52.03949,202408221806467406,
2-2J,C_HumanVertical,1,Q1FrontDown,-10.27513,45.12149,-20.04299,-46.00355,-110.43,145.8934,-52.20177,202408221806467637,
2-2J,C_HumanVertical,1,Q1FrontDown,-10.39392,45.04468,-20.55508,-46.18694,-110.7135,146.5879,-52.36404,202408221806467909,
2-2J,C_HumanVertical,1,Q1FrontDown,-10.55515,44.95426,-21.09384,-46.38692,-110.9948,147.3059,-52.52493,202408221806468225,
2-2J,C_HumanVertical,1,Q1FrontDown,-10.55515,44.95426,-21.09384,-46.38692,-110.9948,147.3059,-52.52493,202408221806468394,
2-2J,C_HumanVertical,1,Q1FrontDown,-10.7645,44.88274,-21.61708,-46.54023,-111.2343,147.9386,-52.69474,202408221806468569,
2-2J,C_HumanVertical,1,Q1FrontDown,-10.7645,44.88274,-21.61708,-46.54023,-111.2343,147.9386,-52.69474,202408221806468782,
2-2J,C_HumanVertical,1,Q1FrontDown,-11.00025,44.82542,-22.08782,-46.66059,-111.4511,148.5081,-52.8455,202408221806469057,
2-2J,C_HumanVertical,1,Q1FrontDown,-11.00025,44.82542,-22.08782,-46.66059,-111.4511,148.5081,-52.8455,202408221806469250,
2-2J,C_HumanVertical,1,Q1FrontDown,-11.24891,44.76892,-22.52783,-46.77412,-111.6273,148.9655,-52.97178,202408221806469484,
2-2J,C_HumanVertical,1,Q1FrontDown,-11.53502,44.76724,-22.60643,-46.79706,-111.6095,148.9319,-52.96795,202408221806469760,
2-2J,C_HumanVertical,1,Q1FrontDown,-11.7519,44.76156,-22.67376,-46.80624,-111.6079,148.9116,-52.9686,202408221806469955,
2-2J,C_HumanVertical,1,Q1FrontDown,-11.9434,44.74226,-22.75547,-46.85005,-111.6105,148.9153,-52.97191,202408221806470229,
2-2J,C_HumanVertical,1,Q1FrontDown,-11.9434,44.74226,-22.75547,-46.85005,-111.6105,148.9153,-52.97191,202408221806470565,
2-2J,C_HumanVertical,1,Q1FrontDown,-12.01936,44.70986,-22.83886,-46.97012,-111.6268,148.9575,-52.99959,202408221806470738,
2-2J,C_HumanVertical,1,Q1FrontDown,-12.05958,44.66919,-22.92129,-47.15659,-111.6998,149.0868,-53.06157,202408221806470938,
2-2J,C_HumanVertical,1,Q1FrontDown,-12.08059,44.64518,-23.01102,-47.39206,-111.8157,149.3159,-53.14688,202408221806471167,
2-2J,C_HumanVertical,1,Q1FrontDown,-12.08059,44.64518,-23.01102,-47.39206,-111.8157,149.3159,-53.14688,202408221806471395,
2-2J,C_HumanVertical,1,Q1FrontDown,-12.09829,44.55692,-23.12036,-47.73139,-112.0032,149.6499,-53.2698,202408221806471561,
2-2J,C_HumanVertical,1,Q1FrontDown,-12.09829,44.55692,-23.12036,-47.73139,-112.0032,149.6499,-53.2698,202408221806471748,
2-2J,C_HumanVertical,1,Q1FrontDown,-12.12942,44.44806,-23.2513,-48.12297,-112.2542,150.0662,-53.44121,202408221806471904,
2-2J,C_HumanVertical,1,Q1FrontDown,-12.12942,44.44806,-23.2513,-48.12297,-112.2542,150.0662,-53.44121,202408221806472080,
2-2J,C_HumanVertical,1,Q1FrontDown,-12.18886,44.37252,-23.4031,-48.53425,-112.5162,150.5274,-53.60503,202408221806472284,
2-2J,C_HumanVertical,1,Q1FrontDown,-12.26305,44.26228,-23.59553,-49.01002,-112.8577,151.0398,-53.80396,202408221806472564,
2-2J,C_HumanVertical,1,Q1FrontDown,-12.26305,44.26228,-23.59553,-49.01002,-112.8577,151.0398,-53.80396,202408221806472759,
2-2J,C_HumanVertical,1,Q1FrontDown,-12.36765,44.15527,-23.79309,-49.51397,-113.2174,151.5885,-54.00004,202408221806473077,
2-2J,C_HumanVertical,1,Q1FrontDown,-12.54101,44.07671,-23.9933,-50.00455,-113.5446,152.1199,-54.21071,202408221806473297,
2-2J,C_HumanVertical,1,Q1FrontDown,-12.73841,43.99167,-24.19643,-50.47572,-113.8703,152.613,-54.41238,202408221806473562,
2-2J,C_HumanVertical,1,Q1FrontDown,-12.73841,43.99167,-24.19643,-50.47572,-113.8703,152.613,-54.41238,202408221806473729,
2-2J,C_HumanVertical,1,Q1FrontDown,-12.73841,43.99167,-24.19643,-50.47572,-113.8703,152.613,-54.41238,202408221806473909,
2-2J,C_HumanVertical,1,Q1FrontDown,-12.94604,43.93202,-24.4232,-50.94542,-114.1922,153.0605,-54.60029,202408221806474062,
2-2J,C_HumanVertical,1,Q1FrontDown,-13.18705,43.90873,-24.6036,-51.32386,-114.493,153.4264,-54.78811,202408221806474249,
2-2J,C_HumanVertical,1,Q1FrontDown,-13.18705,43.90873,-24.6036,-51.32386,-114.493,153.4264,-54.78811,202408221806474470,
2-2J,C_HumanVertical,1,Q1FrontDown,-13.45204,43.77512,-24.6299,-52.13409,-114.8692,153.7098,-55.16996,202408221806474740,
2-2J,C_HumanVertical,1,Q1FrontDown,-13.71516,43.62895,-24.67243,-52.95386,-115.2472,154.009,-55.52134,202408221806474911,
2-2J,C_HumanVertical,1,Q1FrontDown,-13.987,43.59337,-24.69963,-53.76527,-115.6047,154.277,-55.85983,202408221806475242,
2-2J,C_HumanVertical,1,Q1FrontDown,-13.987,43.59337,-24.69963,-53.76527,-115.6047,154.277,-55.85983,202408221806475438,
2-2J,C_HumanVertical,1,Q1FrontDown,-14.26263,43.58441,-24.75167,-54.51792,-115.9435,154.5956,-56.13046,202408221806475726,
2-2J,C_HumanVertical,1,Q1FrontDown,-14.51005,43.61325,-24.80119,-55.28272,-116.2044,154.7124,-56.3909,202408221806475892,
2-2J,C_HumanVertical,1,Q1FrontDown,-14.51005,43.61325,-24.80119,-55.28272,-116.2044,154.7124,-56.3909,202408221806476135,
2-2J,C_HumanVertical,1,Q1FrontDown,-14.75319,43.68847,-24.82371,-56.08602,-116.4627,154.7489,-56.63625,202408221806476411,
2-2J,C_HumanVertical,1,Q1FrontDown,-14.75319,43.68847,-24.82371,-56.08602,-116.4627,154.7489,-56.63625,202408221806476626,
2-2J,C_HumanVertical,1,Q1FrontDown,-15.21176,43.92564,-24.90759,-57.39534,-117.1366,155.2769,-56.9252,202408221806476909,
2-2J,C_HumanVertical,1,Q1FrontDown,-15.21176,43.92564,-24.90759,-57.39534,-117.1366,155.2769,-56.9252,202408221806477078,
2-2J,C_HumanVertical,1,Q1FrontDown,-15.42508,44.05074,-24.92633,-57.98428,-117.4684,155.5021,-57.04865,202408221806477425,
2-2J,C_HumanVertical,1,Q1FrontDown,-15.5843,44.19498,-24.98348,-58.55795,-117.7537,155.7252,-57.16975,202408221806477604,
2-2J,C_HumanVertical,1,Q1FrontDown,-15.5843,44.19498,-24.98348,-58.55795,-117.7537,155.7252,-57.16975,202408221806477881,
2-2J,C_HumanVertical,1,Q1FrontDown,-15.72515,44.34594,-25.04226,-59.09072,-117.9818,155.9439,-57.27867,202408221806478056,
2-2J,C_HumanVertical,1,Q1FrontDown,-15.8381,44.49382,-25.10278,-59.62444,-118.2052,156.1633,-57.39368,202408221806478227,
2-2J,C_HumanVertical,1,Q1FrontDown,-15.8381,44.49382,-25.10278,-59.62444,-118.2052,156.1633,-57.39368,202408221806478394,
2-2J,C_HumanVertical,1,Q1FrontDown,-15.89515,44.62319,-25.20448,-60.16027,-118.3882,156.3498,-57.53005,202408221806478572,
2-2J,C_HumanVertical,1,Q1FrontDown,-15.89515,44.62319,-25.20448,-60.16027,-118.3882,156.3498,-57.53005,202408221806478793,
2-2J,C_HumanVertical,1,Q1FrontDown,-15.94452,44.77368,-25.28084,-60.65231,-118.5809,156.4933,-57.63885,202408221806479055,
2-2J,C_HumanVertical,1,Q1FrontDown,-15.98476,44.93388,-25.32593,-61.06813,-118.7439,156.6007,-57.72192,202408221806479303,
2-2J,C_HumanVertical,1,Q1FrontDown,-16.00884,45.07927,-25.35875,-61.47304,-118.8986,156.7062,-57.81073,202408221806479563,
2-2J,C_HumanVertical,1,Q1FrontDown,-16.00884,45.07927,-25.35875,-61.47304,-118.8986,156.7062,-57.81073,202408221806479751,
2-2J,C_HumanVertical,1,Q1FrontDown,-16.01529,45.25605,-25.40874,-61.82714,-119.0156,156.7813,-57.90121,202408221806479964,
2-2J,C_HumanVertical,1,Q1FrontDown,-15.99501,45.4279,-25.4644,-62.18628,-119.1089,156.8237,-57.98624,202408221806480243,
2-2J,C_HumanVertical,1,Q1FrontDown,-15.9469,45.62064,-25.55942,-62.50455,-119.1847,156.864,-58.05608,202408221806480564,
2-2J,C_HumanVertical,1,Q1FrontDown,-15.9469,45.62064,-25.55942,-62.50455,-119.1847,156.864,-58.05608,202408221806480729,
2-2J,C_HumanVertical,1,Q1FrontDown,-15.89899,45.79185,-25.63639,-62.83102,-119.2528,156.8964,-58.12169,202408221806480962,
2-2J,C_HumanVertical,1,Q1FrontDown,-15.89899,45.79185,-25.63639,-62.83102,-119.2528,156.8964,-58.12169,202408221806481229,
2-2J,C_HumanVertical,1,Q1FrontDown,-15.85548,46.00369,-25.71467,-63.12173,-119.3214,156.9379,-58.19078,202408221806481397,
2-2J,C_HumanVertical,1,Q1FrontDown,-15.78533,46.22958,-25.84048,-63.37863,-119.3699,156.958,-58.26704,202408221806481563,
2-2J,C_HumanVertical,1,Q1FrontDown,-15.78533,46.22958,-25.84048,-63.37863,-119.3699,156.958,-58.26704,202408221806481881,
2-2J,C_HumanVertical,1,Q1FrontDown,-15.68407,46.4564,-26.01035,-63.66813,-119.4029,156.9992,-58.34814,202408221806482070,
2-2J,C_HumanVertical,1,Q1FrontDown,-15.58381,46.68217,-26.19129,-63.96133,-119.4345,157.0702,-58.43129,202408221806482292,
2-2J,C_HumanVertical,1,Q1FrontDown,-15.47694,46.89739,-26.38974,-64.27564,-119.4497,157.1194,-58.50879,202408221806482571,
2-2J,C_HumanVertical,1,Q1FrontDown,-15.37461,47.13945,-26.61007,-64.55042,-119.4653,157.1919,-58.5856,202408221806482896,
2-2J,C_HumanVertical,1,Q1FrontDown,-15.37461,47.13945,-26.61007,-64.55042,-119.4653,157.1919,-58.5856,202408221806483063,
2-2J,C_HumanVertical,1,Q1FrontDown,-15.27688,47.40451,-26.83613,-64.81793,-119.4804,157.2627,-58.66534,202408221806483262,
2-2J,C_HumanVertical,1,Q1FrontDown,-15.19262,47.63962,-27.0289,-65.10065,-119.4968,157.3118,-58.73591,202408221806483556,
2-2J,C_HumanVertical,1,Q1FrontDown,-15.08961,47.88871,-27.25658,-65.36822,-119.5167,157.3685,-58.79298,202408221806483884,
2-2J,C_HumanVertical,1,Q1FrontDown,-15.08961,47.88871,-27.25658,-65.36822,-119.5167,157.3685,-58.79298,202408221806484132,
2-2J,C_HumanVertical,1,Q1FrontDown,-14.96496,48.11163,-27.50848,-65.64964,-119.5413,157.4154,-58.84467,202408221806484295,
2-2J,C_HumanVertical,1,Q1FrontDown,-14.96496,48.11163,-27.50848,-65.64964,-119.5413,157.4154,-58.84467,202408221806484587,
2-2J,C_HumanVertical,1,Q1FrontDown,-14.96496,48.11163,-27.50848,-65.64964,-119.5413,157.4154,-58.84467,202408221806484748,
2-2J,C_HumanVertical,1,Q1FrontDown,-14.73053,48.53866,-28.02267,-66.16207,-119.5831,157.5971,-58.91797,202408221806485077,
2-2J,C_HumanVertical,1,Q1FrontDown,-14.62488,48.76017,-28.27161,-66.37779,-119.5924,157.7032,-58.95121,202408221806485428,
2-2J,C_HumanVertical,1,Q1FrontDown,-14.52741,48.95998,-28.48796,-66.59736,-119.613,157.7568,-58.96696,202408221806485620,
2-2J,C_HumanVertical,1,Q1FrontDown,-14.52741,48.95998,-28.48796,-66.59736,-119.613,157.7568,-58.96696,202408221806485881,
2-2J,C_HumanVertical,1,Q1FrontDown,-14.44166,49.14682,-28.68729,-66.79202,-119.633,157.8089,-58.98866,202408221806486063,
2-2J,C_HumanVertical,1,Q1FrontDown,-14.34833,49.34211,-28.8926,-66.96853,-119.6476,157.8599,-59.01424,202408221806486247,
2-2J,C_HumanVertical,1,Q1FrontDown,-14.34833,49.34211,-28.8926,-66.96853,-119.6476,157.8599,-59.01424,202408221806486458,
2-2J,C_HumanVertical,1,Q1FrontDown,-14.25466,49.51378,-29.09013,-67.13692,-119.6543,157.8668,-59.06407,202408221806486747,
2-2J,C_HumanVertical,1,Q1FrontDown,-14.16561,49.69374,-29.31833,-67.27903,-119.6934,157.8688,-59.11182,202408221806486899,
2-2J,C_HumanVertical,1,Q1FrontDown,-14.16561,49.69374,-29.31833,-67.27903,-119.6934,157.8688,-59.11182,202408221806487083,
2-2J,C_HumanVertical,1,Q1FrontDown,-14.08774,49.87104,-29.58163,-67.37699,-119.7443,157.8692,-59.16281,202408221806487298,
2-2J,C_HumanVertical,1,Q1FrontDown,-14.04267,50.05971,-29.85579,-67.44337,-119.7897,157.8688,-59.27208,202408221806487573,
2-2J,C_HumanVertical,1,Q1FrontDown,-14.04267,50.05971,-29.85579,-67.44337,-119.7897,157.8688,-59.27208,202408221806487755,
2-2J,C_HumanVertical,1,Q1FrontDown,-14.03321,50.22944,-30.09991,-67.4945,-119.8393,157.8688,-59.37882,202408221806488050,
2-2J,C_HumanVertical,1,Q1FrontDown,-14.03138,50.38829,-30.3689,-67.55157,-119.885,157.8686,-59.46872,202408221806488233,
2-2J,C_HumanVertical,1,Q1FrontDown,-14.03138,50.38829,-30.3689,-67.55157,-119.885,157.8686,-59.46872,202408221806488410,
2-2J,C_HumanVertical,1,Q1FrontDown,-14.02779,50.55026,-30.66445,-67.6072,-119.9378,157.8658,-59.53639,202408221806488620,
2-2J,C_HumanVertical,1,Q1FrontDown,-14.02779,50.55026,-30.66445,-67.6072,-119.9378,157.8658,-59.53639,202408221806488807,
2-2J,C_HumanVertical,1,Q1FrontDown,-14.01847,50.72186,-30.96645,-67.65729,-119.9931,157.8139,-59.56435,202408221806489054,
2-2J,C_HumanVertical,1,Q1FrontDown,-14.00199,50.89871,-31.26644,-67.7118,-120.0375,157.7462,-59.57686,202408221806489243,
2-2J,C_HumanVertical,1,Q1FrontDown,-14.00199,50.89871,-31.26644,-67.7118,-120.0375,157.7462,-59.57686,202408221806489395,
2-2J,C_HumanVertical,1,Q1FrontDown,-13.99969,51.05827,-31.53381,-67.78413,-120.0761,157.6884,-59.59124,202408221806489612,
2-2J,C_HumanVertical,1,Q1FrontDown,-13.99969,51.05827,-31.53381,-67.78413,-120.0761,157.6884,-59.59124,202408221806489769,
2-2J,C_HumanVertical,1,Q1FrontDown,-13.99504,51.23849,-31.78002,-67.83278,-120.1165,157.6608,-59.59529,202408221806490052,
2-2J,C_HumanVertical,1,Q1FrontDown,-13.97934,51.43345,-32.05004,-67.86576,-120.1537,157.6526,-59.59739,202408221806490229,
2-2J,C_HumanVertical,1,Q1FrontDown,-13.97934,51.43345,-32.05004,-67.86576,-120.1537,157.6526,-59.59739,202408221806490430,
2-2J,C_HumanVertical,1,Q1FrontDown,-13.9478,51.6501,-32.30959,-67.89607,-120.1632,157.6495,-59.60072,202408221806490740,
2-2J,C_HumanVertical,1,Q1FrontDown,-13.90907,51.85185,-32.56321,-67.94311,-120.1734,157.6491,-59.6039,202408221806490963,
2-2J,C_HumanVertical,1,Q1FrontDown,-13.90907,51.85185,-32.56321,-67.94311,-120.1734,157.6491,-59.6039,202408221806491210,
2-2J,C_HumanVertical,1,Q1FrontDown,-13.90907,51.85185,-32.56321,-67.94311,-120.1734,157.6491,-59.6039,202408221806491380,
2-2J,C_HumanVertical,1,Q1FrontDown,-13.69756,52.32382,-33.13328,-68.06976,-120.2782,157.6502,-59.60293,202408221806491561,
2-2J,C_HumanVertical,1,Q1FrontDown,-13.69756,52.32382,-33.13328,-68.06976,-120.2782,157.6502,-59.60293,202408221806491738,
2-2J,C_HumanVertical,1,Q1FrontDown,-13.69756,52.32382,-33.13328,-68.06976,-120.2782,157.6502,-59.60293,202408221806491912,
2-2J,C_HumanVertical,1,Q1FrontDown,-13.53742,52.57262,-33.4442,-68.13792,-120.361,157.6523,-59.60098,202408221806492127,
2-2J,C_HumanVertical,1,Q1FrontDown,-13.37059,52.8225,-33.724,-68.19892,-120.4307,157.653,-59.60039,202408221806492412,
2-2J,C_HumanVertical,1,Q1FrontDown,-13.20283,53.10868,-33.99404,-68.20536,-120.4698,157.6291,-59.60047,202408221806492714,
2-2J,C_HumanVertical,1,Q1FrontDown,-13.03437,53.39608,-34.25087,-68.21451,-120.5049,157.5887,-59.60041,202408221806492881,
2-2J,C_HumanVertical,1,Q1FrontDown,-13.03437,53.39608,-34.25087,-68.21451,-120.5049,157.5887,-59.60041,202408221806493035,
2-2J,C_HumanVertical,1,Q1FrontDown,-13.03437,53.39608,-34.25087,-68.21451,-120.5049,157.5887,-59.60041,202408221806493253,
2-2J,C_HumanVertical,1,Q1FrontDown,-12.65501,53.99707,-34.70201,-68.30666,-120.6301,157.5643,-59.60064,202408221806493558,
2-2J,C_HumanVertical,1,Q1FrontDown,-12.65501,53.99707,-34.70201,-68.30666,-120.6301,157.5643,-59.60064,202408221806493780,
2-2J,C_HumanVertical,1,Q1FrontDown,-12.44892,54.28903,-34.89672,-68.38071,-120.7374,157.5107,-59.60009,202408221806494081,
2-2J,C_HumanVertical,1,Q1FrontDown,-12.20763,54.59457,-35.08194,-68.49411,-120.8455,157.3866,-59.59697,202408221806494305,
2-2J,C_HumanVertical,1,Q1FrontDown,-11.94645,54.86811,-35.237,-68.65212,-120.9289,157.0754,-59.57427,202408221806494579,
2-2J,C_HumanVertical,1,Q1FrontDown,-11.94645,54.86811,-35.237,-68.65212,-120.9289,157.0754,-59.57427,202408221806494738,
2-2J,C_HumanVertical,1,Q1FrontDown,-11.68565,55.16471,-35.36075,-68.82492,-121.0099,156.7509,-59.55505,202408221806494948,
2-2J,C_HumanVertical,1,Q1FrontDown,-11.43085,55.48704,-35.4875,-68.96523,-121.0878,156.4237,-59.5308,202408221806495363,
2-2J,C_HumanVertical,1,Q1FrontDown,-11.13848,55.81998,-35.62557,-69.0956,-121.1381,155.9512,-59.47361,202408221806495648,
2-2J,C_HumanVertical,1,Q1FrontDown,-11.13848,55.81998,-35.62557,-69.0956,-121.1381,155.9512,-59.47361,202408221806495886,
2-2J,C_HumanVertical,1,Q1FrontDown,-10.79212,56.18346,-35.79123,-69.23729,-121.1555,155.2928,-59.35506,202408221806496048,
2-2J,C_HumanVertical,1,Q1FrontDown,-10.39315,56.50898,-35.98601,-69.40557,-121.159,154.5646,-59.21572,202408221806496221,
2-2J,C_HumanVertical,1,Q1FrontDown,-10.39315,56.50898,-35.98601,-69.40557,-121.159,154.5646,-59.21572,202408221806496394,
2-2J,C_HumanVertical,1,Q1FrontDown,-9.980635,56.91046,-36.17908,-69.50954,-121.1587,153.7467,-59.05182,202408221806496621,
2-2J,C_HumanVertical,1,Q1FrontDown,-9.980635,56.91046,-36.17908,-69.50954,-121.1587,153.7467,-59.05182,202408221806496786,
2-2J,C_HumanVertical,1,Q1FrontDown,-9.512598,57.31152,-36.43369,-69.62973,-121.1541,152.8192,-58.84031,202408221806497065,
2-2J,C_HumanVertical,1,Q1FrontDown,-9.512598,57.31152,-36.43369,-69.62973,-121.1541,152.8192,-58.84031,202408221806497227,
2-2J,C_HumanVertical,1,Q1FrontDown,-9.007362,57.73159,-36.70741,-69.73023,-121.1433,151.829,-58.60815,202408221806497425,
2-2J,C_HumanVertical,1,Q1FrontDown,-8.451842,58.15171,-37.01013,-69.84422,-121.1059,150.708,-58.2977,202408221806497605,
2-2J,C_HumanVertical,1,Q1FrontDown,-7.928239,58.56787,-37.27999,-69.93526,-121.089,149.6995,-58.0391,202408221806497895,
2-2J,C_HumanVertical,1,Q1FrontDown,-7.928239,58.56787,-37.27999,-69.93526,-121.089,149.6995,-58.0391,202408221806498046,
2-2J,C_HumanVertical,1,Q1FrontDown,-7.393619,58.94878,-37.50024,-70.03512,-121.0504,148.737,-57.79661,202408221806498230,
2-2J,C_HumanVertical,1,Q1FrontDown,-7.393619,58.94878,-37.50024,-70.03512,-121.0504,148.737,-57.79661,202408221806498464,
2-2J,C_HumanVertical,1,Q1FrontDown,-7.393619,58.94878,-37.50024,-70.03512,-121.0504,148.737,-57.79661,202408221806498624,
2-2J,C_HumanVertical,1,Q1FrontDown,-6.262319,59.51548,-38.03012,-70.51079,-120.8588,146.9467,-57.37736,202408221806498906,
2-2J,C_HumanVertical,1,Q1FrontDown,-5.719069,59.75103,-38.26727,-70.70957,-120.8426,146.2294,-57.15149,202408221806499252,
2-2J,C_HumanVertical,1,Q1FrontDown,-5.719069,59.75103,-38.26727,-70.70957,-120.8426,146.2294,-57.15149,202408221806499413,
2-2J,C_HumanVertical,1,Q1FrontDown,-5.201659,59.93282,-38.53961,-70.90477,-120.8403,145.6224,-56.91313,202408221806499802,
2-2J,C_HumanVertical,1,Q1FrontDown,-4.717303,60.07081,-38.76842,-71.08527,-120.8384,145.0336,-56.69031,202408221806500077,
2-2J,C_HumanVertical,1,Q1FrontDown,-4.252016,60.18732,-38.97148,-71.2311,-120.8326,144.5089,-56.46855,202408221806500242,
2-2J,C_HumanVertical,1,Q1FrontDown,-3.797633,60.23691,-39.19596,-71.41476,-120.7905,143.9398,-56.27493,202408221806500550,
2-2J,C_HumanVertical,1,Q1FrontDown,-3.797633,60.23691,-39.19596,-71.41476,-120.7905,143.9398,-56.27493,202408221806500738,
2-2J,C_HumanVertical,1,Q1FrontDown,-3.379386,60.26232,-39.43254,-71.57766,-120.7778,143.4872,-56.05664,202408221806500937,
2-2J,C_HumanVertical,1,Q1FrontDown,-2.992096,60.26462,-39.65439,-71.70271,-120.7772,143.0741,-55.86201,202408221806501206,
2-2J,C_HumanVertical,1,Q1FrontDown,-2.992096,60.26462,-39.65439,-71.70271,-120.7772,143.0741,-55.86201,202408221806501377,
2-2J,C_HumanVertical,1,Q1FrontDown,-2.634112,60.262,-39.86499,-71.80446,-120.777,142.694,-55.6802,202408221806501637,
2-2J,C_HumanVertical,1,Q1FrontDown,-2.299503,60.25844,-40.11176,-71.89241,-120.7376,142.2954,-55.53993,202408221806501880,
2-2J,C_HumanVertical,1,Q1FrontDown,-2.299503,60.25844,-40.11176,-71.89241,-120.7376,142.2954,-55.53993,202408221806502109,
2-2J,C_HumanVertical,1,Q1FrontDown,-2.009118,60.25911,-40.3292,-71.96091,-120.7036,141.882,-55.40751,202408221806502394,
2-2J,C_HumanVertical,1,Q1FrontDown,-1.761583,60.25824,-40.52047,-71.97602,-120.7025,141.6176,-55.24643,202408221806502565,
2-2J,C_HumanVertical,1,Q1FrontDown,-1.514003,60.25743,-40.70667,-71.97932,-120.7024,141.3681,-55.06929,202408221806502905,
2-2J,C_HumanVertical,1,Q1FrontDown,-1.514003,60.25743,-40.70667,-71.97932,-120.7024,141.3681,-55.06929,202408221806503116,
2-2J,C_HumanVertical,1,Q1FrontDown,-1.288829,60.25652,-40.89481,-71.9855,-120.7018,141.1256,-54.91146,202408221806503393,
2-2J,C_HumanVertical,1,Q1FrontDown,-1.049945,60.25193,-41.1158,-72.04813,-120.7021,140.863,-54.7606,202408221806503558,
2-2J,C_HumanVertical,1,Q1FrontDown,-1.049945,60.25193,-41.1158,-72.04813,-120.7021,140.863,-54.7606,202408221806503724,
2-2J,C_HumanVertical,1,Q1FrontDown,-0.8099945,60.24723,-41.34838,-72.12367,-120.6977,140.5972,-54.63042,202408221806503892,
2-2J,C_HumanVertical,1,Q1FrontDown,-0.8099945,60.24723,-41.34838,-72.12367,-120.6977,140.5972,-54.63042,202408221806504051,
2-2J,C_HumanVertical,1,Q1FrontDown,-0.5712637,60.24713,-41.58943,-72.21251,-120.6895,140.3364,-54.5162,202408221806504297,
2-2J,C_HumanVertical,1,Q1FrontDown,-0.3582895,60.2473,-41.78989,-72.29957,-120.6825,140.0846,-54.42303,202408221806504572,
2-2J,C_HumanVertical,1,Q1FrontDown,-0.3582895,60.2473,-41.78989,-72.29957,-120.6825,140.0846,-54.42303,202408221806504792,
2-2J,C_HumanVertical,1,Q1FrontDown,-0.1485119,60.24657,-41.97724,-72.39159,-120.678,139.8383,-54.32684,202408221806505074,
2-2J,C_HumanVertical,1,Q1FrontDown,0.04723088,60.24579,-42.14964,-72.48494,-120.673,139.5829,-54.22878,202408221806505261,
2-2J,C_HumanVertical,1,Q1FrontDown,0.2441079,60.24749,-42.35925,-72.59628,-120.6609,139.3329,-54.14405,202408221806505556,
2-2J,C_HumanVertical,1,Q1FrontDown,0.2441079,60.24749,-42.35925,-72.59628,-120.6609,139.3329,-54.14405,202408221806505724,
2-2J,C_HumanVertical,1,Q1FrontDown,0.4143926,60.24795,-42.55158,-72.69168,-120.6514,139.117,-54.05866,202408221806506035,
2-2J,C_HumanVertical,1,Q1FrontDown,0.5606566,60.24718,-42.72561,-72.76632,-120.6404,138.9158,-53.97017,202408221806506227,
2-2J,C_HumanVertical,1,Q1FrontDown,0.5606566,60.24718,-42.72561,-72.76632,-120.6404,138.9158,-53.97017,202408221806506469,
2-2J,C_HumanVertical,1,Q1FrontDown,0.7089883,60.24637,-42.90969,-72.85231,-120.6403,138.7888,-53.85884,202408221806506757,
2-2J,C_HumanVertical,1,Q1FrontDown,0.8734325,60.24624,-43.1128,-72.94373,-120.6395,138.6763,-53.78339,202408221806507078,
2-2J,C_HumanVertical,1,Q1FrontDown,0.8734325,60.24624,-43.1128,-72.94373,-120.6395,138.6763,-53.78339,202408221806507238,
2-2J,C_HumanVertical,1,Q1FrontDown,0.8734325,60.24624,-43.1128,-72.94373,-120.6395,138.6763,-53.78339,202408221806507461,
2-2J,C_HumanVertical,1,Q1FrontDown,1.166555,60.24549,-43.45962,-73.11579,-120.6379,138.409,-53.64296,202408221806507717,
2-2J,C_HumanVertical,1,Q1FrontDown,1.166555,60.24549,-43.45962,-73.11579,-120.6379,138.409,-53.64296,202408221806507901,
2-2J,C_HumanVertical,1,Q1FrontDown,1.302788,60.24591,-43.62314,-73.21397,-120.638,138.2691,-53.5657,202408221806508142,
2-2J,C_HumanVertical,1,Q1FrontDown,1.43249,60.24568,-43.78059,-73.31116,-120.637,138.1524,-53.50447,202408221806508404,
2-2J,C_HumanVertical,1,Q1FrontDown,1.564158,60.24588,-43.93934,-73.40762,-120.6357,138.0385,-53.48129,202408221806508623,
2-2J,C_HumanVertical,1,Q1FrontDown,1.564158,60.24588,-43.93934,-73.40762,-120.6357,138.0385,-53.48129,202408221806508895,
2-2J,C_HumanVertical,1,Q1FrontDown,1.663397,60.24691,-44.07613,-73.46942,-120.6354,137.9532,-53.45404,202408221806509056,
2-2J,C_HumanVertical,1,Q1FrontDown,1.663397,60.24691,-44.07613,-73.46942,-120.6354,137.9532,-53.45404,202408221806509251,
2-2J,C_HumanVertical,1,Q1FrontDown,1.753124,60.24812,-44.20573,-73.51707,-120.6351,137.8762,-53.42556,202408221806509424,
2-2J,C_HumanVertical,1,Q1FrontDown,1.844389,60.25104,-44.33029,-73.56798,-120.6351,137.7418,-53.40065,202408221806509631,
2-2J,C_HumanVertical,1,Q1FrontDown,1.942102,60.25206,-44.47484,-73.62926,-120.6348,137.6544,-53.38889,202408221806509885,
2-2J,C_HumanVertical,1,Q1FrontDown,1.942102,60.25206,-44.47484,-73.62926,-120.6348,137.6544,-53.38889,202408221806510085,
2-2J,C_HumanVertical,1,Q1FrontDown,2.062277,60.25143,-44.63291,-73.71716,-120.6346,137.5809,-53.38499,202408221806510398,
2-2J,C_HumanVertical,1,Q1FrontDown,2.180075,60.25054,-44.76175,-73.8,-120.6347,137.5095,-53.38141,202408221806510591,
2-2J,C_HumanVertical,1,Q1FrontDown,2.180075,60.25054,-44.76175,-73.8,-120.6347,137.5095,-53.38141,202408221806510795,
2-2J,C_HumanVertical,1,Q1FrontDown,2.300246,60.25159,-44.88244,-73.88367,-120.6342,137.4806,-53.38096,202408221806511075,
2-2J,C_HumanVertical,1,Q1FrontDown,2.417382,60.25165,-44.98885,-73.97295,-120.6341,137.4751,-53.38064,202408221806511322,
2-2J,C_HumanVertical,1,Q1FrontDown,2.562089,60.25557,-45.11226,-74.08954,-120.6344,137.4287,-53.37849,202408221806511582,
2-2J,C_HumanVertical,1,Q1FrontDown,2.562089,60.25557,-45.11226,-74.08954,-120.6344,137.4287,-53.37849,202408221806511767,
2-2J,C_HumanVertical,1,Q1FrontDown,2.709188,60.2762,-45.24191,-74.18391,-120.6345,137.3899,-53.37379,202408221806511968,
2-2J,C_HumanVertical,1,Q1FrontDown,2.857866,60.30466,-45.36618,-74.26368,-120.6346,137.3465,-53.37137,202408221806512236,
2-2J,C_HumanVertical,1,Q1FrontDown,2.857866,60.30466,-45.36618,-74.26368,-120.6346,137.3465,-53.37137,202408221806512416,
2-2J,C_HumanVertical,1,Q1FrontDown,3.016984,60.34461,-45.48559,-74.32906,-120.6344,137.2121,-53.37127,202408221806512747,
2-2J,C_HumanVertical,1,Q1FrontDown,3.171667,60.38216,-45.6026,-74.37776,-120.6727,137.1113,-53.28421,202408221806512954,
2-2J,C_HumanVertical,1,Q1FrontDown,3.171667,60.38216,-45.6026,-74.37776,-120.6727,137.1113,-53.28421,202408221806513220,
2-2J,C_HumanVertical,1,Q1FrontDown,3.171667,60.38216,-45.6026,-74.37776,-120.6727,137.1113,-53.28421,202408221806513382,
2-2J,C_HumanVertical,1,Q1FrontDown,3.498551,60.46991,-45.86025,-74.4162,-120.9092,137.007,-52.85049,202408221806513568,
2-2J,C_HumanVertical,1,Q1FrontDown,3.498551,60.46991,-45.86025,-74.4162,-120.9092,137.007,-52.85049,202408221806513882,
2-2J,C_HumanVertical,1,Q1FrontDown,3.705003,60.50659,-46.01315,-74.4654,-120.9629,136.8082,-52.66527,202408221806514050,
2-2J,C_HumanVertical,1,Q1FrontDown,3.93339,60.53007,-46.16256,-74.54601,-120.969,136.4808,-52.52295,202408221806514282,
2-2J,C_HumanVertical,1,Q1FrontDown,3.93339,60.53007,-46.16256,-74.54601,-120.969,136.4808,-52.52295,202408221806514557,
2-2J,C_HumanVertical,1,Q1FrontDown,4.41153,60.5541,-46.38855,-74.71267,-120.9714,135.7512,-52.28356,202408221806514895,
2-2J,C_HumanVertical,1,Q1FrontDown,4.41153,60.5541,-46.38855,-74.71267,-120.9714,135.7512,-52.28356,202408221806515081,
2-2J,C_HumanVertical,1,Q1FrontDown,4.661426,60.5615,-46.49186,-74.82189,-120.9691,135.2968,-52.21339,202408221806515279,
2-2J,C_HumanVertical,1,Q1FrontDown,4.891055,60.58344,-46.60079,-74.8918,-120.969,134.8739,-52.11855,202408221806515566,
2-2J,C_HumanVertical,1,Q1FrontDown,4.891055,60.58344,-46.60079,-74.8918,-120.969,134.8739,-52.11855,202408221806515729,
2-2J,C_HumanVertical,1,Q1FrontDown,5.148354,60.61287,-46.75555,-74.9381,-120.9692,134.5331,-51.9869,202408221806516123,
2-2J,C_HumanVertical,1,Q1FrontDown,5.405177,60.63482,-46.91578,-74.96017,-120.9709,134.2348,-51.83776,202408221806516377,
2-2J,C_HumanVertical,1,Q1FrontDown,5.668995,60.64368,-47.08495,-74.96899,-120.9762,134.0145,-51.63069,202408221806516556,
2-2J,C_HumanVertical,1,Q1FrontDown,5.668995,60.64368,-47.08495,-74.96899,-120.9762,134.0145,-51.63069,202408221806516737,
2-2J,C_HumanVertical,1,Q1FrontDown,5.965162,60.64296,-47.26435,-74.9746,-120.9781,133.817,-51.45926,202408221806516907,
2-2J,C_HumanVertical,1,Q1FrontDown,6.278816,60.63966,-47.45429,-74.97324,-120.9783,133.6294,-51.28933,202408221806517239,
2-2J,C_HumanVertical,1,Q1FrontDown,6.278816,60.63966,-47.45429,-74.97324,-120.9783,133.6294,-51.28933,202408221806517463,
2-2J,C_HumanVertical,1,Q1FrontDown,6.559199,60.63783,-47.63885,-74.97367,-120.9783,133.4747,-51.15025,202408221806517716,
2-2J,C_HumanVertical,1,Q1FrontDown,6.883487,60.6386,-47.83899,-74.97834,-120.978,133.2965,-51.03145,202408221806517896,
2-2J,C_HumanVertical,1,Q1FrontDown,6.883487,60.6386,-47.83899,-74.97834,-120.978,133.2965,-51.03145,202408221806518204,
2-2J,C_HumanVertical,1,Q1FrontDown,7.181154,60.6384,-48.01048,-74.97862,-120.9776,133.1311,-50.93174,202408221806518373,
2-2J,C_HumanVertical,1,Q1FrontDown,7.181154,60.6384,-48.01048,-74.97862,-120.9776,133.1311,-50.93174,202408221806518584,
2-2J,C_HumanVertical,1,Q1FrontDown,7.483453,60.63792,-48.18285,-74.98949,-120.9772,132.9607,-50.85163,202408221806518886,
2-2J,C_HumanVertical,1,Q1FrontDown,7.800525,60.63789,-48.36829,-74.99598,-120.9769,132.8226,-50.76709,202408221806519045,
2-2J,C_HumanVertical,1,Q1FrontDown,8.101543,60.63453,-48.55891,-75.00648,-120.9771,132.7133,-50.66982,202408221806519344,
2-2J,C_HumanVertical,1,Q1FrontDown,8.381651,60.62579,-48.73676,-75.00538,-120.9771,132.6479,-50.55513,202408221806519628,
2-2J,C_HumanVertical,1,Q1FrontDown,8.381651,60.62579,-48.73676,-75.00538,-120.9771,132.6479,-50.55513,202408221806519895,
2-2J,C_HumanVertical,1,Q1FrontDown,8.647187,60.61715,-48.887,-75.00433,-120.9769,132.5919,-50.44886,202408221806520052,
2-2J,C_HumanVertical,1,Q1FrontDown,8.931869,60.61089,-49.05335,-75.00571,-120.9771,132.5455,-50.35118,202408221806520380,
2-2J,C_HumanVertical,1,Q1FrontDown,9.218461,60.60859,-49.2296,-75.01123,-120.9775,132.5204,-50.22676,202408221806520712,
2-2J,C_HumanVertical,1,Q1FrontDown,9.218461,60.60859,-49.2296,-75.01123,-120.9775,132.5204,-50.22676,202408221806520916,
2-2J,C_HumanVertical,1,Q1FrontDown,9.482397,60.60305,-49.38808,-75.01534,-120.9775,132.4981,-50.10441,202408221806521194,
2-2J,C_HumanVertical,1,Q1FrontDown,9.73859,60.58882,-49.54364,-75.01619,-120.9781,132.4724,-49.99237,202408221806521370,
2-2J,C_HumanVertical,1,Q1FrontDown,9.989146,60.57922,-49.70575,-75.01742,-120.9786,132.4473,-49.87186,202408221806521540,
2-2J,C_HumanVertical,1,Q1FrontDown,9.989146,60.57922,-49.70575,-75.01742,-120.9786,132.4473,-49.87186,202408221806521704,
2-2J,C_HumanVertical,1,Q1FrontDown,10.24479,60.55478,-49.8765,-75.03224,-120.9787,132.4229,-49.76947,202408221806521904,
2-2J,C_HumanVertical,1,Q1FrontDown,10.24479,60.55478,-49.8765,-75.03224,-120.9787,132.4229,-49.76947,202408221806522119,
2-2J,C_HumanVertical,1,Q1FrontDown,10.48786,60.52843,-50.02582,-75.05336,-120.9775,132.3952,-49.69243,202408221806522395,
2-2J,C_HumanVertical,1,Q1FrontDown,10.48786,60.52843,-50.02582,-75.05336,-120.9775,132.3952,-49.69243,202408221806522593,
2-2J,C_HumanVertical,1,Q1FrontDown,10.73144,60.47963,-50.15099,-75.08692,-120.9766,132.3513,-49.64946,202408221806522875,
2-2J,C_HumanVertical,1,Q1FrontDown,10.94421,60.43408,-50.27129,-75.12312,-120.9747,132.3085,-49.61305,202408221806523035,
2-2J,C_HumanVertical,1,Q1FrontDown,11.15775,60.37815,-50.40242,-75.16065,-120.9734,132.2482,-49.5661,202408221806523248,
2-2J,C_HumanVertical,1,Q1FrontDown,11.35131,60.32266,-50.52201,-75.17973,-120.9739,132.1481,-49.47781,202408221806523553,
2-2J,C_HumanVertical,1,Q1FrontDown,11.35131,60.32266,-50.52201,-75.17973,-120.9739,132.1481,-49.47781,202408221806523859,
2-2J,C_HumanVertical,1,Q1FrontDown,11.52331,60.2619,-50.62339,-75.19035,-120.9739,132.0546,-49.38862,202408221806524037,
2-2J,C_HumanVertical,1,Q1FrontDown,11.69139,60.18389,-50.71327,-75.20197,-120.9739,131.9575,-49.31197,202408221806524264,
2-2J,C_HumanVertical,1,Q1FrontDown,11.69139,60.18389,-50.71327,-75.20197,-120.9739,131.9575,-49.31197,202408221806524434,
2-2J,C_HumanVertical,1,Q1FrontDown,11.86467,60.0908,-50.8195,-75.24722,-120.974,131.8884,-49.26604,202408221806524704,
2-2J,C_HumanVertical,1,Q1FrontDown,12.02321,59.99291,-50.92437,-75.29762,-120.9739,131.8208,-49.22326,202408221806524901,
2-2J,C_HumanVertical,1,Q1FrontDown,12.02321,59.99291,-50.92437,-75.29762,-120.9739,131.8208,-49.22326,202408221806525047,
2-2J,C_HumanVertical,1,Q1FrontDown,12.17412,59.87771,-51.0159,-75.34815,-120.9742,131.7457,-49.17563,202408221806525376,
2-2J,C_HumanVertical,2,Q3FrontUp,-20.24135,35.33033,34.57062,-14.71597,-115.6191,151.9812,-41.8708,202408221807135137,
2-2J,C_HumanVertical,2,Q3FrontUp,-20.24097,35.33024,34.57046,-14.71576,-115.6188,151.9812,-41.87061,202408221807135327,
2-2J,C_HumanVertical,2,Q3FrontUp,-20.24123,35.33021,34.57072,-14.71574,-115.6191,151.9813,-41.87088,202408221807135564,
2-2J,C_HumanVertical,2,Q3FrontUp,-20.24123,35.33021,34.57072,-14.71574,-115.6191,151.9813,-41.87088,202408221807135730,
2-2J,C_HumanVertical,2,Q3FrontUp,-20.24123,35.33021,34.57072,-14.71574,-115.6191,151.9813,-41.87088,202408221807135938,
2-2J,C_HumanVertical,2,Q3FrontUp,-20.24109,35.33023,34.5705,-14.71573,-115.619,151.9814,-41.87056,202408221807136148,
2-2J,C_HumanVertical,2,Q3FrontUp,-20.24197,35.33045,34.58237,-14.71589,-115.6189,151.9811,-41.87074,202408221807136319,
2-2J,C_HumanVertical,2,Q3FrontUp,-20.2422,35.33065,34.59845,-14.71548,-115.6189,151.9812,-41.87017,202408221807136643,
2-2J,C_HumanVertical,2,Q3FrontUp,-20.24217,35.33057,34.61403,-14.71536,-115.6188,151.9813,-41.87036,202408221807137007,
2-2J,C_HumanVertical,2,Q3FrontUp,-20.24217,35.33057,34.61403,-14.71536,-115.6188,151.9813,-41.87036,202408221807137323,
2-2J,C_HumanVertical,2,Q3FrontUp,-20.24184,35.33035,34.62907,-14.71557,-115.6189,151.9811,-41.87067,202408221807137479,
2-2J,C_HumanVertical,2,Q3FrontUp,-20.24225,35.33024,34.64123,-14.71543,-115.6191,151.9811,-41.8702,202408221807137821,
2-2J,C_HumanVertical,2,Q3FrontUp,-20.24232,35.33033,34.64788,-14.71494,-115.6189,151.981,-41.8704,202408221807138145,
2-2J,C_HumanVertical,2,Q3FrontUp,-20.24195,35.33034,34.6523,-14.71494,-115.6196,151.981,-41.87028,202408221807138302,
2-2J,C_HumanVertical,2,Q3FrontUp,-20.24219,35.33034,34.6548,-14.71493,-115.6198,151.9811,-41.87011,202408221807138559,
2-2J,C_HumanVertical,2,Q3FrontUp,-20.24219,35.33034,34.6548,-14.71493,-115.6198,151.9811,-41.87011,202408221807138726,
2-2J,C_HumanVertical,2,Q3FrontUp,-20.24223,35.3302,34.65831,-14.71503,-115.6209,151.9811,-41.87006,202408221807138895,
2-2J,C_HumanVertical,2,Q3FrontUp,-20.24223,35.3302,34.65831,-14.71503,-115.6209,151.9811,-41.87006,202408221807139069,
2-2J,C_HumanVertical,2,Q3FrontUp,-20.24202,35.33052,34.65947,-14.71493,-115.6213,151.9808,-41.87012,202408221807139272,
2-2J,C_HumanVertical,2,Q3FrontUp,-20.24202,35.33052,34.65947,-14.71493,-115.6213,151.9808,-41.87012,202408221807139474,
2-2J,C_HumanVertical,2,Q3FrontUp,-20.24239,35.33042,34.66,-14.71503,-115.6218,151.981,-41.86997,202408221807139730,
2-2J,C_HumanVertical,2,Q3FrontUp,-20.24248,35.33011,34.66116,-14.71493,-115.6231,151.9808,-41.8703,202408221807140078,
2-2J,C_HumanVertical,2,Q3FrontUp,-20.24255,35.33051,34.662,-14.71493,-115.6237,151.9807,-41.87019,202408221807140409,
2-2J,C_HumanVertical,2,Q3FrontUp,-20.24251,35.3302,34.66204,-14.71489,-115.6236,151.9807,-41.86992,202408221807140594,
2-2J,C_HumanVertical,2,Q3FrontUp,-20.24241,35.33016,34.66206,-14.71476,-115.6236,151.9807,-41.87032,202408221807140875,
2-2J,C_HumanVertical,2,Q3FrontUp,-20.24241,35.33016,34.66206,-14.71476,-115.6236,151.9807,-41.87032,202408221807141041,
2-2J,C_HumanVertical,2,Q3FrontUp,-20.24255,35.33042,34.66222,-14.71479,-115.6234,151.9808,-41.87006,202408221807141283,
2-2J,C_HumanVertical,2,Q3FrontUp,-20.24266,35.33042,34.66246,-14.71489,-115.6237,151.9808,-41.87016,202408221807141557,
2-2J,C_HumanVertical,2,Q3FrontUp,-20.24266,35.33042,34.66246,-14.71489,-115.6237,151.9808,-41.87016,202408221807141793,
2-2J,C_HumanVertical,2,Q3FrontUp,-20.24261,35.33037,34.6625,-14.71467,-115.6238,151.9808,-41.87003,202408221807142075,
2-2J,C_HumanVertical,2,Q3FrontUp,-20.24277,35.33063,34.6628,-14.71476,-115.6261,151.9808,-41.87021,202408221807142234,
2-2J,C_HumanVertical,2,Q3FrontUp,-20.24277,35.33063,34.6628,-14.71476,-115.6261,151.9808,-41.87021,202408221807142557,
2-2J,C_HumanVertical,2,Q3FrontUp,-20.2429,35.33041,34.6627,-14.71486,-115.6276,151.9806,-41.87003,202408221807142762,
2-2J,C_HumanVertical,2,Q3FrontUp,-20.24269,35.33044,34.66307,-14.71487,-115.6277,151.9805,-41.86985,202408221807143071,
2-2J,C_HumanVertical,2,Q3FrontUp,-20.24264,35.33052,34.66346,-14.71481,-115.6276,151.9805,-41.87006,202408221807143383,
2-2J,C_HumanVertical,2,Q3FrontUp,-20.24284,35.33043,34.66396,-14.71477,-115.6271,151.9806,-41.86998,202408221807143551,
2-2J,C_HumanVertical,2,Q3FrontUp,-20.24284,35.33043,34.66396,-14.71477,-115.6271,151.9806,-41.86998,202408221807143753,
2-2J,C_HumanVertical,2,Q3FrontUp,-20.2427,35.33042,34.66374,-14.71487,-115.627,151.9805,-41.86989,202408221807143941,
2-2J,C_HumanVertical,2,Q3FrontUp,-20.24274,35.33052,34.66446,-14.71481,-115.6269,151.9806,-41.86975,202408221807144329,
2-2J,C_HumanVertical,2,Q3FrontUp,-20.24266,35.33032,34.66615,-14.71481,-115.6269,151.9806,-41.86988,202408221807144562,
2-2J,C_HumanVertical,2,Q3FrontUp,-20.24266,35.33032,34.66615,-14.71481,-115.6269,151.9806,-41.86988,202408221807144760,
2-2J,C_HumanVertical,2,Q3FrontUp,-20.24267,35.33026,34.66741,-14.71481,-115.627,151.9805,-41.8698,202408221807144936,
2-2J,C_HumanVertical,2,Q3FrontUp,-20.24271,35.33028,34.66901,-14.71482,-115.6271,151.9804,-41.87024,202408221807145221,
2-2J,C_HumanVertical,2,Q3FrontUp,-20.24271,35.33028,34.66901,-14.71482,-115.6271,151.9804,-41.87024,202408221807145395,
2-2J,C_HumanVertical,2,Q3FrontUp,-20.24272,35.3303,34.66928,-14.71495,-115.6269,151.9808,-41.86979,202408221807145711,
2-2J,C_HumanVertical,2,Q3FrontUp,-20.24271,35.3304,34.66936,-14.71493,-115.627,151.9805,-41.87005,202408221807145948,
2-2J,C_HumanVertical,2,Q3FrontUp,-20.24257,35.33062,34.66936,-14.71495,-115.6271,151.9802,-41.87029,202408221807146203,
2-2J,C_HumanVertical,2,Q3FrontUp,-20.24257,35.33062,34.66936,-14.71495,-115.6271,151.9802,-41.87029,202408221807146387,
2-2J,C_HumanVertical,2,Q3FrontUp,-20.24257,35.33062,34.66936,-14.71495,-115.6271,151.9802,-41.87029,202408221807146575,
2-2J,C_HumanVertical,2,Q3FrontUp,-20.24257,35.33062,34.66936,-14.71495,-115.6271,151.9802,-41.87029,202408221807146727,
2-2J,C_HumanVertical,2,Q3FrontUp,-20.24269,35.33042,34.66932,-14.71467,-115.6363,151.9796,-41.86974,202408221807146928,
2-2J,C_HumanVertical,2,Q3FrontUp,-20.24269,35.33042,34.66932,-14.71467,-115.6363,151.9796,-41.86974,202408221807147075,
2-2J,C_HumanVertical,2,Q3FrontUp,-20.24269,35.33042,34.66932,-14.71467,-115.6363,151.9796,-41.86974,202408221807147292,
2-2J,C_HumanVertical,2,Q3FrontUp,-20.24265,35.33035,34.66933,-14.71478,-115.6406,151.9795,-41.86999,202408221807147461,
2-2J,C_HumanVertical,2,Q3FrontUp,-20.24252,35.33021,34.66954,-14.71474,-115.6429,151.9793,-41.87003,202408221807147728,
2-2J,C_HumanVertical,2,Q3FrontUp,-20.24241,35.33052,34.6693,-14.71468,-115.6433,151.9789,-41.87023,202408221807147897,
2-2J,C_HumanVertical,2,Q3FrontUp,-20.24241,35.33052,34.6693,-14.71468,-115.6433,151.9789,-41.87023,202408221807148063,
2-2J,C_HumanVertical,2,Q3FrontUp,-20.24254,35.33052,34.6693,-14.71469,-115.6443,151.9788,-41.87025,202408221807148239,
2-2J,C_HumanVertical,2,Q3FrontUp,-20.24254,35.33052,34.6693,-14.71469,-115.6443,151.9788,-41.87025,202408221807148458,
2-2J,C_HumanVertical,2,Q3FrontUp,-20.24265,35.33038,34.66932,-14.71478,-115.6446,151.979,-41.86987,202408221807148731,
2-2J,C_HumanVertical,2,Q3FrontUp,-20.24261,35.33025,34.66909,-14.71468,-115.6444,151.9789,-41.8701,202408221807148893,
2-2J,C_HumanVertical,2,Q3FrontUp,-20.24261,35.33025,34.66909,-14.71468,-115.6444,151.9789,-41.8701,202408221807149122,
2-2J,C_HumanVertical,2,Q3FrontUp,-20.24243,35.33033,34.66935,-14.71461,-115.6393,151.9789,-41.86992,202408221807149419,
2-2J,C_HumanVertical,2,Q3FrontUp,-20.24194,35.33015,34.66817,-14.71522,-115.6268,151.9793,-41.87008,202408221807149629,
2-2J,C_HumanVertical,2,Q3FrontUp,-20.23789,35.33046,34.66817,-14.71729,-115.5336,151.979,-41.87066,202408221807149890,
2-2J,C_HumanVertical,2,Q3FrontUp,-20.23789,35.33046,34.66817,-14.71729,-115.5336,151.979,-41.87066,202408221807150087,
2-2J,C_HumanVertical,2,Q3FrontUp,-20.22532,35.33032,34.66576,-14.72488,-115.4561,151.9792,-41.87057,202408221807150395,
2-2J,C_HumanVertical,2,Q3FrontUp,-20.21086,35.32975,34.66545,-14.73682,-115.382,151.9794,-41.8709,202408221807150567,
2-2J,C_HumanVertical,2,Q3FrontUp,-20.21086,35.32975,34.66545,-14.73682,-115.382,151.9794,-41.8709,202408221807150770,
2-2J,C_HumanVertical,2,Q3FrontUp,-20.19171,35.3298,34.6654,-14.74845,-115.311,151.9798,-41.8709,202408221807151048,
2-2J,C_HumanVertical,2,Q3FrontUp,-20.19171,35.3298,34.6654,-14.74845,-115.311,151.9798,-41.8709,202408221807151221,
2-2J,C_HumanVertical,2,Q3FrontUp,-20.19171,35.3298,34.6654,-14.74845,-115.311,151.9798,-41.8709,202408221807151394,
2-2J,C_HumanVertical,2,Q3FrontUp,-20.08701,35.32693,34.66185,-14.80865,-114.6527,151.9835,-41.8742,202408221807151552,
2-2J,C_HumanVertical,2,Q3FrontUp,-20.08701,35.32693,34.66185,-14.80865,-114.6527,151.9835,-41.8742,202408221807151718,
2-2J,C_HumanVertical,2,Q3FrontUp,-20.08701,35.32693,34.66185,-14.80865,-114.6527,151.9835,-41.8742,202408221807151946,
2-2J,C_HumanVertical,2,Q3FrontUp,-19.82129,35.29049,34.66607,-14.96722,-113.3088,152.0752,-41.88426,202408221807152294,
2-2J,C_HumanVertical,2,Q3FrontUp,-19.60175,35.24707,34.66955,-15.08802,-112.493,152.1619,-41.89385,202408221807152566,
2-2J,C_HumanVertical,2,Q3FrontUp,-19.60175,35.24707,34.66955,-15.08802,-112.493,152.1619,-41.89385,202408221807152736,
2-2J,C_HumanVertical,2,Q3FrontUp,-19.32551,35.17279,34.68954,-15.29734,-111.4643,152.3234,-41.93052,202408221807152936,
2-2J,C_HumanVertical,2,Q3FrontUp,-19.32551,35.17279,34.68954,-15.29734,-111.4643,152.3234,-41.93052,202408221807153218,
2-2J,C_HumanVertical,2,Q3FrontUp,-19.02559,35.08256,34.7164,-15.52849,-110.5258,152.4899,-41.96269,202408221807153392,
2-2J,C_HumanVertical,2,Q3FrontUp,-19.02559,35.08256,34.7164,-15.52849,-110.5258,152.4899,-41.96269,202408221807153557,
2-2J,C_HumanVertical,2,Q3FrontUp,-18.66846,34.98944,34.75295,-15.74264,-109.6632,152.6759,-42.00372,202408221807153728,
2-2J,C_HumanVertical,2,Q3FrontUp,-18.30393,34.8265,34.76934,-16.1254,-108.7827,152.8848,-42.14012,202408221807153969,
2-2J,C_HumanVertical,2,Q3FrontUp,-18.30393,34.8265,34.76934,-16.1254,-108.7827,152.8848,-42.14012,202408221807154202,
2-2J,C_HumanVertical,2,Q3FrontUp,-17.87053,34.63184,34.79399,-16.59304,-108.0071,153.0877,-42.28813,202408221807154381,
2-2J,C_HumanVertical,2,Q3FrontUp,-17.4203,34.44033,34.83154,-17.09012,-107.3113,153.2896,-42.43385,202408221807154557,
2-2J,C_HumanVertical,2,Q3FrontUp,-16.95803,34.25322,34.87825,-17.56051,-106.6275,153.5017,-42.57299,202408221807154899,
2-2J,C_HumanVertical,2,Q3FrontUp,-16.95803,34.25322,34.87825,-17.56051,-106.6275,153.5017,-42.57299,202408221807155066,
2-2J,C_HumanVertical,2,Q3FrontUp,-16.44805,34.04665,34.91966,-18.11966,-106.0754,153.7278,-42.72917,202408221807155336,
2-2J,C_HumanVertical,2,Q3FrontUp,-15.9765,33.83715,34.9314,-18.74299,-105.6332,153.9429,-42.89807,202408221807155603,
2-2J,C_HumanVertical,2,Q3FrontUp,-15.54497,33.61643,34.93186,-19.47088,-105.2618,154.125,-43.09595,202408221807155870,
2-2J,C_HumanVertical,2,Q3FrontUp,-15.54497,33.61643,34.93186,-19.47088,-105.2618,154.125,-43.09595,202408221807156041,
2-2J,C_HumanVertical,2,Q3FrontUp,-15.09123,33.40267,34.94576,-20.27794,-104.8264,154.3248,-43.35261,202408221807156208,
2-2J,C_HumanVertical,2,Q3FrontUp,-14.6817,33.19762,34.96185,-21.12116,-104.3718,154.5161,-43.60794,202408221807156539,
2-2J,C_HumanVertical,2,Q3FrontUp,-14.6817,33.19762,34.96185,-21.12116,-104.3718,154.5161,-43.60794,202408221807156710,
2-2J,C_HumanVertical,2,Q3FrontUp,-14.6817,33.19762,34.96185,-21.12116,-104.3718,154.5161,-43.60794,202408221807156882,
2-2J,C_HumanVertical,2,Q3FrontUp,-14.29228,32.99259,35.01588,-22.12466,-104.0811,154.6803,-43.87424,202408221807157123,
2-2J,C_HumanVertical,2,Q3FrontUp,-13.93756,32.82277,35.06827,-23.07853,-103.8303,154.8411,-44.13517,202408221807157452,
2-2J,C_HumanVertical,2,Q3FrontUp,-13.55338,32.74083,35.13251,-23.98369,-103.5989,154.9992,-44.37338,202408221807157710,
2-2J,C_HumanVertical,2,Q3FrontUp,-13.55338,32.74083,35.13251,-23.98369,-103.5989,154.9992,-44.37338,202408221807157872,
2-2J,C_HumanVertical,2,Q3FrontUp,-13.55338,32.74083,35.13251,-23.98369,-103.5989,154.9992,-44.37338,202408221807158028,
2-2J,C_HumanVertical,2,Q3FrontUp,-12.86765,32.58906,35.19276,-26.03399,-103.3709,155.1475,-44.8615,202408221807158211,
2-2J,C_HumanVertical,2,Q3FrontUp,-12.86765,32.58906,35.19276,-26.03399,-103.3709,155.1475,-44.8615,202408221807158401,
2-2J,C_HumanVertical,2,Q3FrontUp,-12.86765,32.58906,35.19276,-26.03399,-103.3709,155.1475,-44.8615,202408221807158630,
2-2J,C_HumanVertical,2,Q3FrontUp,-12.31489,32.55411,35.26782,-28.26505,-103.31,155.1977,-45.29754,202408221807158891,
2-2J,C_HumanVertical,2,Q3FrontUp,-12.31489,32.55411,35.26782,-28.26505,-103.31,155.1977,-45.29754,202408221807159072,
2-2J,C_HumanVertical,2,Q3FrontUp,-12.03738,32.56018,35.30252,-29.38227,-103.3086,155.21,-45.50203,202408221807159395,
2-2J,C_HumanVertical,2,Q3FrontUp,-11.76929,32.62916,35.33255,-30.45413,-103.3107,155.2245,-45.68844,202408221807159584,
2-2J,C_HumanVertical,2,Q3FrontUp,-11.76929,32.62916,35.33255,-30.45413,-103.3107,155.2245,-45.68844,202408221807159815,
2-2J,C_HumanVertical,2,Q3FrontUp,-11.59273,32.68585,35.44696,-31.74964,-103.3145,155.2222,-45.85332,202408221807160046,
2-2J,C_HumanVertical,2,Q3FrontUp,-11.38987,32.74656,35.55184,-33.03518,-103.319,155.2217,-46.0184,202408221807160285,
2-2J,C_HumanVertical,2,Q3FrontUp,-11.18199,32.8779,35.6509,-34.21583,-103.3246,155.2228,-46.17352,202408221807160555,
2-2J,C_HumanVertical,2,Q3FrontUp,-11.18199,32.8779,35.6509,-34.21583,-103.3246,155.2228,-46.17352,202408221807160740,
2-2J,C_HumanVertical,2,Q3FrontUp,-11.00027,32.9831,35.77898,-35.44819,-103.326,155.2214,-46.32712,202408221807160931,
2-2J,C_HumanVertical,2,Q3FrontUp,-10.80525,33.15312,35.95205,-36.70762,-103.3275,155.2199,-46.46173,202408221807161227,
2-2J,C_HumanVertical,2,Q3FrontUp,-10.80525,33.15312,35.95205,-36.70762,-103.3275,155.2199,-46.46173,202408221807161394,
2-2J,C_HumanVertical,2,Q3FrontUp,-10.61893,33.35067,36.09305,-37.92448,-103.3379,155.2183,-46.58733,202408221807161563,
2-2J,C_HumanVertical,2,Q3FrontUp,-10.61893,33.35067,36.09305,-37.92448,-103.3379,155.2183,-46.58733,202408221807161820,
2-2J,C_HumanVertical,2,Q3FrontUp,-10.40615,33.55682,36.21214,-39.11697,-103.3434,155.1956,-46.68647,202408221807162072,
2-2J,C_HumanVertical,2,Q3FrontUp,-10.16879,33.77055,36.33191,-40.25932,-103.3468,155.1868,-46.78098,202408221807162240,
2-2J,C_HumanVertical,2,Q3FrontUp,-10.16879,33.77055,36.33191,-40.25932,-103.3468,155.1868,-46.78098,202408221807162407,
2-2J,C_HumanVertical,2,Q3FrontUp,-9.930578,34.03221,36.42496,-41.3133,-103.356,155.1674,-46.86404,202408221807162732,
2-2J,C_HumanVertical,2,Q3FrontUp,-9.660323,34.37957,36.4669,-42.35904,-103.4006,155.0663,-46.95748,202408221807162891,
2-2J,C_HumanVertical,2,Q3FrontUp,-9.660323,34.37957,36.4669,-42.35904,-103.4006,155.0663,-46.95748,202408221807163092,
2-2J,C_HumanVertical,2,Q3FrontUp,-9.660323,34.37957,36.4669,-42.35904,-103.4006,155.0663,-46.95748,202408221807163276,
2-2J,C_HumanVertical,2,Q3FrontUp,-9.150575,35.00974,36.56758,-44.25089,-103.4587,154.9626,-47.11701,202408221807163563,
2-2J,C_HumanVertical,2,Q3FrontUp,-9.150575,35.00974,36.56758,-44.25089,-103.4587,154.9626,-47.11701,202408221807163720,
2-2J,C_HumanVertical,2,Q3FrontUp,-8.872831,35.36948,36.62695,-45.10518,-103.4595,154.8696,-47.1671,202408221807163897,
2-2J,C_HumanVertical,2,Q3FrontUp,-8.872831,35.36948,36.62695,-45.10518,-103.4595,154.8696,-47.1671,202408221807164116,
2-2J,C_HumanVertical,2,Q3FrontUp,-8.622982,35.75278,36.6987,-45.88902,-103.4586,154.7461,-47.19976,202408221807164404,
2-2J,C_HumanVertical,2,Q3FrontUp,-8.399407,36.14198,36.77338,-46.64404,-103.4548,154.5746,-47.21799,202408221807164725,
2-2J,C_HumanVertical,2,Q3FrontUp,-8.193612,36.5163,36.91854,-47.38012,-103.4145,154.3488,-47.21902,202408221807164954,
2-2J,C_HumanVertical,2,Q3FrontUp,-8.023053,36.88493,37.07515,-48.12484,-103.3774,154.1005,-47.21905,202408221807165213,
2-2J,C_HumanVertical,2,Q3FrontUp,-8.023053,36.88493,37.07515,-48.12484,-103.3774,154.1005,-47.21905,202408221807165391,
2-2J,C_HumanVertical,2,Q3FrontUp,-7.86259,37.23671,37.25327,-48.8311,-103.3424,153.8754,-47.2186,202408221807165555,
2-2J,C_HumanVertical,2,Q3FrontUp,-7.737941,37.60061,37.45011,-49.58542,-103.2624,153.6882,-47.21846,202408221807165885,
2-2J,C_HumanVertical,2,Q3FrontUp,-7.737941,37.60061,37.45011,-49.58542,-103.2624,153.6882,-47.21846,202408221807166062,
2-2J,C_HumanVertical,2,Q3FrontUp,-7.628,37.92711,37.64675,-50.30615,-103.2037,153.4702,-47.2182,202408221807166301,
2-2J,C_HumanVertical,2,Q3FrontUp,-7.628,37.92711,37.64675,-50.30615,-103.2037,153.4702,-47.2182,202408221807166570,
2-2J,C_HumanVertical,2,Q3FrontUp,-7.538283,38.23122,37.81482,-51.05007,-103.1654,153.2239,-47.2183,202408221807166749,
2-2J,C_HumanVertical,2,Q3FrontUp,-7.449799,38.50756,38.0187,-51.815,-103.1458,152.9311,-47.21629,202408221807167079,
2-2J,C_HumanVertical,2,Q3FrontUp,-7.449799,38.50756,38.0187,-51.815,-103.1458,152.9311,-47.21629,202408221807167282,
2-2J,C_HumanVertical,2,Q3FrontUp,-7.349452,39.06503,38.44598,-53.39624,-103.1309,152.4598,-47.21038,202408221807167571,
2-2J,C_HumanVertical,2,Q3FrontUp,-7.349452,39.06503,38.44598,-53.39624,-103.1309,152.4598,-47.21038,202408221807167896,
2-2J,C_HumanVertical,2,Q3FrontUp,-7.296743,39.34396,38.62414,-54.1386,-103.1291,152.2383,-47.20789,202408221807168094,
2-2J,C_HumanVertical,2,Q3FrontUp,-7.251466,39.62839,38.83615,-54.85907,-103.1273,152.0219,-47.20596,202408221807168273,
2-2J,C_HumanVertical,2,Q3FrontUp,-7.231542,39.88455,39.02558,-55.55653,-103.1276,151.8346,-47.20378,202408221807168554,
2-2J,C_HumanVertical,2,Q3FrontUp,-7.231542,39.88455,39.02558,-55.55653,-103.1276,151.8346,-47.20378,202408221807168705,
2-2J,C_HumanVertical,2,Q3FrontUp,-7.231542,39.88455,39.02558,-55.55653,-103.1276,151.8346,-47.20378,202408221807168886,
2-2J,C_HumanVertical,2,Q3FrontUp,-7.199014,40.15899,39.17441,-56.27595,-103.1272,151.6516,-47.18647,202408221807169041,
2-2J,C_HumanVertical,2,Q3FrontUp,-7.199014,40.15899,39.17441,-56.27595,-103.1272,151.6516,-47.18647,202408221807169246,
2-2J,C_HumanVertical,2,Q3FrontUp,-7.17518,40.41224,39.28471,-56.91316,-103.1274,151.5105,-47.17957,202408221807169464,
2-2J,C_HumanVertical,2,Q3FrontUp,-7.137262,40.67953,39.39682,-57.54619,-103.1278,151.3635,-47.17434,202408221807169615,
2-2J,C_HumanVertical,2,Q3FrontUp,-7.104287,40.91322,39.51455,-58.19571,-103.1264,151.1255,-47.16869,202408221807169912,
2-2J,C_HumanVertical,2,Q3FrontUp,-7.0229,41.16092,39.61807,-58.83683,-103.1254,150.8765,-47.15784,202408221807170240,
2-2J,C_HumanVertical,2,Q3FrontUp,-7.0229,41.16092,39.61807,-58.83683,-103.1254,150.8765,-47.15784,202408221807170439,
2-2J,C_HumanVertical,2,Q3FrontUp,-6.914087,41.39721,39.67993,-59.44291,-103.1251,150.6607,-47.14483,202408221807170703,
2-2J,C_HumanVertical,2,Q3FrontUp,-6.914087,41.39721,39.67993,-59.44291,-103.1251,150.6607,-47.14483,202408221807170869,
2-2J,C_HumanVertical,2,Q3FrontUp,-6.777428,41.61277,39.7467,-60.03564,-103.1247,150.4767,-47.13577,202408221807171040,
2-2J,C_HumanVertical,2,Q3FrontUp,-6.60892,41.85104,39.81634,-60.58649,-103.1238,150.3325,-47.124,202408221807171274,
2-2J,C_HumanVertical,2,Q3FrontUp,-6.60892,41.85104,39.81634,-60.58649,-103.1238,150.3325,-47.124,202408221807171431,
2-2J,C_HumanVertical,2,Q3FrontUp,-6.444197,42.06204,39.86919,-61.11373,-103.1225,150.2009,-47.10978,202408221807171696,
2-2J,C_HumanVertical,2,Q3FrontUp,-6.444197,42.06204,39.86919,-61.11373,-103.1225,150.2009,-47.10978,202408221807171879,
2-2J,C_HumanVertical,2,Q3FrontUp,-6.444197,42.06204,39.86919,-61.11373,-103.1225,150.2009,-47.10978,202408221807172026,
2-2J,C_HumanVertical,2,Q3FrontUp,-6.224533,42.26994,39.86155,-61.6164,-103.1219,150.0202,-47.10222,202408221807172205,
2-2J,C_HumanVertical,2,Q3FrontUp,-5.967106,42.48403,39.85706,-62.08051,-103.1209,149.8155,-47.09179,202408221807172393,
2-2J,C_HumanVertical,2,Q3FrontUp,-5.713682,42.68695,39.84486,-62.49417,-103.1203,149.6194,-47.08655,202408221807172602,
2-2J,C_HumanVertical,2,Q3FrontUp,-5.442656,42.90465,39.81041,-62.86765,-103.099,149.458,-47.06797,202408221807172871,
2-2J,C_HumanVertical,2,Q3FrontUp,-5.442656,42.90465,39.81041,-62.86765,-103.099,149.458,-47.06797,202408221807173196,
2-2J,C_HumanVertical,2,Q3FrontUp,-5.155715,43.14478,39.77731,-63.21366,-103.0868,149.3163,-47.05435,202408221807173368,
2-2J,C_HumanVertical,2,Q3FrontUp,-4.898312,43.38006,39.76842,-63.54754,-103.0671,149.1887,-47.0442,202408221807173554,
2-2J,C_HumanVertical,2,Q3FrontUp,-4.898312,43.38006,39.76842,-63.54754,-103.0671,149.1887,-47.0442,202408221807173766,
2-2J,C_HumanVertical,2,Q3FrontUp,-4.609772,43.62962,39.73143,-63.86762,-102.9662,148.9229,-47.04337,202408221807174042,
2-2J,C_HumanVertical,2,Q3FrontUp,-4.326913,43.84262,39.6785,-64.13175,-102.8642,148.6995,-47.04308,202408221807174207,
2-2J,C_HumanVertical,2,Q3FrontUp,-4.326913,43.84262,39.6785,-64.13175,-102.8642,148.6995,-47.04308,202408221807174441,
2-2J,C_HumanVertical,2,Q3FrontUp,-4.025104,44.09977,39.58467,-64.40822,-102.742,148.4735,-47.04305,202408221807174727,
2-2J,C_HumanVertical,2,Q3FrontUp,-3.724073,44.34976,39.49342,-64.62239,-102.6199,148.2823,-47.04252,202408221807174959,
2-2J,C_HumanVertical,2,Q3FrontUp,-3.724073,44.34976,39.49342,-64.62239,-102.6199,148.2823,-47.04252,202408221807175201,
2-2J,C_HumanVertical,2,Q3FrontUp,-3.45954,44.6147,39.43643,-64.81742,-102.4863,148.131,-47.04243,202408221807175376,
2-2J,C_HumanVertical,2,Q3FrontUp,-3.194717,44.88632,39.41251,-65.00771,-102.3537,147.9741,-47.04279,202408221807175567,
2-2J,C_HumanVertical,2,Q3FrontUp,-2.934525,45.14005,39.41421,-65.17992,-102.2691,147.811,-47.04311,202408221807175883,
2-2J,C_HumanVertical,2,Q3FrontUp,-2.934525,45.14005,39.41421,-65.17992,-102.2691,147.811,-47.04311,202408221807176088,
2-2J,C_HumanVertical,2,Q3FrontUp,-2.671327,45.37945,39.41893,-65.3344,-102.1776,147.6632,-47.04345,202408221807176362,
2-2J,C_HumanVertical,2,Q3FrontUp,-2.671327,45.37945,39.41893,-65.3344,-102.1776,147.6632,-47.04345,202408221807176527,
2-2J,C_HumanVertical,2,Q3FrontUp,-2.671327,45.37945,39.41893,-65.3344,-102.1776,147.6632,-47.04345,202408221807176704,
2-2J,C_HumanVertical,2,Q3FrontUp,-2.220234,45.8209,39.53307,-65.59248,-102.1,147.4792,-47.04245,202408221807176891,
2-2J,C_HumanVertical,2,Q3FrontUp,-2.220234,45.8209,39.53307,-65.59248,-102.1,147.4792,-47.04245,202408221807177151,
2-2J,C_HumanVertical,2,Q3FrontUp,-2.04765,46.03472,39.67184,-65.73824,-102.0998,147.4511,-47.04289,202408221807177407,
2-2J,C_HumanVertical,2,Q3FrontUp,-1.88585,46.22623,39.82,-65.88809,-102.0999,147.4296,-47.04281,202408221807177714,
2-2J,C_HumanVertical,2,Q3FrontUp,-1.88585,46.22623,39.82,-65.88809,-102.0999,147.4296,-47.04281,202408221807177892,
2-2J,C_HumanVertical,2,Q3FrontUp,-1.705955,46.41508,39.94245,-65.99593,-102.0997,147.4165,-47.04292,202408221807178075,
2-2J,C_HumanVertical,2,Q3FrontUp,-1.5346,46.57328,40.0872,-66.09908,-102.0997,147.3893,-47.03395,202408221807178377,
2-2J,C_HumanVertical,2,Q3FrontUp,-1.390212,46.72624,40.27085,-66.18047,-102.0999,147.361,-47.01325,202408221807178531,
2-2J,C_HumanVertical,2,Q3FrontUp,-1.390212,46.72624,40.27085,-66.18047,-102.0999,147.361,-47.01325,202408221807178699,
2-2J,C_HumanVertical,2,Q3FrontUp,-1.258484,46.84863,40.47556,-66.26759,-102.097,147.3219,-47.01381,202408221807178878,
2-2J,C_HumanVertical,2,Q3FrontUp,-1.258484,46.84863,40.47556,-66.26759,-102.097,147.3219,-47.01381,202408221807179070,
2-2J,C_HumanVertical,2,Q3FrontUp,-1.127512,46.95434,40.65724,-66.35274,-102.0945,147.2903,-47.01363,202408221807179281,
2-2J,C_HumanVertical,2,Q3FrontUp,-0.9957809,47.02229,40.80381,-66.43385,-102.0928,147.267,-47.01355,202408221807179539,
2-2J,C_HumanVertical,2,Q3FrontUp,-0.9957809,47.02229,40.80381,-66.43385,-102.0928,147.267,-47.01355,202408221807179695,
2-2J,C_HumanVertical,2,Q3FrontUp,-0.852669,47.05161,40.95864,-66.54066,-102.0901,147.2102,-47.0138,202408221807179895,
2-2J,C_HumanVertical,2,Q3FrontUp,-0.7097742,47.06808,41.12707,-66.6549,-102.0878,147.1478,-47.01258,202408221807180239,
2-2J,C_HumanVertical,2,Q3FrontUp,-0.7097742,47.06808,41.12707,-66.6549,-102.0878,147.1478,-47.01258,202408221807180438,
2-2J,C_HumanVertical,2,Q3FrontUp,-0.5697702,47.07661,41.28402,-66.76465,-102.0864,147.0865,-47.0105,202408221807180713,
2-2J,C_HumanVertical,2,Q3FrontUp,-0.4226588,47.07903,41.4341,-66.87248,-102.0851,147.0425,-47.0078,202408221807180933,
2-2J,C_HumanVertical,2,Q3FrontUp,-0.3010078,47.07562,41.60389,-66.98993,-102.0846,146.9955,-47.00416,202408221807181221,
2-2J,C_HumanVertical,2,Q3FrontUp,-0.3010078,47.07562,41.60389,-66.98993,-102.0846,146.9955,-47.00416,202408221807181430,
2-2J,C_HumanVertical,2,Q3FrontUp,-0.1975663,47.07383,41.79399,-67.1214,-102.0845,146.9491,-46.99918,202408221807181616,
2-2J,C_HumanVertical,2,Q3FrontUp,-0.1167773,47.07308,42.01658,-67.29465,-102.0844,146.8642,-46.98005,202408221807181883,
2-2J,C_HumanVertical,2,Q3FrontUp,-0.1167773,47.07308,42.01658,-67.29465,-102.0844,146.8642,-46.98005,202408221807182057,
2-2J,C_HumanVertical,2,Q3FrontUp,-0.02841948,47.07504,42.22866,-67.4871,-102.0843,146.7659,-46.95272,202408221807182230,
2-2J,C_HumanVertical,2,Q3FrontUp,-0.02841948,47.07504,42.22866,-67.4871,-102.0843,146.7659,-46.95272,202408221807182410,
2-2J,C_HumanVertical,2,Q3FrontUp,0.05394473,47.07583,42.45288,-67.6827,-102.0845,146.6637,-46.92664,202408221807182598,
2-2J,C_HumanVertical,2,Q3FrontUp,0.1461051,47.07141,42.67675,-67.89898,-102.0845,146.5115,-46.91331,202408221807182894,
2-2J,C_HumanVertical,2,Q3FrontUp,0.1461051,47.07141,42.67675,-67.89898,-102.0845,146.5115,-46.91331,202408221807183205,
2-2J,C_HumanVertical,2,Q3FrontUp,0.2378434,47.06092,42.88803,-68.11776,-102.0845,146.3642,-46.90292,202408221807183367,
2-2J,C_HumanVertical,2,Q3FrontUp,0.3539973,47.06012,43.0683,-68.31724,-102.0846,146.2388,-46.88991,202408221807183548,
2-2J,C_HumanVertical,2,Q3FrontUp,0.3539973,47.06012,43.0683,-68.31724,-102.0846,146.2388,-46.88991,202408221807183784,
2-2J,C_HumanVertical,2,Q3FrontUp,0.4677443,47.05585,43.24576,-68.51765,-102.0844,146.0822,-46.88618,202408221807184036,
2-2J,C_HumanVertical,2,Q3FrontUp,0.5658128,47.05149,43.44379,-68.73514,-102.0842,145.8954,-46.88547,202408221807184278,
2-2J,C_HumanVertical,2,Q3FrontUp,0.6558891,47.05368,43.63077,-68.9576,-102.0872,145.6868,-46.88429,202408221807184544,
2-2J,C_HumanVertical,2,Q3FrontUp,0.6558891,47.05368,43.63077,-68.9576,-102.0872,145.6868,-46.88429,202408221807184733,
2-2J,C_HumanVertical,2,Q3FrontUp,0.7038743,47.05624,43.88352,-69.19049,-102.0996,145.5202,-46.86711,202408221807184940,
2-2J,C_HumanVertical,2,Q3FrontUp,0.7038743,47.05624,43.88352,-69.19049,-102.0996,145.5202,-46.86711,202408221807185208,
2-2J,C_HumanVertical,2,Q3FrontUp,0.7159925,47.05602,44.21378,-69.43341,-102.1071,145.3826,-46.84362,202408221807185382,
2-2J,C_HumanVertical,2,Q3FrontUp,0.7147226,47.05452,44.57097,-69.64357,-102.1101,145.3016,-46.82507,202408221807185760,
2-2J,C_HumanVertical,2,Q3FrontUp,0.6810514,47.05709,45.03946,-69.84574,-102.1098,145.1817,-46.82465,202408221807185924,
2-2J,C_HumanVertical,2,Q3FrontUp,0.6427878,47.05521,45.51437,-70.02699,-102.111,145.061,-46.81534,202408221807186212,
2-2J,C_HumanVertical,2,Q3FrontUp,0.6427878,47.05521,45.51437,-70.02699,-102.111,145.061,-46.81534,202408221807186378,
2-2J,C_HumanVertical,2,Q3FrontUp,0.6427878,47.05521,45.51437,-70.02699,-102.111,145.061,-46.81534,202408221807186551,
2-2J,C_HumanVertical,2,Q3FrontUp,0.5421898,47.01904,46.66514,-70.34767,-102.1121,144.8131,-46.76788,202408221807186902,
2-2J,C_HumanVertical,2,Q3FrontUp,0.5421898,47.01904,46.66514,-70.34767,-102.1121,144.8131,-46.76788,202408221807187110,
2-2J,C_HumanVertical,2,Q3FrontUp,0.4966436,46.98079,47.2779,-70.47607,-102.1129,144.6989,-46.74427,202408221807187296,
2-2J,C_HumanVertical,2,Q3FrontUp,0.4596772,46.91698,47.88938,-70.57151,-102.1132,144.5948,-46.72264,202408221807187560,
2-2J,C_HumanVertical,2,Q3FrontUp,0.3979407,46.83469,48.5134,-70.65813,-102.1136,144.4864,-46.70168,202408221807187902,
2-2J,C_HumanVertical,2,Q3FrontUp,0.3979407,46.83469,48.5134,-70.65813,-102.1136,144.4864,-46.70168,202408221807188084,
2-2J,C_HumanVertical,2,Q3FrontUp,0.3429254,46.70698,49.15002,-70.73732,-102.1141,144.3472,-46.67333,202408221807188368,
2-2J,C_HumanVertical,2,Q3FrontUp,0.282509,46.55954,49.73654,-70.7984,-102.1139,144.1658,-46.64678,202408221807188554,
2-2J,C_HumanVertical,2,Q3FrontUp,0.2286458,46.36742,50.28829,-70.84247,-102.1139,144.0061,-46.62067,202408221807188948,
2-2J,C_HumanVertical,2,Q3FrontUp,0.2286458,46.36742,50.28829,-70.84247,-102.1139,144.0061,-46.62067,202408221807189109,
2-2J,C_HumanVertical,2,Q3FrontUp,0.1510541,46.167,50.86255,-70.88354,-102.1142,143.9237,-46.6096,202408221807189378,
2-2J,C_HumanVertical,2,Q3FrontUp,0.05759332,45.95773,51.39098,-70.93276,-102.1139,143.9091,-46.6073,202408221807189561,
2-2J,C_HumanVertical,2,Q3FrontUp,-0.05359025,45.73634,51.92868,-70.98959,-102.1137,143.8924,-46.60728,202408221807189883,
2-2J,C_HumanVertical,2,Q3FrontUp,-0.05359025,45.73634,51.92868,-70.98959,-102.1137,143.8924,-46.60728,202408221807190049,
2-2J,C_HumanVertical,2,Q3FrontUp,-0.201436,45.50648,52.48953,-71.0504,-102.1144,143.8706,-46.60615,202408221807190257,
2-2J,C_HumanVertical,2,Q3FrontUp,-0.201436,45.50648,52.48953,-71.0504,-102.1144,143.8706,-46.60615,202408221807190438,
2-2J,C_HumanVertical,2,Q3FrontUp,-0.201436,45.50648,52.48953,-71.0504,-102.1144,143.8706,-46.60615,202408221807190728,
2-2J,C_HumanVertical,2,Q3FrontUp,-0.5738722,45.03214,53.61713,-71.19691,-102.1144,143.8541,-46.59597,202408221807191054,
2-2J,C_HumanVertical,2,Q3FrontUp,-0.5738722,45.03214,53.61713,-71.19691,-102.1144,143.8541,-46.59597,202408221807191310,
2-2J,C_HumanVertical,2,Q3FrontUp,-0.954686,44.56048,54.62035,-71.25443,-102.1144,143.8465,-46.59131,202408221807191556,
2-2J,C_HumanVertical,2,Q3FrontUp,-0.954686,44.56048,54.62035,-71.25443,-102.1144,143.8465,-46.59131,202408221807191720,
2-2J,C_HumanVertical,2,Q3FrontUp,-1.159938,44.30538,55.11005,-71.29633,-102.1144,143.8214,-46.59027,202408221807191880,
2-2J,C_HumanVertical,2,Q3FrontUp,-1.159938,44.30538,55.11005,-71.29633,-102.1144,143.8214,-46.59027,202408221807192104,
2-2J,C_HumanVertical,2,Q3FrontUp,-1.385033,44.05774,55.58617,-71.32545,-102.1143,143.808,-46.5898,202408221807192375,
2-2J,C_HumanVertical,2,Q3FrontUp,-1.593799,43.83035,55.99683,-71.33319,-102.1147,143.8036,-46.59006,202408221807192556,
2-2J,C_HumanVertical,2,Q3FrontUp,-1.593799,43.83035,55.99683,-71.33319,-102.1147,143.8036,-46.59006,202408221807192723,
2-2J,C_HumanVertical,2,Q3FrontUp,-1.830834,43.59693,56.4303,-71.37515,-102.122,143.8034,-46.58972,202408221807193058,
2-2J,C_HumanVertical,2,Q3FrontUp,-2.0774,43.36777,56.85185,-71.42693,-102.1244,143.7999,-46.58966,202408221807193411,
2-2J,C_HumanVertical,2,Q3FrontUp,-2.325256,43.17897,57.26676,-71.46748,-102.1248,143.7991,-46.58961,202408221807193581,
2-2J,C_HumanVertical,2,Q3FrontUp,-2.605697,42.99255,57.72545,-71.52914,-102.1255,143.7995,-46.58925,202408221807193850,
2-2J,C_HumanVertical,2,Q3FrontUp,-2.605697,42.99255,57.72545,-71.52914,-102.1255,143.7995,-46.58925,202408221807194028,
2-2J,C_HumanVertical,2,Q3FrontUp,-2.914514,42.81724,58.18041,-71.58811,-102.1285,143.7979,-46.5872,202408221807194202,
2-2J,C_HumanVertical,2,Q3FrontUp,-2.914514,42.81724,58.18041,-71.58811,-102.1285,143.7979,-46.5872,202408221807194410,
2-2J,C_HumanVertical,2,Q3FrontUp,-3.215826,42.66666,58.62422,-71.635,-102.1337,143.7976,-46.58612,202408221807194615,
2-2J,C_HumanVertical,2,Q3FrontUp,-3.5616,42.55122,59.11643,-71.70361,-102.1401,143.7982,-46.58567,202408221807194921,
2-2J,C_HumanVertical,2,Q3FrontUp,-3.5616,42.55122,59.11643,-71.70361,-102.1401,143.7982,-46.58567,202408221807195092,
2-2J,C_HumanVertical,2,Q3FrontUp,-3.868119,42.43403,59.56217,-71.75393,-102.1422,143.7982,-46.58592,202408221807195376,
2-2J,C_HumanVertical,2,Q3FrontUp,-4.166286,42.33096,59.98015,-71.79849,-102.1453,143.7978,-46.5853,202408221807195554,
2-2J,C_HumanVertical,2,Q3FrontUp,-4.166286,42.33096,59.98015,-71.79849,-102.1453,143.7978,-46.5853,202408221807195762,
2-2J,C_HumanVertical,2,Q3FrontUp,-4.549562,42.2502,60.46878,-71.86711,-102.1532,143.7982,-46.58535,202408221807196027,
2-2J,C_HumanVertical,2,Q3FrontUp,-4.890223,42.16941,60.92187,-71.9078,-102.1585,143.7982,-46.58534,202408221807196198,
2-2J,C_HumanVertical,2,Q3FrontUp,-4.890223,42.16941,60.92187,-71.9078,-102.1585,143.7982,-46.58534,202408221807196356,
2-2J,C_HumanVertical,2,Q3FrontUp,-4.890223,42.16941,60.92187,-71.9078,-102.1585,143.7982,-46.58534,202408221807196524,
2-2J,C_HumanVertical,2,Q3FrontUp,-5.220627,42.08871,61.34536,-71.94613,-102.1631,143.797,-46.58503,202408221807196779,
2-2J,C_HumanVertical,2,Q3FrontUp,-5.580598,42.02517,61.80991,-71.98732,-102.1676,143.7975,-46.58387,202408221807197036,
2-2J,C_HumanVertical,2,Q3FrontUp,-5.971308,41.95673,62.31151,-72.0421,-102.1729,143.7955,-46.58375,202408221807197218,
2-2J,C_HumanVertical,2,Q3FrontUp,-6.368916,41.89968,62.829,-72.08372,-102.1791,143.7943,-46.58411,202408221807197550,
2-2J,C_HumanVertical,2,Q3FrontUp,-6.368916,41.89968,62.829,-72.08372,-102.1791,143.7943,-46.58411,202408221807197739,
2-2J,C_HumanVertical,2,Q3FrontUp,-6.781546,41.85036,63.34647,-72.14835,-102.183,143.7962,-46.58384,202408221807197894,
2-2J,C_HumanVertical,2,Q3FrontUp,-6.781546,41.85036,63.34647,-72.14835,-102.183,143.7962,-46.58384,202408221807198084,
2-2J,C_HumanVertical,2,Q3FrontUp,-7.21375,41.80252,63.9092,-72.20647,-102.1847,143.7951,-46.58347,202408221807198266,
2-2J,C_HumanVertical,2,Q3FrontUp,-7.21375,41.80252,63.9092,-72.20647,-102.1847,143.7951,-46.58347,202408221807198528,
2-2J,C_HumanVertical,2,Q3FrontUp,-7.66642,41.7535,64.46001,-72.27601,-102.1856,143.7943,-46.5833,202408221807198761,
2-2J,C_HumanVertical,2,Q3FrontUp,-8.143874,41.70567,65.02488,-72.36561,-102.1864,143.7959,-46.58315,202408221807198967,
2-2J,C_HumanVertical,2,Q3FrontUp,-8.143874,41.70567,65.02488,-72.36561,-102.1864,143.7959,-46.58315,202408221807199282,
2-2J,C_HumanVertical,2,Q3FrontUp,-9.016531,41.59994,66.0452,-72.51254,-102.1874,143.7948,-46.58313,202408221807199559,
2-2J,C_HumanVertical,2,Q3FrontUp,-9.506989,41.57297,66.59238,-72.61673,-102.1886,143.7951,-46.58315,202408221807199959,
2-2J,C_HumanVertical,2,Q3FrontUp,-9.967336,41.55952,67.15666,-72.7197,-102.1953,143.7938,-46.58367,202408221807200230,
2-2J,C_HumanVertical,2,Q3FrontUp,-9.967336,41.55952,67.15666,-72.7197,-102.1953,143.7938,-46.58367,202408221807200449,
2-2J,C_HumanVertical,2,Q3FrontUp,-10.43128,41.56199,67.6941,-72.8132,-102.2089,143.7933,-46.58374,202408221807200705,
2-2J,C_HumanVertical,2,Q3FrontUp,-10.91198,41.57263,68.2331,-72.92384,-102.2249,143.7934,-46.58439,202408221807200867,
2-2J,C_HumanVertical,2,Q3FrontUp,-10.91198,41.57263,68.2331,-72.92384,-102.2249,143.7934,-46.58439,202408221807201040,
2-2J,C_HumanVertical,2,Q3FrontUp,-11.41167,41.60248,68.81577,-73.05797,-102.2558,143.7906,-46.58461,202408221807201213,
2-2J,C_HumanVertical,2,Q3FrontUp,-11.41167,41.60248,68.81577,-73.05797,-102.2558,143.7906,-46.58461,202408221807201436,
2-2J,C_HumanVertical,2,Q3FrontUp,-11.89575,41.64671,69.37479,-73.19239,-102.2887,143.7893,-46.58478,202408221807201618,
2-2J,C_HumanVertical,2,Q3FrontUp,-12.36181,41.69108,69.90867,-73.31519,-102.3172,143.7893,-46.58507,202408221807201884,
2-2J,C_HumanVertical,2,Q3FrontUp,-12.36181,41.69108,69.90867,-73.31519,-102.3172,143.7893,-46.58507,202408221807202060,
2-2J,C_HumanVertical,2,Q3FrontUp,-12.85652,41.76921,70.50458,-73.46072,-102.3731,143.7563,-46.5871,202408221807202232,
2-2J,C_HumanVertical,2,Q3FrontUp,-12.85652,41.76921,70.50458,-73.46072,-102.3731,143.7563,-46.5871,202408221807202395,
2-2J,C_HumanVertical,2,Q3FrontUp,-13.35245,41.88698,71.1503,-73.63319,-102.4255,143.7455,-46.59007,202408221807202771,
2-2J,C_HumanVertical,2,Q3FrontUp,-13.89961,42.01007,71.85859,-73.86469,-102.4867,143.7186,-46.5902,202408221807203040,
2-2J,C_HumanVertical,2,Q3FrontUp,-13.89961,42.01007,71.85859,-73.86469,-102.4867,143.7186,-46.5902,202408221807203371,
2-2J,C_HumanVertical,2,Q3FrontUp,-14.89906,42.20177,73.06289,-74.28078,-102.5766,143.694,-46.59092,202408221807203718,
2-2J,C_HumanVertical,2,Q3FrontUp,-14.89906,42.20177,73.06289,-74.28078,-102.5766,143.694,-46.59092,202408221807203925,
2-2J,C_HumanVertical,2,Q3FrontUp,-15.40333,42.30574,73.69814,-74.50655,-102.635,143.6638,-46.59433,202408221807204196,
2-2J,C_HumanVertical,2,Q3FrontUp,-15.94052,42.407,74.40595,-74.7765,-102.7206,143.6426,-46.59731,202408221807204349,
2-2J,C_HumanVertical,2,Q3FrontUp,-16.45646,42.53813,75.08818,-75.04379,-102.8109,143.625,-46.6012,202408221807204600,
2-2J,C_HumanVertical,2,Q3FrontUp,-16.98216,42.65956,75.80205,-75.33994,-102.8982,143.6147,-46.61333,202408221807204902,
2-2J,C_HumanVertical,2,Q3FrontUp,-16.98216,42.65956,75.80205,-75.33994,-102.8982,143.6147,-46.61333,202408221807205111,
2-2J,C_HumanVertical,2,Q3FrontUp,-17.50777,42.75446,76.50581,-75.65851,-102.9703,143.6069,-46.62143,202408221807205396,
2-2J,C_HumanVertical,2,Q3FrontUp,-18.03182,42.84111,77.20085,-75.94182,-103.0272,143.6029,-46.63216,202408221807205711,
2-2J,C_HumanVertical,2,Q3FrontUp,-18.49885,42.89285,77.82858,-76.17817,-103.0579,143.5968,-46.65114,202408221807205873,
2-2J,C_HumanVertical,2,Q3FrontUp,-18.49885,42.89285,77.82858,-76.17817,-103.0579,143.5968,-46.65114,202408221807206104,
2-2J,C_HumanVertical,2,Q3FrontUp,-18.9202,42.93887,78.39824,-76.38448,-103.0852,143.586,-46.67236,202408221807206271,
2-2J,C_HumanVertical,2,Q3FrontUp,-19.30438,42.96578,78.97049,-76.51534,-103.1078,143.5774,-46.69067,202408221807206550,
2-2J,C_HumanVertical,2,Q3FrontUp,-19.30438,42.96578,78.97049,-76.51534,-103.1078,143.5774,-46.69067,202408221807206703,
2-2J,C_HumanVertical,2,Q3FrontUp,-19.30438,42.96578,78.97049,-76.51534,-103.1078,143.5774,-46.69067,202408221807206892,
2-2J,C_HumanVertical,2,Q3FrontUp,-19.66945,42.98999,79.491,-76.60499,-103.1255,143.5706,-46.70856,202408221807207036,
2-2J,C_HumanVertical,2,Q3FrontUp,-20.01133,43.02272,79.98098,-76.67756,-103.1324,143.5656,-46.73483,202408221807207214,
2-2J,C_HumanVertical,2,Q3FrontUp,-20.01133,43.02272,79.98098,-76.67756,-103.1324,143.5656,-46.73483,202408221807207445,
2-2J,C_HumanVertical,2,Q3FrontUp,-20.32973,43.0675,80.4826,-76.74048,-103.1377,143.5598,-46.76409,202408221807207606,
2-2J,C_HumanVertical,2,Q3FrontUp,-20.32973,43.0675,80.4826,-76.74048,-103.1377,143.5598,-46.76409,202408221807207892,
2-2J,C_HumanVertical,2,Q3FrontUp,-21.00344,43.18113,81.47426,-76.85398,-103.1442,143.5536,-46.84359,202408221807208219,
2-2J,C_HumanVertical,2,Q3FrontUp,-21.00344,43.18113,81.47426,-76.85398,-103.1442,143.5536,-46.84359,202408221807208448,
2-2J,C_HumanVertical,2,Q3FrontUp,-21.3458,43.25384,81.99308,-76.88804,-103.1447,143.5503,-46.88942,202408221807208695,
2-2J,C_HumanVertical,2,Q3FrontUp,-21.71069,43.33872,82.52173,-76.95068,-103.1464,143.5372,-46.93738,202408221807208860,
2-2J,C_HumanVertical,2,Q3FrontUp,-21.71069,43.33872,82.52173,-76.95068,-103.1464,143.5372,-46.93738,202408221807209036,
2-2J,C_HumanVertical,2,Q3FrontUp,-21.71069,43.33872,82.52173,-76.95068,-103.1464,143.5372,-46.93738,202408221807209274,
2-2J,C_HumanVertical,2,Q3FrontUp,-22.03537,43.40621,82.97266,-76.99452,-103.1472,143.5325,-46.97621,202408221807209431,
2-2J,C_HumanVertical,2,Q3FrontUp,-22.36981,43.46645,83.41624,-77.03767,-103.1483,143.5306,-47.0158,202408221807209738,
2-2J,C_HumanVertical,2,Q3FrontUp,-22.76149,43.5675,83.94686,-77.10229,-103.1503,143.5282,-47.04636,202408221807210059,
2-2J,C_HumanVertical,2,Q3FrontUp,-23.10977,43.65672,84.41906,-77.16417,-103.1513,143.5272,-47.07235,202408221807210395,
2-2J,C_HumanVertical,2,Q3FrontUp,-23.43199,43.73647,84.88184,-77.20402,-103.1523,143.5279,-47.09642,202408221807210592,
2-2J,C_HumanVertical,2,Q3FrontUp,-23.76191,43.82304,85.34657,-77.24092,-103.1629,143.5278,-47.10983,202408221807210881,
2-2J,C_HumanVertical,2,Q3FrontUp,-24.08502,43.90079,85.76421,-77.27605,-103.1775,143.5283,-47.11893,202408221807211203,
2-2J,C_HumanVertical,2,Q3FrontUp,-24.08502,43.90079,85.76421,-77.27605,-103.1775,143.5283,-47.11893,202408221807211374,
