mpan31415/robot-x-ar/study2/data/raw_all_participants/Participant_2-14_1.csv
ParticipantID,Condition,Trial,PostureID,J1,J2,J3,J4,J5,J6,J7,Timestamp,
2-14,A_Baseline,1,Q1FrontDown,-60.73738,27.81188,90.44579,-34.44244,-108.9007,167.462,-53.13421,202408221333282938,
2-14,A_Baseline,1,Q1FrontDown,-60.73738,27.81188,90.44579,-34.44244,-108.9007,167.462,-53.13421,202408221333283095,
2-14,A_Baseline,1,Q1FrontDown,-60.73719,27.81196,90.44704,-34.44237,-108.9007,167.4623,-53.13427,202408221333283370,
2-14,A_Baseline,1,Q1FrontDown,-60.73719,27.81196,90.44704,-34.44237,-108.9007,167.4623,-53.13427,202408221333283574,
2-14,A_Baseline,1,Q1FrontDown,-60.73709,27.81178,90.44697,-34.44234,-108.9008,167.462,-53.13456,202408221333283751,
2-14,A_Baseline,1,Q1FrontDown,-60.73595,27.81352,90.44366,-34.44224,-108.8861,167.4625,-53.13464,202408221333283941,
2-14,A_Baseline,1,Q1FrontDown,-60.73595,27.81352,90.44366,-34.44224,-108.8861,167.4625,-53.13464,202408221333284257,
2-14,A_Baseline,1,Q1FrontDown,-60.73665,27.81511,90.44229,-34.44218,-108.8691,167.463,-53.13307,202408221333284516,
2-14,A_Baseline,1,Q1FrontDown,-60.75217,27.81548,90.45175,-34.44103,-108.864,167.4638,-53.12961,202408221333284709,
2-14,A_Baseline,1,Q1FrontDown,-60.75217,27.81548,90.45175,-34.44103,-108.864,167.4638,-53.12961,202408221333284878,
2-14,A_Baseline,1,Q1FrontDown,-60.82557,27.8136,90.52615,-34.43862,-108.8629,167.4655,-53.11936,202408221333285074,
2-14,A_Baseline,1,Q1FrontDown,-60.93165,27.81675,90.65224,-34.43703,-108.8627,167.4737,-53.10761,202408221333285424,
2-14,A_Baseline,1,Q1FrontDown,-60.93165,27.81675,90.65224,-34.43703,-108.8627,167.4737,-53.10761,202408221333285684,
2-14,A_Baseline,1,Q1FrontDown,-61.18638,27.80994,90.9099,-34.43637,-108.8629,167.4964,-53.06972,202408221333285857,
2-14,A_Baseline,1,Q1FrontDown,-61.53207,27.80291,91.20818,-34.4223,-108.8631,167.5264,-53.01728,202408221333286076,
2-14,A_Baseline,1,Q1FrontDown,-61.96333,27.78968,91.58971,-34.38178,-108.8627,167.5679,-52.95636,202408221333286339,
2-14,A_Baseline,1,Q1FrontDown,-61.96333,27.78968,91.58971,-34.38178,-108.8627,167.5679,-52.95636,202408221333286516,
2-14,A_Baseline,1,Q1FrontDown,-62.57239,27.73047,92.09209,-34.31207,-108.8627,167.6342,-52.85785,202408221333286679,
2-14,A_Baseline,1,Q1FrontDown,-62.57239,27.73047,92.09209,-34.31207,-108.8627,167.6342,-52.85785,202408221333286842,
2-14,A_Baseline,1,Q1FrontDown,-63.27451,27.66693,92.63889,-34.20591,-108.8626,167.7013,-52.74283,202408221333287170,
2-14,A_Baseline,1,Q1FrontDown,-64.04267,27.56874,93.22708,-34.07349,-108.862,167.7801,-52.62799,202408221333287400,
2-14,A_Baseline,1,Q1FrontDown,-64.95686,27.45365,93.90646,-33.88352,-108.8623,167.8789,-52.47187,202408221333287573,
2-14,A_Baseline,1,Q1FrontDown,-64.95686,27.45365,93.90646,-33.88352,-108.8623,167.8789,-52.47187,202408221333287862,
2-14,A_Baseline,1,Q1FrontDown,-65.8935,27.30548,94.58172,-33.64482,-108.863,167.9914,-52.31477,202408221333288030,
2-14,A_Baseline,1,Q1FrontDown,-65.8935,27.30548,94.58172,-33.64482,-108.863,167.9914,-52.31477,202408221333288188,
2-14,A_Baseline,1,Q1FrontDown,-66.88105,27.14961,95.27553,-33.37823,-108.862,168.1264,-52.15007,202408221333288397,
2-14,A_Baseline,1,Q1FrontDown,-67.87157,26.96332,95.95975,-33.07363,-108.8622,168.2513,-51.97379,202408221333288669,
2-14,A_Baseline,1,Q1FrontDown,-68.81551,26.76354,96.60885,-32.74408,-108.8615,168.3966,-51.80856,202408221333288994,
2-14,A_Baseline,1,Q1FrontDown,-68.81551,26.76354,96.60885,-32.74408,-108.8615,168.3966,-51.80856,202408221333289227,
2-14,A_Baseline,1,Q1FrontDown,-69.72157,26.56825,97.22677,-32.41865,-108.8606,168.5347,-51.63984,202408221333289405,
2-14,A_Baseline,1,Q1FrontDown,-70.55776,26.36988,97.79366,-32.0729,-108.8595,168.6392,-51.49258,202408221333289677,
2-14,A_Baseline,1,Q1FrontDown,-70.55776,26.36988,97.79366,-32.0729,-108.8595,168.6392,-51.49258,202408221333289859,
2-14,A_Baseline,1,Q1FrontDown,-71.04492,26.2606,98.06803,-31.82875,-108.8333,168.678,-51.44712,202408221333290036,
2-14,A_Baseline,1,Q1FrontDown,-71.21275,26.19943,98.14448,-31.59602,-108.8025,168.6717,-51.45134,202408221333290371,
2-14,A_Baseline,1,Q1FrontDown,-71.3375,26.14369,98.25739,-31.46094,-108.7981,168.6709,-51.45417,202408221333290587,
2-14,A_Baseline,1,Q1FrontDown,-71.3375,26.14369,98.25739,-31.46094,-108.7981,168.6709,-51.45417,202408221333290852,
2-14,A_Baseline,1,Q1FrontDown,-71.41579,26.13939,98.37791,-31.46385,-108.7989,168.6572,-51.4568,202408221333291173,
2-14,A_Baseline,1,Q1FrontDown,-71.4315,26.18613,98.46779,-31.58252,-108.8062,168.629,-51.45849,202408221333291330,
2-14,A_Baseline,1,Q1FrontDown,-71.4315,26.18613,98.46779,-31.58252,-108.8062,168.629,-51.45849,202408221333291516,
2-14,A_Baseline,1,Q1FrontDown,-71.43554,26.31539,98.6278,-31.98939,-108.8297,168.5828,-51.46055,202408221333291741,
2-14,A_Baseline,1,Q1FrontDown,-71.50603,26.44536,98.87775,-32.45072,-108.8621,168.5257,-51.46301,202408221333292009,
2-14,A_Baseline,1,Q1FrontDown,-71.50603,26.44536,98.87775,-32.45072,-108.8621,168.5257,-51.46301,202408221333292203,
2-14,A_Baseline,1,Q1FrontDown,-71.65944,26.57225,99.19129,-32.89063,-108.8754,168.492,-51.46434,202408221333292411,
2-14,A_Baseline,1,Q1FrontDown,-71.944,26.7279,99.68936,-33.46133,-108.9171,168.4247,-51.46532,202408221333292720,
2-14,A_Baseline,1,Q1FrontDown,-72.26707,26.87425,100.2391,-34.03339,-108.9635,168.3421,-51.46571,202408221333293050,
2-14,A_Baseline,1,Q1FrontDown,-72.65987,27.03546,100.8613,-34.69764,-109.0382,168.2537,-51.46648,202408221333293336,
2-14,A_Baseline,1,Q1FrontDown,-72.65987,27.03546,100.8613,-34.69764,-109.0382,168.2537,-51.46648,202408221333293499,
2-14,A_Baseline,1,Q1FrontDown,-73.11148,27.22909,101.6033,-35.45805,-109.154,168.1173,-51.46657,202408221333293685,
2-14,A_Baseline,1,Q1FrontDown,-73.62586,27.4346,102.4033,-36.23421,-109.3061,167.959,-51.46709,202408221333293913,
2-14,A_Baseline,1,Q1FrontDown,-73.62586,27.4346,102.4033,-36.23421,-109.3061,167.959,-51.46709,202408221333294060,
2-14,A_Baseline,1,Q1FrontDown,-74.15318,27.63931,103.2273,-37.04624,-109.4786,167.7958,-51.4674,202408221333294338,
2-14,A_Baseline,1,Q1FrontDown,-74.15318,27.63931,103.2273,-37.04624,-109.4786,167.7958,-51.4674,202408221333294542,
2-14,A_Baseline,1,Q1FrontDown,-74.77736,27.88361,104.1778,-37.97382,-109.7009,167.5973,-51.46769,202408221333294688,
2-14,A_Baseline,1,Q1FrontDown,-74.77736,27.88361,104.1778,-37.97382,-109.7009,167.5973,-51.46769,202408221333294886,
2-14,A_Baseline,1,Q1FrontDown,-75.40623,28.14925,105.1159,-38.86258,-109.9233,167.4005,-51.4673,202408221333295056,
2-14,A_Baseline,1,Q1FrontDown,-75.40623,28.14925,105.1159,-38.86258,-109.9233,167.4005,-51.4673,202408221333295223,
2-14,A_Baseline,1,Q1FrontDown,-76.04044,28.41206,106.0661,-39.80909,-110.1386,167.2269,-51.46754,202408221333295534,
2-14,A_Baseline,1,Q1FrontDown,-76.70039,28.68981,107.0224,-40.74891,-110.395,167.0166,-51.46783,202408221333295723,
2-14,A_Baseline,1,Q1FrontDown,-77.34955,28.95237,107.9885,-41.65002,-110.667,166.8172,-51.46806,202408221333296026,
2-14,A_Baseline,1,Q1FrontDown,-77.34955,28.95237,107.9885,-41.65002,-110.667,166.8172,-51.46806,202408221333296222,
2-14,A_Baseline,1,Q1FrontDown,-77.98715,29.2275,108.9202,-42.56178,-110.934,166.6038,-51.46763,202408221333296505,
2-14,A_Baseline,1,Q1FrontDown,-78.61248,29.48023,109.8003,-43.40325,-111.159,166.4036,-51.4677,202408221333296677,
2-14,A_Baseline,1,Q1FrontDown,-78.61248,29.48023,109.8003,-43.40325,-111.159,166.4036,-51.4677,202408221333296833,
2-14,A_Baseline,1,Q1FrontDown,-79.16295,29.70394,110.6147,-44.19487,-111.3691,166.2388,-51.46808,202408221333297005,
2-14,A_Baseline,1,Q1FrontDown,-79.16295,29.70394,110.6147,-44.19487,-111.3691,166.2388,-51.46808,202408221333297207,
2-14,A_Baseline,1,Q1FrontDown,-79.69595,29.9411,111.3566,-44.9151,-111.5767,166.0923,-51.46758,202408221333297416,
2-14,A_Baseline,1,Q1FrontDown,-80.17291,30.1073,112.0305,-45.54834,-111.7865,165.9634,-51.46768,202408221333297729,
2-14,A_Baseline,1,Q1FrontDown,-80.17291,30.1073,112.0305,-45.54834,-111.7865,165.9634,-51.46768,202408221333297887,
2-14,A_Baseline,1,Q1FrontDown,-80.38065,30.19566,112.348,-45.91945,-111.8604,165.9126,-51.46854,202408221333298107,
2-14,A_Baseline,1,Q1FrontDown,-80.34618,30.17698,112.343,-45.91734,-111.856,165.9115,-51.4693,202408221333298352,
2-14,A_Baseline,1,Q1FrontDown,-80.34618,30.17698,112.343,-45.91734,-111.856,165.9115,-51.4693,202408221333298577,
2-14,A_Baseline,1,Q1FrontDown,-80.31136,30.16768,112.3403,-45.9099,-111.8533,165.9107,-51.46965,202408221333298830,
2-14,A_Baseline,1,Q1FrontDown,-80.26394,30.15274,112.3276,-45.9091,-111.853,165.9114,-51.4702,202408221333299044,
2-14,A_Baseline,1,Q1FrontDown,-80.19752,30.15068,112.2848,-45.92008,-111.853,165.9106,-51.47078,202408221333299353,
2-14,A_Baseline,1,Q1FrontDown,-80.19752,30.15068,112.2848,-45.92008,-111.853,165.9106,-51.47078,202408221333299587,
2-14,A_Baseline,1,Q1FrontDown,-80.13533,30.15062,112.2253,-45.92851,-111.853,165.9106,-51.47079,202408221333299869,
2-14,A_Baseline,1,Q1FrontDown,-80.0871,30.14239,112.1623,-45.92773,-111.8528,165.9112,-51.47118,202408221333300016,
2-14,A_Baseline,1,Q1FrontDown,-80.0871,30.14239,112.1623,-45.92773,-111.8528,165.9112,-51.47118,202408221333300204,
2-14,A_Baseline,1,Q1FrontDown,-80.04087,30.13234,112.0942,-45.92845,-111.8527,165.911,-51.47143,202408221333300577,
2-14,A_Baseline,1,Q1FrontDown,-79.98044,30.11981,112.0067,-45.92692,-111.8527,165.9106,-51.4712,202408221333300859,
2-14,A_Baseline,1,Q1FrontDown,-79.91716,30.10435,111.9058,-45.9249,-111.8527,165.9112,-51.47187,202408221333301174,
2-14,A_Baseline,1,Q1FrontDown,-79.84206,30.08877,111.8044,-45.9257,-111.8526,165.9107,-51.47194,202408221333301340,
2-14,A_Baseline,1,Q1FrontDown,-79.84206,30.08877,111.8044,-45.9257,-111.8526,165.9107,-51.47194,202408221333301676,
2-14,A_Baseline,1,Q1FrontDown,-79.57555,30.04647,111.509,-45.92472,-111.8527,165.911,-51.47198,202408221333301919,
2-14,A_Baseline,1,Q1FrontDown,-79.57555,30.04647,111.509,-45.92472,-111.8527,165.911,-51.47198,202408221333302184,
2-14,A_Baseline,1,Q1FrontDown,-79.40525,30.01546,111.3189,-45.92577,-111.8525,165.9107,-51.47212,202408221333302343,
2-14,A_Baseline,1,Q1FrontDown,-79.40525,30.01546,111.3189,-45.92577,-111.8525,165.9107,-51.47212,202408221333302533,
2-14,A_Baseline,1,Q1FrontDown,-79.21088,29.96928,111.0877,-45.92596,-111.8526,165.9101,-51.47223,202408221333302719,
2-14,A_Baseline,1,Q1FrontDown,-79.21088,29.96928,111.0877,-45.92596,-111.8526,165.9101,-51.47223,202408221333302898,
2-14,A_Baseline,1,Q1FrontDown,-78.9956,29.93277,110.867,-45.92483,-111.8526,165.9107,-51.47231,202408221333303185,
2-14,A_Baseline,1,Q1FrontDown,-78.74142,29.90102,110.6165,-45.92585,-111.8525,165.9106,-51.47265,202408221333303390,
2-14,A_Baseline,1,Q1FrontDown,-78.74142,29.90102,110.6165,-45.92585,-111.8525,165.9106,-51.47265,202408221333303566,
2-14,A_Baseline,1,Q1FrontDown,-78.47826,29.84945,110.3235,-45.92722,-111.8526,165.9097,-51.47262,202408221333303732,
2-14,A_Baseline,1,Q1FrontDown,-78.19228,29.78522,110.0132,-45.92826,-111.8526,165.9099,-51.47294,202408221333303932,
2-14,A_Baseline,1,Q1FrontDown,-78.19228,29.78522,110.0132,-45.92826,-111.8526,165.9099,-51.47294,202408221333304105,
2-14,A_Baseline,1,Q1FrontDown,-77.85976,29.71405,109.6649,-45.93055,-111.8525,165.9107,-51.4727,202408221333304276,
2-14,A_Baseline,1,Q1FrontDown,-77.85976,29.71405,109.6649,-45.93055,-111.8525,165.9107,-51.4727,202408221333304613,
2-14,A_Baseline,1,Q1FrontDown,-77.49931,29.63249,109.2881,-45.93064,-111.8526,165.9091,-51.47296,202408221333304903,
2-14,A_Baseline,1,Q1FrontDown,-77.11957,29.54905,108.886,-45.92834,-111.8524,165.9103,-51.47324,202408221333305073,
2-14,A_Baseline,1,Q1FrontDown,-77.11957,29.54905,108.886,-45.92834,-111.8524,165.9103,-51.47324,202408221333305262,
2-14,A_Baseline,1,Q1FrontDown,-76.75732,29.44685,108.4909,-45.93191,-111.8525,165.9099,-51.47352,202408221333305516,
2-14,A_Baseline,1,Q1FrontDown,-76.30049,29.31918,108.0004,-45.93653,-111.8528,165.9083,-51.47327,202408221333305684,
2-14,A_Baseline,1,Q1FrontDown,-76.30049,29.31918,108.0004,-45.93653,-111.8528,165.9083,-51.47327,202408221333305860,
2-14,A_Baseline,1,Q1FrontDown,-75.84706,29.19257,107.5247,-45.9457,-111.8525,165.9103,-51.47406,202408221333306206,
2-14,A_Baseline,1,Q1FrontDown,-75.37045,29.05396,107.0295,-45.95921,-111.8525,165.9097,-51.47401,202408221333306512,
2-14,A_Baseline,1,Q1FrontDown,-74.83606,28.90785,106.4852,-45.97075,-111.8525,165.9073,-51.47435,202408221333306690,
2-14,A_Baseline,1,Q1FrontDown,-74.83606,28.90785,106.4852,-45.97075,-111.8525,165.9073,-51.47435,202408221333306935,
2-14,A_Baseline,1,Q1FrontDown,-73.76371,28.57537,105.3657,-46.00701,-111.8526,165.9096,-51.47464,202408221333307266,
2-14,A_Baseline,1,Q1FrontDown,-73.76371,28.57537,105.3657,-46.00701,-111.8526,165.9096,-51.47464,202408221333307417,
2-14,A_Baseline,1,Q1FrontDown,-73.76371,28.57537,105.3657,-46.00701,-111.8526,165.9096,-51.47464,202408221333307729,
2-14,A_Baseline,1,Q1FrontDown,-72.49363,28.17731,104.0669,-46.0572,-111.8531,165.9083,-51.47524,202408221333308015,
2-14,A_Baseline,1,Q1FrontDown,-72.49363,28.17731,104.0669,-46.0572,-111.8531,165.9083,-51.47524,202408221333308216,
2-14,A_Baseline,1,Q1FrontDown,-71.84899,27.95158,103.4181,-46.09304,-111.8531,165.9081,-51.4754,202408221333308397,
2-14,A_Baseline,1,Q1FrontDown,-71.16747,27.72838,102.7105,-46.1218,-111.8531,165.9064,-51.47533,202408221333308669,
2-14,A_Baseline,1,Q1FrontDown,-71.16747,27.72838,102.7105,-46.1218,-111.8531,165.9064,-51.47533,202408221333308846,
2-14,A_Baseline,1,Q1FrontDown,-71.16747,27.72838,102.7105,-46.1218,-111.8531,165.9064,-51.47533,202408221333309014,
2-14,A_Baseline,1,Q1FrontDown,-70.45728,27.48727,101.9987,-46.1605,-111.8531,165.9081,-51.47578,202408221333309186,
2-14,A_Baseline,1,Q1FrontDown,-69.71976,27.24141,101.2542,-46.21358,-111.8534,165.9055,-51.47669,202408221333309346,
2-14,A_Baseline,1,Q1FrontDown,-69.71976,27.24141,101.2542,-46.21358,-111.8534,165.9055,-51.47669,202408221333309575,
2-14,A_Baseline,1,Q1FrontDown,-68.95203,26.97064,100.4744,-46.25003,-111.8539,165.9022,-51.47668,202408221333309866,
2-14,A_Baseline,1,Q1FrontDown,-68.15405,26.69613,99.6786,-46.29816,-111.8537,165.9001,-51.47774,202408221333310073,
2-14,A_Baseline,1,Q1FrontDown,-67.32879,26.40198,98.86279,-46.3442,-111.854,165.8974,-51.4782,202408221333310373,
2-14,A_Baseline,1,Q1FrontDown,-66.48611,26.11182,98.00103,-46.38059,-111.8538,165.8915,-51.47812,202408221333310584,
2-14,A_Baseline,1,Q1FrontDown,-66.48611,26.11182,98.00103,-46.38059,-111.8538,165.8915,-51.47812,202408221333310849,
2-14,A_Baseline,1,Q1FrontDown,-65.6015,25.79486,97.13824,-46.42465,-111.8542,165.8862,-51.47844,202408221333311032,
2-14,A_Baseline,1,Q1FrontDown,-64.70811,25.48005,96.23268,-46.46512,-111.8538,165.8787,-51.47883,202408221333311350,
2-14,A_Baseline,1,Q1FrontDown,-64.70811,25.48005,96.23268,-46.46512,-111.8538,165.8787,-51.47883,202408221333311540,
2-14,A_Baseline,1,Q1FrontDown,-63.76712,25.14502,95.30164,-46.50513,-111.8537,165.8716,-51.47927,202408221333311788,
2-14,A_Baseline,1,Q1FrontDown,-62.81588,24.79557,94.36221,-46.54064,-111.8545,165.8645,-51.48063,202408221333312027,
2-14,A_Baseline,1,Q1FrontDown,-62.81588,24.79557,94.36221,-46.54064,-111.8545,165.8645,-51.48063,202408221333312209,
2-14,A_Baseline,1,Q1FrontDown,-61.87607,24.4638,93.42033,-46.59784,-111.8546,165.8481,-51.48132,202408221333312539,
2-14,A_Baseline,1,Q1FrontDown,-60.83975,24.09767,92.38244,-46.65047,-111.8548,165.8352,-51.4821,202408221333312715,
2-14,A_Baseline,1,Q1FrontDown,-60.83975,24.09767,92.38244,-46.65047,-111.8548,165.8352,-51.4821,202408221333312929,
2-14,A_Baseline,1,Q1FrontDown,-58.7726,23.3377,90.32282,-46.79163,-111.8548,165.801,-51.48293,202408221333313206,
2-14,A_Baseline,1,Q1FrontDown,-58.7726,23.3377,90.32282,-46.79163,-111.8548,165.801,-51.48293,202408221333313409,
2-14,A_Baseline,1,Q1FrontDown,-57.69738,22.94772,89.23532,-46.87224,-111.8554,165.7829,-51.48454,202408221333313698,
2-14,A_Baseline,1,Q1FrontDown,-57.69738,22.94772,89.23532,-46.87224,-111.8554,165.7829,-51.48454,202408221333313864,
2-14,A_Baseline,1,Q1FrontDown,-56.60266,22.54648,88.15685,-46.97102,-111.8561,165.7603,-51.48537,202408221333314093,
2-14,A_Baseline,1,Q1FrontDown,-55.51947,22.14971,87.0798,-47.08044,-111.8551,165.7304,-51.4856,202408221333314333,
2-14,A_Baseline,1,Q1FrontDown,-55.51947,22.14971,87.0798,-47.08044,-111.8551,165.7304,-51.4856,202408221333314496,
2-14,A_Baseline,1,Q1FrontDown,-54.3434,21.72464,85.89226,-47.18031,-111.8553,165.7039,-51.48586,202408221333314660,
2-14,A_Baseline,1,Q1FrontDown,-54.3434,21.72464,85.89226,-47.18031,-111.8553,165.7039,-51.48586,202408221333314840,
2-14,A_Baseline,1,Q1FrontDown,-53.16261,21.30571,84.73591,-47.28615,-111.856,165.6688,-51.48605,202408221333315101,
2-14,A_Baseline,1,Q1FrontDown,-51.97413,20.86249,83.5656,-47.39694,-111.8569,165.6275,-51.48699,202408221333315356,
2-14,A_Baseline,1,Q1FrontDown,-50.74945,20.43161,82.35236,-47.50892,-111.8567,165.5939,-51.487,202408221333315686,
2-14,A_Baseline,1,Q1FrontDown,-50.74945,20.43161,82.35236,-47.50892,-111.8567,165.5939,-51.487,202408221333315846,
2-14,A_Baseline,1,Q1FrontDown,-49.53044,19.98565,81.13722,-47.62463,-111.8558,165.5468,-51.48743,202408221333316178,
2-14,A_Baseline,1,Q1FrontDown,-49.53044,19.98565,81.13722,-47.62463,-111.8558,165.5468,-51.48743,202408221333316384,
2-14,A_Baseline,1,Q1FrontDown,-48.32434,19.54339,79.94716,-47.75255,-111.8564,165.4932,-51.48771,202408221333316530,
2-14,A_Baseline,1,Q1FrontDown,-46.99964,19.06854,78.63579,-47.86325,-111.8572,165.4483,-51.4881,202408221333316831,
2-14,A_Baseline,1,Q1FrontDown,-45.70438,18.59491,77.36675,-47.96629,-111.8582,165.4057,-51.48869,202408221333316998,
2-14,A_Baseline,1,Q1FrontDown,-45.70438,18.59491,77.36675,-47.96629,-111.8582,165.4057,-51.48869,202408221333317172,
2-14,A_Baseline,1,Q1FrontDown,-44.37556,18.12962,76.0805,-48.0751,-111.8589,165.3633,-51.48877,202408221333317368,
2-14,A_Baseline,1,Q1FrontDown,-44.37556,18.12962,76.0805,-48.0751,-111.8589,165.3633,-51.48877,202408221333317570,
2-14,A_Baseline,1,Q1FrontDown,-41.68512,17.1572,73.43215,-48.27102,-111.8594,165.2835,-51.48987,202408221333317905,
2-14,A_Baseline,1,Q1FrontDown,-41.68512,17.1572,73.43215,-48.27102,-111.8594,165.2835,-51.48987,202408221333318067,
2-14,A_Baseline,1,Q1FrontDown,-40.36796,16.68299,72.13445,-48.38494,-111.8585,165.2369,-51.48998,202408221333318500,
2-14,A_Baseline,1,Q1FrontDown,-38.95442,16.15701,70.71448,-48.50356,-111.8595,165.2033,-51.49068,202408221333318788,
2-14,A_Baseline,1,Q1FrontDown,-38.95442,16.15701,70.71448,-48.50356,-111.8595,165.2033,-51.49068,202408221333319085,
2-14,A_Baseline,1,Q1FrontDown,-36.14964,15.12738,67.95702,-48.76353,-111.8711,165.1251,-51.49152,202408221333319348,
2-14,A_Baseline,1,Q1FrontDown,-36.14964,15.12738,67.95702,-48.76353,-111.8711,165.1251,-51.49152,202408221333319788,
2-14,A_Baseline,1,Q1FrontDown,-33.26972,14.07468,65.1228,-49.01676,-111.8781,165.0633,-51.49222,202408221333320033,
2-14,A_Baseline,1,Q1FrontDown,-33.26972,14.07468,65.1228,-49.01676,-111.8781,165.0633,-51.49222,202408221333320366,
2-14,A_Baseline,1,Q1FrontDown,-30.33729,13.00549,62.23994,-49.29088,-111.8831,164.9957,-51.49354,202408221333320573,
2-14,A_Baseline,1,Q1FrontDown,-30.33729,13.00549,62.23994,-49.29088,-111.8831,164.9957,-51.49354,202408221333320863,
2-14,A_Baseline,1,Q1FrontDown,-28.85037,12.46357,60.78828,-49.41955,-111.8879,164.9609,-51.49477,202408221333321201,
2-14,A_Baseline,1,Q1FrontDown,-27.34571,11.92354,59.33241,-49.53505,-111.8937,164.9195,-51.49538,202408221333321531,
2-14,A_Baseline,1,Q1FrontDown,-25.81803,11.37804,57.83554,-49.64124,-111.8995,164.8803,-51.49632,202408221333321699,
2-14,A_Baseline,1,Q1FrontDown,-25.81803,11.37804,57.83554,-49.64124,-111.8995,164.8803,-51.49632,202408221333321914,
2-14,A_Baseline,1,Q1FrontDown,-24.30341,10.83689,56.35844,-49.75962,-111.9027,164.8327,-51.49728,202408221333322066,
2-14,A_Baseline,1,Q1FrontDown,-22.82771,10.28491,54.91028,-49.87573,-111.9067,164.7829,-51.49829,202408221333322377,
2-14,A_Baseline,1,Q1FrontDown,-21.24654,9.685711,53.34058,-50.01205,-111.912,164.7327,-51.49901,202408221333322733,
2-14,A_Baseline,1,Q1FrontDown,-19.65673,9.100868,51.78023,-50.15485,-111.918,164.681,-51.4999,202408221333323050,
2-14,A_Baseline,1,Q1FrontDown,-19.65673,9.100868,51.78023,-50.15485,-111.918,164.681,-51.4999,202408221333323207,
2-14,A_Baseline,1,Q1FrontDown,-18.19478,8.555933,50.35759,-50.26924,-111.9235,164.629,-51.50016,202408221333323535,
2-14,A_Baseline,1,Q1FrontDown,-16.56403,7.959431,48.76032,-50.40062,-111.93,164.5685,-51.50076,202408221333323705,
2-14,A_Baseline,1,Q1FrontDown,-14.99394,7.379177,47.23236,-50.53625,-111.9357,164.5071,-51.50096,202408221333324041,
2-14,A_Baseline,1,Q1FrontDown,-13.45749,6.807899,45.73269,-50.66879,-111.9428,164.4477,-51.50097,202408221333324369,
2-14,A_Baseline,1,Q1FrontDown,-13.45749,6.807899,45.73269,-50.66879,-111.9428,164.4477,-51.50097,202408221333324527,
2-14,A_Baseline,1,Q1FrontDown,-11.81141,6.203452,44.12048,-50.81193,-111.954,164.3814,-51.50183,202408221333324696,
2-14,A_Baseline,1,Q1FrontDown,-11.81141,6.203452,44.12048,-50.81193,-111.954,164.3814,-51.50183,202408221333324886,
2-14,A_Baseline,1,Q1FrontDown,-10.21651,5.613899,42.57087,-50.92978,-111.9657,164.3278,-51.50233,202408221333325043,
2-14,A_Baseline,1,Q1FrontDown,-10.21651,5.613899,42.57087,-50.92978,-111.9657,164.3278,-51.50233,202408221333325198,
2-14,A_Baseline,1,Q1FrontDown,-8.610034,5.030938,41.0218,-51.03773,-111.9771,164.2822,-51.50251,202408221333325388,
2-14,A_Baseline,1,Q1FrontDown,-6.992754,4.445709,39.44061,-51.13815,-111.9909,164.2283,-51.50291,202408221333325589,
2-14,A_Baseline,1,Q1FrontDown,-6.992754,4.445709,39.44061,-51.13815,-111.9909,164.2283,-51.50291,202408221333325908,
2-14,A_Baseline,1,Q1FrontDown,-5.39491,3.859257,37.87983,-51.24345,-112.002,164.1762,-51.50293,202408221333326197,
2-14,A_Baseline,1,Q1FrontDown,-3.787503,3.259134,36.30109,-51.35968,-112.0137,164.1245,-51.50262,202408221333326518,
2-14,A_Baseline,1,Q1FrontDown,-2.166053,2.63458,34.70782,-51.4899,-112.0266,164.0722,-51.50314,202408221333326723,
2-14,A_Baseline,1,Q1FrontDown,-2.166053,2.63458,34.70782,-51.4899,-112.0266,164.0722,-51.50314,202408221333327031,
2-14,A_Baseline,1,Q1FrontDown,-0.5664051,2.02544,33.13242,-51.61983,-112.0392,164.0267,-51.5033,202408221333327187,
2-14,A_Baseline,1,Q1FrontDown,1.060228,1.40923,31.56226,-51.73707,-112.0565,163.992,-51.5038,202408221333327357,
2-14,A_Baseline,1,Q1FrontDown,1.060228,1.40923,31.56226,-51.73707,-112.0565,163.992,-51.5038,202408221333327553,
2-14,A_Baseline,1,Q1FrontDown,2.689062,0.7998391,29.96802,-51.8501,-112.0711,163.9518,-51.50425,202408221333327732,
2-14,A_Baseline,1,Q1FrontDown,2.689062,0.7998391,29.96802,-51.8501,-112.0711,163.9518,-51.50425,202408221333327898,
2-14,A_Baseline,1,Q1FrontDown,4.302018,0.1995463,28.39342,-51.96269,-112.0843,163.915,-51.50412,202408221333328232,
2-14,A_Baseline,1,Q1FrontDown,5.873854,-0.413085,26.86938,-52.08209,-112.1015,163.877,-51.50473,202408221333328529,
2-14,A_Baseline,1,Q1FrontDown,7.554343,-1.052383,25.22343,-52.21803,-112.1174,163.8344,-51.50443,202408221333328810,
2-14,A_Baseline,1,Q1FrontDown,9.164467,-1.670376,23.65069,-52.33567,-112.1339,163.7982,-51.50477,202408221333329021,
2-14,A_Baseline,1,Q1FrontDown,10.78894,-2.286101,22.08854,-52.43433,-112.1533,163.7571,-51.50527,202408221333329328,
2-14,A_Baseline,1,Q1FrontDown,10.78894,-2.286101,22.08854,-52.43433,-112.1533,163.7571,-51.50527,202408221333329509,
2-14,A_Baseline,1,Q1FrontDown,12.27601,-2.828126,20.64251,-52.51633,-112.1701,163.7135,-51.50564,202408221333329687,
2-14,A_Baseline,1,Q1FrontDown,14.01853,-3.493877,18.93888,-52.60392,-112.1883,163.6532,-51.50623,202408221333330030,
2-14,A_Baseline,1,Q1FrontDown,14.01853,-3.493877,18.93888,-52.60392,-112.1883,163.6532,-51.50623,202408221333330197,
2-14,A_Baseline,1,Q1FrontDown,15.57496,-4.089174,17.42627,-52.68982,-112.2062,163.6018,-51.50662,202408221333330532,
2-14,A_Baseline,1,Q1FrontDown,17.22838,-4.735116,15.79625,-52.79169,-112.2191,163.545,-51.50662,202408221333330854,
2-14,A_Baseline,1,Q1FrontDown,18.81299,-5.356992,14.2312,-52.89817,-112.2345,163.4857,-51.50777,202408221333331167,
2-14,A_Baseline,1,Q1FrontDown,20.40658,-5.992144,12.6747,-53.01688,-112.2483,163.4196,-51.50833,202408221333331332,
2-14,A_Baseline,1,Q1FrontDown,20.40658,-5.992144,12.6747,-53.01688,-112.2483,163.4196,-51.50833,202408221333331516,
2-14,A_Baseline,1,Q1FrontDown,20.40658,-5.992144,12.6747,-53.01688,-112.2483,163.4196,-51.50833,202408221333331685,
2-14,A_Baseline,1,Q1FrontDown,22.00067,-6.619701,11.11466,-53.13058,-112.2632,163.3491,-51.50923,202408221333331849,
2-14,A_Baseline,1,Q1FrontDown,23.56908,-7.230157,9.56809,-53.2202,-112.2788,163.281,-51.51069,202408221333332016,
2-14,A_Baseline,1,Q1FrontDown,23.56908,-7.230157,9.56809,-53.2202,-112.2788,163.281,-51.51069,202408221333332198,
2-14,A_Baseline,1,Q1FrontDown,25.10318,-7.846177,8.078045,-53.30328,-112.2944,163.2163,-51.51209,202408221333332344,
2-14,A_Baseline,1,Q1FrontDown,25.10318,-7.846177,8.078045,-53.30328,-112.2944,163.2163,-51.51209,202408221333332543,
2-14,A_Baseline,1,Q1FrontDown,26.71862,-8.475711,6.484976,-53.40096,-112.3123,163.1542,-51.51328,202408221333332864,
2-14,A_Baseline,1,Q1FrontDown,28.26075,-9.098831,4.958448,-53.49649,-112.3299,163.1003,-51.51414,202408221333333198,
2-14,A_Baseline,1,Q1FrontDown,29.75685,-9.706257,3.495484,-53.59597,-112.3462,163.0519,-51.51537,202408221333333350,
2-14,A_Baseline,1,Q1FrontDown,31.34706,-10.3326,1.937299,-53.70298,-112.3651,162.9928,-51.51694,202408221333333661,
2-14,A_Baseline,1,Q1FrontDown,31.34706,-10.3326,1.937299,-53.70298,-112.3651,162.9928,-51.51694,202408221333333839,
2-14,A_Baseline,1,Q1FrontDown,32.9007,-10.96516,0.3979394,-53.79806,-112.3861,162.9418,-51.51833,202408221333333988,
2-14,A_Baseline,1,Q1FrontDown,32.9007,-10.96516,0.3979394,-53.79806,-112.3861,162.9418,-51.51833,202408221333334172,
2-14,A_Baseline,1,Q1FrontDown,34.37491,-11.55548,-1.042476,-53.87959,-112.4127,162.8972,-51.51997,202408221333334338,
2-14,A_Baseline,1,Q1FrontDown,34.37491,-11.55548,-1.042476,-53.87959,-112.4127,162.8972,-51.51997,202408221333334518,
2-14,A_Baseline,1,Q1FrontDown,35.87476,-12.15008,-2.527495,-53.94797,-112.4423,162.8511,-51.52134,202408221333334710,
2-14,A_Baseline,1,Q1FrontDown,37.34962,-12.73826,-3.995721,-54.0059,-112.4748,162.8026,-51.52239,202408221333335032,
2-14,A_Baseline,1,Q1FrontDown,38.77634,-13.30657,-5.410313,-54.0603,-112.5094,162.7599,-51.52355,202408221333335229,
2-14,A_Baseline,1,Q1FrontDown,38.77634,-13.30657,-5.410313,-54.0603,-112.5094,162.7599,-51.52355,202408221333335509,
2-14,A_Baseline,1,Q1FrontDown,40.29173,-13.90793,-6.903131,-54.11958,-112.5483,162.7059,-51.52449,202408221333335698,
2-14,A_Baseline,1,Q1FrontDown,41.71912,-14.4886,-8.337576,-54.18354,-112.5896,162.6472,-51.52509,202408221333336015,
2-14,A_Baseline,1,Q1FrontDown,41.71912,-14.4886,-8.337576,-54.18354,-112.5896,162.6472,-51.52509,202408221333336322,
2-14,A_Baseline,1,Q1FrontDown,43.15472,-15.08975,-9.758022,-54.26122,-112.6314,162.5887,-51.52605,202408221333336505,
2-14,A_Baseline,1,Q1FrontDown,44.57159,-15.66696,-11.16518,-54.3535,-112.6772,162.5356,-51.52675,202408221333336670,
2-14,A_Baseline,1,Q1FrontDown,44.57159,-15.66696,-11.16518,-54.3535,-112.6772,162.5356,-51.52675,202408221333336835,
2-14,A_Baseline,1,Q1FrontDown,44.57159,-15.66696,-11.16518,-54.3535,-112.6772,162.5356,-51.52675,202408221333337018,
2-14,A_Baseline,1,Q1FrontDown,45.95539,-16.24177,-12.55783,-54.44354,-112.727,162.4804,-51.52769,202408221333337184,
2-14,A_Baseline,1,Q1FrontDown,47.33578,-16.83548,-13.93574,-54.53931,-112.7798,162.4315,-51.52807,202408221333337368,
2-14,A_Baseline,1,Q1FrontDown,48.70021,-17.39319,-15.29908,-54.62893,-112.8425,162.3777,-51.52848,202408221333337700,
2-14,A_Baseline,1,Q1FrontDown,50.03428,-17.94389,-16.64941,-54.69632,-112.9095,162.3184,-51.52968,202408221333338030,
2-14,A_Baseline,1,Q1FrontDown,51.36395,-18.49697,-17.98655,-54.77068,-112.9684,162.2515,-51.52999,202408221333338342,
2-14,A_Baseline,1,Q1FrontDown,52.67592,-19.02353,-19.30406,-54.85079,-113.0275,162.1793,-51.53066,202408221333338672,
2-14,A_Baseline,1,Q1FrontDown,52.67592,-19.02353,-19.30406,-54.85079,-113.0275,162.1793,-51.53066,202408221333338843,
2-14,A_Baseline,1,Q1FrontDown,53.93621,-19.55235,-20.61259,-54.92369,-113.092,162.1077,-51.53148,202408221333339006,
2-14,A_Baseline,1,Q1FrontDown,53.93621,-19.55235,-20.61259,-54.92369,-113.092,162.1077,-51.53148,202408221333339173,
2-14,A_Baseline,1,Q1FrontDown,55.17429,-20.06845,-21.86336,-55.00528,-113.1455,162.0555,-51.53298,202408221333339344,
2-14,A_Baseline,1,Q1FrontDown,55.17429,-20.06845,-21.86336,-55.00528,-113.1455,162.0555,-51.53298,202408221333339522,
2-14,A_Baseline,1,Q1FrontDown,56.46339,-20.59106,-23.16401,-55.10036,-113.198,162.0039,-51.5343,202408221333339695,
2-14,A_Baseline,1,Q1FrontDown,56.46339,-20.59106,-23.16401,-55.10036,-113.198,162.0039,-51.5343,202408221333339869,
2-14,A_Baseline,1,Q1FrontDown,57.67316,-21.1027,-24.40533,-55.18504,-113.2389,161.9422,-51.53543,202408221333340212,
2-14,A_Baseline,1,Q1FrontDown,58.85931,-21.59474,-25.60089,-55.27196,-113.271,161.8946,-51.53657,202408221333340375,
2-14,A_Baseline,1,Q1FrontDown,60.0781,-22.0815,-26.8462,-55.35436,-113.2998,161.8451,-51.53771,202408221333340676,
2-14,A_Baseline,1,Q1FrontDown,60.0781,-22.0815,-26.8462,-55.35436,-113.2998,161.8451,-51.53771,202408221333340855,
2-14,A_Baseline,1,Q1FrontDown,61.22875,-22.54247,-28.0407,-55.4122,-113.3264,161.7915,-51.5396,202408221333341164,
2-14,A_Baseline,1,Q1FrontDown,62.34229,-22.98792,-29.1816,-55.47009,-113.3434,161.7541,-51.54138,202408221333341330,
2-14,A_Baseline,1,Q1FrontDown,62.34229,-22.98792,-29.1816,-55.47009,-113.3434,161.7541,-51.54138,202408221333341507,
2-14,A_Baseline,1,Q1FrontDown,63.49661,-23.44109,-30.34882,-55.53666,-113.36,161.7182,-51.54269,202408221333341675,
2-14,A_Baseline,1,Q1FrontDown,63.49661,-23.44109,-30.34882,-55.53666,-113.36,161.7182,-51.54269,202408221333341843,
2-14,A_Baseline,1,Q1FrontDown,64.4925,-23.84276,-31.37702,-55.58218,-113.3705,161.6803,-51.54464,202408221333342158,
2-14,A_Baseline,1,Q1FrontDown,65.66445,-24.3222,-32.57868,-55.65553,-113.3872,161.6373,-51.5486,202408221333342359,
2-14,A_Baseline,1,Q1FrontDown,65.66445,-24.3222,-32.57868,-55.65553,-113.3872,161.6373,-51.5486,202408221333342511,
2-14,A_Baseline,1,Q1FrontDown,66.72069,-24.73439,-33.64418,-55.73189,-113.402,161.6029,-51.55139,202408221333342698,
2-14,A_Baseline,1,Q1FrontDown,67.74566,-25.14876,-34.68507,-55.80051,-113.4122,161.5692,-51.55288,202408221333343042,
2-14,A_Baseline,1,Q1FrontDown,68.73881,-25.56593,-35.72066,-55.88915,-113.4263,161.5276,-51.55416,202408221333343346,
2-14,A_Baseline,1,Q1FrontDown,69.72062,-25.95859,-36.71465,-55.98352,-113.4384,161.4913,-51.55501,202408221333343684,
2-14,A_Baseline,1,Q1FrontDown,69.72062,-25.95859,-36.71465,-55.98352,-113.4384,161.4913,-51.55501,202408221333343834,
2-14,A_Baseline,1,Q1FrontDown,70.67493,-26.33871,-37.67897,-56.06934,-113.4497,161.4466,-51.55554,202408221333344004,
2-14,A_Baseline,1,Q1FrontDown,70.67493,-26.33871,-37.67897,-56.06934,-113.4497,161.4466,-51.55554,202408221333344172,
2-14,A_Baseline,1,Q1FrontDown,71.60087,-26.71287,-38.64857,-56.14777,-113.4652,161.3919,-51.55645,202408221333344331,
2-14,A_Baseline,1,Q1FrontDown,71.60087,-26.71287,-38.64857,-56.14777,-113.4652,161.3919,-51.55645,202408221333344511,
2-14,A_Baseline,1,Q1FrontDown,72.50793,-27.05742,-39.56396,-56.22548,-113.4821,161.3544,-51.55739,202408221333344671,
2-14,A_Baseline,1,Q1FrontDown,72.50793,-27.05742,-39.56396,-56.22548,-113.4821,161.3544,-51.55739,202408221333344838,
2-14,A_Baseline,1,Q1FrontDown,73.38843,-27.40902,-40.47161,-56.2886,-113.4936,161.3101,-51.558,202408221333345186,
2-14,A_Baseline,1,Q1FrontDown,74.22431,-27.72295,-41.32546,-56.36434,-113.5113,161.2631,-51.55944,202408221333345342,
2-14,A_Baseline,1,Q1FrontDown,74.22431,-27.72295,-41.32546,-56.36434,-113.5113,161.2631,-51.55944,202408221333345517,
2-14,A_Baseline,1,Q1FrontDown,75.07487,-28.05178,-42.18048,-56.44479,-113.5286,161.2209,-51.56027,202408221333345839,
2-14,A_Baseline,1,Q1FrontDown,75.86545,-28.36258,-43.00132,-56.51892,-113.5487,161.167,-51.56063,202408221333346023,
2-14,A_Baseline,1,Q1FrontDown,75.86545,-28.36258,-43.00132,-56.51892,-113.5487,161.167,-51.56063,202408221333346187,
2-14,A_Baseline,1,Q1FrontDown,75.86545,-28.36258,-43.00132,-56.51892,-113.5487,161.167,-51.56063,202408221333346376,
2-14,A_Baseline,1,Q1FrontDown,77.38906,-28.95015,-44.54957,-56.6741,-113.5828,161.0809,-51.56217,202408221333346703,
2-14,A_Baseline,1,Q1FrontDown,77.38906,-28.95015,-44.54957,-56.6741,-113.5828,161.0809,-51.56217,202408221333346867,
2-14,A_Baseline,1,Q1FrontDown,77.38906,-28.95015,-44.54957,-56.6741,-113.5828,161.0809,-51.56217,202408221333347064,
2-14,A_Baseline,1,Q1FrontDown,77.38906,-28.95015,-44.54957,-56.6741,-113.5828,161.0809,-51.56217,202408221333347211,
2-14,A_Baseline,1,Q1FrontDown,78.81024,-29.47806,-45.98414,-56.82695,-113.6201,160.9827,-51.56395,202408221333347387,
2-14,A_Baseline,1,Q1FrontDown,79.47357,-29.71079,-46.65618,-56.87937,-113.637,160.9479,-51.56528,202408221333347716,
2-14,A_Baseline,1,Q1FrontDown,80.10376,-29.93769,-47.30337,-56.92826,-113.6587,160.9045,-51.56709,202408221333347888,
2-14,A_Baseline,1,Q1FrontDown,80.10376,-29.93769,-47.30337,-56.92826,-113.6587,160.9045,-51.56709,202408221333348049,
2-14,A_Baseline,1,Q1FrontDown,80.10376,-29.93769,-47.30337,-56.92826,-113.6587,160.9045,-51.56709,202408221333348353,
2-14,A_Baseline,1,Q1FrontDown,80.70651,-30.16537,-47.90852,-56.97194,-113.6774,160.873,-51.56913,202408221333348521,
2-14,A_Baseline,1,Q1FrontDown,81.30479,-30.37082,-48.49311,-57.01184,-113.6976,160.8452,-51.57246,202408221333348703,
2-14,A_Baseline,1,Q1FrontDown,81.85732,-30.57011,-49.04279,-57.04419,-113.7225,160.8113,-51.57554,202408221333348998,
2-14,A_Baseline,1,Q1FrontDown,81.85732,-30.57011,-49.04279,-57.04419,-113.7225,160.8113,-51.57554,202408221333349154,
2-14,A_Baseline,1,Q1FrontDown,82.3892,-30.75196,-49.56708,-57.07655,-113.7415,160.7882,-51.57697,202408221333349325,
2-14,A_Baseline,1,Q1FrontDown,82.3892,-30.75196,-49.56708,-57.07655,-113.7415,160.7882,-51.57697,202408221333349504,
2-14,A_Baseline,1,Q1FrontDown,82.8803,-30.92286,-50.04411,-57.11182,-113.7613,160.7636,-51.57845,202408221333349687,
2-14,A_Baseline,1,Q1FrontDown,82.8803,-30.92286,-50.04411,-57.11182,-113.7613,160.7636,-51.57845,202408221333349880,
2-14,A_Baseline,1,Q1FrontDown,83.3361,-31.09034,-50.50584,-57.1418,-113.7859,160.7359,-51.5802,202408221333350024,
2-14,A_Baseline,1,Q1FrontDown,83.3361,-31.09034,-50.50584,-57.1418,-113.7859,160.7359,-51.5802,202408221333350195,
2-14,A_Baseline,1,Q1FrontDown,83.75813,-31.23176,-50.95076,-57.1726,-113.8062,160.7212,-51.58184,202408221333350498,
2-14,A_Baseline,1,Q1FrontDown,84.15915,-31.3722,-51.32946,-57.21755,-113.8331,160.6992,-51.58324,202408221333350696,
2-14,A_Baseline,1,Q1FrontDown,84.52331,-31.49444,-51.69735,-57.26419,-113.8558,160.6869,-51.58367,202408221333351018,
2-14,A_Baseline,1,Q1FrontDown,84.88649,-31.63494,-52.01904,-57.31168,-113.8844,160.6694,-51.58533,202408221333351326,
2-14,A_Baseline,1,Q1FrontDown,84.88649,-31.63494,-52.01904,-57.31168,-113.8844,160.6694,-51.58533,202408221333351497,
2-14,A_Baseline,1,Q1FrontDown,85.18287,-31.73374,-52.33318,-57.35727,-113.9099,160.6641,-51.58661,202408221333351670,
2-14,A_Baseline,1,Q1FrontDown,85.18287,-31.73374,-52.33318,-57.35727,-113.9099,160.6641,-51.58661,202408221333351839,
2-14,A_Baseline,1,Q1FrontDown,85.31091,-31.78153,-52.49586,-57.40119,-113.9134,160.6603,-51.58596,202408221333352023,
2-14,A_Baseline,1,Q1FrontDown,85.31091,-31.78153,-52.49586,-57.40119,-113.9134,160.6603,-51.58596,202408221333352177,
2-14,A_Baseline,1,Q1FrontDown,85.31091,-31.78153,-52.49586,-57.40119,-113.9134,160.6603,-51.58596,202408221333352361,
2-14,A_Baseline,1,Q1FrontDown,85.31498,-31.78308,-52.59496,-57.46935,-113.9095,160.6612,-51.58454,202408221333352534,
2-14,A_Baseline,1,Q1FrontDown,85.31295,-31.77964,-52.65011,-57.53302,-113.909,160.6613,-51.58401,202408221333352688,
2-14,A_Baseline,1,Q1FrontDown,85.3122,-31.76312,-52.65416,-57.57722,-113.9078,160.6618,-51.58365,202408221333353023,
2-14,A_Baseline,1,Q1FrontDown,85.3122,-31.76312,-52.65416,-57.57722,-113.9078,160.6618,-51.58365,202408221333353195,
2-14,A_Baseline,1,Q1FrontDown,85.30668,-31.71984,-52.62035,-57.58446,-113.9039,160.6635,-51.58378,202408221333353539,
2-14,A_Baseline,1,Q1FrontDown,85.28741,-31.68627,-52.54253,-57.57072,-113.8948,160.6647,-51.58318,202408221333353838,
2-14,A_Baseline,1,Q1FrontDown,85.27005,-31.6525,-52.47704,-57.57072,-113.8866,160.6643,-51.58305,202408221333354004,
2-14,A_Baseline,1,Q1FrontDown,85.27005,-31.6525,-52.47704,-57.57072,-113.8866,160.6643,-51.58305,202408221333354181,
2-14,A_Baseline,1,Q1FrontDown,85.26026,-31.6094,-52.42647,-57.57356,-113.8829,160.6645,-51.58323,202408221333354339,
2-14,A_Baseline,1,Q1FrontDown,85.26026,-31.6094,-52.42647,-57.57356,-113.8829,160.6645,-51.58323,202408221333354498,
2-14,A_Baseline,1,Q1FrontDown,85.24602,-31.57233,-52.37951,-57.58186,-113.8824,160.6643,-51.58341,202408221333354689,
2-14,A_Baseline,1,Q1FrontDown,85.24602,-31.57233,-52.37951,-57.58186,-113.8824,160.6643,-51.58341,202408221333354863,
2-14,A_Baseline,1,Q1FrontDown,85.21516,-31.53692,-52.34268,-57.60365,-113.8819,160.6643,-51.58329,202408221333355201,
2-14,A_Baseline,1,Q1FrontDown,85.14913,-31.48965,-52.29125,-57.61066,-113.8814,160.6646,-51.58314,202408221333355387,
2-14,A_Baseline,1,Q1FrontDown,85.14913,-31.48965,-52.29125,-57.61066,-113.8814,160.6646,-51.58314,202408221333355543,
2-14,A_Baseline,1,Q1FrontDown,85.03777,-31.43516,-52.20955,-57.61123,-113.8814,160.6648,-51.58303,202408221333355865,
2-14,A_Baseline,1,Q1FrontDown,84.90751,-31.38117,-52.09877,-57.61076,-113.8808,160.6642,-51.583,202408221333356048,
2-14,A_Baseline,1,Q1FrontDown,84.77,-31.33406,-51.95642,-57.61078,-113.8804,160.6646,-51.58331,202408221333356339,
2-14,A_Baseline,1,Q1FrontDown,84.77,-31.33406,-51.95642,-57.61078,-113.8804,160.6646,-51.58331,202408221333356521,
2-14,A_Baseline,1,Q1FrontDown,84.61272,-31.28689,-51.77536,-57.61086,-113.8804,160.6651,-51.58323,202408221333356685,
2-14,A_Baseline,1,Q1FrontDown,84.61272,-31.28689,-51.77536,-57.61086,-113.8804,160.6651,-51.58323,202408221333356854,
2-14,A_Baseline,1,Q1FrontDown,84.43418,-31.22628,-51.58259,-57.61014,-113.8796,160.6644,-51.58305,202408221333357019,
2-14,A_Baseline,1,Q1FrontDown,84.43418,-31.22628,-51.58259,-57.61014,-113.8796,160.6644,-51.58305,202408221333357203,
2-14,A_Baseline,1,Q1FrontDown,84.21269,-31.14729,-51.39151,-57.60926,-113.8793,160.6645,-51.58337,202408221333357354,
2-14,A_Baseline,1,Q1FrontDown,84.21269,-31.14729,-51.39151,-57.60926,-113.8793,160.6645,-51.58337,202408221333357541,
2-14,A_Baseline,1,Q1FrontDown,83.94171,-31.06995,-51.12961,-57.61004,-113.8792,160.6648,-51.58307,202408221333357874,
2-14,A_Baseline,1,Q1FrontDown,83.66467,-30.9821,-50.84512,-57.60958,-113.8783,160.6644,-51.58279,202408221333358187,
2-14,A_Baseline,1,Q1FrontDown,83.34783,-30.87024,-50.56116,-57.61,-113.878,160.6651,-51.58319,202408221333358509,
2-14,A_Baseline,1,Q1FrontDown,82.99963,-30.75896,-50.20812,-57.61039,-113.8779,160.6655,-51.58301,202408221333358673,
2-14,A_Baseline,1,Q1FrontDown,82.99963,-30.75896,-50.20812,-57.61039,-113.8779,160.6655,-51.58301,202408221333358859,
2-14,A_Baseline,1,Q1FrontDown,82.62074,-30.63284,-49.85756,-57.60715,-113.8773,160.6639,-51.58345,202408221333359172,
2-14,A_Baseline,1,Q1FrontDown,82.23199,-30.52439,-49.45825,-57.60533,-113.8764,160.6656,-51.58345,202408221333359348,
2-14,A_Baseline,1,Q1FrontDown,81.77291,-30.3796,-49.044,-57.60368,-113.876,160.6654,-51.58345,202408221333359683,
2-14,A_Baseline,1,Q1FrontDown,81.77291,-30.3796,-49.044,-57.60368,-113.876,160.6654,-51.58345,202408221333359851,
2-14,A_Baseline,1,Q1FrontDown,81.30221,-30.21665,-48.5781,-57.60023,-113.8751,160.6652,-51.58324,202408221333360208,
2-14,A_Baseline,1,Q1FrontDown,80.81479,-30.05525,-48.10785,-57.59694,-113.8747,160.6653,-51.58303,202408221333360383,
2-14,A_Baseline,1,Q1FrontDown,80.27724,-29.88508,-47.59589,-57.59426,-113.8732,160.6665,-51.58301,202408221333360791,
2-14,A_Baseline,1,Q1FrontDown,79.73672,-29.69833,-47.05766,-57.58445,-113.8718,160.6657,-51.58332,202408221333361106,
2-14,A_Baseline,1,Q1FrontDown,79.17352,-29.50942,-46.51749,-57.5686,-113.8699,160.6665,-51.58305,202408221333361439,
2-14,A_Baseline,1,Q1FrontDown,78.53155,-29.28974,-45.91379,-57.56183,-113.868,160.6671,-51.58325,202408221333361703,
2-14,A_Baseline,1,Q1FrontDown,77.89701,-29.07535,-45.29602,-57.54277,-113.8645,160.6662,-51.58311,202408221333362014,
2-14,A_Baseline,1,Q1FrontDown,77.89701,-29.07535,-45.29602,-57.54277,-113.8645,160.6662,-51.58311,202408221333362219,
2-14,A_Baseline,1,Q1FrontDown,77.22382,-28.84453,-44.64068,-57.53299,-113.8608,160.6681,-51.58323,202408221333362438,
2-14,A_Baseline,1,Q1FrontDown,76.52245,-28.59144,-43.9704,-57.5215,-113.8596,160.6685,-51.5833,202408221333362695,
2-14,A_Baseline,1,Q1FrontDown,76.52245,-28.59144,-43.9704,-57.5215,-113.8596,160.6685,-51.5833,202408221333363057,
2-14,A_Baseline,1,Q1FrontDown,75.05766,-28.07418,-42.5283,-57.49437,-113.8528,160.6693,-51.58296,202408221333363355,
2-14,A_Baseline,1,Q1FrontDown,75.05766,-28.07418,-42.5283,-57.49437,-113.8528,160.6693,-51.58296,202408221333363547,
2-14,A_Baseline,1,Q1FrontDown,74.25737,-27.80263,-41.75965,-57.46833,-113.8504,160.6707,-51.5833,202408221333363868,
2-14,A_Baseline,1,Q1FrontDown,73.46679,-27.52435,-40.98037,-57.45628,-113.848,160.67,-51.58345,202408221333364191,
2-14,A_Baseline,1,Q1FrontDown,72.63056,-27.22781,-40.16128,-57.43392,-113.8445,160.6733,-51.58273,202408221333364354,
2-14,A_Baseline,1,Q1FrontDown,72.63056,-27.22781,-40.16128,-57.43392,-113.8445,160.6733,-51.58273,202408221333364538,
2-14,A_Baseline,1,Q1FrontDown,71.77013,-26.92063,-39.32424,-57.40766,-113.8424,160.6742,-51.58296,202408221333364884,
2-14,A_Baseline,1,Q1FrontDown,70.88915,-26.60185,-38.4474,-57.37978,-113.8391,160.6736,-51.58319,202408221333365045,
2-14,A_Baseline,1,Q1FrontDown,69.97534,-26.26599,-37.55363,-57.34608,-113.837,160.6755,-51.58294,202408221333365393,
2-14,A_Baseline,1,Q1FrontDown,69.04897,-25.9464,-36.66021,-57.30411,-113.8349,160.6756,-51.58337,202408221333365710,
2-14,A_Baseline,1,Q1FrontDown,69.04897,-25.9464,-36.66021,-57.30411,-113.8349,160.6756,-51.58337,202408221333365865,
2-14,A_Baseline,1,Q1FrontDown,68.05524,-25.57827,-35.68655,-57.26175,-113.8309,160.6783,-51.58329,202408221333366219,
2-14,A_Baseline,1,Q1FrontDown,67.08078,-25.21696,-34.71313,-57.21796,-113.8272,160.6853,-51.58303,202408221333366508,
2-14,A_Baseline,1,Q1FrontDown,66.04495,-24.8419,-33.72303,-57.15347,-113.8267,160.6877,-51.58353,202408221333366683,
2-14,A_Baseline,1,Q1FrontDown,66.04495,-24.8419,-33.72303,-57.15347,-113.8267,160.6877,-51.58353,202408221333366849,
2-14,A_Baseline,1,Q1FrontDown,66.04495,-24.8419,-33.72303,-57.15347,-113.8267,160.6877,-51.58353,202408221333367050,
2-14,A_Baseline,1,Q1FrontDown,63.9865,-24.07982,-31.6809,-57.02188,-113.8208,160.6984,-51.58301,202408221333367382,
2-14,A_Baseline,1,Q1FrontDown,62.884,-23.68632,-30.61414,-56.94398,-113.8172,160.6985,-51.58306,202408221333367689,
2-14,A_Baseline,1,Q1FrontDown,62.884,-23.68632,-30.61414,-56.94398,-113.8172,160.6985,-51.58306,202408221333367846,
2-14,A_Baseline,1,Q1FrontDown,61.74755,-23.2618,-29.48173,-56.87162,-113.812,160.7048,-51.58321,202408221333368031,
2-14,A_Baseline,1,Q1FrontDown,60.60937,-22.85541,-28.35099,-56.80693,-113.8074,160.7085,-51.58287,202408221333368352,
2-14,A_Baseline,1,Q1FrontDown,60.60937,-22.85541,-28.35099,-56.80693,-113.8074,160.7085,-51.58287,202408221333368521,
2-14,A_Baseline,1,Q1FrontDown,59.4434,-22.44191,-27.22123,-56.74097,-113.8015,160.7109,-51.58326,202408221333368834,
2-14,A_Baseline,1,Q1FrontDown,58.27287,-22.01493,-26.04851,-56.69028,-113.7969,160.7106,-51.58334,202408221333368994,
2-14,A_Baseline,1,Q1FrontDown,58.27287,-22.01493,-26.04851,-56.69028,-113.7969,160.7106,-51.58334,202408221333369170,
2-14,A_Baseline,1,Q1FrontDown,57.0745,-21.57776,-24.8623,-56.62851,-113.7914,160.7182,-51.58354,202408221333369329,
2-14,A_Baseline,1,Q1FrontDown,57.0745,-21.57776,-24.8623,-56.62851,-113.7914,160.7182,-51.58354,202408221333369511,
2-14,A_Baseline,1,Q1FrontDown,55.83876,-21.13819,-23.65306,-56.5573,-113.7844,160.7161,-51.58304,202408221333369690,
2-14,A_Baseline,1,Q1FrontDown,55.83876,-21.13819,-23.65306,-56.5573,-113.7844,160.7161,-51.58304,202408221333369843,
2-14,A_Baseline,1,Q1FrontDown,54.6095,-20.68641,-22.41698,-56.49905,-113.7788,160.7184,-51.58335,202408221333370035,
2-14,A_Baseline,1,Q1FrontDown,54.6095,-20.68641,-22.41698,-56.49905,-113.7788,160.7184,-51.58335,202408221333370205,
2-14,A_Baseline,1,Q1FrontDown,53.39052,-20.23139,-21.22009,-56.42391,-113.772,160.7225,-51.58282,202408221333370524,
2-14,A_Baseline,1,Q1FrontDown,52.05925,-19.75214,-19.91599,-56.33933,-113.7676,160.7231,-51.58332,202408221333370829,
2-14,A_Baseline,1,Q1FrontDown,52.05925,-19.75214,-19.91599,-56.33933,-113.7676,160.7231,-51.58332,202408221333371027,
2-14,A_Baseline,1,Q1FrontDown,49.49512,-18.79602,-17.35833,-56.1748,-113.7545,160.7351,-51.58355,202408221333371327,
2-14,A_Baseline,1,Q1FrontDown,49.49512,-18.79602,-17.35833,-56.1748,-113.7545,160.7351,-51.58355,202408221333371495,
2-14,A_Baseline,1,Q1FrontDown,48.10931,-18.29362,-15.98525,-56.0883,-113.7477,160.7372,-51.58368,202408221333371663,
2-14,A_Baseline,1,Q1FrontDown,48.10931,-18.29362,-15.98525,-56.0883,-113.7477,160.7372,-51.58368,202408221333371843,
2-14,A_Baseline,1,Q1FrontDown,46.77067,-17.80176,-14.6278,-56.03307,-113.741,160.7417,-51.5835,202408221333372008,
2-14,A_Baseline,1,Q1FrontDown,46.77067,-17.80176,-14.6278,-56.03307,-113.741,160.7417,-51.5835,202408221333372200,
2-14,A_Baseline,1,Q1FrontDown,45.40831,-17.29912,-13.26971,-55.97384,-113.7356,160.7481,-51.58344,202408221333372532,
2-14,A_Baseline,1,Q1FrontDown,44.01352,-16.80315,-11.88652,-55.90806,-113.7295,160.7506,-51.58355,202408221333372877,
2-14,A_Baseline,1,Q1FrontDown,42.63085,-16.2842,-10.48837,-55.85226,-113.7231,160.761,-51.58324,202408221333373190,
2-14,A_Baseline,1,Q1FrontDown,41.26422,-15.76891,-9.130772,-55.78143,-113.7183,160.7673,-51.58331,202408221333373527,
2-14,A_Baseline,1,Q1FrontDown,39.82413,-15.24144,-7.700628,-55.70008,-113.7135,160.7709,-51.58363,202408221333373840,
2-14,A_Baseline,1,Q1FrontDown,38.35385,-14.68063,-6.2114,-55.62455,-113.7083,160.7784,-51.58334,202408221333374146,
2-14,A_Baseline,1,Q1FrontDown,36.9457,-14.14473,-4.811978,-55.53142,-113.7033,160.7844,-51.58325,202408221333374331,
2-14,A_Baseline,1,Q1FrontDown,36.9457,-14.14473,-4.811978,-55.53142,-113.7033,160.7844,-51.58325,202408221333374499,
2-14,A_Baseline,1,Q1FrontDown,35.42038,-13.57112,-3.290574,-55.43125,-113.6957,160.7893,-51.58358,202408221333374666,
2-14,A_Baseline,1,Q1FrontDown,35.42038,-13.57112,-3.290574,-55.43125,-113.6957,160.7893,-51.58358,202408221333374832,
2-14,A_Baseline,1,Q1FrontDown,33.95624,-13.00952,-1.805549,-55.35099,-113.6904,160.7963,-51.58315,202408221333375008,
2-14,A_Baseline,1,Q1FrontDown,33.95624,-13.00952,-1.805549,-55.35099,-113.6904,160.7963,-51.58315,202408221333375195,
2-14,A_Baseline,1,Q1FrontDown,32.50918,-12.46581,-0.3707578,-55.27431,-113.6842,160.8038,-51.58326,202408221333375345,
2-14,A_Baseline,1,Q1FrontDown,32.50918,-12.46581,-0.3707578,-55.27431,-113.6842,160.8038,-51.58326,202408221333375529,
2-14,A_Baseline,1,Q1FrontDown,30.94477,-11.88769,1.189988,-55.20868,-113.6757,160.8093,-51.58355,202408221333375840,
2-14,A_Baseline,1,Q1FrontDown,29.4434,-11.3176,2.706025,-55.1521,-113.6702,160.822,-51.5835,202408221333375998,
2-14,A_Baseline,1,Q1FrontDown,29.4434,-11.3176,2.706025,-55.1521,-113.6702,160.822,-51.5835,202408221333376172,
2-14,A_Baseline,1,Q1FrontDown,29.4434,-11.3176,2.706025,-55.1521,-113.6702,160.822,-51.5835,202408221333376343,
2-14,A_Baseline,1,Q1FrontDown,26.37033,-10.15887,5.767465,-55.01159,-113.6576,160.8425,-51.58396,202408221333376673,
2-14,A_Baseline,1,Q1FrontDown,26.37033,-10.15887,5.767465,-55.01159,-113.6576,160.8425,-51.58396,202408221333376830,
2-14,A_Baseline,1,Q1FrontDown,24.83985,-9.576253,7.305326,-54.93987,-113.6494,160.8518,-51.58362,202408221333377157,
2-14,A_Baseline,1,Q1FrontDown,23.28662,-8.973124,8.846961,-54.86224,-113.6437,160.8641,-51.58337,202408221333377356,
2-14,A_Baseline,1,Q1FrontDown,23.28662,-8.973124,8.846961,-54.86224,-113.6437,160.8641,-51.58337,202408221333377507,
2-14,A_Baseline,1,Q1FrontDown,21.71299,-8.374899,10.41527,-54.77612,-113.6357,160.8765,-51.58382,202408221333377684,
2-14,A_Baseline,1,Q1FrontDown,20.15073,-7.785738,11.97643,-54.69677,-113.6294,160.8866,-51.58356,202408221333378019,
2-14,A_Baseline,1,Q1FrontDown,18.56762,-7.178147,13.53283,-54.62868,-113.623,160.8947,-51.58401,202408221333378338,
2-14,A_Baseline,1,Q1FrontDown,16.96897,-6.582081,15.12169,-54.5638,-113.6125,160.9062,-51.58421,202408221333378687,
2-14,A_Baseline,1,Q1FrontDown,15.40066,-5.984218,16.68779,-54.5151,-113.6034,160.9193,-51.58405,202408221333379019,
2-14,A_Baseline,1,Q1FrontDown,15.40066,-5.984218,16.68779,-54.5151,-113.6034,160.9193,-51.58405,202408221333379202,
2-14,A_Baseline,1,Q1FrontDown,13.79533,-5.372801,18.2599,-54.46901,-113.5953,160.9249,-51.5841,202408221333379506,
2-14,A_Baseline,1,Q1FrontDown,12.18008,-4.778557,19.8576,-54.4135,-113.5861,160.9378,-51.5841,202408221333379669,
2-14,A_Baseline,1,Q1FrontDown,12.18008,-4.778557,19.8576,-54.4135,-113.5861,160.9378,-51.5841,202408221333379834,
2-14,A_Baseline,1,Q1FrontDown,10.5834,-4.168489,21.44116,-54.36816,-113.5787,160.954,-51.58385,202408221333380070,
2-14,A_Baseline,1,Q1FrontDown,10.5834,-4.168489,21.44116,-54.36816,-113.5787,160.954,-51.58385,202408221333380361,
2-14,A_Baseline,1,Q1FrontDown,8.967588,-3.550127,23.02001,-54.30824,-113.5684,160.97,-51.58444,202408221333380529,
2-14,A_Baseline,1,Q1FrontDown,7.339781,-2.928983,24.62339,-54.24447,-113.5577,160.9877,-51.58379,202408221333380704,
2-14,A_Baseline,1,Q1FrontDown,7.339781,-2.928983,24.62339,-54.24447,-113.5577,160.9877,-51.58379,202408221333380863,
2-14,A_Baseline,1,Q1FrontDown,5.685761,-2.292098,26.25684,-54.17602,-113.551,161.0028,-51.58467,202408221333381189,
2-14,A_Baseline,1,Q1FrontDown,4.114072,-1.688016,27.79083,-54.09214,-113.5416,161.0219,-51.58471,202408221333381351,
2-14,A_Baseline,1,Q1FrontDown,4.114072,-1.688016,27.79083,-54.09214,-113.5416,161.0219,-51.58471,202408221333381519,
2-14,A_Baseline,1,Q1FrontDown,2.480933,-1.060457,29.39447,-54.00882,-113.5303,161.0416,-51.58469,202408221333381689,
2-14,A_Baseline,1,Q1FrontDown,2.480933,-1.060457,29.39447,-54.00882,-113.5303,161.0416,-51.58469,202408221333381863,
2-14,A_Baseline,1,Q1FrontDown,0.8659251,-0.448625,30.97655,-53.92564,-113.518,161.0585,-51.5847,202408221333382065,
2-14,A_Baseline,1,Q1FrontDown,-0.716987,0.1599044,32.50415,-53.8604,-113.5027,161.0768,-51.58467,202408221333382376,
2-14,A_Baseline,1,Q1FrontDown,-0.716987,0.1599044,32.50415,-53.8604,-113.5027,161.0768,-51.58467,202408221333382541,
2-14,A_Baseline,1,Q1FrontDown,-2.407784,0.7944566,34.15734,-53.79526,-113.4861,161.101,-51.58484,202408221333382709,
2-14,A_Baseline,1,Q1FrontDown,-2.407784,0.7944566,34.15734,-53.79526,-113.4861,161.101,-51.58484,202408221333382885,
2-14,A_Baseline,1,Q1FrontDown,-4.027943,1.394502,35.73183,-53.74146,-113.4723,161.123,-51.58479,202408221333383046,
2-14,A_Baseline,1,Q1FrontDown,-5.658228,2.008462,37.30368,-53.69376,-113.459,161.1459,-51.58534,202408221333383356,
2-14,A_Baseline,1,Q1FrontDown,-7.294495,2.610737,38.89971,-53.63435,-113.4474,161.1717,-51.58527,202408221333383696,
2-14,A_Baseline,1,Q1FrontDown,-8.907122,3.214858,40.45539,-53.58228,-113.4388,161.1947,-51.58565,202408221333384005,
2-14,A_Baseline,1,Q1FrontDown,-8.907122,3.214858,40.45539,-53.58228,-113.4388,161.1947,-51.58565,202408221333384196,
2-14,A_Baseline,1,Q1FrontDown,-10.53225,3.831837,42.01663,-53.52353,-113.4293,161.2173,-51.58553,202408221333384499,
2-14,A_Baseline,1,Q1FrontDown,-12.15479,4.435938,43.58961,-53.45871,-113.418,161.2391,-51.58542,202408221333384722,
2-14,A_Baseline,1,Q1FrontDown,-12.15479,4.435938,43.58961,-53.45871,-113.418,161.2391,-51.58542,202408221333384897,
2-14,A_Baseline,1,Q1FrontDown,-13.75504,5.030843,45.13197,-53.39929,-113.4101,161.263,-51.58599,202408221333385061,
2-14,A_Baseline,1,Q1FrontDown,-15.36016,5.627991,46.67407,-53.31942,-113.4004,161.2892,-51.58622,202408221333385253,
2-14,A_Baseline,1,Q1FrontDown,-15.36016,5.627991,46.67407,-53.31942,-113.4004,161.2892,-51.58622,202408221333385518,
2-14,A_Baseline,1,Q1FrontDown,-16.96837,6.227065,48.22541,-53.24467,-113.3922,161.3136,-51.5862,202408221333385707,
2-14,A_Baseline,1,Q1FrontDown,-18.54412,6.8163,49.74726,-53.16316,-113.3843,161.3391,-51.5864,202408221333386031,
2-14,A_Baseline,1,Q1FrontDown,-18.54412,6.8163,49.74726,-53.16316,-113.3843,161.3391,-51.5864,202408221333386231,
2-14,A_Baseline,1,Q1FrontDown,-20.13573,7.40307,51.26624,-53.09167,-113.3751,161.3618,-51.58612,202408221333386539,
2-14,A_Baseline,1,Q1FrontDown,-21.72185,7.970828,52.78541,-53.03499,-113.3683,161.3821,-51.58667,202408221333386872,
2-14,A_Baseline,1,Q1FrontDown,-23.28489,8.528836,54.28627,-52.97464,-113.3615,161.4021,-51.5872,202408221333387036,
2-14,A_Baseline,1,Q1FrontDown,-24.85054,9.101292,55.77448,-52.91755,-113.3525,161.4194,-51.5873,202408221333387219,
2-14,A_Baseline,1,Q1FrontDown,-24.85054,9.101292,55.77448,-52.91755,-113.3525,161.4194,-51.5873,202408221333387514,
2-14,A_Baseline,1,Q1FrontDown,-24.85054,9.101292,55.77448,-52.91755,-113.3525,161.4194,-51.5873,202408221333387701,
2-14,A_Baseline,1,Q1FrontDown,-27.88357,10.19457,58.69516,-52.777,-113.3445,161.4661,-51.58809,202408221333387868,
2-14,A_Baseline,1,Q1FrontDown,-27.88357,10.19457,58.69516,-52.777,-113.3445,161.4661,-51.58809,202408221333388195,
2-14,A_Baseline,1,Q1FrontDown,-29.4131,10.75776,60.16053,-52.70387,-113.3413,161.4941,-51.58834,202408221333388521,
2-14,A_Baseline,1,Q1FrontDown,-30.97509,11.32477,61.67389,-52.61156,-113.3364,161.5266,-51.58881,202408221333388834,
2-14,A_Baseline,1,Q1FrontDown,-32.46954,11.86619,63.1001,-52.51171,-113.3337,161.5602,-51.5889,202408221333389001,
2-14,A_Baseline,1,Q1FrontDown,-32.46954,11.86619,63.1001,-52.51171,-113.3337,161.5602,-51.5889,202408221333389166,
2-14,A_Baseline,1,Q1FrontDown,-33.92,12.38396,64.48051,-52.41998,-113.3311,161.5922,-51.58928,202408221333389333,
2-14,A_Baseline,1,Q1FrontDown,-33.92,12.38396,64.48051,-52.41998,-113.3311,161.5922,-51.58928,202408221333389506,
2-14,A_Baseline,1,Q1FrontDown,-35.4415,12.92592,65.95174,-52.33095,-113.3282,161.6232,-51.59,202408221333389684,
2-14,A_Baseline,1,Q1FrontDown,-35.4415,12.92592,65.95174,-52.33095,-113.3282,161.6232,-51.59,202408221333389870,
2-14,A_Baseline,1,Q1FrontDown,-36.90514,13.44523,67.33885,-52.25129,-113.3254,161.6547,-51.59011,202408221333390195,
2-14,A_Baseline,1,Q1FrontDown,-38.3673,13.95205,68.72107,-52.17531,-113.3234,161.6851,-51.59044,202408221333390367,
2-14,A_Baseline,1,Q1FrontDown,-39.80267,14.45275,70.10639,-52.09834,-113.3201,161.7165,-51.59092,202408221333390671,
2-14,A_Baseline,1,Q1FrontDown,-39.80267,14.45275,70.10639,-52.09834,-113.3201,161.7165,-51.59092,202408221333390839,
2-14,A_Baseline,1,Q1FrontDown,-39.80267,14.45275,70.10639,-52.09834,-113.3201,161.7165,-51.59092,202408221333390994,
2-14,A_Baseline,1,Q1FrontDown,-41.21681,14.95209,71.44775,-52.02128,-113.3175,161.7438,-51.5916,202408221333391166,
2-14,A_Baseline,1,Q1FrontDown,-42.62391,15.44395,72.78891,-51.93856,-113.3159,161.7683,-51.59247,202408221333391339,
2-14,A_Baseline,1,Q1FrontDown,-42.62391,15.44395,72.78891,-51.93856,-113.3159,161.7683,-51.59247,202408221333391509,
2-14,A_Baseline,1,Q1FrontDown,-42.62391,15.44395,72.78891,-51.93856,-113.3159,161.7683,-51.59247,202408221333391691,
2-14,A_Baseline,1,Q1FrontDown,-43.95875,15.91381,74.07764,-51.85941,-113.3126,161.7909,-51.59254,202408221333391842,
2-14,A_Baseline,1,Q1FrontDown,-45.36555,16.41083,75.41924,-51.76206,-113.3083,161.812,-51.59239,202408221333392017,
2-14,A_Baseline,1,Q1FrontDown,-45.36555,16.41083,75.41924,-51.76206,-113.3083,161.812,-51.59239,202408221333392192,
2-14,A_Baseline,1,Q1FrontDown,-45.36555,16.41083,75.41924,-51.76206,-113.3083,161.812,-51.59239,202408221333392342,
2-14,A_Baseline,1,Q1FrontDown,-46.68285,16.86129,76.67778,-51.66726,-113.3061,161.8329,-51.59286,202408221333392531,
2-14,A_Baseline,1,Q1FrontDown,-48.04896,17.33632,78.00878,-51.58219,-113.3048,161.8496,-51.59422,202408221333392859,
2-14,A_Baseline,1,Q1FrontDown,-49.35862,17.78715,79.26186,-51.50668,-113.3026,161.8647,-51.59435,202408221333393034,
2-14,A_Baseline,1,Q1FrontDown,-50.62598,18.21783,80.46646,-51.43303,-113.299,161.8828,-51.59509,202408221333393322,
2-14,A_Baseline,1,Q1FrontDown,-50.62598,18.21783,80.46646,-51.43303,-113.299,161.8828,-51.59509,202408221333393508,
2-14,A_Baseline,1,Q1FrontDown,-51.93518,18.66776,81.73471,-51.36044,-113.2964,161.8958,-51.59651,202408221333393839,
2-14,A_Baseline,1,Q1FrontDown,-53.18501,19.09367,82.91898,-51.28158,-113.2928,161.9082,-51.59686,202408221333393994,
2-14,A_Baseline,1,Q1FrontDown,-54.41598,19.52379,84.10896,-51.20119,-113.2919,161.9182,-51.59982,202408221333394323,
2-14,A_Baseline,1,Q1FrontDown,-54.41598,19.52379,84.10896,-51.20119,-113.2919,161.9182,-51.59982,202408221333394493,
2-14,A_Baseline,1,Q1FrontDown,-55.61735,19.92698,85.27535,-51.11595,-113.2898,161.9292,-51.60477,202408221333394667,
2-14,A_Baseline,1,Q1FrontDown,-55.61735,19.92698,85.27535,-51.11595,-113.2898,161.9292,-51.60477,202408221333394829,
2-14,A_Baseline,1,Q1FrontDown,-56.75624,20.32813,86.38583,-51.02194,-113.2878,161.9474,-51.60781,202408221333395003,
2-14,A_Baseline,1,Q1FrontDown,-56.75624,20.32813,86.38583,-51.02194,-113.2878,161.9474,-51.60781,202408221333395161,
2-14,A_Baseline,1,Q1FrontDown,-57.93703,20.72715,87.50639,-50.92291,-113.2868,161.9599,-51.60981,202408221333395355,
2-14,A_Baseline,1,Q1FrontDown,-57.93703,20.72715,87.50639,-50.92291,-113.2868,161.9599,-51.60981,202408221333395530,
2-14,A_Baseline,1,Q1FrontDown,-59.1134,21.12525,88.64143,-50.83541,-113.2854,161.9726,-51.61182,202408221333395694,
2-14,A_Baseline,1,Q1FrontDown,-60.22421,21.50224,89.70976,-50.76011,-113.2842,161.9864,-51.61261,202408221333396006,
2-14,A_Baseline,1,Q1FrontDown,-60.22421,21.50224,89.70976,-50.76011,-113.2842,161.9864,-51.61261,202408221333396169,
2-14,A_Baseline,1,Q1FrontDown,-61.33311,21.86979,90.78421,-50.68507,-113.2833,162.0084,-51.61404,202408221333396322,
2-14,A_Baseline,1,Q1FrontDown,-61.33311,21.86979,90.78421,-50.68507,-113.2833,162.0084,-51.61404,202408221333396498,
2-14,A_Baseline,1,Q1FrontDown,-62.40974,22.22563,91.81851,-50.61573,-113.2814,162.0239,-51.61609,202408221333396674,
2-14,A_Baseline,1,Q1FrontDown,-62.40974,22.22563,91.81851,-50.61573,-113.2814,162.0239,-51.61609,202408221333396860,
2-14,A_Baseline,1,Q1FrontDown,-63.44384,22.58452,92.81666,-50.54121,-113.2791,162.0431,-51.61806,202408221333397196,
2-14,A_Baseline,1,Q1FrontDown,-64.47437,22.92582,93.81307,-50.4744,-113.2785,162.0599,-51.62027,202408221333397339,
2-14,A_Baseline,1,Q1FrontDown,-64.47437,22.92582,93.81307,-50.4744,-113.2785,162.0599,-51.62027,202408221333397532,
2-14,A_Baseline,1,Q1FrontDown,-64.47437,22.92582,93.81307,-50.4744,-113.2785,162.0599,-51.62027,202408221333397697,
2-14,A_Baseline,1,Q1FrontDown,-65.46244,23.26532,94.78424,-50.41053,-113.2751,162.0735,-51.62352,202408221333397864,
2-14,A_Baseline,1,Q1FrontDown,-66.42031,23.58753,95.71027,-50.33406,-113.2709,162.0906,-51.62708,202408221333398166,
2-14,A_Baseline,1,Q1FrontDown,-67.37471,23.90675,96.63429,-50.25524,-113.2678,162.1053,-51.62933,202408221333398344,
2-14,A_Baseline,1,Q1FrontDown,-67.37471,23.90675,96.63429,-50.25524,-113.2678,162.1053,-51.62933,202408221333398504,
2-14,A_Baseline,1,Q1FrontDown,-68.29723,24.20693,97.52413,-50.17887,-113.2654,162.1143,-51.63118,202408221333398843,
2-14,A_Baseline,1,Q1FrontDown,-68.29723,24.20693,97.52413,-50.17887,-113.2654,162.1143,-51.63118,202408221333399011,
2-14,A_Baseline,1,Q1FrontDown,-69.17211,24.50785,98.38631,-50.11449,-113.2631,162.1275,-51.63372,202408221333399186,
2-14,A_Baseline,1,Q1FrontDown,-70.0241,24.78938,99.22137,-50.05496,-113.2614,162.1405,-51.63518,202408221333399338,
2-14,A_Baseline,1,Q1FrontDown,-70.0241,24.78938,99.22137,-50.05496,-113.2614,162.1405,-51.63518,202408221333399509,
2-14,A_Baseline,1,Q1FrontDown,-70.88613,25.06869,100.0521,-50.00172,-113.2601,162.1502,-51.63761,202408221333399669,
2-14,A_Baseline,1,Q1FrontDown,-70.88613,25.06869,100.0521,-50.00172,-113.2601,162.1502,-51.63761,202408221333399849,
2-14,A_Baseline,1,Q1FrontDown,-71.69393,25.33275,100.8426,-49.95908,-113.2592,162.1623,-51.63995,202408221333400031,
2-14,A_Baseline,1,Q1FrontDown,-71.69393,25.33275,100.8426,-49.95908,-113.2592,162.1623,-51.63995,202408221333400198,
2-14,A_Baseline,1,Q1FrontDown,-72.48875,25.59888,101.6045,-49.90908,-113.2586,162.1747,-51.64145,202408221333400399,
2-14,A_Baseline,1,Q1FrontDown,-73.23561,25.8347,102.3448,-49.8763,-113.2582,162.1862,-51.64301,202408221333400560,
2-14,A_Baseline,1,Q1FrontDown,-73.23561,25.8347,102.3448,-49.8763,-113.2582,162.1862,-51.64301,202408221333400832,
2-14,A_Baseline,1,Q1FrontDown,-73.94479,26.08422,103.049,-49.83202,-113.2574,162.1984,-51.64409,202408221333401013,
2-14,A_Baseline,1,Q1FrontDown,-73.94479,26.08422,103.049,-49.83202,-113.2574,162.1984,-51.64409,202408221333401196,
2-14,A_Baseline,1,Q1FrontDown,-74.64297,26.31,103.7407,-49.78714,-113.2572,162.2144,-51.64502,202408221333401500,
2-14,A_Baseline,1,Q1FrontDown,-75.30528,26.5297,104.386,-49.73978,-113.2568,162.2272,-51.64759,202408221333401666,
2-14,A_Baseline,1,Q1FrontDown,-75.30528,26.5297,104.386,-49.73978,-113.2568,162.2272,-51.64759,202408221333401843,
2-14,A_Baseline,1,Q1FrontDown,-75.94287,26.73084,105.0147,-49.69055,-113.2564,162.2427,-51.64892,202408221333402020,
2-14,A_Baseline,1,Q1FrontDown,-75.94287,26.73084,105.0147,-49.69055,-113.2564,162.2427,-51.64892,202408221333402216,
2-14,A_Baseline,1,Q1FrontDown,-76.5533,26.93817,105.6007,-49.64035,-113.256,162.2615,-51.65062,202408221333402369,
2-14,A_Baseline,1,Q1FrontDown,-77.12823,27.10635,106.1681,-49.57978,-113.2552,162.2752,-51.65239,202408221333402711,
2-14,A_Baseline,1,Q1FrontDown,-77.12823,27.10635,106.1681,-49.57978,-113.2552,162.2752,-51.65239,202408221333403052,
2-14,A_Baseline,1,Q1FrontDown,-78.18026,27.44811,107.2198,-49.46696,-113.2547,162.3096,-51.65676,202408221333403359,
2-14,A_Baseline,1,Q1FrontDown,-78.18026,27.44811,107.2198,-49.46696,-113.2547,162.3096,-51.65676,202408221333403532,
2-14,A_Baseline,1,Q1FrontDown,-78.66739,27.59072,107.7097,-49.41148,-113.2539,162.3336,-51.65862,202408221333403850,
2-14,A_Baseline,1,Q1FrontDown,-79.10928,27.74014,108.165,-49.37189,-113.2534,162.3474,-51.6604,202408221333404144,
2-14,A_Baseline,1,Q1FrontDown,-79.10928,27.74014,108.165,-49.37189,-113.2534,162.3474,-51.6604,202408221333404307,
2-14,A_Baseline,1,Q1FrontDown,-79.55003,27.87263,108.5794,-49.31921,-113.2533,162.3655,-51.66175,202408221333404487,
2-14,A_Baseline,1,Q1FrontDown,-79.94055,27.99232,108.972,-49.28186,-113.2525,162.3817,-51.66284,202408221333404662,
2-14,A_Baseline,1,Q1FrontDown,-79.94055,27.99232,108.972,-49.28186,-113.2525,162.3817,-51.66284,202408221333404829,
2-14,A_Baseline,1,Q1FrontDown,-80.31128,28.08821,109.3272,-49.25751,-113.2531,162.3995,-51.66404,202408221333405017,
2-14,A_Baseline,1,Q1FrontDown,-80.31128,28.08821,109.3272,-49.25751,-113.2531,162.3995,-51.66404,202408221333405184,
2-14,A_Baseline,1,Q1FrontDown,-80.63477,28.20075,109.6664,-49.23648,-113.2523,162.4165,-51.66504,202408221333405350,
2-14,A_Baseline,1,Q1FrontDown,-80.63477,28.20075,109.6664,-49.23648,-113.2523,162.4165,-51.66504,202408221333405515,
2-14,A_Baseline,1,Q1FrontDown,-80.93992,28.29677,109.956,-49.21853,-113.2523,162.4365,-51.66618,202408221333405693,
2-14,A_Baseline,1,Q1FrontDown,-81.28691,28.38171,110.2909,-49.22812,-113.215,162.4587,-51.66612,202408221333406009,
2-14,A_Baseline,1,Q1FrontDown,-81.28691,28.38171,110.2909,-49.22812,-113.215,162.4587,-51.66612,202408221333406168,
2-14,A_Baseline,1,Q1FrontDown,-81.68991,28.44526,110.6175,-49.27311,-113.1749,162.4989,-51.666,202408221333406332,
2-14,A_Baseline,1,Q1FrontDown,-81.68991,28.44526,110.6175,-49.27311,-113.1749,162.4989,-51.666,202408221333406503,
2-14,A_Baseline,1,Q1FrontDown,-82.03077,28.50817,110.913,-49.30297,-113.1423,162.524,-51.66591,202408221333406670,
2-14,A_Baseline,1,Q1FrontDown,-82.03077,28.50817,110.913,-49.30297,-113.1423,162.524,-51.66591,202408221333406836,
2-14,A_Baseline,1,Q1FrontDown,-82.36394,28.55224,111.1661,-49.31776,-113.106,162.5504,-51.66623,202408221333406997,
2-14,A_Baseline,1,Q1FrontDown,-82.36394,28.55224,111.1661,-49.31776,-113.106,162.5504,-51.66623,202408221333407153,
2-14,A_Baseline,1,Q1FrontDown,-82.67619,28.59299,111.3921,-49.31276,-113.0699,162.5752,-51.66607,202408221333407334,
2-14,A_Baseline,1,Q1FrontDown,-82.99998,28.63296,111.6594,-49.31083,-113.0389,162.6139,-51.66605,202408221333407666,
2-14,A_Baseline,1,Q1FrontDown,-82.99998,28.63296,111.6594,-49.31083,-113.0389,162.6139,-51.66605,202408221333407879,
2-14,A_Baseline,1,Q1FrontDown,-83.27341,28.66012,111.8825,-49.3111,-113.0092,162.645,-51.66577,202408221333408198,
2-14,A_Baseline,1,Q1FrontDown,-83.50432,28.69199,112.0726,-49.31166,-112.9794,162.6719,-51.66586,202408221333408518,
2-14,A_Baseline,1,Q1FrontDown,-83.71844,28.73193,112.2467,-49.31448,-112.962,162.7005,-51.66609,202408221333408836,
2-14,A_Baseline,1,Q1FrontDown,-83.71844,28.73193,112.2467,-49.31448,-112.962,162.7005,-51.66609,202408221333409011,
2-14,A_Baseline,1,Q1FrontDown,-83.91154,28.77371,112.4086,-49.31421,-112.9482,162.7211,-51.66581,202408221333409177,
2-14,A_Baseline,1,Q1FrontDown,-84.08543,28.81029,112.5574,-49.314,-112.931,162.7458,-51.66574,202408221333409335,
2-14,A_Baseline,1,Q1FrontDown,-84.08543,28.81029,112.5574,-49.314,-112.931,162.7458,-51.66574,202408221333409516,
2-14,A_Baseline,1,Q1FrontDown,-84.08543,28.81029,112.5574,-49.314,-112.931,162.7458,-51.66574,202408221333409683,
2-14,A_Baseline,1,Q1FrontDown,-84.24046,28.83943,112.6797,-49.31524,-112.9145,162.7661,-51.66593,202408221333409840,
2-14,A_Baseline,1,Q1FrontDown,-84.39928,28.85735,112.7851,-49.31582,-112.9043,162.7898,-51.666,202408221333410041,
2-14,A_Baseline,1,Q1FrontDown,-84.55404,28.86845,112.8917,-49.3162,-112.8925,162.8129,-51.66591,202408221333410355,
2-14,A_Baseline,1,Q1FrontDown,-84.55404,28.86845,112.8917,-49.3162,-112.8925,162.8129,-51.66591,202408221333410530,
2-14,A_Baseline,1,Q1FrontDown,-84.67805,28.88757,112.9889,-49.32189,-112.8882,162.8316,-51.66611,202408221333410853,
2-14,A_Baseline,1,Q1FrontDown,-84.78329,28.91854,113.0925,-49.32187,-112.8841,162.8473,-51.66605,202408221333411160,
2-14,A_Baseline,1,Q1FrontDown,-84.87763,28.94978,113.1917,-49.32197,-112.8768,162.8657,-51.66614,202408221333411330,
2-14,A_Baseline,1,Q1FrontDown,-84.87763,28.94978,113.1917,-49.32197,-112.8768,162.8657,-51.66614,202408221333411496,
2-14,A_Baseline,1,Q1FrontDown,-84.87763,28.94978,113.1917,-49.32197,-112.8768,162.8657,-51.66614,202408221333411661,
2-14,A_Baseline,1,Q1FrontDown,-84.96258,28.97985,113.2849,-49.32149,-112.8683,162.8833,-51.66559,202408221333411828,
2-14,A_Baseline,1,Q1FrontDown,-85.04333,29.00263,113.3583,-49.32183,-112.8624,162.8989,-51.66603,202408221333411988,
2-14,A_Baseline,1,Q1FrontDown,-85.04333,29.00263,113.3583,-49.32183,-112.8624,162.8989,-51.66603,202408221333412162,
2-14,A_Baseline,1,Q1FrontDown,-85.12538,29.01646,113.4111,-49.32252,-112.8532,162.9069,-51.66573,202408221333412336,
2-14,A_Baseline,1,Q1FrontDown,-85.12538,29.01646,113.4111,-49.32252,-112.8532,162.9069,-51.66573,202408221333412530,
2-14,A_Baseline,1,Q1FrontDown,-85.20116,29.02385,113.445,-49.32319,-112.8455,162.9147,-51.66595,202408221333412859,
2-14,A_Baseline,1,Q1FrontDown,-85.26936,29.03085,113.4799,-49.32374,-112.8383,162.9199,-51.66592,202408221333413024,
2-14,A_Baseline,1,Q1FrontDown,-85.3328,29.0397,113.5166,-49.32405,-112.833,162.926,-51.666,202408221333413341,
2-14,A_Baseline,1,Q1FrontDown,-85.3328,29.0397,113.5166,-49.32405,-112.833,162.926,-51.666,202408221333413515,
2-14,A_Baseline,1,Q1FrontDown,-85.3328,29.0397,113.5166,-49.32405,-112.833,162.926,-51.666,202408221333413680,
2-14,A_Baseline,1,Q1FrontDown,-85.39153,29.04937,113.5455,-49.32762,-112.8306,162.9361,-51.66592,202408221333413834,
2-14,A_Baseline,1,Q1FrontDown,-85.44725,29.05821,113.579,-49.3365,-112.8282,162.9421,-51.66598,202408221333414007,
2-14,A_Baseline,1,Q1FrontDown,-85.44725,29.05821,113.579,-49.3365,-112.8282,162.9421,-51.66598,202408221333414183,
2-14,A_Baseline,1,Q1FrontDown,-85.44725,29.05821,113.579,-49.3365,-112.8282,162.9421,-51.66598,202408221333414342,
2-14,A_Baseline,1,Q1FrontDown,-85.50134,29.06814,113.6203,-49.34961,-112.8251,162.9449,-51.66579,202408221333414512,
2-14,A_Baseline,1,Q1FrontDown,-85.59065,29.07878,113.6672,-49.38829,-112.8217,162.9485,-51.66558,202408221333414686,
2-14,A_Baseline,1,Q1FrontDown,-85.59065,29.07878,113.6672,-49.38829,-112.8217,162.9485,-51.66558,202408221333414843,
2-14,A_Baseline,1,Q1FrontDown,-85.68276,29.09257,113.7185,-49.43031,-112.8204,162.9511,-51.66613,202408221333415020,
2-14,A_Baseline,1,Q1FrontDown,-85.68276,29.09257,113.7185,-49.43031,-112.8204,162.9511,-51.66613,202408221333415192,
2-14,A_Baseline,1,Q1FrontDown,-85.77763,29.11478,113.7872,-49.47697,-112.8194,162.9527,-51.66585,202408221333415332,
2-14,A_Baseline,1,Q1FrontDown,-85.77763,29.11478,113.7872,-49.47697,-112.8194,162.9527,-51.66585,202408221333415525,
2-14,A_Baseline,1,Q1FrontDown,-85.87848,29.1384,113.8568,-49.51299,-112.819,162.9538,-51.66614,202408221333415836,
2-14,A_Baseline,1,Q1FrontDown,-86.00525,29.17219,113.9576,-49.56076,-112.8175,162.9543,-51.66628,202408221333416019,
2-14,A_Baseline,1,Q1FrontDown,-86.00525,29.17219,113.9576,-49.56076,-112.8175,162.9543,-51.66628,202408221333416185,
2-14,A_Baseline,1,Q1FrontDown,-86.14451,29.21467,114.0803,-49.62319,-112.8147,162.9547,-51.66641,202408221333416333,
2-14,A_Baseline,1,Q1FrontDown,-86.14451,29.21467,114.0803,-49.62319,-112.8147,162.9547,-51.66641,202408221333416507,
2-14,A_Baseline,1,Q1FrontDown,-86.28601,29.25742,114.203,-49.69496,-112.7899,162.9556,-51.66621,202408221333416677,
2-14,A_Baseline,1,Q1FrontDown,-86.28601,29.25742,114.203,-49.69496,-112.7899,162.9556,-51.66621,202408221333416847,
2-14,A_Baseline,1,Q1FrontDown,-86.43159,29.29935,114.3223,-49.77719,-112.7743,162.9565,-51.66623,202408221333417013,
2-14,A_Baseline,1,Q1FrontDown,-86.43159,29.29935,114.3223,-49.77719,-112.7743,162.9565,-51.66623,202408221333417184,
2-14,A_Baseline,1,Q1FrontDown,-86.58303,29.33876,114.4463,-49.86638,-112.7639,162.9571,-51.66569,202408221333417327,
2-14,A_Baseline,1,Q1FrontDown,-86.58303,29.33876,114.4463,-49.86638,-112.7639,162.9571,-51.66569,202408221333417533,
2-14,A_Baseline,1,Q1FrontDown,-86.58038,29.33923,114.4189,-49.85785,-112.7984,162.9536,-51.6634,202408221333417859,
2-14,A_Baseline,1,Q1FrontDown,-86.57443,29.33697,114.4026,-49.85778,-112.8212,162.9522,-51.66225,202408221333418168,
2-14,A_Baseline,1,Q1FrontDown,-86.55168,29.33527,114.3802,-49.8595,-112.8358,162.9484,-51.66171,202408221333418342,
2-14,A_Baseline,1,Q1FrontDown,-86.49957,29.328,114.3372,-49.86598,-112.8501,162.9456,-51.66142,202408221333418664,
2-14,A_Baseline,1,Q1FrontDown,-86.49957,29.328,114.3372,-49.86598,-112.8501,162.9456,-51.66142,202408221333418833,
2-14,A_Baseline,1,Q1FrontDown,-86.42213,29.32309,114.2766,-49.88846,-112.8622,162.9446,-51.66123,202408221333419013,
2-14,A_Baseline,1,Q1FrontDown,-86.42213,29.32309,114.2766,-49.88846,-112.8622,162.9446,-51.66123,202408221333419180,
2-14,A_Baseline,1,Q1FrontDown,-86.34653,29.3199,114.2152,-49.90895,-112.871,162.9441,-51.66082,202408221333419332,
2-14,A_Baseline,1,Q1FrontDown,-86.34653,29.3199,114.2152,-49.90895,-112.871,162.9441,-51.66082,202408221333419526,
2-14,A_Baseline,1,Q1FrontDown,-86.27534,29.30807,114.1496,-49.91735,-112.8741,162.9434,-51.66094,202408221333419684,
2-14,A_Baseline,1,Q1FrontDown,-86.27534,29.30807,114.1496,-49.91735,-112.8741,162.9434,-51.66094,202408221333419864,
2-14,A_Baseline,1,Q1FrontDown,-86.20173,29.29019,114.092,-49.92066,-112.8766,162.9436,-51.66064,202408221333420036,
2-14,A_Baseline,1,Q1FrontDown,-86.20173,29.29019,114.092,-49.92066,-112.8766,162.9436,-51.66064,202408221333420198,
2-14,A_Baseline,1,Q1FrontDown,-86.12671,29.2725,114.0301,-49.92848,-112.8783,162.9437,-51.66032,202408221333420354,
2-14,A_Baseline,1,Q1FrontDown,-86.03948,29.25367,113.9454,-49.93642,-112.8802,162.9428,-51.66055,202408221333420699,
2-14,A_Baseline,1,Q1FrontDown,-85.93847,29.23376,113.8536,-49.94284,-112.8806,162.9431,-51.66048,202408221333421005,
2-14,A_Baseline,1,Q1FrontDown,-85.93847,29.23376,113.8536,-49.94284,-112.8806,162.9431,-51.66048,202408221333421166,
2-14,A_Baseline,1,Q1FrontDown,-85.82283,29.21438,113.7511,-49.94631,-112.8811,162.9435,-51.66061,202408221333421331,
2-14,A_Baseline,1,Q1FrontDown,-85.82283,29.21438,113.7511,-49.94631,-112.8811,162.9435,-51.66061,202408221333421503,
2-14,A_Baseline,1,Q1FrontDown,-85.67094,29.19571,113.6029,-49.94599,-112.881,162.9426,-51.66023,202408221333421664,
2-14,A_Baseline,1,Q1FrontDown,-85.67094,29.19571,113.6029,-49.94599,-112.881,162.9426,-51.66023,202408221333421852,
2-14,A_Baseline,1,Q1FrontDown,-85.49969,29.17015,113.4341,-49.94513,-112.8813,162.9432,-51.66033,202408221333422008,
2-14,A_Baseline,1,Q1FrontDown,-85.49969,29.17015,113.4341,-49.94513,-112.8813,162.9432,-51.66033,202408221333422176,
2-14,A_Baseline,1,Q1FrontDown,-85.49969,29.17015,113.4341,-49.94513,-112.8813,162.9432,-51.66033,202408221333422340,
2-14,A_Baseline,1,Q1FrontDown,-85.3244,29.13781,113.2577,-49.94587,-112.8813,162.9432,-51.66023,202408221333422528,
2-14,A_Baseline,1,Q1FrontDown,-85.10653,29.10376,113.0288,-49.94643,-112.8815,162.942,-51.66055,202408221333422858,
2-14,A_Baseline,1,Q1FrontDown,-85.10653,29.10376,113.0288,-49.94643,-112.8815,162.942,-51.66055,202408221333423023,
2-14,A_Baseline,1,Q1FrontDown,-84.8525,29.06338,112.7541,-49.94537,-112.8815,162.943,-51.66014,202408221333423185,
2-14,A_Baseline,1,Q1FrontDown,-84.62202,29.01602,112.5071,-49.94713,-112.8817,162.9426,-51.6601,202408221333423348,
2-14,A_Baseline,1,Q1FrontDown,-84.62202,29.01602,112.5071,-49.94713,-112.8817,162.9426,-51.6601,202408221333423503,
2-14,A_Baseline,1,Q1FrontDown,-84.62202,29.01602,112.5071,-49.94713,-112.8817,162.9426,-51.6601,202408221333423678,
2-14,A_Baseline,1,Q1FrontDown,-84.30883,28.95706,112.1799,-49.94881,-112.882,162.9419,-51.66059,202408221333423842,
2-14,A_Baseline,1,Q1FrontDown,-83.97514,28.90291,111.8429,-49.94806,-112.8821,162.9422,-51.66045,202408221333424007,
2-14,A_Baseline,1,Q1FrontDown,-83.97514,28.90291,111.8429,-49.94806,-112.8821,162.9422,-51.66045,202408221333424174,
2-14,A_Baseline,1,Q1FrontDown,-83.97514,28.90291,111.8429,-49.94806,-112.8821,162.9422,-51.66045,202408221333424332,
2-14,A_Baseline,1,Q1FrontDown,-83.6443,28.83684,111.4984,-49.95211,-112.8826,162.942,-51.66019,202408221333424506,
2-14,A_Baseline,1,Q1FrontDown,-83.24496,28.75779,111.0622,-49.95123,-112.8825,162.9409,-51.66027,202408221333424688,
2-14,A_Baseline,1,Q1FrontDown,-83.24496,28.75779,111.0622,-49.95123,-112.8825,162.9409,-51.66027,202408221333424868,
2-14,A_Baseline,1,Q1FrontDown,-82.87176,28.6703,110.6731,-49.95082,-112.8819,162.9422,-51.66037,202408221333425011,
2-14,A_Baseline,1,Q1FrontDown,-82.87176,28.6703,110.6731,-49.95082,-112.8819,162.9422,-51.66037,202408221333425195,
2-14,A_Baseline,1,Q1FrontDown,-82.45385,28.55623,110.2225,-49.9537,-112.8826,162.9415,-51.66037,202408221333425510,
2-14,A_Baseline,1,Q1FrontDown,-82.00208,28.43884,109.7398,-49.9541,-112.8824,162.941,-51.66073,202408221333425852,
2-14,A_Baseline,1,Q1FrontDown,-81.52089,28.3126,109.2446,-49.95266,-112.8824,162.9413,-51.66036,202408221333426157,
2-14,A_Baseline,1,Q1FrontDown,-81.02197,28.17552,108.7226,-49.9623,-112.8825,162.9417,-51.66053,202408221333426333,
2-14,A_Baseline,1,Q1FrontDown,-81.02197,28.17552,108.7226,-49.9623,-112.8825,162.9417,-51.66053,202408221333426494,
2-14,A_Baseline,1,Q1FrontDown,-80.48264,28.02786,108.1624,-49.96098,-112.8827,162.9407,-51.66009,202408221333426658,
2-14,A_Baseline,1,Q1FrontDown,-80.48264,28.02786,108.1624,-49.96098,-112.8827,162.9407,-51.66009,202408221333426830,
2-14,A_Baseline,1,Q1FrontDown,-79.93414,27.8734,107.5939,-49.96198,-112.8823,162.9422,-51.66036,202408221333426999,
2-14,A_Baseline,1,Q1FrontDown,-79.93414,27.8734,107.5939,-49.96198,-112.8823,162.9422,-51.66036,202408221333427172,
2-14,A_Baseline,1,Q1FrontDown,-79.35295,27.69824,106.9895,-49.97674,-112.8823,162.9416,-51.66027,202408221333427328,
2-14,A_Baseline,1,Q1FrontDown,-79.35295,27.69824,106.9895,-49.97674,-112.8823,162.9416,-51.66027,202408221333427537,
2-14,A_Baseline,1,Q1FrontDown,-78.73438,27.51455,106.3415,-49.97768,-112.8832,162.9399,-51.6601,202408221333427862,
2-14,A_Baseline,1,Q1FrontDown,-78.10528,27.33079,105.6997,-49.98063,-112.8832,162.9403,-51.66032,202408221333428019,
2-14,A_Baseline,1,Q1FrontDown,-78.10528,27.33079,105.6997,-49.98063,-112.8832,162.9403,-51.66032,202408221333428340,
2-14,A_Baseline,1,Q1FrontDown,-76.75578,26.91579,104.2998,-49.99254,-112.8828,162.9394,-51.66003,202408221333428690,
2-14,A_Baseline,1,Q1FrontDown,-76.75578,26.91579,104.2998,-49.99254,-112.8828,162.9394,-51.66003,202408221333428842,
2-14,A_Baseline,1,Q1FrontDown,-76.03063,26.68341,103.5712,-50.00165,-112.883,162.9411,-51.66017,202408221333429006,
2-14,A_Baseline,1,Q1FrontDown,-76.03063,26.68341,103.5712,-50.00165,-112.883,162.9411,-51.66017,202408221333429176,
2-14,A_Baseline,1,Q1FrontDown,-75.31946,26.45435,102.8388,-50.01322,-112.8826,162.9412,-51.66018,202408221333429344,
2-14,A_Baseline,1,Q1FrontDown,-75.31946,26.45435,102.8388,-50.01322,-112.8826,162.9412,-51.66018,202408221333429505,
2-14,A_Baseline,1,Q1FrontDown,-74.51413,26.19736,102.0195,-50.01641,-112.8831,162.938,-51.66002,202408221333429683,
2-14,A_Baseline,1,Q1FrontDown,-74.51413,26.19736,102.0195,-50.01641,-112.8831,162.938,-51.66002,202408221333429868,
2-14,A_Baseline,1,Q1FrontDown,-73.72462,25.95704,101.2224,-50.02219,-112.883,162.9395,-51.6604,202408221333430026,
2-14,A_Baseline,1,Q1FrontDown,-73.72462,25.95704,101.2224,-50.02219,-112.883,162.9395,-51.6604,202408221333430213,
2-14,A_Baseline,1,Q1FrontDown,-72.92063,25.69688,100.4169,-50.03655,-112.8829,162.9379,-51.66037,202408221333430384,
2-14,A_Baseline,1,Q1FrontDown,-72.05625,25.42186,99.52365,-50.04034,-112.8833,162.9363,-51.66063,202408221333430683,
2-14,A_Baseline,1,Q1FrontDown,-72.05625,25.42186,99.52365,-50.04034,-112.8833,162.9363,-51.66063,202408221333430847,
2-14,A_Baseline,1,Q1FrontDown,-71.17022,25.14184,98.64413,-50.05112,-112.8826,162.9395,-51.6604,202408221333431013,
2-14,A_Baseline,1,Q1FrontDown,-71.17022,25.14184,98.64413,-50.05112,-112.8826,162.9395,-51.6604,202408221333431174,
2-14,A_Baseline,1,Q1FrontDown,-70.27624,24.84608,97.74091,-50.05834,-112.8817,162.9427,-51.66014,202408221333431342,
2-14,A_Baseline,1,Q1FrontDown,-70.27624,24.84608,97.74091,-50.05834,-112.8817,162.9427,-51.66014,202408221333431514,
2-14,A_Baseline,1,Q1FrontDown,-69.355,24.54786,96.7873,-50.06587,-112.8822,162.9396,-51.66053,202408221333431668,
2-14,A_Baseline,1,Q1FrontDown,-68.40193,24.24116,95.84192,-50.06892,-112.8828,162.9373,-51.66041,202408221333431999,
2-14,A_Baseline,1,Q1FrontDown,-68.40193,24.24116,95.84192,-50.06892,-112.8828,162.9373,-51.66041,202408221333432173,
2-14,A_Baseline,1,Q1FrontDown,-67.4427,23.92599,94.86235,-50.08116,-112.8818,162.9391,-51.66041,202408221333432334,
2-14,A_Baseline,1,Q1FrontDown,-67.4427,23.92599,94.86235,-50.08116,-112.8818,162.9391,-51.66041,202408221333432494,
2-14,A_Baseline,1,Q1FrontDown,-66.43493,23.60632,93.83968,-50.08745,-112.8815,162.9402,-51.6601,202408221333432659,
2-14,A_Baseline,1,Q1FrontDown,-66.43493,23.60632,93.83968,-50.08745,-112.8815,162.9402,-51.6601,202408221333432860,
2-14,A_Baseline,1,Q1FrontDown,-65.41885,23.25936,92.81812,-50.09136,-112.8827,162.9375,-51.66027,202408221333433192,
2-14,A_Baseline,1,Q1FrontDown,-64.41074,22.93873,91.80819,-50.10878,-112.8814,162.9396,-51.66016,202408221333433520,
2-14,A_Baseline,1,Q1FrontDown,-63.31282,22.59462,90.68021,-50.11308,-112.882,162.9394,-51.65991,202408221333433839,
2-14,A_Baseline,1,Q1FrontDown,-62.2208,22.22396,89.59094,-50.12257,-112.8824,162.9372,-51.66023,202408221333434010,
2-14,A_Baseline,1,Q1FrontDown,-62.2208,22.22396,89.59094,-50.12257,-112.8824,162.9372,-51.66023,202408221333434177,
2-14,A_Baseline,1,Q1FrontDown,-62.2208,22.22396,89.59094,-50.12257,-112.8824,162.9372,-51.66023,202408221333434335,
2-14,A_Baseline,1,Q1FrontDown,-61.13568,21.874,88.51439,-50.13679,-112.8823,162.9428,-51.66055,202408221333434511,
2-14,A_Baseline,1,Q1FrontDown,-59.97739,21.5091,87.32392,-50.14402,-112.8813,162.9367,-51.66023,202408221333434698,
2-14,A_Baseline,1,Q1FrontDown,-58.82379,21.14016,86.16913,-50.15202,-112.8811,162.9424,-51.6605,202408221333435046,
2-14,A_Baseline,1,Q1FrontDown,-57.64888,20.74001,84.98756,-50.17162,-112.8812,162.9399,-51.66055,202408221333435372,
2-14,A_Baseline,1,Q1FrontDown,-57.64888,20.74001,84.98756,-50.17162,-112.8812,162.9399,-51.66055,202408221333435681,
2-14,A_Baseline,1,Q1FrontDown,-56.44818,20.36043,83.77357,-50.17801,-112.882,162.9364,-51.66073,202408221333435850,
2-14,A_Baseline,1,Q1FrontDown,-55.23389,19.96683,82.56263,-50.1879,-112.8797,162.9425,-51.66032,202408221333436149,
2-14,A_Baseline,1,Q1FrontDown,-54.00799,19.57281,81.32617,-50.20566,-112.8776,162.9406,-51.66032,202408221333436333,
2-14,A_Baseline,1,Q1FrontDown,-54.00799,19.57281,81.32617,-50.20566,-112.8776,162.9406,-51.66032,202408221333436496,
2-14,A_Baseline,1,Q1FrontDown,-52.7485,19.16868,80.04961,-50.21627,-112.8789,162.9403,-51.66033,202408221333436672,
2-14,A_Baseline,1,Q1FrontDown,-52.7485,19.16868,80.04961,-50.21627,-112.8789,162.9403,-51.66033,202408221333436835,
2-14,A_Baseline,1,Q1FrontDown,-51.44064,18.73834,78.73843,-50.2262,-112.8782,162.9427,-51.66037,202408221333437016,
2-14,A_Baseline,1,Q1FrontDown,-51.44064,18.73834,78.73843,-50.2262,-112.8782,162.9427,-51.66037,202408221333437171,
2-14,A_Baseline,1,Q1FrontDown,-50.18137,18.33903,77.49115,-50.24579,-112.8767,162.9398,-51.66008,202408221333437352,
2-14,A_Baseline,1,Q1FrontDown,-48.87491,17.91301,76.16182,-50.25406,-112.8775,162.9355,-51.66087,202408221333437694,
2-14,A_Baseline,1,Q1FrontDown,-47.54092,17.48104,74.84547,-50.27317,-112.8763,162.9415,-51.66083,202408221333438027,
2-14,A_Baseline,1,Q1FrontDown,-46.19681,17.04465,73.50285,-50.29169,-112.8733,162.9434,-51.66059,202408221333438332,
2-14,A_Baseline,1,Q1FrontDown,-46.19681,17.04465,73.50285,-50.29169,-112.8733,162.9434,-51.66059,202408221333438501,
2-14,A_Baseline,1,Q1FrontDown,-44.83232,16.62199,72.12688,-50.30094,-112.8715,162.9407,-51.66055,202408221333438676,
2-14,A_Baseline,1,Q1FrontDown,-44.83232,16.62199,72.12688,-50.30094,-112.8715,162.9407,-51.66055,202408221333438830,
2-14,A_Baseline,1,Q1FrontDown,-43.46189,16.16852,70.75808,-50.3194,-112.8708,162.9424,-51.66019,202408221333439009,
2-14,A_Baseline,1,Q1FrontDown,-43.46189,16.16852,70.75808,-50.3194,-112.8708,162.9424,-51.66019,202408221333439189,
2-14,A_Baseline,1,Q1FrontDown,-42.07367,15.71302,69.36591,-50.34356,-112.8697,162.9428,-51.66032,202408221333439344,
2-14,A_Baseline,1,Q1FrontDown,-42.07367,15.71302,69.36591,-50.34356,-112.8697,162.9428,-51.66032,202408221333439671,
2-14,A_Baseline,1,Q1FrontDown,-40.66064,15.27525,67.94378,-50.35944,-112.8683,162.9416,-51.66059,202408221333439887,
2-14,A_Baseline,1,Q1FrontDown,-39.24818,14.79995,66.52849,-50.38533,-112.8682,162.945,-51.66055,202408221333440088,
2-14,A_Baseline,1,Q1FrontDown,-37.85189,14.34873,65.14495,-50.41354,-112.867,162.9458,-51.66047,202408221333440352,
2-14,A_Baseline,1,Q1FrontDown,-36.35611,13.87465,63.63723,-50.43773,-112.8661,162.9449,-51.66078,202408221333440684,
2-14,A_Baseline,1,Q1FrontDown,-36.35611,13.87465,63.63723,-50.43773,-112.8661,162.9449,-51.66078,202408221333440852,
2-14,A_Baseline,1,Q1FrontDown,-34.89669,13.39477,62.1899,-50.47232,-112.8651,162.9463,-51.66085,202408221333441153,
2-14,A_Baseline,1,Q1FrontDown,-33.46586,12.92916,60.77007,-50.50631,-112.864,162.9463,-51.66023,202408221333441328,
2-14,A_Baseline,1,Q1FrontDown,-33.46586,12.92916,60.77007,-50.50631,-112.864,162.9463,-51.66023,202408221333441505,
2-14,A_Baseline,1,Q1FrontDown,-33.46586,12.92916,60.77007,-50.50631,-112.864,162.9463,-51.66023,202408221333441664,
2-14,A_Baseline,1,Q1FrontDown,-31.92587,12.43766,59.22363,-50.53584,-112.8628,162.9455,-51.66042,202408221333441823,
2-14,A_Baseline,1,Q1FrontDown,-30.42705,11.94781,57.74353,-50.57776,-112.8591,162.9462,-51.66088,202408221333441994,
2-14,A_Baseline,1,Q1FrontDown,-30.42705,11.94781,57.74353,-50.57776,-112.8591,162.9462,-51.66088,202408221333442156,
2-14,A_Baseline,1,Q1FrontDown,-30.42705,11.94781,57.74353,-50.57776,-112.8591,162.9462,-51.66088,202408221333442333,
2-14,A_Baseline,1,Q1FrontDown,-28.91217,11.46137,56.24659,-50.6147,-112.8549,162.9473,-51.66039,202408221333442493,
2-14,A_Baseline,1,Q1FrontDown,-27.38741,10.96668,54.71562,-50.64882,-112.8531,162.9462,-51.66082,202408221333442660,
2-14,A_Baseline,1,Q1FrontDown,-27.38741,10.96668,54.71562,-50.64882,-112.8531,162.9462,-51.66082,202408221333442842,
2-14,A_Baseline,1,Q1FrontDown,-25.85742,10.47339,53.20682,-50.6931,-112.8496,162.9482,-51.66057,202408221333443025,
2-14,A_Baseline,1,Q1FrontDown,-24.36398,9.989823,51.73161,-50.72953,-112.8463,162.9482,-51.66032,202408221333443353,
2-14,A_Baseline,1,Q1FrontDown,-22.76339,9.468596,50.13184,-50.76438,-112.8442,162.9482,-51.66068,202408221333443667,
2-14,A_Baseline,1,Q1FrontDown,-22.76339,9.468596,50.13184,-50.76438,-112.8442,162.9482,-51.66068,202408221333443841,
2-14,A_Baseline,1,Q1FrontDown,-21.20566,8.966322,48.59674,-50.80202,-112.8424,162.9498,-51.66047,202408221333444007,
2-14,A_Baseline,1,Q1FrontDown,-21.20566,8.966322,48.59674,-50.80202,-112.8424,162.9498,-51.66047,202408221333444171,
2-14,A_Baseline,1,Q1FrontDown,-19.68636,8.475003,47.09829,-50.82575,-112.8377,162.9496,-51.66048,202408221333444331,
2-14,A_Baseline,1,Q1FrontDown,-19.68636,8.475003,47.09829,-50.82575,-112.8377,162.9496,-51.66048,202408221333444519,
2-14,A_Baseline,1,Q1FrontDown,-18.05416,7.948339,45.47612,-50.85023,-112.8331,162.9482,-51.66034,202408221333444671,
2-14,A_Baseline,1,Q1FrontDown,-18.05416,7.948339,45.47612,-50.85023,-112.8331,162.9482,-51.66034,202408221333444840,
2-14,A_Baseline,1,Q1FrontDown,-18.05416,7.948339,45.47612,-50.85023,-112.8331,162.9482,-51.66034,202408221333445042,
2-14,A_Baseline,1,Q1FrontDown,-14.93676,6.939933,42.40055,-50.87817,-112.825,162.9485,-51.66058,202408221333445346,
2-14,A_Baseline,1,Q1FrontDown,-14.93676,6.939933,42.40055,-50.87817,-112.825,162.9485,-51.66058,202408221333445673,
2-14,A_Baseline,1,Q1FrontDown,-13.28539,6.402352,40.76279,-50.88996,-112.821,162.949,-51.66008,202408221333445839,
2-14,A_Baseline,1,Q1FrontDown,-11.701,5.879755,39.18899,-50.89954,-112.8183,162.9503,-51.66059,202408221333446003,
2-14,A_Baseline,1,Q1FrontDown,-10.10009,5.347934,37.60235,-50.90596,-112.817,162.9504,-51.6605,202408221333446321,
2-14,A_Baseline,1,Q1FrontDown,-10.10009,5.347934,37.60235,-50.90596,-112.817,162.9504,-51.6605,202408221333446498,
2-14,A_Baseline,1,Q1FrontDown,-8.488729,4.819742,35.9958,-50.91193,-112.8173,162.9504,-51.66075,202408221333446668,
2-14,A_Baseline,1,Q1FrontDown,-8.488729,4.819742,35.9958,-50.91193,-112.8173,162.9504,-51.66075,202408221333446852,
2-14,A_Baseline,1,Q1FrontDown,-6.843601,4.266416,34.35682,-50.91707,-112.8164,162.9489,-51.66105,202408221333447004,
2-14,A_Baseline,1,Q1FrontDown,-6.843601,4.266416,34.35682,-50.91707,-112.8164,162.9489,-51.66105,202408221333447183,
2-14,A_Baseline,1,Q1FrontDown,-5.330096,3.75712,32.86235,-50.92179,-112.8148,162.9486,-51.66072,202408221333447373,
2-14,A_Baseline,1,Q1FrontDown,-5.330096,3.75712,32.86235,-50.92179,-112.8148,162.9486,-51.66072,202408221333447562,
2-14,A_Baseline,1,Q1FrontDown,-3.664548,3.209507,31.19962,-50.92677,-112.8137,162.9484,-51.66072,202408221333447858,
2-14,A_Baseline,1,Q1FrontDown,-2.059819,2.664331,29.6097,-50.92833,-112.8128,162.9503,-51.66076,202408221333448194,
2-14,A_Baseline,1,Q1FrontDown,-0.4434338,2.118541,28.01433,-50.92958,-112.8104,162.9546,-51.66064,202408221333448350,
2-14,A_Baseline,1,Q1FrontDown,-0.4434338,2.118541,28.01433,-50.92958,-112.8104,162.9546,-51.66064,202408221333448520,
2-14,A_Baseline,1,Q1FrontDown,1.183284,1.575393,26.40046,-50.93244,-112.8088,162.9586,-51.66027,202408221333448688,
2-14,A_Baseline,1,Q1FrontDown,1.183284,1.575393,26.40046,-50.93244,-112.8088,162.9586,-51.66027,202408221333448841,
2-14,A_Baseline,1,Q1FrontDown,1.183284,1.575393,26.40046,-50.93244,-112.8088,162.9586,-51.66027,202408221333449025,
2-14,A_Baseline,1,Q1FrontDown,2.789706,1.027487,24.80414,-50.93433,-112.8026,162.9615,-51.66055,202408221333449183,
2-14,A_Baseline,1,Q1FrontDown,4.414646,0.4698362,23.20577,-50.93843,-112.7983,162.9643,-51.66093,202408221333449350,
2-14,A_Baseline,1,Q1FrontDown,4.414646,0.4698362,23.20577,-50.93843,-112.7983,162.9643,-51.66093,202408221333449526,
2-14,A_Baseline,1,Q1FrontDown,6.038158,-0.08885121,21.58988,-50.94027,-112.7949,162.9643,-51.66062,202408221333449697,
2-14,A_Baseline,1,Q1FrontDown,6.038158,-0.08885121,21.58988,-50.94027,-112.7949,162.9643,-51.66062,202408221333449873,
2-14,A_Baseline,1,Q1FrontDown,7.64436,-0.6401037,20.00001,-50.94281,-112.7893,162.9646,-51.66065,202408221333450187,
2-14,A_Baseline,1,Q1FrontDown,7.64436,-0.6401037,20.00001,-50.94281,-112.7893,162.9646,-51.66065,202408221333450347,
2-14,A_Baseline,1,Q1FrontDown,10.87421,-1.761427,16.81178,-50.94262,-112.7805,162.9638,-51.66078,202408221333450663,
2-14,A_Baseline,1,Q1FrontDown,10.87421,-1.761427,16.81178,-50.94262,-112.7805,162.9638,-51.66078,202408221333450876,
2-14,A_Baseline,1,Q1FrontDown,12.46878,-2.316674,15.22289,-50.94318,-112.7778,162.963,-51.66068,202408221333451171,
2-14,A_Baseline,1,Q1FrontDown,14.07455,-2.876272,13.6483,-50.94339,-112.776,162.9637,-51.66054,202408221333451340,
2-14,A_Baseline,1,Q1FrontDown,14.07455,-2.876272,13.6483,-50.94339,-112.776,162.9637,-51.66054,202408221333451515,
2-14,A_Baseline,1,Q1FrontDown,15.68554,-3.437129,12.05193,-50.94531,-112.7742,162.9654,-51.6606,202408221333451847,
2-14,A_Baseline,1,Q1FrontDown,17.26593,-3.993162,10.47555,-50.94383,-112.7717,162.9662,-51.66067,202408221333452011,
2-14,A_Baseline,1,Q1FrontDown,18.85626,-4.563742,8.903562,-50.94215,-112.7687,162.9754,-51.66091,202408221333452348,
2-14,A_Baseline,1,Q1FrontDown,18.85626,-4.563742,8.903562,-50.94215,-112.7687,162.9754,-51.66091,202408221333452519,
2-14,A_Baseline,1,Q1FrontDown,20.4437,-5.121567,7.321544,-50.94538,-112.765,162.9815,-51.66084,202408221333452703,
2-14,A_Baseline,1,Q1FrontDown,22.01117,-5.668461,5.762094,-50.94493,-112.7585,162.9849,-51.66069,202408221333453013,
2-14,A_Baseline,1,Q1FrontDown,22.01117,-5.668461,5.762094,-50.94493,-112.7585,162.9849,-51.66069,202408221333453185,
2-14,A_Baseline,1,Q1FrontDown,23.57787,-6.243039,4.207477,-50.94322,-112.753,162.9876,-51.66103,202408221333453354,
2-14,A_Baseline,1,Q1FrontDown,25.14523,-6.800097,2.644351,-50.94563,-112.748,162.9916,-51.66036,202408221333453661,
2-14,A_Baseline,1,Q1FrontDown,25.14523,-6.800097,2.644351,-50.94563,-112.748,162.9916,-51.66036,202408221333453845,
2-14,A_Baseline,1,Q1FrontDown,26.68097,-7.345933,1.103811,-50.94521,-112.7408,162.9956,-51.66087,202408221333454017,
2-14,A_Baseline,1,Q1FrontDown,26.68097,-7.345933,1.103811,-50.94521,-112.7408,162.9956,-51.66087,202408221333454176,
2-14,A_Baseline,1,Q1FrontDown,28.18719,-7.896178,-0.3781355,-50.94302,-112.7322,162.9992,-51.66077,202408221333454332,
2-14,A_Baseline,1,Q1FrontDown,28.18719,-7.896178,-0.3781355,-50.94302,-112.7322,162.9992,-51.66077,202408221333454508,
2-14,A_Baseline,1,Q1FrontDown,29.76497,-8.457427,-1.95535,-50.94257,-112.7259,163.0045,-51.66055,202408221333454705,
2-14,A_Baseline,1,Q1FrontDown,29.76497,-8.457427,-1.95535,-50.94257,-112.7259,163.0045,-51.66055,202408221333454847,
2-14,A_Baseline,1,Q1FrontDown,31.27491,-9.01064,-3.475989,-50.94364,-112.7201,163.0076,-51.66073,202408221333455027,
2-14,A_Baseline,1,Q1FrontDown,31.27491,-9.01064,-3.475989,-50.94364,-112.7201,163.0076,-51.66073,202408221333455203,
2-14,A_Baseline,1,Q1FrontDown,32.7877,-9.565881,-4.979174,-50.94169,-112.7157,163.0116,-51.66087,202408221333455361,
2-14,A_Baseline,1,Q1FrontDown,34.29012,-10.10079,-6.478545,-50.94217,-112.7097,163.0168,-51.66093,202408221333455708,
2-14,A_Baseline,1,Q1FrontDown,34.29012,-10.10079,-6.478545,-50.94217,-112.7097,163.0168,-51.66093,202408221333455873,
2-14,A_Baseline,1,Q1FrontDown,35.75959,-10.6466,-7.970397,-50.94106,-112.704,163.0205,-51.66069,202408221333456177,
2-14,A_Baseline,1,Q1FrontDown,37.23926,-11.19425,-9.450157,-50.93924,-112.6971,163.0238,-51.66073,202408221333456341,
2-14,A_Baseline,1,Q1FrontDown,37.23926,-11.19425,-9.450157,-50.93924,-112.6971,163.0238,-51.66073,202408221333456521,
2-14,A_Baseline,1,Q1FrontDown,38.69921,-11.71623,-10.91818,-50.93941,-112.6902,163.0294,-51.6606,202408221333456827,
2-14,A_Baseline,1,Q1FrontDown,38.69921,-11.71623,-10.91818,-50.93941,-112.6902,163.0294,-51.6606,202408221333457007,
2-14,A_Baseline,1,Q1FrontDown,40.13501,-12.25273,-12.37125,-50.93871,-112.6826,163.0315,-51.66085,202408221333457190,
2-14,A_Baseline,1,Q1FrontDown,41.56612,-12.78578,-13.81629,-50.93747,-112.6776,163.0365,-51.66128,202408221333457372,
2-14,A_Baseline,1,Q1FrontDown,41.56612,-12.78578,-13.81629,-50.93747,-112.6776,163.0365,-51.66128,202408221333457697,
2-14,A_Baseline,1,Q1FrontDown,44.37668,-13.81839,-16.66535,-50.93653,-112.6633,163.0445,-51.66133,202408221333458039,
2-14,A_Baseline,1,Q1FrontDown,45.76356,-14.33331,-18.07149,-50.93383,-112.6539,163.0483,-51.66142,202408221333458345,
2-14,A_Baseline,1,Q1FrontDown,47.13535,-14.83249,-19.45814,-50.93278,-112.6471,163.0576,-51.66104,202408221333458665,
2-14,A_Baseline,1,Q1FrontDown,47.13535,-14.83249,-19.45814,-50.93278,-112.6471,163.0576,-51.66104,202408221333458854,
2-14,A_Baseline,1,Q1FrontDown,48.47083,-15.33544,-20.83086,-50.93177,-112.6398,163.0598,-51.66113,202408221333459015,
2-14,A_Baseline,1,Q1FrontDown,48.47083,-15.33544,-20.83086,-50.93177,-112.6398,163.0598,-51.66113,202408221333459187,
2-14,A_Baseline,1,Q1FrontDown,49.77023,-15.81848,-22.14668,-50.93259,-112.6319,163.0617,-51.66151,202408221333459352,
2-14,A_Baseline,1,Q1FrontDown,49.77023,-15.81848,-22.14668,-50.93259,-112.6319,163.0617,-51.66151,202408221333459541,
2-14,A_Baseline,1,Q1FrontDown,51.12535,-16.31232,-23.53741,-50.93296,-112.6231,163.0708,-51.66103,202408221333459870,
2-14,A_Baseline,1,Q1FrontDown,52.36987,-16.78167,-24.82282,-50.93362,-112.6175,163.0782,-51.6613,202408221333460207,
2-14,A_Baseline,1,Q1FrontDown,52.36987,-16.78167,-24.82282,-50.93362,-112.6175,163.0782,-51.6613,202408221333460372,
2-14,A_Baseline,1,Q1FrontDown,54.95527,-17.72852,-27.46451,-50.93616,-112.603,163.0874,-51.66163,202408221333460697,
2-14,A_Baseline,1,Q1FrontDown,56.18811,-18.19341,-28.73756,-50.93633,-112.5964,163.0927,-51.66149,202408221333461008,
2-14,A_Baseline,1,Q1FrontDown,56.18811,-18.19341,-28.73756,-50.93633,-112.5964,163.0927,-51.66149,202408221333461173,
2-14,A_Baseline,1,Q1FrontDown,57.41684,-18.65114,-29.99928,-50.93581,-112.5887,163.0995,-51.66154,202408221333461329,
2-14,A_Baseline,1,Q1FrontDown,57.41684,-18.65114,-29.99928,-50.93581,-112.5887,163.0995,-51.66154,202408221333461502,
2-14,A_Baseline,1,Q1FrontDown,57.41684,-18.65114,-29.99928,-50.93581,-112.5887,163.0995,-51.66154,202408221333461666,
2-14,A_Baseline,1,Q1FrontDown,58.62533,-19.09133,-31.22585,-50.93652,-112.5822,163.1053,-51.66122,202408221333461833,
2-14,A_Baseline,1,Q1FrontDown,59.79055,-19.5224,-32.4524,-50.93953,-112.5799,163.1115,-51.6618,202408221333461997,
2-14,A_Baseline,1,Q1FrontDown,59.79055,-19.5224,-32.4524,-50.93953,-112.5799,163.1115,-51.6618,202408221333462168,
2-14,A_Baseline,1,Q1FrontDown,59.79055,-19.5224,-32.4524,-50.93953,-112.5799,163.1115,-51.6618,202408221333462345,
2-14,A_Baseline,1,Q1FrontDown,60.96503,-19.9573,-33.65445,-50.94013,-112.5745,163.1147,-51.66197,202408221333462522,
2-14,A_Baseline,1,Q1FrontDown,62.10758,-20.37012,-34.81962,-50.9427,-112.5694,163.1167,-51.66178,202408221333462704,
2-14,A_Baseline,1,Q1FrontDown,63.22297,-20.77795,-35.98074,-50.94121,-112.5626,163.1224,-51.66179,202408221333463010,
2-14,A_Baseline,1,Q1FrontDown,63.22297,-20.77795,-35.98074,-50.94121,-112.5626,163.1224,-51.66179,202408221333463197,
2-14,A_Baseline,1,Q1FrontDown,64.32362,-21.19221,-37.11445,-50.94448,-112.5599,163.1221,-51.66199,202408221333463502,
2-14,A_Baseline,1,Q1FrontDown,65.37273,-21.56436,-38.19798,-50.95098,-112.5549,163.1337,-51.6621,202408221333463674,
2-14,A_Baseline,1,Q1FrontDown,65.37273,-21.56436,-38.19798,-50.95098,-112.5549,163.1337,-51.6621,202408221333463842,
2-14,A_Baseline,1,Q1FrontDown,66.44958,-21.95408,-39.30527,-50.95374,-112.5493,163.1354,-51.66193,202408221333464001,
2-14,A_Baseline,1,Q1FrontDown,66.44958,-21.95408,-39.30527,-50.95374,-112.5493,163.1354,-51.66193,202408221333464167,
2-14,A_Baseline,1,Q1FrontDown,67.49267,-22.3398,-40.38675,-50.95638,-112.5436,163.1392,-51.66229,202408221333464327,
2-14,A_Baseline,1,Q1FrontDown,67.49267,-22.3398,-40.38675,-50.95638,-112.5436,163.1392,-51.66229,202408221333464503,
2-14,A_Baseline,1,Q1FrontDown,68.50327,-22.70182,-41.42476,-50.96251,-112.5415,163.1417,-51.66245,202408221333464676,
2-14,A_Baseline,1,Q1FrontDown,68.50327,-22.70182,-41.42476,-50.96251,-112.5415,163.1417,-51.66245,202408221333464846,
2-14,A_Baseline,1,Q1FrontDown,68.50327,-22.70182,-41.42476,-50.96251,-112.5415,163.1417,-51.66245,202408221333465026,
2-14,A_Baseline,1,Q1FrontDown,69.47775,-23.05062,-42.43903,-50.96862,-112.5389,163.1417,-51.66211,202408221333465197,
2-14,A_Baseline,1,Q1FrontDown,70.46355,-23.40871,-43.44145,-50.9762,-112.5337,163.1453,-51.66222,202408221333465359,
2-14,A_Baseline,1,Q1FrontDown,71.40181,-23.73404,-44.4122,-50.98168,-112.5299,163.1436,-51.66216,202408221333465693,
2-14,A_Baseline,1,Q1FrontDown,72.31387,-24.06269,-45.34462,-50.99417,-112.5264,163.1465,-51.66243,202408221333466013,
2-14,A_Baseline,1,Q1FrontDown,73.19045,-24.39171,-46.255,-51.00399,-112.523,163.1499,-51.66243,202408221333466324,
2-14,A_Baseline,1,Q1FrontDown,73.19045,-24.39171,-46.255,-51.00399,-112.523,163.1499,-51.66243,202408221333466484,
2-14,A_Baseline,1,Q1FrontDown,74.08873,-24.69029,-47.16239,-51.01494,-112.5207,163.1511,-51.66267,202408221333466665,
2-14,A_Baseline,1,Q1FrontDown,74.08873,-24.69029,-47.16239,-51.01494,-112.5207,163.1511,-51.66267,202408221333466834,
2-14,A_Baseline,1,Q1FrontDown,74.92507,-24.99281,-48.02676,-51.02352,-112.5186,163.1568,-51.6627,202408221333467005,
2-14,A_Baseline,1,Q1FrontDown,74.92507,-24.99281,-48.02676,-51.02352,-112.5186,163.1568,-51.6627,202408221333467170,
2-14,A_Baseline,1,Q1FrontDown,75.75133,-25.28312,-48.88157,-51.03765,-112.5185,163.1573,-51.66243,202408221333467340,
2-14,A_Baseline,1,Q1FrontDown,75.75133,-25.28312,-48.88157,-51.03765,-112.5185,163.1573,-51.66243,202408221333467534,
2-14,A_Baseline,1,Q1FrontDown,76.55095,-25.56232,-49.67927,-51.05126,-112.5159,163.1646,-51.66288,202408221333467723,
2-14,A_Baseline,1,Q1FrontDown,77.30602,-25.83311,-50.47019,-51.06555,-112.5149,163.1663,-51.66309,202408221333468025,
2-14,A_Baseline,1,Q1FrontDown,77.30602,-25.83311,-50.47019,-51.06555,-112.5149,163.1663,-51.66309,202408221333468196,
2-14,A_Baseline,1,Q1FrontDown,77.30602,-25.83311,-50.47019,-51.06555,-112.5149,163.1663,-51.66309,202408221333468497,
2-14,A_Baseline,1,Q1FrontDown,78.77673,-26.33526,-51.95549,-51.09715,-112.507,163.1686,-51.6625,202408221333468669,
2-14,A_Baseline,1,Q1FrontDown,78.77673,-26.33526,-51.95549,-51.09715,-112.507,163.1686,-51.6625,202408221333468855,
2-14,A_Baseline,1,Q1FrontDown,78.77673,-26.33526,-51.95549,-51.09715,-112.507,163.1686,-51.6625,202408221333469018,
2-14,A_Baseline,1,Q1FrontDown,79.46301,-26.56809,-52.65689,-51.10959,-112.5034,163.17,-51.66282,202408221333469186,
