mpan31415/robot-x-ar/study2/data/raw_all_participants/Participant_2-18_1.csv
ParticipantID,Condition,Trial,PostureID,J1,J2,J3,J4,J5,J6,J7,Timestamp,
2-18,A_Baseline,1,Q1FrontDown,-50.12555,42.06068,85.23874,-33.73793,-143.0258,144.0328,-23.37844,202408261527123959,
2-18,A_Baseline,1,Q1FrontDown,-50.12606,42.06066,85.23891,-33.73786,-143.0259,144.0329,-23.37842,202408261527124366,
2-18,A_Baseline,1,Q1FrontDown,-50.12646,42.06076,85.2388,-33.73812,-143.0257,144.0327,-23.37823,202408261527124688,
2-18,A_Baseline,1,Q1FrontDown,-50.12646,42.06076,85.2388,-33.73812,-143.0257,144.0327,-23.37823,202408261527124866,
2-18,A_Baseline,1,Q1FrontDown,-50.12676,42.06076,85.23914,-33.73789,-143.0258,144.0329,-23.37806,202408261527125049,
2-18,A_Baseline,1,Q1FrontDown,-50.12676,42.06076,85.23914,-33.73789,-143.0258,144.0329,-23.37806,202408261527125225,
2-18,A_Baseline,1,Q1FrontDown,-50.13232,42.06056,85.23861,-33.74429,-143.0188,144.033,-23.37823,202408261527125560,
2-18,A_Baseline,1,Q1FrontDown,-50.13232,42.06056,85.23861,-33.74429,-143.0188,144.033,-23.37823,202408261527125760,
2-18,A_Baseline,1,Q1FrontDown,-50.13733,42.06087,85.2383,-33.7515,-143.0132,144.0332,-23.3784,202408261527126001,
2-18,A_Baseline,1,Q1FrontDown,-50.14031,42.06066,85.23795,-33.75439,-143.0069,144.0338,-23.3785,202408261527126179,
2-18,A_Baseline,1,Q1FrontDown,-50.14348,42.06064,85.23791,-33.75602,-142.997,144.0339,-23.37852,202408261527126480,
2-18,A_Baseline,1,Q1FrontDown,-50.14571,42.06059,85.23798,-33.75672,-142.9902,144.034,-23.37834,202408261527126833,
2-18,A_Baseline,1,Q1FrontDown,-50.14622,42.0604,85.23787,-33.75889,-142.9875,144.0344,-23.37858,202408261527127139,
2-18,A_Baseline,1,Q1FrontDown,-50.14622,42.0604,85.23787,-33.75889,-142.9875,144.0344,-23.37858,202408261527127322,
2-18,A_Baseline,1,Q1FrontDown,-50.14798,42.06071,85.238,-33.76004,-142.9858,144.0347,-23.37839,202408261527127483,
2-18,A_Baseline,1,Q1FrontDown,-50.14798,42.06071,85.238,-33.76004,-142.9858,144.0347,-23.37839,202408261527127676,
2-18,A_Baseline,1,Q1FrontDown,-50.1495,42.06061,85.23767,-33.76189,-142.985,144.0346,-23.37869,202408261527127910,
2-18,A_Baseline,1,Q1FrontDown,-50.15191,42.06056,85.23784,-33.76508,-142.9846,144.0349,-23.37831,202408261527128183,
2-18,A_Baseline,1,Q1FrontDown,-50.15792,42.06087,85.23768,-33.77205,-142.9844,144.0351,-23.37818,202408261527128398,
2-18,A_Baseline,1,Q1FrontDown,-50.15792,42.06087,85.23768,-33.77205,-142.9844,144.0351,-23.37818,202408261527128662,
2-18,A_Baseline,1,Q1FrontDown,-50.16424,42.0605,85.23764,-33.7792,-142.9839,144.0352,-23.37858,202408261527128831,
2-18,A_Baseline,1,Q1FrontDown,-50.17018,42.06056,85.23756,-33.784,-142.9835,144.0352,-23.37847,202408261527129049,
2-18,A_Baseline,1,Q1FrontDown,-50.17018,42.06056,85.23756,-33.784,-142.9835,144.0352,-23.37847,202408261527129298,
2-18,A_Baseline,1,Q1FrontDown,-50.17561,42.0607,85.23768,-33.78665,-142.9831,144.0354,-23.37864,202408261527129485,
2-18,A_Baseline,1,Q1FrontDown,-50.17561,42.0607,85.23768,-33.78665,-142.9831,144.0354,-23.37864,202408261527129647,
2-18,A_Baseline,1,Q1FrontDown,-50.17927,42.06044,85.23755,-33.78836,-142.9831,144.0354,-23.37818,202408261527129828,
2-18,A_Baseline,1,Q1FrontDown,-50.18294,42.06056,85.23763,-33.79044,-142.983,144.0357,-23.37847,202408261527130058,
2-18,A_Baseline,1,Q1FrontDown,-50.18644,42.06043,85.23768,-33.7926,-142.9828,144.0358,-23.37799,202408261527130337,
2-18,A_Baseline,1,Q1FrontDown,-50.18644,42.06043,85.23768,-33.7926,-142.9828,144.0358,-23.37799,202408261527130501,
2-18,A_Baseline,1,Q1FrontDown,-50.18924,42.06066,85.2375,-33.79296,-142.9831,144.036,-23.3784,202408261527130845,
2-18,A_Baseline,1,Q1FrontDown,-50.19209,42.06056,85.23746,-33.79348,-142.9831,144.0361,-23.3782,202408261527131156,
2-18,A_Baseline,1,Q1FrontDown,-50.19478,42.06076,85.23759,-33.79452,-142.9826,144.0364,-23.37831,202408261527131394,
2-18,A_Baseline,1,Q1FrontDown,-50.19478,42.06076,85.23759,-33.79452,-142.9826,144.0364,-23.37831,202408261527131630,
2-18,A_Baseline,1,Q1FrontDown,-50.19713,42.06062,85.23728,-33.79514,-142.9821,144.0367,-23.37832,202408261527131801,
2-18,A_Baseline,1,Q1FrontDown,-50.19895,42.06087,85.2376,-33.79576,-142.9819,144.0367,-23.37869,202408261527132117,
2-18,A_Baseline,1,Q1FrontDown,-50.19895,42.06087,85.2376,-33.79576,-142.9819,144.0367,-23.37869,202408261527132285,
2-18,A_Baseline,1,Q1FrontDown,-50.19895,42.06087,85.2376,-33.79576,-142.9819,144.0367,-23.37869,202408261527132516,
2-18,A_Baseline,1,Q1FrontDown,-50.20199,42.06067,85.2375,-33.79682,-142.981,144.0372,-23.37844,202408261527132799,
2-18,A_Baseline,1,Q1FrontDown,-50.20199,42.06067,85.2375,-33.79682,-142.981,144.0372,-23.37844,202408261527132988,
2-18,A_Baseline,1,Q1FrontDown,-50.2051,42.06062,85.23772,-33.79903,-142.9796,144.0372,-23.37844,202408261527133222,
2-18,A_Baseline,1,Q1FrontDown,-50.20865,42.06076,85.23727,-33.80209,-142.9785,144.0372,-23.37872,202408261527133525,
2-18,A_Baseline,1,Q1FrontDown,-50.20865,42.06076,85.23727,-33.80209,-142.9785,144.0372,-23.37872,202408261527133690,
2-18,A_Baseline,1,Q1FrontDown,-50.21536,42.06066,85.23759,-33.81012,-142.974,144.0381,-23.37845,202408261527133980,
2-18,A_Baseline,1,Q1FrontDown,-50.21536,42.06066,85.23759,-33.81012,-142.974,144.0381,-23.37845,202408261527134144,
2-18,A_Baseline,1,Q1FrontDown,-50.21536,42.06066,85.23759,-33.81012,-142.974,144.0381,-23.37845,202408261527134312,
2-18,A_Baseline,1,Q1FrontDown,-50.21653,42.06066,85.23777,-33.81095,-142.9704,144.038,-23.37859,202408261527134482,
2-18,A_Baseline,1,Q1FrontDown,-50.21705,42.06066,85.23755,-33.81186,-142.9669,144.0384,-23.37866,202408261527134656,
2-18,A_Baseline,1,Q1FrontDown,-50.21705,42.06066,85.23755,-33.81186,-142.9669,144.0384,-23.37866,202408261527134865,
2-18,A_Baseline,1,Q1FrontDown,-50.21795,42.0606,85.23722,-33.8128,-142.9624,144.0383,-23.37873,202408261527135147,
2-18,A_Baseline,1,Q1FrontDown,-50.21795,42.0606,85.23722,-33.8128,-142.9624,144.0383,-23.37873,202408261527135322,
2-18,A_Baseline,1,Q1FrontDown,-50.21891,42.0605,85.23752,-33.81408,-142.9588,144.0386,-23.37868,202408261527135487,
2-18,A_Baseline,1,Q1FrontDown,-50.21936,42.06038,85.23746,-33.81605,-142.9564,144.0386,-23.37904,202408261527135679,
2-18,A_Baseline,1,Q1FrontDown,-50.21936,42.06038,85.23746,-33.81605,-142.9564,144.0386,-23.37904,202408261527135904,
2-18,A_Baseline,1,Q1FrontDown,-50.21977,42.06066,85.23778,-33.81883,-142.955,144.0386,-23.3789,202408261527136174,
2-18,A_Baseline,1,Q1FrontDown,-50.21948,42.06044,85.23746,-33.81975,-142.9543,144.0386,-23.37913,202408261527136350,
2-18,A_Baseline,1,Q1FrontDown,-50.21948,42.06044,85.23746,-33.81975,-142.9543,144.0386,-23.37913,202408261527136635,
2-18,A_Baseline,1,Q1FrontDown,-50.21969,42.06056,85.23756,-33.82059,-142.9535,144.0387,-23.37895,202408261527136800,
2-18,A_Baseline,1,Q1FrontDown,-50.21969,42.06056,85.23756,-33.82059,-142.9535,144.0387,-23.37895,202408261527137010,
2-18,A_Baseline,1,Q1FrontDown,-50.21969,42.06039,85.23779,-33.82124,-142.9525,144.0389,-23.37892,202408261527137304,
2-18,A_Baseline,1,Q1FrontDown,-50.21991,42.06053,85.2374,-33.82195,-142.9522,144.0389,-23.37864,202408261527137473,
2-18,A_Baseline,1,Q1FrontDown,-50.21991,42.06053,85.2374,-33.82195,-142.9522,144.0389,-23.37864,202408261527137649,
2-18,A_Baseline,1,Q1FrontDown,-50.21965,42.06028,85.2375,-33.82231,-142.9517,144.0388,-23.37906,202408261527137827,
2-18,A_Baseline,1,Q1FrontDown,-50.21978,42.06057,85.23764,-33.82274,-142.9512,144.0391,-23.37897,202408261527138026,
2-18,A_Baseline,1,Q1FrontDown,-50.21978,42.06057,85.23764,-33.82274,-142.9512,144.0391,-23.37897,202408261527138331,
2-18,A_Baseline,1,Q1FrontDown,-50.21978,42.06031,85.23765,-33.82335,-142.951,144.039,-23.37906,202408261527138644,
2-18,A_Baseline,1,Q1FrontDown,-50.22002,42.06066,85.23776,-33.82409,-142.9506,144.0389,-23.37901,202408261527138812,
2-18,A_Baseline,1,Q1FrontDown,-50.22002,42.06066,85.23776,-33.82409,-142.9506,144.0389,-23.37901,202408261527138992,
2-18,A_Baseline,1,Q1FrontDown,-50.22015,42.06075,85.23742,-33.82592,-142.9506,144.0389,-23.37886,202408261527139192,
2-18,A_Baseline,1,Q1FrontDown,-50.22033,42.0607,85.23753,-33.82902,-142.9504,144.0389,-23.37886,202408261527139469,
2-18,A_Baseline,1,Q1FrontDown,-50.22033,42.0607,85.23753,-33.82902,-142.9504,144.0389,-23.37886,202408261527139694,
2-18,A_Baseline,1,Q1FrontDown,-50.22079,42.0604,85.23783,-33.83445,-142.9503,144.039,-23.37873,202408261527139981,
2-18,A_Baseline,1,Q1FrontDown,-50.22087,42.06027,85.23795,-33.84023,-142.9503,144.039,-23.37869,202408261527140164,
2-18,A_Baseline,1,Q1FrontDown,-50.22179,42.06047,85.23805,-33.84971,-142.9501,144.0391,-23.37886,202408261527140374,
2-18,A_Baseline,1,Q1FrontDown,-50.22253,42.06038,85.23832,-33.86022,-142.9498,144.0391,-23.37879,202408261527140678,
2-18,A_Baseline,1,Q1FrontDown,-50.22253,42.06038,85.23832,-33.86022,-142.9498,144.0391,-23.37879,202408261527140834,
2-18,A_Baseline,1,Q1FrontDown,-50.22253,42.06038,85.23832,-33.86022,-142.9498,144.0391,-23.37879,202408261527141018,
2-18,A_Baseline,1,Q1FrontDown,-50.22306,42.06043,85.23825,-33.87067,-142.9496,144.039,-23.37895,202408261527141215,
2-18,A_Baseline,1,Q1FrontDown,-50.22306,42.06043,85.23825,-33.87067,-142.9496,144.039,-23.37895,202408261527141385,
2-18,A_Baseline,1,Q1FrontDown,-50.22667,42.06054,85.23885,-33.88662,-142.9478,144.0392,-23.37873,202408261527141647,
2-18,A_Baseline,1,Q1FrontDown,-50.23284,42.06026,85.23902,-33.90544,-142.9455,144.0391,-23.37864,202408261527141820,
2-18,A_Baseline,1,Q1FrontDown,-50.23284,42.06026,85.23902,-33.90544,-142.9455,144.0391,-23.37864,202408261527141979,
2-18,A_Baseline,1,Q1FrontDown,-50.23873,42.06049,85.23922,-33.92281,-142.9378,144.0391,-23.37911,202408261527142138,
2-18,A_Baseline,1,Q1FrontDown,-50.23873,42.06049,85.23922,-33.92281,-142.9378,144.0391,-23.37911,202408261527142302,
2-18,A_Baseline,1,Q1FrontDown,-50.24654,42.06038,85.2411,-33.94027,-142.9357,144.0392,-23.37915,202408261527142545,
2-18,A_Baseline,1,Q1FrontDown,-50.24654,42.06038,85.2411,-33.94027,-142.9357,144.0392,-23.37915,202408261527142692,
2-18,A_Baseline,1,Q1FrontDown,-50.25276,42.06039,85.24643,-33.9541,-142.9347,144.0392,-23.37904,202408261527142994,
2-18,A_Baseline,1,Q1FrontDown,-50.25969,42.06069,85.25292,-33.97057,-142.9339,144.0391,-23.37877,202408261527143165,
2-18,A_Baseline,1,Q1FrontDown,-50.25969,42.06069,85.25292,-33.97057,-142.9339,144.0391,-23.37877,202408261527143365,
2-18,A_Baseline,1,Q1FrontDown,-50.26576,42.0606,85.25921,-33.98535,-142.9333,144.039,-23.379,202408261527143524,
2-18,A_Baseline,1,Q1FrontDown,-50.2704,42.06049,85.26379,-33.99799,-142.9316,144.0391,-23.37897,202408261527143852,
2-18,A_Baseline,1,Q1FrontDown,-50.27493,42.06049,85.2687,-34.00938,-142.9253,144.0391,-23.3791,202408261527144155,
2-18,A_Baseline,1,Q1FrontDown,-50.27913,42.06036,85.27245,-34.01806,-142.9212,144.039,-23.37886,202408261527144382,
2-18,A_Baseline,1,Q1FrontDown,-50.27913,42.06036,85.27245,-34.01806,-142.9212,144.039,-23.37886,202408261527144648,
2-18,A_Baseline,1,Q1FrontDown,-50.28438,42.06017,85.27547,-34.02782,-142.92,144.0392,-23.37913,202408261527144825,
2-18,A_Baseline,1,Q1FrontDown,-50.28438,42.06017,85.27547,-34.02782,-142.92,144.0392,-23.37913,202408261527144989,
2-18,A_Baseline,1,Q1FrontDown,-50.28438,42.06017,85.27547,-34.02782,-142.92,144.0392,-23.37913,202408261527145156,
2-18,A_Baseline,1,Q1FrontDown,-50.28955,42.06039,85.27525,-34.03782,-142.9196,144.0392,-23.37897,202408261527145324,
2-18,A_Baseline,1,Q1FrontDown,-50.28955,42.06039,85.27525,-34.03782,-142.9196,144.0392,-23.37897,202408261527145518,
2-18,A_Baseline,1,Q1FrontDown,-50.29615,42.0604,85.27529,-34.04963,-142.9196,144.0393,-23.37864,202408261527145704,
2-18,A_Baseline,1,Q1FrontDown,-50.30149,42.06041,85.2752,-34.05867,-142.9194,144.0393,-23.37882,202408261527145891,
2-18,A_Baseline,1,Q1FrontDown,-50.30621,42.06074,85.27501,-34.06656,-142.9191,144.0391,-23.37858,202408261527146149,
2-18,A_Baseline,1,Q1FrontDown,-50.31041,42.06056,85.27531,-34.07343,-142.9188,144.0392,-23.37895,202408261527146481,
2-18,A_Baseline,1,Q1FrontDown,-50.31041,42.06056,85.27531,-34.07343,-142.9188,144.0392,-23.37895,202408261527146636,
2-18,A_Baseline,1,Q1FrontDown,-50.3144,42.06031,85.2756,-34.08135,-142.9184,144.0392,-23.37895,202408261527146855,
2-18,A_Baseline,1,Q1FrontDown,-50.31965,42.06026,85.27615,-34.09089,-142.9182,144.0392,-23.37877,202408261527147131,
2-18,A_Baseline,1,Q1FrontDown,-50.31965,42.06026,85.27615,-34.09089,-142.9182,144.0392,-23.37877,202408261527147309,
2-18,A_Baseline,1,Q1FrontDown,-50.32319,42.06021,85.27692,-34.09878,-142.9177,144.039,-23.37909,202408261527147518,
2-18,A_Baseline,1,Q1FrontDown,-50.32723,42.06026,85.2774,-34.10857,-142.9173,144.0389,-23.37886,202408261527147869,
2-18,A_Baseline,1,Q1FrontDown,-50.3304,42.06027,85.27771,-34.11743,-142.9172,144.0392,-23.37914,202408261527148132,
2-18,A_Baseline,1,Q1FrontDown,-50.3304,42.06027,85.27771,-34.11743,-142.9172,144.0392,-23.37914,202408261527148297,
2-18,A_Baseline,1,Q1FrontDown,-50.33702,42.06032,85.27803,-34.13224,-142.9171,144.0393,-23.37895,202408261527148471,
2-18,A_Baseline,1,Q1FrontDown,-50.33702,42.06032,85.27803,-34.13224,-142.9171,144.0393,-23.37895,202408261527148656,
2-18,A_Baseline,1,Q1FrontDown,-50.34405,42.06009,85.2783,-34.14817,-142.9171,144.0393,-23.37879,202408261527148837,
2-18,A_Baseline,1,Q1FrontDown,-50.34405,42.06009,85.2783,-34.14817,-142.9171,144.0393,-23.37879,202408261527149037,
2-18,A_Baseline,1,Q1FrontDown,-50.35075,42.06044,85.27855,-34.1646,-142.9166,144.039,-23.37888,202408261527149307,
2-18,A_Baseline,1,Q1FrontDown,-50.35668,42.06055,85.27866,-34.18039,-142.9167,144.0391,-23.3791,202408261527149635,
2-18,A_Baseline,1,Q1FrontDown,-50.36163,42.06043,85.27894,-34.19371,-142.9166,144.039,-23.37877,202408261527149826,
2-18,A_Baseline,1,Q1FrontDown,-50.36519,42.06056,85.27921,-34.20656,-142.9165,144.039,-23.37895,202408261527150013,
2-18,A_Baseline,1,Q1FrontDown,-50.36519,42.06056,85.27921,-34.20656,-142.9165,144.039,-23.37895,202408261527150282,
2-18,A_Baseline,1,Q1FrontDown,-50.36899,42.06044,85.27921,-34.22142,-142.9163,144.039,-23.37889,202408261527150477,
2-18,A_Baseline,1,Q1FrontDown,-50.37062,42.06044,85.2793,-34.23072,-142.9162,144.0391,-23.37884,202408261527150703,
2-18,A_Baseline,1,Q1FrontDown,-50.37062,42.06044,85.2793,-34.23072,-142.9162,144.0391,-23.37884,202408261527150997,
2-18,A_Baseline,1,Q1FrontDown,-50.37164,42.06076,85.27908,-34.23837,-142.9162,144.039,-23.37886,202408261527151213,
2-18,A_Baseline,1,Q1FrontDown,-50.37199,42.06075,85.27922,-34.24476,-142.9162,144.0391,-23.37913,202408261527151480,
2-18,A_Baseline,1,Q1FrontDown,-50.37199,42.06075,85.27922,-34.24476,-142.9162,144.0391,-23.37913,202408261527151628,
2-18,A_Baseline,1,Q1FrontDown,-50.37199,42.06075,85.27922,-34.24476,-142.9162,144.0391,-23.37913,202408261527151807,
2-18,A_Baseline,1,Q1FrontDown,-50.37278,42.06066,85.27908,-34.25093,-142.9158,144.0389,-23.37914,202408261527151968,
2-18,A_Baseline,1,Q1FrontDown,-50.37358,42.06061,85.27918,-34.25571,-142.9158,144.039,-23.37907,202408261527152149,
2-18,A_Baseline,1,Q1FrontDown,-50.37358,42.06061,85.27918,-34.25571,-142.9158,144.039,-23.37907,202408261527152380,
2-18,A_Baseline,1,Q1FrontDown,-50.37356,42.06058,85.27885,-34.25909,-142.9161,144.0393,-23.37909,202408261527152654,
2-18,A_Baseline,1,Q1FrontDown,-50.37392,42.06062,85.27906,-34.26279,-142.9159,144.0393,-23.37921,202408261527152805,
2-18,A_Baseline,1,Q1FrontDown,-50.37392,42.06062,85.27906,-34.26279,-142.9159,144.0393,-23.37921,202408261527152981,
2-18,A_Baseline,1,Q1FrontDown,-50.37414,42.06059,85.279,-34.26421,-142.9158,144.039,-23.37923,202408261527153302,
2-18,A_Baseline,1,Q1FrontDown,-50.37419,42.06079,85.27871,-34.26453,-142.9158,144.0392,-23.3792,202408261527153536,
2-18,A_Baseline,1,Q1FrontDown,-50.37408,42.06051,85.27882,-34.26453,-142.9155,144.0393,-23.37944,202408261527153810,
2-18,A_Baseline,1,Q1FrontDown,-50.37408,42.06051,85.27882,-34.26453,-142.9155,144.0393,-23.37944,202408261527154022,
2-18,A_Baseline,1,Q1FrontDown,-50.3744,42.06053,85.27857,-34.26426,-142.9157,144.0392,-23.37954,202408261527154306,
2-18,A_Baseline,1,Q1FrontDown,-50.37464,42.06075,85.27863,-34.2643,-142.9154,144.0394,-23.37998,202408261527154529,
2-18,A_Baseline,1,Q1FrontDown,-50.37457,42.06041,85.27863,-34.26422,-142.9154,144.0393,-23.37992,202408261527154814,
2-18,A_Baseline,1,Q1FrontDown,-50.37457,42.06041,85.27863,-34.26422,-142.9154,144.0393,-23.37992,202408261527154982,
2-18,A_Baseline,1,Q1FrontDown,-50.37457,42.06063,85.27856,-34.26447,-142.9153,144.0392,-23.37993,202408261527155149,
2-18,A_Baseline,1,Q1FrontDown,-50.37457,42.06063,85.27856,-34.26447,-142.9153,144.0392,-23.37993,202408261527155308,
2-18,A_Baseline,1,Q1FrontDown,-50.37479,42.06062,85.27889,-34.26436,-142.9148,144.0397,-23.37995,202408261527155552,
2-18,A_Baseline,1,Q1FrontDown,-50.37479,42.06062,85.27889,-34.26436,-142.9148,144.0397,-23.37995,202408261527155705,
2-18,A_Baseline,1,Q1FrontDown,-50.37517,42.06049,85.27918,-34.26426,-142.9146,144.0394,-23.38023,202408261527155998,
2-18,A_Baseline,1,Q1FrontDown,-50.37494,42.06067,85.279,-34.26413,-142.914,144.0397,-23.38028,202408261527156305,
2-18,A_Baseline,1,Q1FrontDown,-50.37542,42.06039,85.27999,-34.26392,-142.9116,144.0398,-23.38007,202408261527156500,
2-18,A_Baseline,1,Q1FrontDown,-50.37542,42.06039,85.27999,-34.26392,-142.9116,144.0398,-23.38007,202408261527156648,
2-18,A_Baseline,1,Q1FrontDown,-50.37576,42.06044,85.28194,-34.26426,-142.8946,144.0397,-23.38008,202408261527156847,
2-18,A_Baseline,1,Q1FrontDown,-50.37589,42.06044,85.28918,-34.26431,-142.8865,144.0398,-23.38014,202408261527157024,
2-18,A_Baseline,1,Q1FrontDown,-50.37589,42.06044,85.28918,-34.26431,-142.8865,144.0398,-23.38014,202408261527157309,
2-18,A_Baseline,1,Q1FrontDown,-50.37609,42.06052,85.29414,-34.26436,-142.8818,144.0398,-23.38041,202408261527157478,
2-18,A_Baseline,1,Q1FrontDown,-50.37621,42.0603,85.2977,-34.26442,-142.8784,144.0399,-23.38024,202408261527157646,
2-18,A_Baseline,1,Q1FrontDown,-50.37621,42.0603,85.2977,-34.26442,-142.8784,144.0399,-23.38024,202408261527157817,
2-18,A_Baseline,1,Q1FrontDown,-50.37631,42.0603,85.30043,-34.26418,-142.8742,144.0399,-23.38005,202408261527158028,
2-18,A_Baseline,1,Q1FrontDown,-50.37634,42.06035,85.30184,-34.2643,-142.8702,144.0398,-23.38034,202408261527158332,
2-18,A_Baseline,1,Q1FrontDown,-50.37634,42.06035,85.30184,-34.2643,-142.8702,144.0398,-23.38034,202408261527158483,
2-18,A_Baseline,1,Q1FrontDown,-50.37641,42.06051,85.30305,-34.26435,-142.8677,144.0397,-23.3802,202408261527158708,
2-18,A_Baseline,1,Q1FrontDown,-50.37641,42.06051,85.30305,-34.26435,-142.8677,144.0397,-23.3802,202408261527159012,
2-18,A_Baseline,1,Q1FrontDown,-50.37655,42.06061,85.3037,-34.26431,-142.8657,144.0401,-23.38025,202408261527159296,
2-18,A_Baseline,1,Q1FrontDown,-50.37634,42.06013,85.30413,-34.26442,-142.8644,144.0397,-23.3802,202408261527159464,
2-18,A_Baseline,1,Q1FrontDown,-50.37634,42.06013,85.30413,-34.26442,-142.8644,144.0397,-23.3802,202408261527159629,
2-18,A_Baseline,1,Q1FrontDown,-50.37654,42.06039,85.30595,-34.26408,-142.8628,144.0397,-23.3801,202408261527159804,
2-18,A_Baseline,1,Q1FrontDown,-50.37653,42.06038,85.30914,-34.26408,-142.8595,144.0398,-23.38005,202408261527159980,
2-18,A_Baseline,1,Q1FrontDown,-50.37653,42.06038,85.30914,-34.26408,-142.8595,144.0398,-23.38005,202408261527160193,
2-18,A_Baseline,1,Q1FrontDown,-50.37653,42.06038,85.30914,-34.26408,-142.8595,144.0398,-23.38005,202408261527160374,
2-18,A_Baseline,1,Q1FrontDown,-50.37655,42.06026,85.31355,-34.26416,-142.8509,144.0397,-23.38005,202408261527160649,
2-18,A_Baseline,1,Q1FrontDown,-50.37686,42.06016,85.31704,-34.26414,-142.8433,144.0397,-23.38024,202408261527160836,
2-18,A_Baseline,1,Q1FrontDown,-50.37678,42.06034,85.32206,-34.2643,-142.8368,144.0399,-23.38043,202408261527161034,
2-18,A_Baseline,1,Q1FrontDown,-50.37678,42.06034,85.32206,-34.2643,-142.8368,144.0399,-23.38043,202408261527161196,
2-18,A_Baseline,1,Q1FrontDown,-50.37659,42.06026,85.32452,-34.26401,-142.8279,144.0395,-23.38037,202408261527161468,
2-18,A_Baseline,1,Q1FrontDown,-50.37659,42.06026,85.32452,-34.26401,-142.8279,144.0395,-23.38037,202408261527161635,
2-18,A_Baseline,1,Q1FrontDown,-50.3767,42.06038,85.32583,-34.26412,-142.8229,144.0398,-23.38043,202408261527161800,
2-18,A_Baseline,1,Q1FrontDown,-50.3767,42.06038,85.32583,-34.26412,-142.8229,144.0398,-23.38043,202408261527162028,
2-18,A_Baseline,1,Q1FrontDown,-50.37661,42.06037,85.32677,-34.26418,-142.8197,144.0398,-23.38006,202408261527162187,
2-18,A_Baseline,1,Q1FrontDown,-50.37661,42.06036,85.32978,-34.26417,-142.8164,144.04,-23.38014,202408261527162478,
2-18,A_Baseline,1,Q1FrontDown,-50.37661,42.06036,85.32978,-34.26417,-142.8164,144.04,-23.38014,202408261527162651,
2-18,A_Baseline,1,Q1FrontDown,-50.37643,42.06038,85.33192,-34.26411,-142.8149,144.0399,-23.38023,202408261527162814,
2-18,A_Baseline,1,Q1FrontDown,-50.37643,42.06038,85.33192,-34.26411,-142.8149,144.0399,-23.38023,202408261527162967,
2-18,A_Baseline,1,Q1FrontDown,-50.37647,42.06037,85.3321,-34.26411,-142.8137,144.0399,-23.38028,202408261527163174,
2-18,A_Baseline,1,Q1FrontDown,-50.37675,42.06044,85.33228,-34.26414,-142.8126,144.0399,-23.38014,202408261527163381,
2-18,A_Baseline,1,Q1FrontDown,-50.37675,42.06044,85.33228,-34.26414,-142.8126,144.0399,-23.38014,202408261527163656,
2-18,A_Baseline,1,Q1FrontDown,-50.37671,42.06012,85.33268,-34.26394,-142.8111,144.0399,-23.38047,202408261527163834,
2-18,A_Baseline,1,Q1FrontDown,-50.37683,42.06035,85.33276,-34.26394,-142.8095,144.0398,-23.37997,202408261527164136,
2-18,A_Baseline,1,Q1FrontDown,-50.37683,42.06035,85.33276,-34.26394,-142.8095,144.0398,-23.37997,202408261527164303,
2-18,A_Baseline,1,Q1FrontDown,-50.37671,42.06038,85.33337,-34.26392,-142.8092,144.0401,-23.38052,202408261527164528,
2-18,A_Baseline,1,Q1FrontDown,-50.37647,42.06016,85.33375,-34.26394,-142.8086,144.0398,-23.38002,202408261527164820,
2-18,A_Baseline,1,Q1FrontDown,-50.37647,42.06016,85.33375,-34.26394,-142.8086,144.0398,-23.38002,202408261527164983,
2-18,A_Baseline,1,Q1FrontDown,-50.37647,42.06016,85.33375,-34.26394,-142.8086,144.0398,-23.38002,202408261527165186,
2-18,A_Baseline,1,Q1FrontDown,-50.37671,42.06001,85.33375,-34.26414,-142.797,144.0399,-23.3801,202408261527165540,
2-18,A_Baseline,1,Q1FrontDown,-50.37672,42.06002,85.33382,-34.26402,-142.7887,144.0398,-23.38008,202408261527165829,
2-18,A_Baseline,1,Q1FrontDown,-50.37671,42.06035,85.33411,-34.26382,-142.7828,144.0398,-23.3801,202408261527165987,
2-18,A_Baseline,1,Q1FrontDown,-50.37671,42.06035,85.33411,-34.26382,-142.7828,144.0398,-23.3801,202408261527166156,
2-18,A_Baseline,1,Q1FrontDown,-50.37671,42.06035,85.33411,-34.26382,-142.7828,144.0398,-23.3801,202408261527166498,
2-18,A_Baseline,1,Q1FrontDown,-50.37653,42.06042,85.33443,-34.26382,-142.7701,144.04,-23.38056,202408261527166685,
2-18,A_Baseline,1,Q1FrontDown,-50.37653,42.06042,85.33443,-34.26382,-142.7701,144.04,-23.38056,202408261527166976,
2-18,A_Baseline,1,Q1FrontDown,-50.37671,42.0603,85.33438,-34.26394,-142.7616,144.0398,-23.38016,202408261527167153,
2-18,A_Baseline,1,Q1FrontDown,-50.37671,42.0603,85.33438,-34.26394,-142.7616,144.0398,-23.38016,202408261527167316,
2-18,A_Baseline,1,Q1FrontDown,-50.3768,42.06038,85.33378,-34.26394,-142.7563,144.0397,-23.38012,202408261527167484,
2-18,A_Baseline,1,Q1FrontDown,-50.3768,42.06038,85.33378,-34.26394,-142.7563,144.0397,-23.38012,202408261527167657,
2-18,A_Baseline,1,Q1FrontDown,-50.37661,42.06016,85.33287,-34.26387,-142.7502,144.0398,-23.3803,202408261527167891,
2-18,A_Baseline,1,Q1FrontDown,-50.37671,42.06034,85.33204,-34.26368,-142.7436,144.0396,-23.38035,202408261527168150,
2-18,A_Baseline,1,Q1FrontDown,-50.37671,42.06032,85.33156,-34.26391,-142.7321,144.04,-23.38064,202408261527168373,
2-18,A_Baseline,1,Q1FrontDown,-50.37671,42.06032,85.33156,-34.26391,-142.7321,144.04,-23.38064,202408261527168672,
2-18,A_Baseline,1,Q1FrontDown,-50.37671,42.06031,85.33134,-34.26391,-142.7212,144.04,-23.38042,202408261527168821,
2-18,A_Baseline,1,Q1FrontDown,-50.37671,42.06031,85.33134,-34.26391,-142.7212,144.04,-23.38042,202408261527169028,
2-18,A_Baseline,1,Q1FrontDown,-50.37661,42.06047,85.33099,-34.26393,-142.711,144.0398,-23.38033,202408261527169300,
2-18,A_Baseline,1,Q1FrontDown,-50.37661,42.06026,85.33132,-34.26394,-142.7027,144.0398,-23.38046,202408261527169474,
2-18,A_Baseline,1,Q1FrontDown,-50.37661,42.06026,85.33132,-34.26394,-142.7027,144.0398,-23.38046,202408261527169639,
2-18,A_Baseline,1,Q1FrontDown,-50.37657,42.06022,85.33122,-34.26401,-142.6924,144.0398,-23.3806,202408261527169816,
2-18,A_Baseline,1,Q1FrontDown,-50.37683,42.06036,85.33123,-34.26366,-142.6829,144.0397,-23.38082,202408261527170047,
2-18,A_Baseline,1,Q1FrontDown,-50.37683,42.06036,85.33123,-34.26366,-142.6829,144.0397,-23.38082,202408261527170307,
2-18,A_Baseline,1,Q1FrontDown,-50.37661,42.06004,85.33138,-34.26392,-142.6771,144.0397,-23.3808,202408261527170482,
2-18,A_Baseline,1,Q1FrontDown,-50.37661,42.06004,85.33138,-34.26392,-142.6771,144.0397,-23.3808,202408261527170646,
2-18,A_Baseline,1,Q1FrontDown,-50.37674,42.06046,85.33141,-34.26389,-142.6722,144.0398,-23.3805,202408261527170831,
2-18,A_Baseline,1,Q1FrontDown,-50.37661,42.0602,85.33137,-34.26389,-142.6661,144.0396,-23.38074,202408261527171155,
2-18,A_Baseline,1,Q1FrontDown,-50.37651,42.05999,85.33154,-34.26388,-142.6604,144.0397,-23.38011,202408261527171359,
2-18,A_Baseline,1,Q1FrontDown,-50.37651,42.05999,85.33154,-34.26388,-142.6604,144.0397,-23.38011,202408261527171646,
2-18,A_Baseline,1,Q1FrontDown,-50.37671,42.06021,85.33169,-34.26399,-142.6576,144.0397,-23.38073,202408261527171969,
2-18,A_Baseline,1,Q1FrontDown,-50.37645,42.06041,85.3317,-34.26355,-142.6567,144.0397,-23.38052,202408261527172128,
2-18,A_Baseline,1,Q1FrontDown,-50.37645,42.06041,85.3317,-34.26355,-142.6567,144.0397,-23.38052,202408261527172321,
2-18,A_Baseline,1,Q1FrontDown,-50.37645,42.06041,85.3317,-34.26355,-142.6567,144.0397,-23.38052,202408261527172530,
2-18,A_Baseline,1,Q1FrontDown,-50.37661,42.06034,85.33164,-34.26385,-142.6555,144.0398,-23.38056,202408261527172817,
2-18,A_Baseline,1,Q1FrontDown,-50.37661,42.06034,85.33164,-34.26385,-142.6555,144.0398,-23.38056,202408261527172983,
2-18,A_Baseline,1,Q1FrontDown,-50.37668,42.06031,85.33134,-34.26394,-142.6549,144.0399,-23.38035,202408261527173203,
2-18,A_Baseline,1,Q1FrontDown,-50.37657,42.06038,85.33144,-34.26408,-142.6548,144.0398,-23.38068,202408261527173534,
2-18,A_Baseline,1,Q1FrontDown,-50.37657,42.06038,85.33144,-34.26408,-142.6548,144.0398,-23.38068,202408261527173834,
2-18,A_Baseline,1,Q1FrontDown,-50.37671,42.06031,85.33153,-34.26389,-142.6547,144.0398,-23.38079,202408261527174138,
2-18,A_Baseline,1,Q1FrontDown,-50.37671,42.06031,85.33153,-34.26389,-142.6547,144.0398,-23.38079,202408261527174300,
2-18,A_Baseline,1,Q1FrontDown,-50.37662,42.06025,85.33147,-34.26394,-142.6545,144.0397,-23.38078,202408261527174490,
2-18,A_Baseline,1,Q1FrontDown,-50.37671,42.06012,85.33151,-34.26361,-142.6547,144.0398,-23.38078,202408261527174687,
2-18,A_Baseline,1,Q1FrontDown,-50.37671,42.06012,85.33151,-34.26361,-142.6547,144.0398,-23.38078,202408261527174971,
2-18,A_Baseline,1,Q1FrontDown,-50.37661,42.06037,85.33164,-34.26381,-142.6547,144.0399,-23.3805,202408261527175288,
2-18,A_Baseline,1,Q1FrontDown,-50.37687,42.06021,85.33131,-34.26377,-142.6544,144.0398,-23.38058,202408261527175469,
2-18,A_Baseline,1,Q1FrontDown,-50.37687,42.06021,85.33131,-34.26377,-142.6544,144.0398,-23.38058,202408261527175656,
2-18,A_Baseline,1,Q1FrontDown,-50.37671,42.06031,85.33165,-34.26377,-142.6541,144.0398,-23.38072,202408261527175866,
2-18,A_Baseline,1,Q1FrontDown,-50.37661,42.06025,85.33157,-34.26379,-142.6539,144.0397,-23.38065,202408261527176156,
2-18,A_Baseline,1,Q1FrontDown,-50.37661,42.06025,85.33157,-34.26379,-142.6539,144.0397,-23.38065,202408261527176357,
2-18,A_Baseline,1,Q1FrontDown,-50.37693,42.06034,85.33147,-34.26369,-142.6535,144.0397,-23.3806,202408261527176647,
2-18,A_Baseline,1,Q1FrontDown,-50.37683,42.06002,85.33165,-34.26383,-142.6535,144.0397,-23.38082,202408261527176860,
2-18,A_Baseline,1,Q1FrontDown,-50.37662,42.06009,85.33143,-34.26374,-142.6532,144.0397,-23.38083,202408261527177147,
2-18,A_Baseline,1,Q1FrontDown,-50.37662,42.06009,85.33143,-34.26374,-142.6532,144.0397,-23.38083,202408261527177304,
2-18,A_Baseline,1,Q1FrontDown,-50.37671,42.0602,85.33152,-34.26357,-142.6531,144.0398,-23.38109,202408261527177527,
2-18,A_Baseline,1,Q1FrontDown,-50.37671,42.0602,85.33152,-34.26357,-142.6531,144.0398,-23.38109,202408261527177697,
2-18,A_Baseline,1,Q1FrontDown,-50.37661,42.0602,85.33183,-34.26358,-142.6531,144.0397,-23.38051,202408261527177972,
2-18,A_Baseline,1,Q1FrontDown,-50.37671,42.06041,85.3319,-34.26357,-142.6528,144.0398,-23.38054,202408261527178147,
2-18,A_Baseline,1,Q1FrontDown,-50.37671,42.06041,85.3319,-34.26357,-142.6528,144.0398,-23.38054,202408261527178332,
2-18,A_Baseline,1,Q1FrontDown,-50.37661,42.06024,85.33208,-34.26377,-142.6527,144.0397,-23.38059,202408261527178654,
2-18,A_Baseline,1,Q1FrontDown,-50.37683,42.05997,85.33197,-34.26369,-142.6526,144.0396,-23.38056,202408261527178833,
2-18,A_Baseline,1,Q1FrontDown,-50.37683,42.05997,85.33197,-34.26369,-142.6526,144.0396,-23.38056,202408261527179031,
2-18,A_Baseline,1,Q1FrontDown,-50.37687,42.06009,85.33208,-34.26389,-142.6524,144.0399,-23.38043,202408261527179302,
2-18,A_Baseline,1,Q1FrontDown,-50.37671,42.06034,85.33208,-34.26358,-142.6524,144.0397,-23.38085,202408261527179527,
2-18,A_Baseline,1,Q1FrontDown,-50.37683,42.06008,85.33224,-34.26362,-142.6524,144.0398,-23.38092,202408261527179812,
2-18,A_Baseline,1,Q1FrontDown,-50.37683,42.06008,85.33224,-34.26362,-142.6524,144.0398,-23.38092,202408261527179978,
2-18,A_Baseline,1,Q1FrontDown,-50.37661,42.0602,85.33204,-34.26361,-142.6523,144.0397,-23.3804,202408261527180189,
2-18,A_Baseline,1,Q1FrontDown,-50.37663,42.0603,85.33241,-34.26371,-142.6521,144.0396,-23.38084,202408261527180475,
2-18,A_Baseline,1,Q1FrontDown,-50.37663,42.0603,85.33241,-34.26371,-142.6521,144.0396,-23.38084,202408261527180650,
2-18,A_Baseline,1,Q1FrontDown,-50.37677,42.06039,85.33226,-34.26373,-142.6523,144.0397,-23.38058,202408261527180831,
2-18,A_Baseline,1,Q1FrontDown,-50.37683,42.06019,85.33241,-34.26361,-142.6521,144.0399,-23.38072,202408261527181033,
2-18,A_Baseline,1,Q1FrontDown,-50.37683,42.06019,85.33241,-34.26361,-142.6521,144.0399,-23.38072,202408261527181213,
2-18,A_Baseline,1,Q1FrontDown,-50.37674,42.06008,85.33254,-34.26384,-142.652,144.0397,-23.38044,202408261527181492,
2-18,A_Baseline,1,Q1FrontDown,-50.37673,42.0603,85.3325,-34.26351,-142.6521,144.0395,-23.38056,202408261527181649,
2-18,A_Baseline,1,Q1FrontDown,-50.37673,42.0603,85.3325,-34.26351,-142.6521,144.0395,-23.38056,202408261527181979,
2-18,A_Baseline,1,Q1FrontDown,-50.37653,42.06004,85.33228,-34.26352,-142.6519,144.0396,-23.38028,202408261527182149,
2-18,A_Baseline,1,Q1FrontDown,-50.37653,42.06004,85.33228,-34.26352,-142.6519,144.0396,-23.38028,202408261527182359,
2-18,A_Baseline,1,Q1FrontDown,-50.37661,42.06007,85.33252,-34.26361,-142.6521,144.0396,-23.38085,202408261527182533,
2-18,A_Baseline,1,Q1FrontDown,-50.37683,42.06013,85.33262,-34.26381,-142.6518,144.0395,-23.38066,202408261527182808,
2-18,A_Baseline,1,Q1FrontDown,-50.37683,42.06013,85.33262,-34.26381,-142.6518,144.0395,-23.38066,202408261527182992,
2-18,A_Baseline,1,Q1FrontDown,-50.37683,42.06013,85.33262,-34.26381,-142.6518,144.0395,-23.38066,202408261527183167,
2-18,A_Baseline,1,Q1FrontDown,-50.37661,42.06038,85.33254,-34.26352,-142.6519,144.0398,-23.38069,202408261527183345,
2-18,A_Baseline,1,Q1FrontDown,-50.37683,42.06012,85.33224,-34.26372,-142.6519,144.0398,-23.38059,202408261527183547,
2-18,A_Baseline,1,Q1FrontDown,-50.37683,42.06021,85.33228,-34.26355,-142.6519,144.0398,-23.38081,202408261527183811,
2-18,A_Baseline,1,Q1FrontDown,-50.37683,42.06021,85.33228,-34.26355,-142.6519,144.0398,-23.38081,202408261527183979,
2-18,A_Baseline,1,Q1FrontDown,-50.37671,42.06003,85.33253,-34.26339,-142.6518,144.0397,-23.38073,202408261527184184,
2-18,A_Baseline,1,Q1FrontDown,-50.37671,42.06003,85.33253,-34.26339,-142.6518,144.0397,-23.38073,202408261527184492,
2-18,A_Baseline,1,Q1FrontDown,-50.37671,42.05985,85.33241,-34.26351,-142.6516,144.0396,-23.3806,202408261527184681,
2-18,A_Baseline,1,Q1FrontDown,-50.37671,42.05985,85.33241,-34.26351,-142.6516,144.0396,-23.3806,202408261527184968,
2-18,A_Baseline,1,Q1FrontDown,-50.37683,42.05965,85.33246,-34.2635,-142.6513,144.0396,-23.38082,202408261527185127,
2-18,A_Baseline,1,Q1FrontDown,-50.37683,42.05965,85.33246,-34.2635,-142.6513,144.0396,-23.38082,202408261527185308,
2-18,A_Baseline,1,Q1FrontDown,-50.37671,42.05987,85.33237,-34.26349,-142.6514,144.0396,-23.38068,202408261527185480,
2-18,A_Baseline,1,Q1FrontDown,-50.37671,42.05987,85.33237,-34.26349,-142.6514,144.0396,-23.38068,202408261527185732,
2-18,A_Baseline,1,Q1FrontDown,-50.37661,42.05981,85.33212,-34.26343,-142.6513,144.0397,-23.38076,202408261527186003,
2-18,A_Baseline,1,Q1FrontDown,-50.37671,42.05977,85.33235,-34.26323,-142.6514,144.0397,-23.38096,202408261527186312,
2-18,A_Baseline,1,Q1FrontDown,-50.37683,42.05986,85.33254,-34.2633,-142.6513,144.0398,-23.3809,202408261527186657,
2-18,A_Baseline,1,Q1FrontDown,-50.37665,42.05972,85.33026,-34.25965,-142.6196,144.0399,-23.38201,202408261527187001,
2-18,A_Baseline,1,Q1FrontDown,-50.37693,42.05977,85.32622,-34.24927,-142.5672,144.0415,-23.38773,202408261527187178,
2-18,A_Baseline,1,Q1FrontDown,-50.37683,42.05946,85.32137,-34.23911,-142.5258,144.0441,-23.40077,202408261527187468,
2-18,A_Baseline,1,Q1FrontDown,-50.37683,42.05946,85.32137,-34.23911,-142.5258,144.0441,-23.40077,202408261527187631,
2-18,A_Baseline,1,Q1FrontDown,-50.37682,42.05855,85.32028,-34.22249,-142.4258,144.0578,-23.42436,202408261527187799,
2-18,A_Baseline,1,Q1FrontDown,-50.37682,42.05855,85.32028,-34.22249,-142.4258,144.0578,-23.42436,202408261527187971,
2-18,A_Baseline,1,Q1FrontDown,-50.37669,42.0522,85.32042,-34.19029,-142.2498,144.0692,-23.47666,202408261527188209,
2-18,A_Baseline,1,Q1FrontDown,-50.35705,42.03091,85.32356,-34.10528,-141.8331,144.075,-23.596,202408261527188505,
2-18,A_Baseline,1,Q1FrontDown,-50.31904,42.00773,85.34978,-33.99293,-141.2755,144.0742,-23.72835,202408261527188881,
2-18,A_Baseline,1,Q1FrontDown,-50.27266,41.97527,85.43552,-33.83405,-140.6048,144.0773,-23.87218,202408261527189145,
2-18,A_Baseline,1,Q1FrontDown,-50.23299,41.918,85.52067,-33.68943,-139.9499,144.0778,-24.01927,202408261527189354,
2-18,A_Baseline,1,Q1FrontDown,-50.23299,41.918,85.52067,-33.68943,-139.9499,144.0778,-24.01927,202408261527189649,
2-18,A_Baseline,1,Q1FrontDown,-50.19967,41.80305,85.61051,-33.53892,-139.2349,144.0768,-24.17267,202408261527189797,
2-18,A_Baseline,1,Q1FrontDown,-50.19967,41.80305,85.61051,-33.53892,-139.2349,144.0768,-24.17267,202408261527189977,
2-18,A_Baseline,1,Q1FrontDown,-50.15174,41.67246,85.72057,-33.36185,-138.4669,144.0793,-24.3496,202408261527190149,
2-18,A_Baseline,1,Q1FrontDown,-50.11198,41.47661,85.87846,-33.1514,-137.5189,144.0837,-24.53283,202408261527190392,
2-18,A_Baseline,1,Q1FrontDown,-50.11198,41.47661,85.87846,-33.1514,-137.5189,144.0837,-24.53283,202408261527190649,
2-18,A_Baseline,1,Q1FrontDown,-50.03964,41.28189,86.07407,-32.93664,-136.6281,144.0897,-24.71124,202408261527190824,
2-18,A_Baseline,1,Q1FrontDown,-50.03964,41.28189,86.07407,-32.93664,-136.6281,144.0897,-24.71124,202408261527190990,
2-18,A_Baseline,1,Q1FrontDown,-49.9607,41.0643,86.31139,-32.72689,-135.7177,144.1104,-24.87958,202408261527191166,
2-18,A_Baseline,1,Q1FrontDown,-49.9607,41.0643,86.31139,-32.72689,-135.7177,144.1104,-24.87958,202408261527191362,
2-18,A_Baseline,1,Q1FrontDown,-49.89416,40.79605,86.5577,-32.52605,-134.8324,144.134,-25.08553,202408261527191637,
2-18,A_Baseline,1,Q1FrontDown,-49.8213,40.48866,86.84107,-32.31665,-133.9727,144.1565,-25.29025,202408261527191811,
2-18,A_Baseline,1,Q1FrontDown,-49.8213,40.48866,86.84107,-32.31665,-133.9727,144.1565,-25.29025,202408261527192016,
2-18,A_Baseline,1,Q1FrontDown,-49.74134,40.18668,87.09294,-32.12038,-133.1899,144.1788,-25.47707,202408261527192304,
2-18,A_Baseline,1,Q1FrontDown,-49.65931,39.85823,87.38891,-31.93959,-132.4363,144.1912,-25.6476,202408261527192523,
2-18,A_Baseline,1,Q1FrontDown,-49.58889,39.53127,87.7407,-31.77585,-131.7428,144.2062,-25.82034,202408261527192794,
2-18,A_Baseline,1,Q1FrontDown,-49.58889,39.53127,87.7407,-31.77585,-131.7428,144.2062,-25.82034,202408261527192977,
2-18,A_Baseline,1,Q1FrontDown,-49.52996,39.20023,88.09327,-31.63441,-131.0733,144.2232,-25.97247,202408261527193147,
2-18,A_Baseline,1,Q1FrontDown,-49.52996,39.20023,88.09327,-31.63441,-131.0733,144.2232,-25.97247,202408261527193324,
2-18,A_Baseline,1,Q1FrontDown,-49.47211,38.87441,88.49095,-31.53145,-130.4595,144.2442,-26.13329,202408261527193533,
2-18,A_Baseline,1,Q1FrontDown,-49.47211,38.87441,88.49095,-31.53145,-130.4595,144.2442,-26.13329,202408261527193821,
2-18,A_Baseline,1,Q1FrontDown,-49.41712,38.26365,89.30475,-31.42408,-129.3992,144.2922,-26.41145,202408261527194148,
2-18,A_Baseline,1,Q1FrontDown,-49.42259,38.00846,89.87179,-31.42815,-128.9547,144.3018,-26.53391,202408261527194480,
2-18,A_Baseline,1,Q1FrontDown,-49.42517,37.75748,90.43048,-31.43771,-128.5488,144.3101,-26.64572,202408261527194682,
2-18,A_Baseline,1,Q1FrontDown,-49.42517,37.75748,90.43048,-31.43771,-128.5488,144.3101,-26.64572,202408261527194972,
2-18,A_Baseline,1,Q1FrontDown,-49.42517,37.75748,90.43048,-31.43771,-128.5488,144.3101,-26.64572,202408261527195210,
2-18,A_Baseline,1,Q1FrontDown,-49.4454,37.29388,91.55844,-31.52277,-127.9417,144.3276,-26.81877,202408261527195495,
2-18,A_Baseline,1,Q1FrontDown,-49.4454,37.29388,91.55844,-31.52277,-127.9417,144.3276,-26.81877,202408261527195701,
2-18,A_Baseline,1,Q1FrontDown,-49.52614,36.91104,92.80336,-31.73298,-127.6043,144.3296,-26.93228,202408261527195992,
2-18,A_Baseline,1,Q1FrontDown,-49.52614,36.91104,92.80336,-31.73298,-127.6043,144.3296,-26.93228,202408261527196162,
2-18,A_Baseline,1,Q1FrontDown,-49.52614,36.91104,92.80336,-31.73298,-127.6043,144.3296,-26.93228,202408261527196505,
2-18,A_Baseline,1,Q1FrontDown,-49.55694,36.73598,93.38729,-31.85446,-127.4605,144.3319,-26.97522,202408261527196692,
2-18,A_Baseline,1,Q1FrontDown,-49.57072,36.60406,93.87639,-31.98455,-127.3382,144.3344,-27.00281,202408261527196975,
2-18,A_Baseline,1,Q1FrontDown,-49.61129,36.4459,94.33315,-32.14545,-127.2567,144.3342,-27.02355,202408261527197133,
2-18,A_Baseline,1,Q1FrontDown,-49.61129,36.4459,94.33315,-32.14545,-127.2567,144.3342,-27.02355,202408261527197310,
2-18,A_Baseline,1,Q1FrontDown,-49.65369,36.33295,94.68597,-32.31833,-127.241,144.3345,-27.03485,202408261527197470,
2-18,A_Baseline,1,Q1FrontDown,-49.65369,36.33295,94.68597,-32.31833,-127.241,144.3345,-27.03485,202408261527197645,
2-18,A_Baseline,1,Q1FrontDown,-49.71021,36.22242,94.99797,-32.49929,-127.2335,144.3343,-27.04811,202408261527197871,
2-18,A_Baseline,1,Q1FrontDown,-49.75734,36.17039,95.30624,-32.68002,-127.219,144.334,-27.05971,202408261527198156,
2-18,A_Baseline,1,Q1FrontDown,-49.80998,36.13271,95.75628,-32.83478,-127.0105,144.3318,-27.07461,202408261527198366,
2-18,A_Baseline,1,Q1FrontDown,-49.80998,36.13271,95.75628,-32.83478,-127.0105,144.3318,-27.07461,202408261527198671,
2-18,A_Baseline,1,Q1FrontDown,-49.82933,36.13268,96.19884,-32.97773,-126.8039,144.3323,-27.08411,202408261527198847,
2-18,A_Baseline,1,Q1FrontDown,-49.83829,36.12001,96.55883,-33.09676,-126.6702,144.3315,-27.09338,202408261527199132,
2-18,A_Baseline,1,Q1FrontDown,-49.86536,36.10545,96.83857,-33.24726,-126.6408,144.3318,-27.09843,202408261527199476,
2-18,A_Baseline,1,Q1FrontDown,-49.9478,36.05409,97.14091,-33.40973,-126.5724,144.3257,-27.10768,202408261527199647,
2-18,A_Baseline,1,Q1FrontDown,-49.9478,36.05409,97.14091,-33.40973,-126.5724,144.3257,-27.10768,202408261527199827,
2-18,A_Baseline,1,Q1FrontDown,-50.04559,36.03001,97.57726,-33.53404,-126.4294,144.3261,-27.1126,202408261527200028,
2-18,A_Baseline,1,Q1FrontDown,-50.04559,36.03001,97.57726,-33.53404,-126.4294,144.3261,-27.1126,202408261527200304,
2-18,A_Baseline,1,Q1FrontDown,-50.04559,36.03001,97.57726,-33.53404,-126.4294,144.3261,-27.1126,202408261527200488,
2-18,A_Baseline,1,Q1FrontDown,-50.14547,36.01669,98.32509,-33.78253,-126.1605,144.3022,-27.12012,202408261527200668,
2-18,A_Baseline,1,Q1FrontDown,-50.14547,36.01669,98.32509,-33.78253,-126.1605,144.3022,-27.12012,202408261527201009,
2-18,A_Baseline,1,Q1FrontDown,-50.18687,36.00432,98.68413,-33.91373,-126.0331,144.2651,-27.1199,202408261527201203,
2-18,A_Baseline,1,Q1FrontDown,-50.26596,35.9717,98.98908,-34.04957,-125.8944,144.2234,-27.12065,202408261527201476,
2-18,A_Baseline,1,Q1FrontDown,-50.26596,35.9717,98.98908,-34.04957,-125.8944,144.2234,-27.12065,202408261527201687,
2-18,A_Baseline,1,Q1FrontDown,-50.34627,35.93263,99.23548,-34.20314,-125.7403,144.1835,-27.12218,202408261527201973,
2-18,A_Baseline,1,Q1FrontDown,-50.41614,35.91725,99.45476,-34.38559,-125.6,144.1454,-27.12687,202408261527202148,
2-18,A_Baseline,1,Q1FrontDown,-50.41614,35.91725,99.45476,-34.38559,-125.6,144.1454,-27.12687,202408261527202347,
2-18,A_Baseline,1,Q1FrontDown,-50.53045,35.90537,99.72908,-34.60567,-125.3901,144.1231,-27.12814,202408261527202630,
2-18,A_Baseline,1,Q1FrontDown,-50.64769,35.90613,99.94984,-34.84206,-125.1869,144.1051,-27.12871,202408261527202800,
2-18,A_Baseline,1,Q1FrontDown,-50.64769,35.90613,99.94984,-34.84206,-125.1869,144.1051,-27.12871,202408261527202969,
2-18,A_Baseline,1,Q1FrontDown,-50.7634,35.91081,100.1423,-35.08341,-124.9677,144.0843,-27.12901,202408261527203176,
2-18,A_Baseline,1,Q1FrontDown,-50.91125,35.9249,100.3714,-35.37146,-124.7505,144.0618,-27.12918,202408261527203368,
2-18,A_Baseline,1,Q1FrontDown,-50.91125,35.9249,100.3714,-35.37146,-124.7505,144.0618,-27.12918,202408261527203673,
2-18,A_Baseline,1,Q1FrontDown,-51.07111,35.93073,100.5964,-35.66731,-124.5548,144.0431,-27.12926,202408261527203982,
2-18,A_Baseline,1,Q1FrontDown,-51.23009,35.92986,100.8106,-36.00212,-124.3905,144.0259,-27.12942,202408261527204305,
2-18,A_Baseline,1,Q1FrontDown,-51.3684,35.94192,101.0617,-36.3646,-124.2458,144.0249,-27.13102,202408261527204536,
2-18,A_Baseline,1,Q1FrontDown,-51.51745,35.94507,101.3103,-36.73338,-124.1166,144.0244,-27.13214,202408261527204811,
2-18,A_Baseline,1,Q1FrontDown,-51.62896,35.94641,101.5146,-37.06389,-123.9947,144.0242,-27.13285,202408261527205032,
2-18,A_Baseline,1,Q1FrontDown,-51.62896,35.94641,101.5146,-37.06389,-123.9947,144.0242,-27.13285,202408261527205296,
2-18,A_Baseline,1,Q1FrontDown,-51.74951,36.01731,101.8838,-37.46544,-123.9524,144.0239,-27.13324,202408261527205474,
2-18,A_Baseline,1,Q1FrontDown,-51.8395,36.09576,102.2779,-37.88845,-123.9199,144.0234,-27.13373,202408261527205723,
2-18,A_Baseline,1,Q1FrontDown,-51.8395,36.09576,102.2779,-37.88845,-123.9199,144.0234,-27.13373,202408261527205988,
2-18,A_Baseline,1,Q1FrontDown,-51.92843,36.19458,102.6944,-38.3243,-123.8973,144.0253,-27.13589,202408261527206185,
2-18,A_Baseline,1,Q1FrontDown,-51.99244,36.26462,103.0679,-38.74204,-123.8753,144.0255,-27.13751,202408261527206568,
2-18,A_Baseline,1,Q1FrontDown,-52.0166,36.34425,103.3935,-39.1568,-123.8695,144.0314,-27.14623,202408261527206869,
2-18,A_Baseline,1,Q1FrontDown,-52.02801,36.4471,103.6809,-39.61514,-123.8693,144.0591,-27.15276,202408261527207147,
2-18,A_Baseline,1,Q1FrontDown,-52.02801,36.4471,103.6809,-39.61514,-123.8693,144.0591,-27.15276,202408261527207309,
2-18,A_Baseline,1,Q1FrontDown,-52.03397,36.53207,103.9372,-40.04676,-123.8694,144.0797,-27.15537,202408261527207485,
2-18,A_Baseline,1,Q1FrontDown,-52.03397,36.53207,103.9372,-40.04676,-123.8694,144.0797,-27.15537,202408261527207657,
2-18,A_Baseline,1,Q1FrontDown,-52.03431,36.64619,104.1827,-40.46979,-123.8694,144.0927,-27.15635,202408261527207881,
2-18,A_Baseline,1,Q1FrontDown,-52.03254,36.74509,104.4138,-40.88725,-123.8693,144.1166,-27.15646,202408261527208179,
2-18,A_Baseline,1,Q1FrontDown,-52.02567,36.88654,104.556,-41.33225,-123.8693,144.1329,-27.15731,202408261527208497,
2-18,A_Baseline,1,Q1FrontDown,-52.02567,36.88654,104.556,-41.33225,-123.8693,144.1329,-27.15731,202408261527208657,
2-18,A_Baseline,1,Q1FrontDown,-52.02591,37.03273,104.6911,-41.74494,-123.8693,144.1502,-27.15826,202408261527208835,
2-18,A_Baseline,1,Q1FrontDown,-52.02591,37.03273,104.6911,-41.74494,-123.8693,144.1502,-27.15826,202408261527209026,
2-18,A_Baseline,1,Q1FrontDown,-52.02177,37.18884,104.8304,-42.13114,-123.8693,144.1688,-27.15913,202408261527209298,
2-18,A_Baseline,1,Q1FrontDown,-52.00716,37.36827,104.8824,-42.52551,-123.8787,144.1941,-27.1591,202408261527209476,
2-18,A_Baseline,1,Q1FrontDown,-51.99096,37.5629,104.9032,-42.8928,-123.8818,144.2172,-27.15886,202408261527209682,
2-18,A_Baseline,1,Q1FrontDown,-51.99096,37.5629,104.9032,-42.8928,-123.8818,144.2172,-27.15886,202408261527209997,
2-18,A_Baseline,1,Q1FrontDown,-51.96814,37.79526,104.9026,-43.24271,-123.882,144.2338,-27.15928,202408261527210209,
2-18,A_Baseline,1,Q1FrontDown,-51.93925,38.0179,104.9017,-43.54768,-123.8821,144.2487,-27.15885,202408261527210476,
2-18,A_Baseline,1,Q1FrontDown,-51.93925,38.0179,104.9017,-43.54768,-123.8821,144.2487,-27.15885,202408261527210660,
2-18,A_Baseline,1,Q1FrontDown,-51.88313,38.29194,104.8992,-43.84402,-123.8822,144.2532,-27.15926,202408261527210838,
2-18,A_Baseline,1,Q1FrontDown,-51.83554,38.58268,104.8898,-44.13721,-123.8826,144.2539,-27.15912,202408261527210992,
2-18,A_Baseline,1,Q1FrontDown,-51.83554,38.58268,104.8898,-44.13721,-123.8826,144.2539,-27.15912,202408261527211209,
2-18,A_Baseline,1,Q1FrontDown,-51.78281,38.88334,104.8677,-44.40122,-123.8826,144.2656,-27.15945,202408261527211483,
2-18,A_Baseline,1,Q1FrontDown,-51.75331,39.18578,104.8534,-44.64558,-123.8823,144.2758,-27.15936,202408261527211635,
2-18,A_Baseline,1,Q1FrontDown,-51.75331,39.18578,104.8534,-44.64558,-123.8823,144.2758,-27.15936,202408261527211806,
2-18,A_Baseline,1,Q1FrontDown,-51.75331,39.18578,104.8534,-44.64558,-123.8823,144.2758,-27.15936,202408261527211967,
2-18,A_Baseline,1,Q1FrontDown,-51.71653,39.46682,104.8287,-44.87059,-123.8826,144.2804,-27.15962,202408261527212134,
2-18,A_Baseline,1,Q1FrontDown,-51.71653,39.46682,104.8287,-44.87059,-123.8826,144.2804,-27.15962,202408261527212316,
2-18,A_Baseline,1,Q1FrontDown,-51.65437,39.76963,104.7924,-45.07228,-123.8824,144.2879,-27.15979,202408261527212547,
2-18,A_Baseline,1,Q1FrontDown,-51.61033,40.05497,104.7406,-45.25798,-123.8824,144.2919,-27.16082,202408261527212689,
2-18,A_Baseline,1,Q1FrontDown,-51.61033,40.05497,104.7406,-45.25798,-123.8824,144.2919,-27.16082,202408261527212976,
2-18,A_Baseline,1,Q1FrontDown,-51.61033,40.05497,104.7406,-45.25798,-123.8824,144.2919,-27.16082,202408261527213157,
2-18,A_Baseline,1,Q1FrontDown,-51.55374,40.64587,104.578,-45.62456,-123.8821,144.3129,-27.16459,202408261527213344,
2-18,A_Baseline,1,Q1FrontDown,-51.55374,40.64587,104.578,-45.62456,-123.8821,144.3129,-27.16459,202408261527213546,
2-18,A_Baseline,1,Q1FrontDown,-51.55374,40.64587,104.578,-45.62456,-123.8821,144.3129,-27.16459,202408261527213826,
2-18,A_Baseline,1,Q1FrontDown,-51.5265,40.92641,104.4988,-45.77114,-123.8813,144.3265,-27.17724,202408261527213996,
2-18,A_Baseline,1,Q1FrontDown,-51.4912,41.21925,104.439,-45.91186,-123.8795,144.333,-27.19373,202408261527214358,
2-18,A_Baseline,1,Q1FrontDown,-51.46668,41.50561,104.3735,-46.04618,-123.8785,144.3379,-27.20591,202408261527214520,
2-18,A_Baseline,1,Q1FrontDown,-51.44091,41.80557,104.284,-46.1861,-123.878,144.3421,-27.22046,202408261527214808,
2-18,A_Baseline,1,Q1FrontDown,-51.44091,41.80557,104.284,-46.1861,-123.878,144.3421,-27.22046,202408261527214991,
2-18,A_Baseline,1,Q1FrontDown,-51.41911,42.08397,104.1751,-46.31701,-123.8782,144.3525,-27.23631,202408261527215159,
2-18,A_Baseline,1,Q1FrontDown,-51.41911,42.08397,104.1751,-46.31701,-123.8782,144.3525,-27.23631,202408261527215317,
2-18,A_Baseline,1,Q1FrontDown,-51.40527,42.3392,104.0836,-46.42282,-123.8784,144.3591,-27.24821,202408261527215493,
2-18,A_Baseline,1,Q1FrontDown,-51.39118,42.61732,103.9901,-46.52677,-123.8783,144.3656,-27.26108,202408261527215732,
2-18,A_Baseline,1,Q1FrontDown,-51.37872,42.85757,103.8982,-46.59712,-123.8784,144.3671,-27.27432,202408261527216012,
2-18,A_Baseline,1,Q1FrontDown,-51.37872,42.85757,103.8982,-46.59712,-123.8784,144.3671,-27.27432,202408261527216169,
2-18,A_Baseline,1,Q1FrontDown,-51.37852,43.10608,103.857,-46.66785,-123.8403,144.3678,-27.30996,202408261527216469,
2-18,A_Baseline,1,Q1FrontDown,-51.37852,43.10608,103.857,-46.66785,-123.8403,144.3678,-27.30996,202408261527216646,
2-18,A_Baseline,1,Q1FrontDown,-51.37909,43.33517,103.8352,-46.72407,-123.8001,144.3678,-27.36292,202408261527216860,
2-18,A_Baseline,1,Q1FrontDown,-51.38134,43.52878,103.8165,-46.75792,-123.7538,144.3683,-27.43421,202408261527217148,
2-18,A_Baseline,1,Q1FrontDown,-51.38134,43.52878,103.8165,-46.75792,-123.7538,144.3683,-27.43421,202408261527217306,
2-18,A_Baseline,1,Q1FrontDown,-51.38461,43.69069,103.7913,-46.78738,-123.7074,144.3686,-27.50635,202408261527217524,
2-18,A_Baseline,1,Q1FrontDown,-51.4038,43.81169,103.7831,-46.81638,-123.6321,144.3685,-27.59071,202408261527217810,
2-18,A_Baseline,1,Q1FrontDown,-51.42629,43.89473,103.7841,-46.83453,-123.5371,144.3689,-27.67878,202408261527218037,
2-18,A_Baseline,1,Q1FrontDown,-51.42629,43.89473,103.7841,-46.83453,-123.5371,144.3689,-27.67878,202408261527218325,
2-18,A_Baseline,1,Q1FrontDown,-51.44045,43.96943,103.7587,-46.87412,-123.4755,144.3696,-27.77092,202408261527218632,
2-18,A_Baseline,1,Q1FrontDown,-51.47196,44.00671,103.7196,-46.92251,-123.4239,144.371,-27.8582,202408261527218835,
2-18,A_Baseline,1,Q1FrontDown,-51.51696,44.02451,103.6837,-46.98378,-123.3852,144.3718,-27.94556,202408261527219024,
2-18,A_Baseline,1,Q1FrontDown,-51.51696,44.02451,103.6837,-46.98378,-123.3852,144.3718,-27.94556,202408261527219301,
2-18,A_Baseline,1,Q1FrontDown,-51.5682,44.02617,103.6793,-47.03388,-123.2934,144.3724,-28.04943,202408261527219480,
2-18,A_Baseline,1,Q1FrontDown,-51.5682,44.02617,103.6793,-47.03388,-123.2934,144.3724,-28.04943,202408261527219648,
2-18,A_Baseline,1,Q1FrontDown,-51.5682,44.02617,103.6793,-47.03388,-123.2934,144.3724,-28.04943,202408261527219821,
2-18,A_Baseline,1,Q1FrontDown,-51.60199,44.02272,103.6506,-47.07696,-123.2097,144.3734,-28.13846,202408261527219992,
2-18,A_Baseline,1,Q1FrontDown,-51.6317,44.01839,103.5898,-47.1199,-123.1343,144.3728,-28.23189,202408261527220234,
2-18,A_Baseline,1,Q1FrontDown,-51.67208,43.97015,103.5341,-47.13254,-122.9239,144.3727,-28.37183,202408261527220506,
2-18,A_Baseline,1,Q1FrontDown,-51.69612,43.93457,103.4788,-47.14028,-122.691,144.3728,-28.51421,202408261527220740,
2-18,A_Baseline,1,Q1FrontDown,-51.69612,43.93457,103.4788,-47.14028,-122.691,144.3728,-28.51421,202408261527220991,
2-18,A_Baseline,1,Q1FrontDown,-51.72121,43.88827,103.4392,-47.14096,-122.4566,144.3727,-28.63786,202408261527221147,
2-18,A_Baseline,1,Q1FrontDown,-51.73249,43.77269,103.2318,-47.1315,-122.2269,144.3888,-28.74399,202408261527221357,
2-18,A_Baseline,1,Q1FrontDown,-51.73249,43.77269,103.2318,-47.1315,-122.2269,144.3888,-28.74399,202408261527221634,
2-18,A_Baseline,1,Q1FrontDown,-51.73246,43.59976,102.9153,-47.11478,-122.0361,144.4185,-28.8311,202408261527221797,
2-18,A_Baseline,1,Q1FrontDown,-51.73246,43.59976,102.9153,-47.11478,-122.0361,144.4185,-28.8311,202408261527221971,
2-18,A_Baseline,1,Q1FrontDown,-51.73209,43.36532,102.4598,-47.0773,-121.8924,144.4372,-28.89165,202408261527222151,
2-18,A_Baseline,1,Q1FrontDown,-51.73209,43.36532,102.4598,-47.0773,-121.8924,144.4372,-28.89165,202408261527222378,
2-18,A_Baseline,1,Q1FrontDown,-51.72287,43.05591,101.8494,-47.03582,-121.7151,144.456,-28.95042,202408261527222658,
2-18,A_Baseline,1,Q1FrontDown,-51.69314,42.74474,101.2021,-47.01385,-121.5689,144.4755,-28.99161,202408261527222817,
2-18,A_Baseline,1,Q1FrontDown,-51.69314,42.74474,101.2021,-47.01385,-121.5689,144.4755,-28.99161,202408261527223016,
2-18,A_Baseline,1,Q1FrontDown,-51.64697,42.42607,100.4587,-46.98616,-121.4337,144.4993,-29.01751,202408261527223181,
2-18,A_Baseline,1,Q1FrontDown,-51.57921,42.06892,99.61559,-46.94684,-121.2874,144.5211,-29.02967,202408261527223391,
2-18,A_Baseline,1,Q1FrontDown,-51.57921,42.06892,99.61559,-46.94684,-121.2874,144.5211,-29.02967,202408261527223665,
2-18,A_Baseline,1,Q1FrontDown,-51.49976,41.70706,98.76601,-46.92881,-121.1682,144.5373,-29.04525,202408261527223822,
2-18,A_Baseline,1,Q1FrontDown,-51.42832,41.39229,98.01279,-46.91936,-121.0669,144.5458,-29.06116,202408261527224026,
2-18,A_Baseline,1,Q1FrontDown,-51.42832,41.39229,98.01279,-46.91936,-121.0669,144.5458,-29.06116,202408261527224306,
2-18,A_Baseline,1,Q1FrontDown,-51.29724,41.1045,97.0708,-46.88979,-121.0586,144.5895,-29.06552,202408261527224529,
2-18,A_Baseline,1,Q1FrontDown,-51.18581,40.79353,96.12446,-46.82994,-121.0568,144.6418,-29.06904,202408261527224829,
2-18,A_Baseline,1,Q1FrontDown,-51.18581,40.79353,96.12446,-46.82994,-121.0568,144.6418,-29.06904,202408261527224993,
2-18,A_Baseline,1,Q1FrontDown,-51.06122,40.50599,95.13218,-46.76145,-121.0572,144.7131,-29.06985,202408261527225158,
2-18,A_Baseline,1,Q1FrontDown,-50.91563,40.22646,94.08064,-46.63546,-121.0456,144.8075,-29.07106,202408261527225331,
2-18,A_Baseline,1,Q1FrontDown,-50.91563,40.22646,94.08064,-46.63546,-121.0456,144.8075,-29.07106,202408261527225546,
2-18,A_Baseline,1,Q1FrontDown,-50.76094,39.99188,93.04633,-46.51768,-121.0267,144.893,-29.07495,202408261527225848,
2-18,A_Baseline,1,Q1FrontDown,-50.76094,39.99188,93.04633,-46.51768,-121.0267,144.893,-29.07495,202408261527226006,
2-18,A_Baseline,1,Q1FrontDown,-50.60974,39.79875,92.00433,-46.41946,-121.0035,145.0037,-29.08384,202408261527226155,
2-18,A_Baseline,1,Q1FrontDown,-50.46052,39.60924,90.94443,-46.30394,-120.9411,145.1295,-29.09598,202408261527226501,
2-18,A_Baseline,1,Q1FrontDown,-50.46052,39.60924,90.94443,-46.30394,-120.9411,145.1295,-29.09598,202408261527226699,
2-18,A_Baseline,1,Q1FrontDown,-50.31889,39.42302,89.921,-46.19756,-120.8823,145.2431,-29.11046,202408261527226975,
2-18,A_Baseline,1,Q1FrontDown,-50.17887,39.22964,88.86046,-46.10466,-120.8412,145.3413,-29.12678,202408261527227201,
2-18,A_Baseline,1,Q1FrontDown,-50.04438,39.06662,87.88753,-46.03409,-120.8054,145.4294,-29.14028,202408261527227477,
2-18,A_Baseline,1,Q1FrontDown,-50.04438,39.06662,87.88753,-46.03409,-120.8054,145.4294,-29.14028,202408261527227661,
2-18,A_Baseline,1,Q1FrontDown,-49.89061,38.91188,86.8987,-45.96032,-120.76,145.5233,-29.15064,202408261527227870,
2-18,A_Baseline,1,Q1FrontDown,-49.73026,38.74634,85.88882,-45.87247,-120.7027,145.5852,-29.15485,202408261527228194,
2-18,A_Baseline,1,Q1FrontDown,-49.48228,38.55784,84.72121,-45.73012,-120.6047,145.6964,-29.15639,202408261527228492,
2-18,A_Baseline,1,Q1FrontDown,-49.23045,38.35649,83.59927,-45.59619,-120.5012,145.8088,-29.15679,202408261527228726,
2-18,A_Baseline,1,Q1FrontDown,-49.23045,38.35649,83.59927,-45.59619,-120.5012,145.8088,-29.15679,202408261527228984,
2-18,A_Baseline,1,Q1FrontDown,-48.9615,38.16936,82.45191,-45.4771,-120.3969,145.93,-29.15676,202408261527229149,
2-18,A_Baseline,1,Q1FrontDown,-48.9615,38.16936,82.45191,-45.4771,-120.3969,145.93,-29.15676,202408261527229316,
2-18,A_Baseline,1,Q1FrontDown,-48.61078,37.98344,81.1819,-45.32288,-120.2933,146.0919,-29.15735,202408261527229484,
2-18,A_Baseline,1,Q1FrontDown,-48.61078,37.98344,81.1819,-45.32288,-120.2933,146.0919,-29.15735,202408261527229659,
2-18,A_Baseline,1,Q1FrontDown,-48.23228,37.78028,79.92312,-45.1909,-120.1714,146.229,-29.15821,202408261527229823,
2-18,A_Baseline,1,Q1FrontDown,-47.77927,37.55921,78.57361,-45.04677,-120.0515,146.3389,-29.16054,202408261527230052,
2-18,A_Baseline,1,Q1FrontDown,-47.77927,37.55921,78.57361,-45.04677,-120.0515,146.3389,-29.16054,202408261527230214,
2-18,A_Baseline,1,Q1FrontDown,-47.77927,37.55921,78.57361,-45.04677,-120.0515,146.3389,-29.16054,202408261527230478,
2-18,A_Baseline,1,Q1FrontDown,-47.33541,37.39078,77.30797,-44.91951,-119.9452,146.4517,-29.1621,202408261527230673,
2-18,A_Baseline,1,Q1FrontDown,-46.89466,37.24597,76.09705,-44.81665,-119.8453,146.5663,-29.16615,202408261527230847,
2-18,A_Baseline,1,Q1FrontDown,-46.39709,37.09425,74.81705,-44.71369,-119.7584,146.6927,-29.17786,202408261527231045,
2-18,A_Baseline,1,Q1FrontDown,-46.39709,37.09425,74.81705,-44.71369,-119.7584,146.6927,-29.17786,202408261527231318,
2-18,A_Baseline,1,Q1FrontDown,-45.82903,36.95454,73.31889,-44.55297,-119.722,146.901,-29.17891,202408261527231488,
2-18,A_Baseline,1,Q1FrontDown,-45.82903,36.95454,73.31889,-44.55297,-119.722,146.901,-29.17891,202408261527231667,
2-18,A_Baseline,1,Q1FrontDown,-45.30724,36.81125,71.87784,-44.39995,-119.696,147.1068,-29.17978,202408261527231860,
2-18,A_Baseline,1,Q1FrontDown,-45.30724,36.81125,71.87784,-44.39995,-119.696,147.1068,-29.17978,202408261527232026,
2-18,A_Baseline,1,Q1FrontDown,-44.65696,36.66975,70.07244,-44.23155,-119.6826,147.3833,-29.18044,202408261527232331,
2-18,A_Baseline,1,Q1FrontDown,-44.52107,36.7474,69.49437,-44.30857,-119.7517,147.3592,-29.18059,202408261527232478,
2-18,A_Baseline,1,Q1FrontDown,-44.52107,36.7474,69.49437,-44.30857,-119.7517,147.3592,-29.18059,202408261527232655,
2-18,A_Baseline,1,Q1FrontDown,-44.50441,37.02962,69.49163,-44.4299,-119.7671,147.3391,-29.17982,202408261527232845,
2-18,A_Baseline,1,Q1FrontDown,-44.50441,37.02962,69.49163,-44.4299,-119.7671,147.3391,-29.17982,202408261527233017,
2-18,A_Baseline,1,Q1FrontDown,-44.49096,37.24851,69.45959,-44.54409,-119.7728,147.3383,-29.17969,202408261527233223,
2-18,A_Baseline,1,Q1FrontDown,-44.44968,37.40431,69.27364,-44.59277,-119.7731,147.3386,-29.18005,202408261527233472,
2-18,A_Baseline,1,Q1FrontDown,-44.44968,37.40431,69.27364,-44.59277,-119.7731,147.3386,-29.18005,202408261527233649,
2-18,A_Baseline,1,Q1FrontDown,-44.36197,37.47414,69.00086,-44.62173,-119.772,147.3459,-29.17958,202408261527233835,
2-18,A_Baseline,1,Q1FrontDown,-44.36197,37.47414,69.00086,-44.62173,-119.772,147.3459,-29.17958,202408261527233992,
2-18,A_Baseline,1,Q1FrontDown,-44.26517,37.47411,68.64897,-44.60899,-119.7723,147.3491,-29.17976,202408261527234158,
2-18,A_Baseline,1,Q1FrontDown,-44.26517,37.47411,68.64897,-44.60899,-119.7723,147.3491,-29.17976,202408261527234366,
2-18,A_Baseline,1,Q1FrontDown,-44.10719,37.46425,68.09272,-44.5448,-119.7696,147.3867,-29.17985,202408261527234657,
2-18,A_Baseline,1,Q1FrontDown,-43.88943,37.42864,67.41623,-44.49003,-119.7638,147.43,-29.17945,202408261527234827,
2-18,A_Baseline,1,Q1FrontDown,-43.88943,37.42864,67.41623,-44.49003,-119.7638,147.43,-29.17945,202408261527235045,
2-18,A_Baseline,1,Q1FrontDown,-43.32534,37.28881,65.6518,-44.32356,-119.7519,147.599,-29.17924,202408261527235386,
2-18,A_Baseline,1,Q1FrontDown,-43.32534,37.28881,65.6518,-44.32356,-119.7519,147.599,-29.17924,202408261527235666,
2-18,A_Baseline,1,Q1FrontDown,-43.00394,37.22858,64.62534,-44.21465,-119.7432,147.6941,-29.17918,202408261527235852,
2-18,A_Baseline,1,Q1FrontDown,-42.63161,37.17012,63.45753,-44.1119,-119.7396,147.824,-29.17917,202408261527236060,
2-18,A_Baseline,1,Q1FrontDown,-42.25767,37.10921,62.23238,-44.02605,-119.7322,147.9879,-29.17922,202408261527236402,
2-18,A_Baseline,1,Q1FrontDown,-42.25767,37.10921,62.23238,-44.02605,-119.7322,147.9879,-29.17922,202408261527236657,
2-18,A_Baseline,1,Q1FrontDown,-41.88818,37.06631,61.05199,-43.94504,-119.7284,148.1398,-29.17917,202408261527236978,
2-18,A_Baseline,1,Q1FrontDown,-41.5204,37.04719,59.88373,-43.86878,-119.7255,148.3112,-29.17902,202408261527237160,
2-18,A_Baseline,1,Q1FrontDown,-41.5204,37.04719,59.88373,-43.86878,-119.7255,148.3112,-29.17902,202408261527237325,
2-18,A_Baseline,1,Q1FrontDown,-41.17896,37.05359,58.73347,-43.79164,-119.7222,148.4574,-29.1791,202408261527237497,
2-18,A_Baseline,1,Q1FrontDown,-40.89331,37.05807,57.71478,-43.7472,-119.7222,148.5705,-29.17913,202408261527237731,
2-18,A_Baseline,1,Q1FrontDown,-40.63486,37.06954,56.79693,-43.71487,-119.7222,148.671,-29.1792,202408261527238001,
2-18,A_Baseline,1,Q1FrontDown,-40.63486,37.06954,56.79693,-43.71487,-119.7222,148.671,-29.1792,202408261527238249,
2-18,A_Baseline,1,Q1FrontDown,-40.60285,37.19742,56.53945,-43.78169,-119.7674,148.6523,-29.17872,202408261527238500,
2-18,A_Baseline,1,Q1FrontDown,-40.6215,37.38105,56.48962,-43.84628,-119.7781,148.6421,-29.17834,202408261527238730,
2-18,A_Baseline,1,Q1FrontDown,-40.6215,37.38105,56.48962,-43.84628,-119.7781,148.6421,-29.17834,202408261527238978,
2-18,A_Baseline,1,Q1FrontDown,-40.62436,37.49978,56.39878,-43.9284,-119.788,148.6403,-29.17832,202408261527239128,
2-18,A_Baseline,1,Q1FrontDown,-40.59738,37.54758,56.17675,-44.02628,-119.7974,148.6431,-29.17283,202408261527239310,
2-18,A_Baseline,1,Q1FrontDown,-40.59738,37.54758,56.17675,-44.02628,-119.7974,148.6431,-29.17283,202408261527239495,
2-18,A_Baseline,1,Q1FrontDown,-40.59738,37.54758,56.17675,-44.02628,-119.7974,148.6431,-29.17283,202408261527239659,
2-18,A_Baseline,1,Q1FrontDown,-40.51989,37.55413,55.86208,-44.14103,-119.8018,148.6694,-29.15455,202408261527239879,
2-18,A_Baseline,1,Q1FrontDown,-40.391,37.55029,55.4131,-44.2432,-119.8154,148.7267,-29.13713,202408261527240146,
2-18,A_Baseline,1,Q1FrontDown,-40.23461,37.52965,54.80423,-44.3414,-119.829,148.8458,-29.09481,202408261527240330,
2-18,A_Baseline,1,Q1FrontDown,-40.23461,37.52965,54.80423,-44.3414,-119.829,148.8458,-29.09481,202408261527240693,
2-18,A_Baseline,1,Q1FrontDown,-40.04202,37.49868,54.08222,-44.46789,-119.8447,149.0089,-29.04562,202408261527240881,
2-18,A_Baseline,1,Q1FrontDown,-39.83136,37.47205,53.24574,-44.60527,-119.8725,149.2147,-28.98694,202408261527241159,
2-18,A_Baseline,1,Q1FrontDown,-39.83136,37.47205,53.24574,-44.60527,-119.8725,149.2147,-28.98694,202408261527241328,
2-18,A_Baseline,1,Q1FrontDown,-39.58165,37.45715,52.27169,-44.7655,-119.8959,149.4812,-28.91054,202408261527241545,
2-18,A_Baseline,1,Q1FrontDown,-39.32022,37.45671,51.23666,-44.96807,-119.9178,149.7509,-28.83899,202408261527241847,
2-18,A_Baseline,1,Q1FrontDown,-39.02425,37.46989,50.16056,-45.16909,-119.9471,150.0115,-28.76328,202408261527242040,
2-18,A_Baseline,1,Q1FrontDown,-39.02425,37.46989,50.16056,-45.16909,-119.9471,150.0115,-28.76328,202408261527242321,
2-18,A_Baseline,1,Q1FrontDown,-39.02425,37.46989,50.16056,-45.16909,-119.9471,150.0115,-28.76328,202408261527242486,
2-18,A_Baseline,1,Q1FrontDown,-38.73873,37.49504,49.02589,-45.40851,-119.9724,150.3105,-28.67123,202408261527242659,
2-18,A_Baseline,1,Q1FrontDown,-38.49959,37.5289,47.95706,-45.66156,-119.9946,150.6021,-28.58108,202408261527242825,
2-18,A_Baseline,1,Q1FrontDown,-38.49959,37.5289,47.95706,-45.66156,-119.9946,150.6021,-28.58108,202408261527243030,
2-18,A_Baseline,1,Q1FrontDown,-38.27324,37.58379,46.94627,-45.90181,-120.0181,150.8477,-28.49699,202408261527243231,
2-18,A_Baseline,1,Q1FrontDown,-38.09692,37.6408,46.0762,-46.1341,-120.0351,151.0564,-28.42434,202408261527243502,
2-18,A_Baseline,1,Q1FrontDown,-37.98983,37.71686,45.26601,-46.46503,-120.0498,151.2341,-28.40247,202408261527243679,
2-18,A_Baseline,1,Q1FrontDown,-37.98983,37.71686,45.26601,-46.46503,-120.0498,151.2341,-28.40247,202408261527244004,
2-18,A_Baseline,1,Q1FrontDown,-38.08456,37.70078,44.66889,-47.39094,-120.0596,151.3382,-28.47278,202408261527244168,
2-18,A_Baseline,1,Q1FrontDown,-38.08456,37.70078,44.66889,-47.39094,-120.0596,151.3382,-28.47278,202408261527244381,
2-18,A_Baseline,1,Q1FrontDown,-38.18219,37.70307,44.08985,-48.33129,-120.0708,151.484,-28.53746,202408261527244660,
2-18,A_Baseline,1,Q1FrontDown,-38.25653,37.7587,43.53926,-49.23814,-120.0828,151.6192,-28.58375,202408261527244874,
2-18,A_Baseline,1,Q1FrontDown,-38.30816,37.86131,43.08604,-50.08049,-120.0941,151.7339,-28.62423,202408261527245161,
2-18,A_Baseline,1,Q1FrontDown,-38.30816,37.86131,43.08604,-50.08049,-120.0941,151.7339,-28.62423,202408261527245361,
2-18,A_Baseline,1,Q1FrontDown,-38.2802,38.06992,42.62109,-50.85459,-120.0676,151.7501,-28.77337,202408261527245580,
2-18,A_Baseline,1,Q1FrontDown,-38.18343,38.3681,42.11719,-51.61428,-120.0542,151.775,-28.9095,202408261527245845,
2-18,A_Baseline,1,Q1FrontDown,-38.07396,38.63725,41.57357,-52.27201,-120.054,151.8064,-29.0176,202408261527246159,
2-18,A_Baseline,1,Q1FrontDown,-38.07396,38.63725,41.57357,-52.27201,-120.054,151.8064,-29.0176,202408261527246365,
2-18,A_Baseline,1,Q1FrontDown,-37.9033,38.9566,40.88697,-52.80782,-119.9983,151.8628,-29.17772,202408261527246539,
2-18,A_Baseline,1,Q1FrontDown,-37.70938,39.29851,40.14599,-53.21692,-119.965,151.9019,-29.3052,202408261527246830,
2-18,A_Baseline,1,Q1FrontDown,-37.70938,39.29851,40.14599,-53.21692,-119.965,151.9019,-29.3052,202408261527246990,
2-18,A_Baseline,1,Q1FrontDown,-37.46238,39.67695,39.25853,-53.50953,-119.9522,151.9471,-29.42345,202408261527247158,
2-18,A_Baseline,1,Q1FrontDown,-37.29433,40.05064,38.43419,-53.79679,-119.9473,151.9832,-29.53733,202408261527247330,
2-18,A_Baseline,1,Q1FrontDown,-37.29433,40.05064,38.43419,-53.79679,-119.9473,151.9832,-29.53733,202408261527247500,
2-18,A_Baseline,1,Q1FrontDown,-37.14603,40.46288,37.54747,-54.00213,-119.9446,152.0269,-29.62761,202408261527247733,
2-18,A_Baseline,1,Q1FrontDown,-37.14603,40.46288,37.54747,-54.00213,-119.9446,152.0269,-29.62761,202408261527247890,
2-18,A_Baseline,1,Q1FrontDown,-36.98907,40.87518,36.58308,-54.05407,-119.9454,152.0548,-29.67415,202408261527248173,
2-18,A_Baseline,1,Q1FrontDown,-36.84789,41.30541,35.58077,-54.05951,-119.9158,152.0538,-29.79187,202408261527248373,
2-18,A_Baseline,1,Q1FrontDown,-36.76859,41.70885,34.61204,-54.05735,-119.8944,152.055,-29.91056,202408261527248733,
2-18,A_Baseline,1,Q1FrontDown,-36.76859,41.70885,34.61204,-54.05735,-119.8944,152.055,-29.91056,202408261527248999,
2-18,A_Baseline,1,Q1FrontDown,-36.75013,42.13756,33.65921,-54.05735,-119.8836,152.0522,-30.01891,202408261527249170,
2-18,A_Baseline,1,Q1FrontDown,-36.81545,42.54485,32.80884,-54.04566,-119.8593,152.0473,-30.11141,202408261527249544,
2-18,A_Baseline,1,Q1FrontDown,-36.92595,42.94836,32.04462,-54.03036,-119.8371,152.038,-30.19956,202408261527249829,
2-18,A_Baseline,1,Q1FrontDown,-36.92595,42.94836,32.04462,-54.03036,-119.8371,152.038,-30.19956,202408261527249988,
2-18,A_Baseline,1,Q1FrontDown,-37.0545,43.31823,31.31242,-54.01895,-119.8201,152.0337,-30.29086,202408261527250167,
2-18,A_Baseline,1,Q1FrontDown,-37.0545,43.31823,31.31242,-54.01895,-119.8201,152.0337,-30.29086,202408261527250337,
2-18,A_Baseline,1,Q1FrontDown,-37.0545,43.31823,31.31242,-54.01895,-119.8201,152.0337,-30.29086,202408261527250528,
2-18,A_Baseline,1,Q1FrontDown,-37.48633,44.03937,30.05184,-53.99058,-119.6735,151.9843,-30.54854,202408261527250888,
2-18,A_Baseline,1,Q1FrontDown,-37.72158,44.36531,29.51097,-53.95834,-119.6076,151.9619,-30.69115,202408261527251047,
2-18,A_Baseline,1,Q1FrontDown,-37.72158,44.36531,29.51097,-53.95834,-119.6076,151.9619,-30.69115,202408261527251335,
2-18,A_Baseline,1,Q1FrontDown,-37.99089,44.65006,29.01824,-53.94797,-119.4969,151.9129,-30.86994,202408261527251492,
2-18,A_Baseline,1,Q1FrontDown,-38.2581,44.91849,28.53456,-53.93493,-119.3737,151.8709,-31.07084,202408261527251688,
2-18,A_Baseline,1,Q1FrontDown,-38.2581,44.91849,28.53456,-53.93493,-119.3737,151.8709,-31.07084,202408261527251867,
2-18,A_Baseline,1,Q1FrontDown,-38.5284,45.159,28.12938,-53.90334,-119.2439,151.8325,-31.24802,202408261527252159,
2-18,A_Baseline,1,Q1FrontDown,-38.82079,45.38947,27.73193,-53.85218,-119.1034,151.7804,-31.42445,202408261527252335,
2-18,A_Baseline,1,Q1FrontDown,-38.82079,45.38947,27.73193,-53.85218,-119.1034,151.7804,-31.42445,202408261527252492,
2-18,A_Baseline,1,Q1FrontDown,-39.14235,45.60449,27.34667,-53.76687,-118.9879,151.7186,-31.57407,202408261527252737,
2-18,A_Baseline,1,Q1FrontDown,-39.14235,45.60449,27.34667,-53.76687,-118.9879,151.7186,-31.57407,202408261527252926,
2-18,A_Baseline,1,Q1FrontDown,-39.43979,45.80774,27.0125,-53.62365,-118.9013,151.6592,-31.72165,202408261527253206,
2-18,A_Baseline,1,Q1FrontDown,-39.77138,45.99001,26.71043,-53.48625,-118.8211,151.5941,-31.86457,202408261527253497,
2-18,A_Baseline,1,Q1FrontDown,-40.06509,46.14757,26.42624,-53.35769,-118.735,151.5201,-31.99129,202408261527253693,
2-18,A_Baseline,1,Q1FrontDown,-40.40293,46.28357,26.15888,-53.23309,-118.6364,151.417,-32.1299,202408261527254055,
2-18,A_Baseline,1,Q1FrontDown,-40.73736,46.39758,25.89857,-53.09178,-118.5389,151.2786,-32.25664,202408261527254301,
2-18,A_Baseline,1,Q1FrontDown,-40.73736,46.39758,25.89857,-53.09178,-118.5389,151.2786,-32.25664,202408261527254487,
2-18,A_Baseline,1,Q1FrontDown,-40.73736,46.39758,25.89857,-53.09178,-118.5389,151.2786,-32.25664,202408261527254648,
2-18,A_Baseline,1,Q1FrontDown,-41.04227,46.49652,25.67599,-52.94005,-118.4457,151.1124,-32.37119,202408261527254816,
2-18,A_Baseline,1,Q1FrontDown,-41.34589,46.59988,25.51266,-52.7254,-118.346,150.9199,-32.48755,202408261527255003,
2-18,A_Baseline,1,Q1FrontDown,-41.34589,46.59988,25.51266,-52.7254,-118.346,150.9199,-32.48755,202408261527255216,
2-18,A_Baseline,1,Q1FrontDown,-41.65185,46.71294,25.37599,-52.47782,-118.2411,150.7067,-32.62331,202408261527255505,
2-18,A_Baseline,1,Q1FrontDown,-41.65185,46.71294,25.37599,-52.47782,-118.2411,150.7067,-32.62331,202408261527255680,
2-18,A_Baseline,1,Q1FrontDown,-41.65185,46.71294,25.37599,-52.47782,-118.2411,150.7067,-32.62331,202408261527255885,
2-18,A_Baseline,1,Q1FrontDown,-42.24633,46.9288,25.09399,-51.93365,-118.0315,150.4423,-32.79694,202408261527256183,
2-18,A_Baseline,1,Q1FrontDown,-42.24633,46.9288,25.09399,-51.93365,-118.0315,150.4423,-32.79694,202408261527256356,
2-18,A_Baseline,1,Q1FrontDown,-42.78436,47.10537,24.82118,-51.35109,-117.849,150.2091,-32.93357,202408261527256665,
2-18,A_Baseline,1,Q1FrontDown,-42.78436,47.10537,24.82118,-51.35109,-117.849,150.2091,-32.93357,202408261527256825,
2-18,A_Baseline,1,Q1FrontDown,-42.78436,47.10537,24.82118,-51.35109,-117.849,150.2091,-32.93357,202408261527256976,
2-18,A_Baseline,1,Q1FrontDown,-43.01865,47.20325,24.69123,-50.98769,-117.8084,150.0639,-32.99112,202408261527257158,
2-18,A_Baseline,1,Q1FrontDown,-43.26911,47.30746,24.58951,-50.59967,-117.7578,149.9433,-33.02941,202408261527257341,
2-18,A_Baseline,1,Q1FrontDown,-43.26911,47.30746,24.58951,-50.59967,-117.7578,149.9433,-33.02941,202408261527257553,
2-18,A_Baseline,1,Q1FrontDown,-43.51991,47.40298,24.49961,-50.1967,-117.7182,149.8553,-33.05118,202408261527257838,
2-18,A_Baseline,1,Q1FrontDown,-43.76961,47.49441,24.43617,-49.76425,-117.6797,149.8373,-33.06063,202408261527258001,
2-18,A_Baseline,1,Q1FrontDown,-43.76961,47.49441,24.43617,-49.76425,-117.6797,149.8373,-33.06063,202408261527258231,
2-18,A_Baseline,1,Q1FrontDown,-43.99725,47.55553,24.3985,-49.33627,-117.542,149.8251,-33.1094,202408261527258530,
2-18,A_Baseline,1,Q1FrontDown,-44.2067,47.60532,24.37869,-48.93498,-117.3814,149.8165,-33.14442,202408261527258821,
2-18,A_Baseline,1,Q1FrontDown,-44.2067,47.60532,24.37869,-48.93498,-117.3814,149.8165,-33.14442,202408261527258989,
2-18,A_Baseline,1,Q1FrontDown,-44.38781,47.633,24.37904,-48.47886,-117.2078,149.8152,-33.14608,202408261527259201,
2-18,A_Baseline,1,Q1FrontDown,-44.54181,47.64067,24.38053,-48.01616,-117.05,149.8161,-33.14738,202408261527259482,
2-18,A_Baseline,1,Q1FrontDown,-44.66392,47.63854,24.3832,-47.59121,-116.8797,149.8121,-33.14781,202408261527259699,
2-18,A_Baseline,1,Q1FrontDown,-44.66392,47.63854,24.3832,-47.59121,-116.8797,149.8121,-33.14781,202408261527260006,
2-18,A_Baseline,1,Q1FrontDown,-44.85934,47.617,24.40912,-46.76597,-116.5174,149.7673,-33.1452,202408261527260378,
2-18,A_Baseline,1,Q1FrontDown,-44.85934,47.617,24.40912,-46.76597,-116.5174,149.7673,-33.1452,202408261527260594,
2-18,A_Baseline,1,Q1FrontDown,-44.92808,47.60958,24.44522,-46.33088,-116.3405,149.7431,-33.14048,202408261527260822,
2-18,A_Baseline,1,Q1FrontDown,-44.92808,47.60958,24.44522,-46.33088,-116.3405,149.7431,-33.14048,202408261527261044,
2-18,A_Baseline,1,Q1FrontDown,-44.97364,47.60691,24.50407,-45.91495,-116.1578,149.7247,-33.13095,202408261527261331,
2-18,A_Baseline,1,Q1FrontDown,-44.98777,47.60302,24.55795,-45.52982,-115.9768,149.7245,-33.09056,202408261527261498,
2-18,A_Baseline,1,Q1FrontDown,-44.98777,47.60302,24.55795,-45.52982,-115.9768,149.7245,-33.09056,202408261527261677,
2-18,A_Baseline,1,Q1FrontDown,-44.98917,47.59076,24.62232,-45.13653,-115.7968,149.7246,-33.06879,202408261527261911,
2-18,A_Baseline,1,Q1FrontDown,-44.98585,47.5635,24.69117,-44.78167,-115.6178,149.7221,-33.06915,202408261527262177,
2-18,A_Baseline,1,Q1FrontDown,-44.98585,47.5635,24.69117,-44.78167,-115.6178,149.7221,-33.06915,202408261527262419,
2-18,A_Baseline,1,Q1FrontDown,-44.98296,47.54218,24.7676,-44.47734,-115.4661,149.7201,-33.06916,202408261527262650,
2-18,A_Baseline,1,Q1FrontDown,-44.9798,47.52496,24.84144,-44.18711,-115.3308,149.7185,-33.0699,202408261527262854,
2-18,A_Baseline,1,Q1FrontDown,-44.97816,47.51007,24.90379,-43.94406,-115.2024,149.7181,-33.0697,202408261527263056,
2-18,A_Baseline,1,Q1FrontDown,-44.97719,47.49684,24.95554,-43.69304,-115.1112,149.7196,-33.04612,202408261527263349,
2-18,A_Baseline,1,Q1FrontDown,-44.97719,47.49684,24.95554,-43.69304,-115.1112,149.7196,-33.04612,202408261527263683,
2-18,A_Baseline,1,Q1FrontDown,-44.97719,47.49684,24.95554,-43.69304,-115.1112,149.7196,-33.04612,202408261527263891,
2-18,A_Baseline,1,Q1FrontDown,-44.97868,47.47155,25.05244,-43.31614,-114.9207,149.7199,-33.03243,202408261527264164,
2-18,A_Baseline,1,Q1FrontDown,-44.97868,47.47155,25.05244,-43.31614,-114.9207,149.7199,-33.03243,202408261527264328,
2-18,A_Baseline,1,Q1FrontDown,-44.99071,47.44621,25.14657,-43.25479,-114.8678,149.7204,-33.03209,202408261527264489,
2-18,A_Baseline,1,Q1FrontDown,-44.99645,47.42332,25.25562,-43.23187,-114.8178,149.7217,-33.03221,202408261527264825,
2-18,A_Baseline,1,Q1FrontDown,-44.99645,47.42332,25.25562,-43.23187,-114.8178,149.7217,-33.03221,202408261527265012,
2-18,A_Baseline,1,Q1FrontDown,-44.99514,47.40568,25.37247,-43.2195,-114.7764,149.7227,-33.03251,202408261527265225,
2-18,A_Baseline,1,Q1FrontDown,-44.99443,47.39101,25.51837,-43.24628,-114.7697,149.7231,-33.03451,202408261527265510,
2-18,A_Baseline,1,Q1FrontDown,-44.99443,47.39101,25.51837,-43.24628,-114.7697,149.7231,-33.03451,202408261527265694,
2-18,A_Baseline,1,Q1FrontDown,-44.99414,47.37368,25.67527,-43.316,-114.7679,149.7256,-33.03542,202408261527265860,
2-18,A_Baseline,1,Q1FrontDown,-44.99199,47.35918,25.82887,-43.44107,-114.7682,149.7468,-33.03551,202408261527266045,
2-18,A_Baseline,1,Q1FrontDown,-44.99199,47.35918,25.82887,-43.44107,-114.7682,149.7468,-33.03551,202408261527266316,
2-18,A_Baseline,1,Q1FrontDown,-44.99139,47.33076,25.98776,-43.61835,-114.8079,149.7949,-33.00556,202408261527266487,
2-18,A_Baseline,1,Q1FrontDown,-44.99139,47.33076,25.98776,-43.61835,-114.8079,149.7949,-33.00556,202408261527266666,
2-18,A_Baseline,1,Q1FrontDown,-44.99893,47.28444,26.16828,-43.85773,-114.8997,149.8377,-32.93439,202408261527266828,
2-18,A_Baseline,1,Q1FrontDown,-44.99893,47.28444,26.16828,-43.85773,-114.8997,149.8377,-32.93439,202408261527267044,
2-18,A_Baseline,1,Q1FrontDown,-44.99736,47.22813,26.34525,-44.22634,-115.0514,149.8796,-32.8223,202408261527267329,
2-18,A_Baseline,1,Q1FrontDown,-45.00058,47.12151,26.53106,-44.75084,-115.1485,149.9034,-32.76309,202408261527267492,
2-18,A_Baseline,1,Q1FrontDown,-45.00058,47.12151,26.53106,-44.75084,-115.1485,149.9034,-32.76309,202408261527267836,
2-18,A_Baseline,1,Q1FrontDown,-45.0007,46.89195,26.95639,-46.14556,-115.2571,150.0234,-32.72835,202408261527268008,
2-18,A_Baseline,1,Q1FrontDown,-45.0007,46.89195,26.95639,-46.14556,-115.2571,150.0234,-32.72835,202408261527268199,
2-18,A_Baseline,1,Q1FrontDown,-44.97721,46.81253,27.15921,-46.8914,-115.287,150.117,-32.72692,202408261527268405,
2-18,A_Baseline,1,Q1FrontDown,-44.97721,46.81253,27.15921,-46.8914,-115.287,150.117,-32.72692,202408261527268645,
2-18,A_Baseline,1,Q1FrontDown,-44.95589,46.74373,27.35268,-47.64686,-115.2587,150.2036,-32.76122,202408261527268842,
2-18,A_Baseline,1,Q1FrontDown,-44.9453,46.63894,27.54655,-48.5926,-115.2113,150.2885,-32.85437,202408261527269154,
2-18,A_Baseline,1,Q1FrontDown,-44.9314,46.5841,27.75693,-49.48261,-115.3856,150.4094,-32.79012,202408261527269327,
2-18,A_Baseline,1,Q1FrontDown,-44.9314,46.5841,27.75693,-49.48261,-115.3856,150.4094,-32.79012,202408261527269533,
2-18,A_Baseline,1,Q1FrontDown,-44.90812,46.55566,27.92189,-50.32575,-115.575,150.5453,-32.73882,202408261527269828,
2-18,A_Baseline,1,Q1FrontDown,-44.90812,46.55566,27.92189,-50.32575,-115.575,150.5453,-32.73882,202408261527270000,
2-18,A_Baseline,1,Q1FrontDown,-44.8832,46.53976,28.0628,-51.2037,-115.7462,150.6509,-32.71468,202408261527270233,
2-18,A_Baseline,1,Q1FrontDown,-44.87201,46.53755,28.20737,-52.08402,-115.9563,150.7435,-32.6619,202408261527270500,
2-18,A_Baseline,1,Q1FrontDown,-44.87347,46.54435,28.33046,-52.95559,-116.1686,150.8293,-32.61774,202408261527270748,
2-18,A_Baseline,1,Q1FrontDown,-44.87347,46.54435,28.33046,-52.95559,-116.1686,150.8293,-32.61774,202408261527270977,
2-18,A_Baseline,1,Q1FrontDown,-44.87767,46.548,28.45328,-53.79348,-116.412,150.9014,-32.57467,202408261527271167,
2-18,A_Baseline,1,Q1FrontDown,-44.87567,46.55181,28.54674,-54.63192,-116.6587,150.9732,-32.54537,202408261527271491,
2-18,A_Baseline,1,Q1FrontDown,-44.87853,46.55261,28.6196,-55.48009,-116.8834,151.0166,-32.52833,202408261527271690,
2-18,A_Baseline,1,Q1FrontDown,-44.87853,46.55261,28.6196,-55.48009,-116.8834,151.0166,-32.52833,202408261527271996,
2-18,A_Baseline,1,Q1FrontDown,-44.87416,46.55437,28.67867,-56.31002,-117.0916,151.0296,-32.52642,202408261527272322,
2-18,A_Baseline,1,Q1FrontDown,-44.87416,46.55437,28.67867,-56.31002,-117.0916,151.0296,-32.52642,202408261527272479,
2-18,A_Baseline,1,Q1FrontDown,-44.87231,46.56757,28.72444,-57.11665,-117.2928,151.039,-32.52497,202408261527272666,
2-18,A_Baseline,1,Q1FrontDown,-44.87215,46.56887,28.75495,-57.8551,-117.5078,151.0524,-32.52203,202408261527272906,
2-18,A_Baseline,1,Q1FrontDown,-44.87111,46.57236,28.76498,-58.5855,-117.7319,151.0817,-32.51894,202408261527273196,
2-18,A_Baseline,1,Q1FrontDown,-44.87556,46.57392,28.78963,-59.29469,-117.9318,151.1063,-32.51822,202408261527273383,
2-18,A_Baseline,1,Q1FrontDown,-44.87556,46.57392,28.78963,-59.29469,-117.9318,151.1063,-32.51822,202408261527273649,
2-18,A_Baseline,1,Q1FrontDown,-44.89021,46.56721,28.80225,-60.00649,-118.1021,151.1281,-32.51873,202408261527273833,
2-18,A_Baseline,1,Q1FrontDown,-44.90281,46.56494,28.82557,-60.7224,-118.263,151.1487,-32.52063,202408261527274018,
2-18,A_Baseline,1,Q1FrontDown,-44.91339,46.54589,28.8252,-61.45875,-118.4645,151.1599,-32.51903,202408261527274307,
2-18,A_Baseline,1,Q1FrontDown,-44.91339,46.54589,28.8252,-61.45875,-118.4645,151.1599,-32.51903,202408261527274474,
2-18,A_Baseline,1,Q1FrontDown,-44.91339,46.54589,28.8252,-61.45875,-118.4645,151.1599,-32.51903,202408261527274640,
2-18,A_Baseline,1,Q1FrontDown,-44.91745,46.52924,28.82512,-62.22642,-118.6491,151.1866,-32.519,202408261527274805,
2-18,A_Baseline,1,Q1FrontDown,-44.91816,46.53312,28.82117,-63.01488,-118.7788,151.2196,-32.52169,202408261527275063,
2-18,A_Baseline,1,Q1FrontDown,-44.91816,46.53312,28.82117,-63.01488,-118.7788,151.2196,-32.52169,202408261527275256,
2-18,A_Baseline,1,Q1FrontDown,-44.91207,46.53545,28.8217,-63.74095,-118.9027,151.2657,-32.52299,202408261527275414,
2-18,A_Baseline,1,Q1FrontDown,-44.91207,46.53545,28.8217,-63.74095,-118.9027,151.2657,-32.52299,202408261527275654,
2-18,A_Baseline,1,Q1FrontDown,-44.91335,46.5402,28.81909,-64.44883,-119.0089,151.3022,-32.52413,202408261527275834,
2-18,A_Baseline,1,Q1FrontDown,-44.90214,46.55104,28.82125,-65.12833,-119.0921,151.3346,-32.52382,202408261527276014,
2-18,A_Baseline,1,Q1FrontDown,-44.89686,46.56154,28.82001,-65.80686,-119.147,151.368,-32.52512,202408261527276366,
2-18,A_Baseline,1,Q1FrontDown,-44.89686,46.56154,28.82001,-65.80686,-119.147,151.368,-32.52512,202408261527276572,
2-18,A_Baseline,1,Q1FrontDown,-44.88982,46.57143,28.82122,-66.42606,-119.1996,151.4125,-32.52545,202408261527276825,
2-18,A_Baseline,1,Q1FrontDown,-44.88982,46.57143,28.82122,-66.42606,-119.1996,151.4125,-32.52545,202408261527277159,
2-18,A_Baseline,1,Q1FrontDown,-44.85596,46.60083,28.79143,-67.48559,-119.2986,151.5155,-32.52467,202408261527277350,
2-18,A_Baseline,1,Q1FrontDown,-44.85596,46.60083,28.79143,-67.48559,-119.2986,151.5155,-32.52467,202408261527277532,
2-18,A_Baseline,1,Q1FrontDown,-44.82296,46.66141,28.76738,-67.8774,-119.3381,151.5899,-32.52448,202408261527277812,
2-18,A_Baseline,1,Q1FrontDown,-44.82296,46.66141,28.76738,-67.8774,-119.3381,151.5899,-32.52448,202408261527277972,
2-18,A_Baseline,1,Q1FrontDown,-44.80423,46.73676,28.76364,-68.2196,-119.3701,151.6625,-32.52472,202408261527278229,
2-18,A_Baseline,1,Q1FrontDown,-44.7938,46.80568,28.76288,-68.50423,-119.4017,151.7276,-32.52443,202408261527278565,
2-18,A_Baseline,1,Q1FrontDown,-44.79148,46.89376,28.75774,-68.77262,-119.4403,151.8064,-32.52006,202408261527278845,
2-18,A_Baseline,1,Q1FrontDown,-44.79148,46.89376,28.75774,-68.77262,-119.4403,151.8064,-32.52006,202408261527279018,
2-18,A_Baseline,1,Q1FrontDown,-44.78932,47.00833,28.77025,-68.95746,-119.4935,151.9506,-32.49977,202408261527279332,
2-18,A_Baseline,1,Q1FrontDown,-44.79051,47.15804,28.79766,-69.06687,-119.5582,152.0736,-32.47012,202408261527279494,
2-18,A_Baseline,1,Q1FrontDown,-44.79051,47.15804,28.79766,-69.06687,-119.5582,152.0736,-32.47012,202408261527279717,
2-18,A_Baseline,1,Q1FrontDown,-44.7929,47.31627,28.82088,-69.13158,-119.6091,152.1467,-32.45433,202408261527279996,
2-18,A_Baseline,1,Q1FrontDown,-44.79624,47.45961,28.84407,-69.18629,-119.6372,152.1702,-32.45422,202408261527280170,
2-18,A_Baseline,1,Q1FrontDown,-44.79927,47.64289,28.87963,-69.22544,-119.6639,152.1867,-32.45419,202408261527280521,
2-18,A_Baseline,1,Q1FrontDown,-44.8003,47.8036,28.91145,-69.26298,-119.6886,152.202,-32.45468,202408261527280729,
2-18,A_Baseline,1,Q1FrontDown,-44.8003,47.8036,28.91145,-69.26298,-119.6886,152.202,-32.45468,202408261527281005,
2-18,A_Baseline,1,Q1FrontDown,-44.80479,47.96008,28.94281,-69.30478,-119.7078,152.2209,-32.45432,202408261527281193,
2-18,A_Baseline,1,Q1FrontDown,-44.80643,48.11075,28.97275,-69.34631,-119.7286,152.2251,-32.45473,202408261527281489,
2-18,A_Baseline,1,Q1FrontDown,-44.80643,48.11075,28.97275,-69.34631,-119.7286,152.2251,-32.45473,202408261527281660,
2-18,A_Baseline,1,Q1FrontDown,-44.80375,48.26712,29.00574,-69.37492,-119.7481,152.2262,-32.45455,202408261527281870,
2-18,A_Baseline,1,Q1FrontDown,-44.807,48.4379,29.06835,-69.37481,-119.7597,152.2336,-32.45461,202408261527282166,
2-18,A_Baseline,1,Q1FrontDown,-44.807,48.4379,29.06835,-69.37481,-119.7597,152.2336,-32.45461,202408261527282345,
2-18,A_Baseline,1,Q1FrontDown,-44.807,48.4379,29.06835,-69.37481,-119.7597,152.2336,-32.45461,202408261527282506,
2-18,A_Baseline,1,Q1FrontDown,-44.8031,48.78644,29.17695,-69.37261,-119.7675,152.236,-32.45513,202408261527282726,
2-18,A_Baseline,1,Q1FrontDown,-44.8031,48.78644,29.17695,-69.37261,-119.7675,152.236,-32.45513,202408261527282921,
2-18,A_Baseline,1,Q1FrontDown,-44.80002,48.95203,29.20844,-69.37428,-119.7802,152.2389,-32.45472,202408261527283187,
2-18,A_Baseline,1,Q1FrontDown,-44.79659,49.13613,29.24297,-69.37595,-119.7822,152.2396,-32.45565,202408261527283525,
2-18,A_Baseline,1,Q1FrontDown,-44.79238,49.31026,29.26669,-69.37494,-119.7827,152.2394,-32.4551,202408261527283845,
2-18,A_Baseline,1,Q1FrontDown,-44.79088,49.47641,29.27811,-69.37418,-119.7831,152.2391,-32.45531,202408261527284033,
2-18,A_Baseline,1,Q1FrontDown,-44.79088,49.47641,29.27811,-69.37418,-119.7831,152.2391,-32.45531,202408261527284243,
2-18,A_Baseline,1,Q1FrontDown,-44.79072,49.63854,29.30274,-69.37499,-119.797,152.2395,-32.45436,202408261527284486,
2-18,A_Baseline,1,Q1FrontDown,-44.7847,49.79517,29.31395,-69.373,-119.8039,152.2392,-32.45437,202408261527284811,
2-18,A_Baseline,1,Q1FrontDown,-44.7847,49.79517,29.31395,-69.373,-119.8039,152.2392,-32.45437,202408261527284991,
2-18,A_Baseline,1,Q1FrontDown,-44.78157,49.93744,29.3173,-69.37292,-119.8036,152.239,-32.45528,202408261527285229,
2-18,A_Baseline,1,Q1FrontDown,-44.77323,50.08748,29.32018,-69.37485,-119.8037,152.2394,-32.45583,202408261527285499,
2-18,A_Baseline,1,Q1FrontDown,-44.76863,50.22442,29.32397,-69.37059,-119.8013,152.2389,-32.45966,202408261527285686,
2-18,A_Baseline,1,Q1FrontDown,-44.76863,50.22442,29.32397,-69.37059,-119.8013,152.2389,-32.45966,202408261527285882,
2-18,A_Baseline,1,Q1FrontDown,-44.76863,50.36774,29.32717,-69.37151,-119.7999,152.2392,-32.47212,202408261527286216,
2-18,A_Baseline,1,Q1FrontDown,-44.76863,50.36774,29.32717,-69.37151,-119.7999,152.2392,-32.47212,202408261527286489,
2-18,A_Baseline,1,Q1FrontDown,-44.75975,50.50854,29.32759,-69.36976,-119.8002,152.2389,-32.47264,202408261527286662,
2-18,A_Baseline,1,Q1FrontDown,-44.74976,50.65597,29.32723,-69.36662,-119.8016,152.2392,-32.47212,202408261527286816,
2-18,A_Baseline,1,Q1FrontDown,-44.74976,50.65597,29.32723,-69.36662,-119.8016,152.2392,-32.47212,202408261527287004,
2-18,A_Baseline,1,Q1FrontDown,-44.73301,50.80716,29.32704,-69.34677,-119.8024,152.2392,-32.47163,202408261527287169,
2-18,A_Baseline,1,Q1FrontDown,-44.73301,50.80716,29.32704,-69.34677,-119.8024,152.2392,-32.47163,202408261527287356,
2-18,A_Baseline,1,Q1FrontDown,-44.70793,50.95132,29.32702,-69.33112,-119.8021,152.24,-32.47149,202408261527287529,
2-18,A_Baseline,1,Q1FrontDown,-44.6711,51.09743,29.32482,-69.30328,-119.802,152.2396,-32.47168,202408261527287822,
2-18,A_Baseline,1,Q1FrontDown,-44.61807,51.25247,29.32545,-69.26629,-119.802,152.2392,-32.47144,202408261527288115,
2-18,A_Baseline,1,Q1FrontDown,-44.54424,51.41101,29.32563,-69.20443,-119.8022,152.2398,-32.47089,202408261527288401,
2-18,A_Baseline,1,Q1FrontDown,-44.54424,51.41101,29.32563,-69.20443,-119.8022,152.2398,-32.47089,202408261527288571,
2-18,A_Baseline,1,Q1FrontDown,-44.44459,51.57812,29.32409,-69.11126,-119.802,152.2393,-32.47131,202408261527288849,
2-18,A_Baseline,1,Q1FrontDown,-44.44459,51.57812,29.32409,-69.11126,-119.802,152.2393,-32.47131,202408261527289013,
2-18,A_Baseline,1,Q1FrontDown,-44.32528,51.74702,29.326,-69.00061,-119.8016,152.2398,-32.47146,202408261527289221,
2-18,A_Baseline,1,Q1FrontDown,-44.17718,51.92515,29.32642,-68.87582,-119.8014,152.2398,-32.47146,202408261527289502,
2-18,A_Baseline,1,Q1FrontDown,-44.17718,51.92515,29.32642,-68.87582,-119.8014,152.2398,-32.47146,202408261527289747,
2-18,A_Baseline,1,Q1FrontDown,-43.81794,52.2761,29.32624,-68.65281,-119.8008,152.2394,-32.47149,202408261527290026,
2-18,A_Baseline,1,Q1FrontDown,-43.81794,52.2761,29.32624,-68.65281,-119.8008,152.2394,-32.47149,202408261527290201,
2-18,A_Baseline,1,Q1FrontDown,-43.60157,52.46329,29.32651,-68.52423,-119.8025,152.2396,-32.46832,202408261527290557,
2-18,A_Baseline,1,Q1FrontDown,-43.36638,52.6359,29.32775,-68.39684,-119.8025,152.2402,-32.45059,202408261527290749,
2-18,A_Baseline,1,Q1FrontDown,-43.36638,52.6359,29.32775,-68.39684,-119.8025,152.2402,-32.45059,202408261527291020,
2-18,A_Baseline,1,Q1FrontDown,-43.14463,52.79162,29.32754,-68.27907,-119.803,152.2401,-32.44129,202408261527291195,
2-18,A_Baseline,1,Q1FrontDown,-42.91768,52.94878,29.32703,-68.15469,-119.8033,152.2396,-32.43381,202408261527291356,
2-18,A_Baseline,1,Q1FrontDown,-42.91768,52.94878,29.32703,-68.15469,-119.8033,152.2396,-32.43381,202408261527291687,
2-18,A_Baseline,1,Q1FrontDown,-42.69517,53.09967,29.32796,-68.05143,-119.8025,152.2401,-32.42846,202408261527291894,
2-18,A_Baseline,1,Q1FrontDown,-42.48539,53.23284,29.33179,-67.97149,-119.8015,152.2402,-32.42909,202408261527292171,
2-18,A_Baseline,1,Q1FrontDown,-42.27607,53.3736,29.34429,-67.88754,-119.8012,152.24,-32.42892,202408261527292409,
2-18,A_Baseline,1,Q1FrontDown,-42.27607,53.3736,29.34429,-67.88754,-119.8012,152.24,-32.42892,202408261527292661,
2-18,A_Baseline,1,Q1FrontDown,-42.05262,53.52031,29.3459,-67.79911,-119.8015,152.2397,-32.42897,202408261527292844,
2-18,A_Baseline,1,Q1FrontDown,-41.84474,53.66258,29.34622,-67.7103,-119.8018,152.2398,-32.42878,202408261527293078,
2-18,A_Baseline,1,Q1FrontDown,-41.64382,53.80595,29.3451,-67.61867,-119.802,152.2401,-32.42849,202408261527293360,
2-18,A_Baseline,1,Q1FrontDown,-41.64382,53.80595,29.3451,-67.61867,-119.802,152.2401,-32.42849,202408261527293545,
2-18,A_Baseline,1,Q1FrontDown,-41.45795,53.93295,29.34299,-67.53244,-119.8018,152.2399,-32.42842,202408261527293914,
2-18,A_Baseline,1,Q1FrontDown,-41.27697,54.07019,29.34053,-67.44347,-119.8021,152.24,-32.42846,202408261527294167,
2-18,A_Baseline,1,Q1FrontDown,-41.27697,54.07019,29.34053,-67.44347,-119.8021,152.24,-32.42846,202408261527294350,
2-18,A_Baseline,1,Q1FrontDown,-41.27697,54.07019,29.34053,-67.44347,-119.8021,152.24,-32.42846,202408261527294523,
2-18,A_Baseline,1,Q1FrontDown,-40.9457,54.28201,29.34096,-67.35097,-119.802,152.2399,-32.42888,202408261527294680,
2-18,A_Baseline,1,Q1FrontDown,-40.9457,54.28201,29.34096,-67.35097,-119.802,152.2399,-32.42888,202408261527294891,
2-18,A_Baseline,1,Q1FrontDown,-40.8007,54.3593,29.33968,-67.33598,-119.8019,152.2398,-32.4286,202408261527295249,
2-18,A_Baseline,1,Q1FrontDown,-40.64563,54.43995,29.32194,-67.314,-119.8019,152.2401,-32.42889,202408261527295413,
2-18,A_Baseline,1,Q1FrontDown,-40.64563,54.43995,29.32194,-67.314,-119.8019,152.2401,-32.42889,202408261527295700,
2-18,A_Baseline,1,Q1FrontDown,-40.64563,54.43995,29.32194,-67.314,-119.8019,152.2401,-32.42889,202408261527296028,
2-18,A_Baseline,1,Q1FrontDown,-40.33717,54.56294,29.28518,-67.26434,-119.802,152.2397,-32.42928,202408261527296267,
2-18,A_Baseline,1,Q1FrontDown,-40.33717,54.56294,29.28518,-67.26434,-119.802,152.2397,-32.42928,202408261527296537,
2-18,A_Baseline,1,Q1FrontDown,-40.18884,54.61825,29.26827,-67.2468,-119.802,152.2395,-32.4292,202408261527296694,
2-18,A_Baseline,1,Q1FrontDown,-40.04194,54.6655,29.24441,-67.23129,-119.8027,152.2389,-32.42853,202408261527296880,
2-18,A_Baseline,1,Q1FrontDown,-40.04194,54.6655,29.24441,-67.23129,-119.8027,152.2389,-32.42853,202408261527297100,
2-18,A_Baseline,1,Q1FrontDown,-39.71021,54.74843,29.1659,-67.1797,-119.806,152.2393,-32.42059,202408261527297408,
2-18,A_Baseline,1,Q1FrontDown,-39.71021,54.74843,29.1659,-67.1797,-119.806,152.2393,-32.42059,202408261527297578,
2-18,A_Baseline,1,Q1FrontDown,-39.52015,54.78325,29.12486,-67.14582,-119.8071,152.2389,-32.41806,202408261527297868,
2-18,A_Baseline,1,Q1FrontDown,-39.31033,54.81325,29.07476,-67.11121,-119.8108,152.239,-32.41285,202408261527298311,
2-18,A_Baseline,1,Q1FrontDown,-39.10787,54.83883,29.02714,-67.08393,-119.8142,152.2391,-32.40598,202408261527298646,
2-18,A_Baseline,1,Q1FrontDown,-38.87325,54.85017,28.96482,-67.06403,-119.8268,152.2395,-32.39428,202408261527298899,
2-18,A_Baseline,1,Q1FrontDown,-38.61784,54.84932,28.86257,-67.04672,-119.8504,152.2397,-32.3676,202408261527299190,
2-18,A_Baseline,1,Q1FrontDown,-38.38631,54.84851,28.76833,-67.02659,-119.8754,152.2395,-32.34459,202408261527299361,
2-18,A_Baseline,1,Q1FrontDown,-38.38631,54.84851,28.76833,-67.02659,-119.8754,152.2395,-32.34459,202408261527299569,
2-18,A_Baseline,1,Q1FrontDown,-38.1437,54.85054,28.6894,-67.01039,-119.8889,152.2391,-32.33301,202408261527299852,
2-18,A_Baseline,1,Q1FrontDown,-37.92416,54.85082,28.65643,-67.006,-119.8885,152.2393,-32.33281,202408261527300014,
2-18,A_Baseline,1,Q1FrontDown,-37.92416,54.85082,28.65643,-67.006,-119.8885,152.2393,-32.33281,202408261527300203,
2-18,A_Baseline,1,Q1FrontDown,-37.6786,54.8488,28.57836,-66.99839,-119.9186,152.2395,-32.30524,202408261527300466,
2-18,A_Baseline,1,Q1FrontDown,-37.42416,54.84847,28.51056,-66.98713,-119.959,152.2395,-32.27208,202408261527300747,
2-18,A_Baseline,1,Q1FrontDown,-37.42416,54.84847,28.51056,-66.98713,-119.959,152.2395,-32.27208,202408261527301029,
2-18,A_Baseline,1,Q1FrontDown,-37.19165,54.8488,28.47308,-66.98463,-119.9991,152.2399,-32.24141,202408261527301187,
2-18,A_Baseline,1,Q1FrontDown,-36.9906,54.84818,28.44213,-66.97963,-120.0357,152.2398,-32.21301,202408261527301534,
2-18,A_Baseline,1,Q1FrontDown,-36.77651,54.84811,28.40524,-66.97086,-120.0652,152.2399,-32.18461,202408261527301711,
2-18,A_Baseline,1,Q1FrontDown,-36.77651,54.84811,28.40524,-66.97086,-120.0652,152.2399,-32.18461,202408261527301893,
2-18,A_Baseline,1,Q1FrontDown,-36.56875,54.84857,28.36933,-66.97137,-120.0839,152.2401,-32.1663,202408261527302178,
2-18,A_Baseline,1,Q1FrontDown,-36.56875,54.84857,28.36933,-66.97137,-120.0839,152.2401,-32.1663,202408261527302346,
2-18,A_Baseline,1,Q1FrontDown,-36.56875,54.84857,28.36933,-66.97137,-120.0839,152.2401,-32.1663,202408261527302517,
2-18,A_Baseline,1,Q1FrontDown,-36.35715,54.84277,28.33086,-66.97174,-120.0983,152.2399,-32.15279,202408261527302690,
2-18,A_Baseline,1,Q1FrontDown,-36.15516,54.83192,28.29432,-66.97168,-120.1116,152.2399,-32.13585,202408261527302904,
2-18,A_Baseline,1,Q1FrontDown,-35.95299,54.82013,28.26216,-66.97137,-120.1267,152.2399,-32.11724,202408261527303187,
2-18,A_Baseline,1,Q1FrontDown,-35.95299,54.82013,28.26216,-66.97137,-120.1267,152.2399,-32.11724,202408261527303347,
2-18,A_Baseline,1,Q1FrontDown,-35.76103,54.80156,28.24207,-66.97626,-120.1379,152.2401,-32.10331,202408261527303565,
2-18,A_Baseline,1,Q1FrontDown,-35.5913,54.77597,28.23075,-66.98416,-120.1431,152.2398,-32.0976,202408261527303880,
2-18,A_Baseline,1,Q1FrontDown,-35.43337,54.74226,28.23053,-66.99442,-120.1426,152.2395,-32.09759,202408261527304168,
2-18,A_Baseline,1,Q1FrontDown,-35.43337,54.74226,28.23053,-66.99442,-120.1426,152.2395,-32.09759,202408261527304346,
2-18,A_Baseline,1,Q1FrontDown,-35.29024,54.70403,28.23543,-66.99501,-120.1437,152.2399,-32.09717,202408261527304501,
2-18,A_Baseline,1,Q1FrontDown,-35.15406,54.65542,28.23905,-66.99545,-120.145,152.2402,-32.09626,202408261527304688,
2-18,A_Baseline,1,Q1FrontDown,-35.15406,54.65542,28.23905,-66.99545,-120.145,152.2402,-32.09626,202408261527304858,
2-18,A_Baseline,1,Q1FrontDown,-35.03595,54.60162,28.24966,-66.9959,-120.1453,152.2404,-32.09554,202408261527305084,
2-18,A_Baseline,1,Q1FrontDown,-34.93687,54.51662,28.25337,-67.0238,-120.1468,152.2398,-32.09336,202408261527305373,
2-18,A_Baseline,1,Q1FrontDown,-34.86101,54.42274,28.25384,-67.07042,-120.1472,152.2402,-32.09268,202408261527305701,
2-18,A_Baseline,1,Q1FrontDown,-34.80253,54.30914,28.25069,-67.13165,-120.1473,152.2401,-32.09315,202408261527306081,
2-18,A_Baseline,1,Q1FrontDown,-34.75875,54.17593,28.22271,-67.21313,-120.1608,152.2401,-32.09311,202408261527306332,
2-18,A_Baseline,1,Q1FrontDown,-34.75875,54.17593,28.22271,-67.21313,-120.1608,152.2401,-32.09311,202408261527306516,
2-18,A_Baseline,1,Q1FrontDown,-34.73301,54.026,28.1764,-67.3122,-120.1828,152.2398,-32.09259,202408261527306722,
2-18,A_Baseline,1,Q1FrontDown,-34.73301,54.026,28.1764,-67.3122,-120.1828,152.2398,-32.09259,202408261527307025,
2-18,A_Baseline,1,Q1FrontDown,-34.72068,53.89137,28.10789,-67.42445,-120.2151,152.2404,-32.09277,202408261527307266,
2-18,A_Baseline,1,Q1FrontDown,-34.7185,53.72457,27.99294,-67.57584,-120.2789,152.2398,-32.092,202408261527307524,
2-18,A_Baseline,1,Q1FrontDown,-34.7185,53.72457,27.99294,-67.57584,-120.2789,152.2398,-32.092,202408261527307683,
2-18,A_Baseline,1,Q1FrontDown,-34.7185,53.72457,27.99294,-67.57584,-120.2789,152.2398,-32.092,202408261527307902,
2-18,A_Baseline,1,Q1FrontDown,-34.73555,53.39464,27.67101,-67.96734,-120.4193,152.2388,-32.09124,202408261527308228,
2-18,A_Baseline,1,Q1FrontDown,-34.75584,53.25307,27.49994,-68.18206,-120.4845,152.2386,-32.09152,202408261527308529,
2-18,A_Baseline,1,Q1FrontDown,-34.77708,53.13356,27.3327,-68.37367,-120.5462,152.2384,-32.09089,202408261527308838,
2-18,A_Baseline,1,Q1FrontDown,-34.77708,53.13356,27.3327,-68.37367,-120.5462,152.2384,-32.09089,202408261527309006,
2-18,A_Baseline,1,Q1FrontDown,-34.84503,52.90313,27.00684,-68.8655,-120.6486,152.2374,-32.09272,202408261527309333,
2-18,A_Baseline,1,Q1FrontDown,-34.84503,52.90313,27.00684,-68.8655,-120.6486,152.2374,-32.09272,202408261527309598,
2-18,A_Baseline,1,Q1FrontDown,-34.89786,52.83754,26.88697,-69.09639,-120.6825,152.236,-32.09385,202408261527309847,
2-18,A_Baseline,1,Q1FrontDown,-34.96584,52.78172,26.8015,-69.32732,-120.7197,152.2317,-32.09463,202408261527310049,
2-18,A_Baseline,1,Q1FrontDown,-34.96584,52.78172,26.8015,-69.32732,-120.7197,152.2317,-32.09463,202408261527310369,
2-18,A_Baseline,1,Q1FrontDown,-35.03848,52.72127,26.71762,-69.55524,-120.7699,152.2249,-32.09484,202408261527310579,
2-18,A_Baseline,1,Q1FrontDown,-35.0989,52.6753,26.63096,-69.75811,-120.7984,152.2219,-32.10248,202408261527310871,
2-18,A_Baseline,1,Q1FrontDown,-35.15265,52.64868,26.5571,-69.94441,-120.8084,152.2203,-32.12225,202408261527311176,
2-18,A_Baseline,1,Q1FrontDown,-35.15265,52.64868,26.5571,-69.94441,-120.8084,152.2203,-32.12225,202408261527311344,
2-18,A_Baseline,1,Q1FrontDown,-35.19069,52.60105,26.4398,-70.1676,-120.8214,152.2177,-32.14225,202408261527311492,
2-18,A_Baseline,1,Q1FrontDown,-35.21927,52.55757,26.3127,-70.38988,-120.8549,152.2162,-32.15363,202408261527311714,
2-18,A_Baseline,1,Q1FrontDown,-35.21927,52.55757,26.3127,-70.38988,-120.8549,152.2162,-32.15363,202408261527312002,
2-18,A_Baseline,1,Q1FrontDown,-35.2368,52.54469,26.18874,-70.58486,-120.9158,152.2163,-32.15276,202408261527312167,
2-18,A_Baseline,1,Q1FrontDown,-35.24829,52.53724,26.05614,-70.79296,-120.9715,152.216,-32.15358,202408261527312331,
2-18,A_Baseline,1,Q1FrontDown,-35.24829,52.53724,26.05614,-70.79296,-120.9715,152.216,-32.15358,202408261527312537,
2-18,A_Baseline,1,Q1FrontDown,-35.25369,52.51974,25.89953,-71.03154,-121.0291,152.2156,-32.1557,202408261527312748,
2-18,A_Baseline,1,Q1FrontDown,-35.24322,52.50385,25.71119,-71.29926,-121.1005,152.2158,-32.16238,202408261527313028,
2-18,A_Baseline,1,Q1FrontDown,-35.24322,52.50385,25.71119,-71.29926,-121.1005,152.2158,-32.16238,202408261527313258,
2-18,A_Baseline,1,Q1FrontDown,-35.24148,52.50158,25.54113,-71.56958,-121.172,152.2147,-32.17141,202408261527313527,
2-18,A_Baseline,1,Q1FrontDown,-35.24148,52.50158,25.54113,-71.56958,-121.172,152.2147,-32.17141,202408261527313705,
2-18,A_Baseline,1,Q1FrontDown,-35.22161,52.50124,25.34706,-71.82878,-121.2496,152.2152,-32.17684,202408261527313992,
2-18,A_Baseline,1,Q1FrontDown,-35.16528,52.50404,25.08858,-72.04931,-121.3471,152.2152,-32.17121,202408261527314156,
2-18,A_Baseline,1,Q1FrontDown,-35.16528,52.50404,25.08858,-72.04931,-121.3471,152.2152,-32.17121,202408261527314337,
2-18,A_Baseline,1,Q1FrontDown,-35.10904,52.50518,24.83782,-72.25416,-121.4473,152.2146,-32.16249,202408261527314500,
2-18,A_Baseline,1,Q1FrontDown,-35.05212,52.50354,24.59883,-72.46763,-121.5632,152.2144,-32.14992,202408261527314684,
2-18,A_Baseline,1,Q1FrontDown,-35.05212,52.50354,24.59883,-72.46763,-121.5632,152.2144,-32.14992,202408261527314897,
2-18,A_Baseline,1,Q1FrontDown,-34.97731,52.49709,24.33861,-72.64857,-121.6826,152.2137,-32.12583,202408261527315202,
2-18,A_Baseline,1,Q1FrontDown,-34.87547,52.4899,24.07395,-72.76511,-121.7103,152.2132,-32.12584,202408261527315496,
2-18,A_Baseline,1,Q1FrontDown,-34.76281,52.48987,23.83143,-72.8391,-121.7266,152.2128,-32.12706,202408261527315699,
2-18,A_Baseline,1,Q1FrontDown,-34.76281,52.48987,23.83143,-72.8391,-121.7266,152.2128,-32.12706,202408261527315907,
2-18,A_Baseline,1,Q1FrontDown,-34.64624,52.48528,23.62798,-72.85419,-121.7265,152.212,-32.12738,202408261527316189,
2-18,A_Baseline,1,Q1FrontDown,-34.64624,52.48528,23.62798,-72.85419,-121.7265,152.212,-32.12738,202408261527316422,
2-18,A_Baseline,1,Q1FrontDown,-34.37302,52.4577,23.27005,-72.85692,-121.7261,152.2114,-32.12684,202408261527316668,
2-18,A_Baseline,1,Q1FrontDown,-34.37302,52.4577,23.27005,-72.85692,-121.7261,152.2114,-32.12684,202408261527316853,
2-18,A_Baseline,1,Q1FrontDown,-34.22933,52.41415,23.11831,-72.83854,-121.7262,152.2116,-32.12701,202408261527317179,
2-18,A_Baseline,1,Q1FrontDown,-34.05502,52.36537,22.91262,-72.74754,-121.7208,152.2137,-32.12682,202408261527317345,
2-18,A_Baseline,1,Q1FrontDown,-34.05502,52.36537,22.91262,-72.74754,-121.7208,152.2137,-32.12682,202408261527317665,
2-18,A_Baseline,1,Q1FrontDown,-34.05502,52.36537,22.91262,-72.74754,-121.7208,152.2137,-32.12682,202408261527317859,
