mpan31415/robot-x-ar/study2/data/raw_all_participants/Participant_2-6_1.csv
ParticipantID,Condition,Trial,PostureID,J1,J2,J3,J4,J5,J6,J7,Timestamp,
2-6,C_HumanVertical,1,Q1FrontDown,-71.45795,31.40973,87.82582,-40.23525,-107.3119,181.022,-38.13463,202408261022179078,
2-6,C_HumanVertical,1,Q1FrontDown,-71.45794,31.40944,87.82603,-40.23531,-107.3119,181.022,-38.13416,202408261022179450,
2-6,C_HumanVertical,1,Q1FrontDown,-71.45794,31.40944,87.82603,-40.23531,-107.3119,181.022,-38.13416,202408261022179707,
2-6,C_HumanVertical,1,Q1FrontDown,-71.45794,31.40944,87.82603,-40.23531,-107.3119,181.022,-38.13416,202408261022179926,
2-6,C_HumanVertical,1,Q1FrontDown,-71.45783,31.40954,87.82603,-40.23565,-107.3118,181.022,-38.13427,202408261022180214,
2-6,C_HumanVertical,1,Q1FrontDown,-71.45811,31.4095,87.82602,-40.2353,-107.312,181.022,-38.13454,202408261022180417,
2-6,C_HumanVertical,1,Q1FrontDown,-71.45811,31.4095,87.82602,-40.2353,-107.312,181.022,-38.13454,202408261022180608,
2-6,C_HumanVertical,1,Q1FrontDown,-71.45803,31.40978,87.82612,-40.2353,-107.3119,181.022,-38.13434,202408261022180953,
2-6,C_HumanVertical,1,Q1FrontDown,-71.45785,31.40965,87.82607,-40.23532,-107.312,181.0222,-38.13441,202408261022181262,
2-6,C_HumanVertical,1,Q1FrontDown,-71.45827,31.40945,87.82606,-40.2354,-107.312,181.0221,-38.13454,202408261022181432,
2-6,C_HumanVertical,1,Q1FrontDown,-71.45798,31.40975,87.82604,-40.23556,-107.312,181.022,-38.135,202408261022181720,
2-6,C_HumanVertical,1,Q1FrontDown,-71.45798,31.40975,87.82604,-40.23556,-107.312,181.022,-38.135,202408261022181948,
2-6,C_HumanVertical,1,Q1FrontDown,-71.45786,31.40975,87.82591,-40.23534,-107.3121,181.022,-38.13457,202408261022182197,
2-6,C_HumanVertical,1,Q1FrontDown,-71.45808,31.40963,87.82603,-40.23532,-107.312,181.022,-38.13477,202408261022182376,
2-6,C_HumanVertical,1,Q1FrontDown,-71.45803,31.40967,87.82606,-40.23532,-107.3119,181.022,-38.13442,202408261022182696,
2-6,C_HumanVertical,1,Q1FrontDown,-71.45808,31.40989,87.82582,-40.23577,-107.312,181.022,-38.13477,202408261022183030,
2-6,C_HumanVertical,1,Q1FrontDown,-71.45808,31.40989,87.82582,-40.23577,-107.312,181.022,-38.13477,202408261022183223,
2-6,C_HumanVertical,1,Q1FrontDown,-71.45798,31.40968,87.82623,-40.2355,-107.3119,181.0219,-38.13479,202408261022183552,
2-6,C_HumanVertical,1,Q1FrontDown,-71.45798,31.40976,87.82612,-40.23528,-107.312,181.022,-38.13449,202408261022183835,
2-6,C_HumanVertical,1,Q1FrontDown,-71.45798,31.40976,87.82612,-40.23528,-107.312,181.022,-38.13449,202408261022184008,
2-6,C_HumanVertical,1,Q1FrontDown,-71.45816,31.40958,87.8261,-40.2355,-107.312,181.0221,-38.13437,202408261022184192,
2-6,C_HumanVertical,1,Q1FrontDown,-71.45804,31.40969,87.82589,-40.23549,-107.3116,181.0221,-38.13434,202408261022184403,
2-6,C_HumanVertical,1,Q1FrontDown,-71.45815,31.40968,87.82622,-40.23538,-107.3118,181.0219,-38.1343,202408261022184674,
2-6,C_HumanVertical,1,Q1FrontDown,-71.45815,31.40968,87.82622,-40.23538,-107.3118,181.0219,-38.1343,202408261022184848,
2-6,C_HumanVertical,1,Q1FrontDown,-71.45803,31.40984,87.8261,-40.23538,-107.3121,181.022,-38.13405,202408261022185070,
2-6,C_HumanVertical,1,Q1FrontDown,-71.45798,31.40982,87.8261,-40.23539,-107.3119,181.0218,-38.1343,202408261022185380,
2-6,C_HumanVertical,1,Q1FrontDown,-71.45798,31.40982,87.8261,-40.23539,-107.3119,181.0218,-38.1343,202408261022185654,
2-6,C_HumanVertical,1,Q1FrontDown,-71.45818,31.40992,87.826,-40.23542,-107.3119,181.0221,-38.13416,202408261022185827,
2-6,C_HumanVertical,1,Q1FrontDown,-71.45818,31.40992,87.826,-40.23542,-107.3119,181.0221,-38.13416,202408261022185993,
2-6,C_HumanVertical,1,Q1FrontDown,-71.45811,31.40994,87.82596,-40.23548,-107.3117,181.0218,-38.13471,202408261022186174,
2-6,C_HumanVertical,1,Q1FrontDown,-71.4581,31.40964,87.82632,-40.23559,-107.3118,181.0218,-38.1347,202408261022186350,
2-6,C_HumanVertical,1,Q1FrontDown,-71.4581,31.40964,87.82632,-40.23559,-107.3118,181.0218,-38.1347,202408261022186566,
2-6,C_HumanVertical,1,Q1FrontDown,-71.45793,31.4098,87.82607,-40.2356,-107.3118,181.0218,-38.13465,202408261022186859,
2-6,C_HumanVertical,1,Q1FrontDown,-71.45803,31.40954,87.82622,-40.23526,-107.312,181.0216,-38.13456,202408261022187067,
2-6,C_HumanVertical,1,Q1FrontDown,-71.45803,31.40964,87.82622,-40.23522,-107.3118,181.0211,-38.1342,202408261022187378,
2-6,C_HumanVertical,1,Q1FrontDown,-71.45803,31.40964,87.82622,-40.23522,-107.3118,181.0211,-38.1342,202408261022187603,
2-6,C_HumanVertical,1,Q1FrontDown,-71.45823,31.40968,87.82661,-40.23544,-107.3119,181.021,-38.1343,202408261022187855,
2-6,C_HumanVertical,1,Q1FrontDown,-71.45785,31.40958,87.8264,-40.23538,-107.3119,181.0208,-38.13461,202408261022188192,
2-6,C_HumanVertical,1,Q1FrontDown,-71.45844,31.40968,87.82662,-40.23549,-107.3119,181.0205,-38.13434,202408261022188395,
2-6,C_HumanVertical,1,Q1FrontDown,-71.45795,31.40986,87.82642,-40.23548,-107.312,181.0203,-38.1342,202408261022188663,
2-6,C_HumanVertical,1,Q1FrontDown,-71.45795,31.40986,87.82642,-40.23548,-107.312,181.0203,-38.1342,202408261022188837,
2-6,C_HumanVertical,1,Q1FrontDown,-71.45812,31.40956,87.82659,-40.2353,-107.3119,181.0199,-38.1343,202408261022189034,
2-6,C_HumanVertical,1,Q1FrontDown,-71.45812,31.40956,87.82659,-40.2353,-107.3119,181.0199,-38.1343,202408261022189180,
2-6,C_HumanVertical,1,Q1FrontDown,-71.45795,31.40946,87.82674,-40.23548,-107.3119,181.0198,-38.1343,202408261022189373,
2-6,C_HumanVertical,1,Q1FrontDown,-71.45795,31.40946,87.82674,-40.23548,-107.3119,181.0198,-38.1343,202408261022189544,
2-6,C_HumanVertical,1,Q1FrontDown,-71.45789,31.40989,87.82695,-40.23538,-107.3119,181.0196,-38.13439,202408261022189793,
2-6,C_HumanVertical,1,Q1FrontDown,-71.45789,31.40989,87.82695,-40.23538,-107.3119,181.0196,-38.13439,202408261022190070,
2-6,C_HumanVertical,1,Q1FrontDown,-71.458,31.40942,87.82706,-40.23538,-107.312,181.0192,-38.1343,202408261022190361,
2-6,C_HumanVertical,1,Q1FrontDown,-71.458,31.40942,87.82706,-40.23538,-107.312,181.0192,-38.1343,202408261022190687,
2-6,C_HumanVertical,1,Q1FrontDown,-71.45809,31.40968,87.82707,-40.2356,-107.3118,181.0188,-38.13452,202408261022190916,
2-6,C_HumanVertical,1,Q1FrontDown,-71.45827,31.40956,87.8271,-40.2356,-107.3119,181.0183,-38.1342,202408261022191192,
2-6,C_HumanVertical,1,Q1FrontDown,-71.45827,31.40956,87.8271,-40.2356,-107.3119,181.0183,-38.1342,202408261022191352,
2-6,C_HumanVertical,1,Q1FrontDown,-71.45793,31.40947,87.82717,-40.23548,-107.3118,181.0179,-38.1347,202408261022191580,
2-6,C_HumanVertical,1,Q1FrontDown,-71.45788,31.40968,87.82717,-40.2356,-107.3116,181.0179,-38.13466,202408261022191867,
2-6,C_HumanVertical,1,Q1FrontDown,-71.45788,31.40968,87.82717,-40.2356,-107.3116,181.0179,-38.13466,202408261022192063,
2-6,C_HumanVertical,1,Q1FrontDown,-71.45814,31.4098,87.82706,-40.23542,-107.3118,181.0176,-38.13453,202408261022192397,
2-6,C_HumanVertical,1,Q1FrontDown,-71.45814,31.4098,87.82706,-40.23542,-107.3118,181.0176,-38.13453,202408261022192675,
2-6,C_HumanVertical,1,Q1FrontDown,-71.45818,31.40968,87.82706,-40.23556,-107.3117,181.0175,-38.13481,202408261022193049,
2-6,C_HumanVertical,1,Q1FrontDown,-71.45829,31.40958,87.82727,-40.23542,-107.3121,181.0175,-38.13448,202408261022193211,
2-6,C_HumanVertical,1,Q1FrontDown,-71.45809,31.40989,87.82693,-40.23531,-107.3119,181.0175,-38.13436,202408261022193518,
2-6,C_HumanVertical,1,Q1FrontDown,-71.45809,31.40989,87.82693,-40.23531,-107.3119,181.0175,-38.13436,202408261022193680,
2-6,C_HumanVertical,1,Q1FrontDown,-71.45809,31.40968,87.82713,-40.23555,-107.3118,181.0172,-38.13438,202408261022193886,
2-6,C_HumanVertical,1,Q1FrontDown,-71.45818,31.40957,87.82718,-40.23534,-107.3118,181.0172,-38.13466,202408261022194040,
2-6,C_HumanVertical,1,Q1FrontDown,-71.45818,31.40957,87.82718,-40.23534,-107.3118,181.0172,-38.13466,202408261022194234,
2-6,C_HumanVertical,1,Q1FrontDown,-71.45809,31.4098,87.82717,-40.23532,-107.3119,181.0172,-38.13448,202408261022194412,
2-6,C_HumanVertical,1,Q1FrontDown,-71.45809,31.4098,87.82717,-40.23532,-107.3119,181.0172,-38.13448,202408261022194883,
2-6,C_HumanVertical,1,Q1FrontDown,-71.45803,31.40977,87.82735,-40.23565,-107.3121,181.0169,-38.13459,202408261022195029,
2-6,C_HumanVertical,1,Q1FrontDown,-71.45803,31.40977,87.82735,-40.23565,-107.3121,181.0169,-38.13459,202408261022195218,
2-6,C_HumanVertical,1,Q1FrontDown,-71.45803,31.40977,87.82735,-40.23565,-107.3121,181.0169,-38.13459,202408261022195409,
2-6,C_HumanVertical,1,Q1FrontDown,-71.45805,31.40958,87.82745,-40.23568,-107.312,181.0165,-38.13453,202408261022195673,
2-6,C_HumanVertical,1,Q1FrontDown,-71.45805,31.40958,87.82745,-40.23568,-107.312,181.0165,-38.13453,202408261022195847,
2-6,C_HumanVertical,1,Q1FrontDown,-71.45823,31.40986,87.82738,-40.23544,-107.3119,181.0159,-38.1344,202408261022196051,
2-6,C_HumanVertical,1,Q1FrontDown,-71.458,31.4099,87.82718,-40.23552,-107.3119,181.0159,-38.13448,202408261022196412,
2-6,C_HumanVertical,1,Q1FrontDown,-71.458,31.4099,87.82718,-40.23552,-107.3119,181.0159,-38.13448,202408261022196612,
2-6,C_HumanVertical,1,Q1FrontDown,-71.45817,31.40958,87.82745,-40.23556,-107.312,181.0157,-38.13448,202408261022196881,
2-6,C_HumanVertical,1,Q1FrontDown,-71.45803,31.40976,87.82712,-40.23541,-107.3118,181.0156,-38.13434,202408261022197049,
2-6,C_HumanVertical,1,Q1FrontDown,-71.45803,31.40976,87.82712,-40.23541,-107.3118,181.0156,-38.13434,202408261022197208,
2-6,C_HumanVertical,1,Q1FrontDown,-71.45813,31.40968,87.8271,-40.23533,-107.3119,181.0157,-38.1344,202408261022197375,
2-6,C_HumanVertical,1,Q1FrontDown,-71.45808,31.4098,87.82718,-40.23543,-107.312,181.0157,-38.13468,202408261022197775,
2-6,C_HumanVertical,1,Q1FrontDown,-71.45787,31.40967,87.82691,-40.23509,-107.3118,181.0155,-38.13488,202408261022198097,
2-6,C_HumanVertical,1,Q1FrontDown,-71.45786,31.40968,87.82713,-40.23511,-107.3118,181.0155,-38.13447,202408261022198348,
2-6,C_HumanVertical,1,Q1FrontDown,-71.45799,31.40964,87.82724,-40.23511,-107.3121,181.0156,-38.13456,202408261022198662,
2-6,C_HumanVertical,1,Q1FrontDown,-71.45799,31.40964,87.82724,-40.23511,-107.3121,181.0156,-38.13456,202408261022198906,
2-6,C_HumanVertical,1,Q1FrontDown,-71.45758,31.40947,87.82713,-40.23494,-107.3118,181.0157,-38.13457,202408261022199174,
2-6,C_HumanVertical,1,Q1FrontDown,-71.45768,31.40971,87.8269,-40.23493,-107.3121,181.0157,-38.13483,202408261022199565,
2-6,C_HumanVertical,1,Q1FrontDown,-71.45773,31.40974,87.82712,-40.23488,-107.312,181.0155,-38.13475,202408261022199888,
2-6,C_HumanVertical,1,Q1FrontDown,-71.45773,31.40974,87.82712,-40.23488,-107.312,181.0155,-38.13475,202408261022200172,
2-6,C_HumanVertical,1,Q1FrontDown,-71.4574,31.40934,87.82701,-40.23466,-107.3119,181.0154,-38.1347,202408261022200503,
2-6,C_HumanVertical,1,Q1FrontDown,-71.45738,31.40948,87.82713,-40.2346,-107.3118,181.0152,-38.13483,202408261022200842,
2-6,C_HumanVertical,1,Q1FrontDown,-71.45734,31.40922,87.82706,-40.23431,-107.3118,181.0155,-38.1347,202408261022201048,
2-6,C_HumanVertical,1,Q1FrontDown,-71.45734,31.40922,87.82706,-40.23431,-107.3118,181.0155,-38.1347,202408261022201320,
2-6,C_HumanVertical,1,Q1FrontDown,-71.45734,31.40922,87.82736,-40.23419,-107.312,181.015,-38.13422,202408261022201493,
2-6,C_HumanVertical,1,Q1FrontDown,-71.45737,31.40944,87.82715,-40.23425,-107.312,181.0152,-38.13441,202408261022201654,
2-6,C_HumanVertical,1,Q1FrontDown,-71.45737,31.40944,87.82715,-40.23425,-107.312,181.0152,-38.13441,202408261022201827,
2-6,C_HumanVertical,1,Q1FrontDown,-71.45737,31.40944,87.82715,-40.23425,-107.312,181.0152,-38.13441,202408261022202021,
2-6,C_HumanVertical,1,Q1FrontDown,-71.45724,31.40944,87.82683,-40.23412,-107.3118,181.0151,-38.13402,202408261022202240,
2-6,C_HumanVertical,1,Q1FrontDown,-71.45734,31.40938,87.82726,-40.23383,-107.3119,181.0151,-38.13401,202408261022202555,
2-6,C_HumanVertical,1,Q1FrontDown,-71.45734,31.40971,87.8271,-40.23396,-107.3119,181.015,-38.13406,202408261022202832,
2-6,C_HumanVertical,1,Q1FrontDown,-71.45734,31.40971,87.8271,-40.23396,-107.3119,181.015,-38.13406,202408261022202998,
2-6,C_HumanVertical,1,Q1FrontDown,-71.45712,31.40944,87.8271,-40.23395,-107.3119,181.0146,-38.13401,202408261022203179,
2-6,C_HumanVertical,1,Q1FrontDown,-71.45712,31.40945,87.82717,-40.23385,-107.312,181.014,-38.13397,202408261022203448,
2-6,C_HumanVertical,1,Q1FrontDown,-71.45712,31.40945,87.82717,-40.23385,-107.312,181.014,-38.13397,202408261022203668,
2-6,C_HumanVertical,1,Q1FrontDown,-71.45724,31.40971,87.82727,-40.2341,-107.3118,181.0138,-38.13406,202408261022203841,
2-6,C_HumanVertical,1,Q1FrontDown,-71.4575,31.40971,87.82724,-40.2341,-107.3119,181.0128,-38.13385,202408261022204035,
2-6,C_HumanVertical,1,Q1FrontDown,-71.4575,31.40971,87.82724,-40.2341,-107.3119,181.0128,-38.13385,202408261022204226,
2-6,C_HumanVertical,1,Q1FrontDown,-71.45722,31.40961,87.82706,-40.23421,-107.312,181.011,-38.13393,202408261022204433,
2-6,C_HumanVertical,1,Q1FrontDown,-71.4573,31.4094,87.82706,-40.23375,-107.3117,181.0031,-38.13419,202408261022204749,
2-6,C_HumanVertical,1,Q1FrontDown,-71.4573,31.4094,87.82706,-40.23375,-107.3117,181.0031,-38.13419,202408261022205023,
2-6,C_HumanVertical,1,Q1FrontDown,-71.45716,31.40961,87.82721,-40.23383,-107.3119,180.9974,-38.13375,202408261022205387,
2-6,C_HumanVertical,1,Q1FrontDown,-71.45716,31.40961,87.82721,-40.23383,-107.3119,180.9974,-38.13375,202408261022205631,
2-6,C_HumanVertical,1,Q1FrontDown,-71.45703,31.4097,87.82731,-40.23401,-107.3118,180.9964,-38.13388,202408261022205919,
2-6,C_HumanVertical,1,Q1FrontDown,-71.45695,31.40969,87.82757,-40.23379,-107.3119,180.9947,-38.13383,202408261022206166,
2-6,C_HumanVertical,1,Q1FrontDown,-71.45688,31.41027,87.83397,-40.23383,-107.3119,180.9925,-38.13393,202408261022206359,
2-6,C_HumanVertical,1,Q1FrontDown,-71.45688,31.41027,87.83397,-40.23383,-107.3119,180.9925,-38.13393,202408261022206516,
2-6,C_HumanVertical,1,Q1FrontDown,-71.45688,31.41027,87.83397,-40.23383,-107.3119,180.9925,-38.13393,202408261022206774,
2-6,C_HumanVertical,1,Q1FrontDown,-71.45708,31.4098,87.84792,-40.23391,-107.3116,180.9881,-38.13386,202408261022207050,
2-6,C_HumanVertical,1,Q1FrontDown,-71.45562,31.40891,87.85424,-40.23367,-107.3119,180.9851,-38.13413,202408261022207478,
2-6,C_HumanVertical,1,Q1FrontDown,-71.45562,31.40891,87.85424,-40.23367,-107.3119,180.9851,-38.13413,202408261022207696,
2-6,C_HumanVertical,1,Q1FrontDown,-71.45199,31.40903,87.86001,-40.23332,-107.3119,180.9813,-38.13376,202408261022207894,
2-6,C_HumanVertical,1,Q1FrontDown,-71.45018,31.40892,87.86451,-40.23307,-107.3119,180.9776,-38.13379,202408261022208201,
2-6,C_HumanVertical,1,Q1FrontDown,-71.43601,31.40515,87.87415,-40.22549,-107.3005,180.9606,-38.13395,202408261022208519,
2-6,C_HumanVertical,1,Q1FrontDown,-71.41003,31.39664,87.88302,-40.21124,-107.2792,180.9297,-38.13396,202408261022208674,
2-6,C_HumanVertical,1,Q1FrontDown,-71.41003,31.39664,87.88302,-40.21124,-107.2792,180.9297,-38.13396,202408261022208871,
2-6,C_HumanVertical,1,Q1FrontDown,-71.37057,31.37306,87.88425,-40.18647,-107.2417,180.9132,-38.11386,202408261022209103,
2-6,C_HumanVertical,1,Q1FrontDown,-71.37057,31.37306,87.88425,-40.18647,-107.2417,180.9132,-38.11386,202408261022209340,
2-6,C_HumanVertical,1,Q1FrontDown,-71.37057,31.37306,87.88425,-40.18647,-107.2417,180.9132,-38.11386,202408261022209544,
2-6,C_HumanVertical,1,Q1FrontDown,-71.37057,31.37306,87.88425,-40.18647,-107.2417,180.9132,-38.11386,202408261022209706,
2-6,C_HumanVertical,1,Q1FrontDown,-71.37057,31.37306,87.88425,-40.18647,-107.2417,180.9132,-38.11386,202408261022210041,
2-6,C_HumanVertical,1,Q1FrontDown,-71.1518,31.1984,87.88995,-40.09039,-107.1694,180.9064,-37.90491,202408261022210258,
2-6,C_HumanVertical,1,Q1FrontDown,-71.0839,31.10683,87.90061,-40.0714,-107.1404,180.9065,-37.83912,202408261022210570,
2-6,C_HumanVertical,1,Q1FrontDown,-71.01326,31.00032,87.90223,-40.05484,-107.1156,180.8943,-37.76339,202408261022210840,
2-6,C_HumanVertical,1,Q1FrontDown,-71.01326,31.00032,87.90223,-40.05484,-107.1156,180.8943,-37.76339,202408261022210996,
2-6,C_HumanVertical,1,Q1FrontDown,-70.86404,30.89375,87.89465,-39.97646,-107.1124,180.7545,-37.60414,202408261022211173,
2-6,C_HumanVertical,1,Q1FrontDown,-70.86404,30.89375,87.89465,-39.97646,-107.1124,180.7545,-37.60414,202408261022211426,
2-6,C_HumanVertical,1,Q1FrontDown,-70.71629,30.77555,87.89339,-39.89806,-107.1081,180.6265,-37.46581,202408261022211669,
2-6,C_HumanVertical,1,Q1FrontDown,-70.55772,30.64927,87.89431,-39.82579,-107.1002,180.4996,-37.32987,202408261022211849,
2-6,C_HumanVertical,1,Q1FrontDown,-70.38829,30.5117,87.89487,-39.7724,-107.0601,180.3332,-37.20719,202408261022212247,
2-6,C_HumanVertical,1,Q1FrontDown,-70.22032,30.3635,87.89495,-39.72924,-107.0304,180.1381,-37.09669,202408261022212528,
2-6,C_HumanVertical,1,Q1FrontDown,-70.05241,30.20312,87.89337,-39.68685,-107.0083,179.9275,-37.00607,202408261022212853,
2-6,C_HumanVertical,1,Q1FrontDown,-69.82712,30.04998,87.89342,-39.63292,-107.0019,179.6119,-36.92336,202408261022213034,
2-6,C_HumanVertical,1,Q1FrontDown,-69.82712,30.04998,87.89342,-39.63292,-107.0019,179.6119,-36.92336,202408261022213350,
2-6,C_HumanVertical,1,Q1FrontDown,-69.59035,29.87512,87.89106,-39.58105,-106.9993,179.269,-36.84149,202408261022213607,
2-6,C_HumanVertical,1,Q1FrontDown,-69.3557,29.69194,87.88191,-39.54483,-106.9997,178.9401,-36.7707,202408261022213836,
2-6,C_HumanVertical,1,Q1FrontDown,-69.3557,29.69194,87.88191,-39.54483,-106.9997,178.9401,-36.7707,202408261022214027,
2-6,C_HumanVertical,1,Q1FrontDown,-68.70971,29.34185,87.77129,-39.48512,-106.9991,178.3655,-36.6017,202408261022214345,
2-6,C_HumanVertical,1,Q1FrontDown,-68.70971,29.34185,87.77129,-39.48512,-106.9991,178.3655,-36.6017,202408261022214543,
2-6,C_HumanVertical,1,Q1FrontDown,-68.35336,29.16507,87.68764,-39.46175,-106.9988,178.0863,-36.48514,202408261022214745,
2-6,C_HumanVertical,1,Q1FrontDown,-68.35336,29.16507,87.68764,-39.46175,-106.9988,178.0863,-36.48514,202408261022215014,
2-6,C_HumanVertical,1,Q1FrontDown,-68.01561,28.98992,87.63145,-39.4552,-106.9987,177.8469,-36.37314,202408261022215181,
2-6,C_HumanVertical,1,Q1FrontDown,-67.57545,28.81275,87.44843,-39.4515,-106.9975,177.6562,-36.28631,202408261022215418,
2-6,C_HumanVertical,1,Q1FrontDown,-67.08984,28.62394,87.17615,-39.44654,-106.9974,177.5025,-36.20562,202408261022215738,
2-6,C_HumanVertical,1,Q1FrontDown,-67.08984,28.62394,87.17615,-39.44654,-106.9974,177.5025,-36.20562,202408261022216006,
2-6,C_HumanVertical,1,Q1FrontDown,-66.45077,28.44982,86.71938,-39.41647,-106.9974,177.2679,-36.11297,202408261022216180,
2-6,C_HumanVertical,1,Q1FrontDown,-66.45077,28.44982,86.71938,-39.41647,-106.9974,177.2679,-36.11297,202408261022216338,
2-6,C_HumanVertical,1,Q1FrontDown,-65.68089,28.26047,86.13708,-39.37394,-106.9969,177.0211,-36.03136,202408261022216526,
2-6,C_HumanVertical,1,Q1FrontDown,-65.68089,28.26047,86.13708,-39.37394,-106.9969,177.0211,-36.03136,202408261022216671,
2-6,C_HumanVertical,1,Q1FrontDown,-64.8708,28.0905,85.47997,-39.31485,-106.9964,176.7592,-35.96399,202408261022216912,
2-6,C_HumanVertical,1,Q1FrontDown,-63.84285,27.94399,84.61873,-39.26679,-106.9957,176.4966,-35.90583,202408261022217072,
2-6,C_HumanVertical,1,Q1FrontDown,-63.84285,27.94399,84.61873,-39.26679,-106.9957,176.4966,-35.90583,202408261022217350,
2-6,C_HumanVertical,1,Q1FrontDown,-62.72558,27.83563,83.70284,-39.2465,-106.9965,176.2657,-35.85513,202408261022217532,
2-6,C_HumanVertical,1,Q1FrontDown,-61.57895,27.74109,82.75108,-39.24659,-106.9943,176.0199,-35.80533,202408261022217703,
2-6,C_HumanVertical,1,Q1FrontDown,-61.57895,27.74109,82.75108,-39.24659,-106.9943,176.0199,-35.80533,202408261022217894,
2-6,C_HumanVertical,1,Q1FrontDown,-60.44323,27.68294,81.87337,-39.27398,-106.995,175.7773,-35.76274,202408261022218176,
2-6,C_HumanVertical,1,Q1FrontDown,-59.24997,27.6719,80.91656,-39.30237,-106.9935,175.5676,-35.71625,202408261022218493,
2-6,C_HumanVertical,1,Q1FrontDown,-58.11574,27.66561,80.00265,-39.3341,-106.9996,175.3901,-35.68725,202408261022218755,
2-6,C_HumanVertical,1,Q1FrontDown,-57.78844,27.68564,80.01135,-39.62927,-107.0315,175.3977,-35.69595,202408261022219126,
2-6,C_HumanVertical,1,Q1FrontDown,-57.50317,27.74277,79.97782,-39.94325,-107.0579,175.3977,-35.70042,202408261022219315,
2-6,C_HumanVertical,1,Q1FrontDown,-57.50317,27.74277,79.97782,-39.94325,-107.0579,175.3977,-35.70042,202408261022219482,
2-6,C_HumanVertical,1,Q1FrontDown,-57.50317,27.74277,79.97782,-39.94325,-107.0579,175.3977,-35.70042,202408261022219673,
2-6,C_HumanVertical,1,Q1FrontDown,-57.27331,27.76022,79.92345,-40.14062,-107.0601,175.3977,-35.70089,202408261022219858,
2-6,C_HumanVertical,1,Q1FrontDown,-57.00202,27.80121,79.69563,-40.23866,-107.0596,175.3969,-35.70086,202408261022220071,
2-6,C_HumanVertical,1,Q1FrontDown,-57.00202,27.80121,79.69563,-40.23866,-107.0596,175.3969,-35.70086,202408261022220236,
2-6,C_HumanVertical,1,Q1FrontDown,-56.74004,27.78288,79.40099,-40.2224,-107.0559,175.3941,-35.69948,202408261022220495,
2-6,C_HumanVertical,1,Q1FrontDown,-56.74004,27.78288,79.40099,-40.2224,-107.0559,175.3941,-35.69948,202408261022220661,
2-6,C_HumanVertical,1,Q1FrontDown,-56.47604,27.71943,79.08289,-40.12598,-107.0505,175.3831,-35.6957,202408261022220841,
2-6,C_HumanVertical,1,Q1FrontDown,-56.03859,27.70775,78.59127,-40.00509,-107.039,175.3337,-35.68546,202408261022221209,
2-6,C_HumanVertical,1,Q1FrontDown,-56.03859,27.70775,78.59127,-40.00509,-107.039,175.3337,-35.68546,202408261022221506,
2-6,C_HumanVertical,1,Q1FrontDown,-55.46836,27.70926,77.97712,-39.93542,-107.0251,175.266,-35.66383,202408261022221663,
2-6,C_HumanVertical,1,Q1FrontDown,-54.85695,27.71082,77.35065,-39.89822,-107.0201,175.1643,-35.6416,202408261022221948,
2-6,C_HumanVertical,1,Q1FrontDown,-54.15454,27.71127,76.61761,-39.85466,-107.0078,175.0362,-35.60875,202408261022222215,
2-6,C_HumanVertical,1,Q1FrontDown,-53.37928,27.72725,75.85653,-39.84214,-107.003,174.8875,-35.57404,202408261022222372,
2-6,C_HumanVertical,1,Q1FrontDown,-53.37928,27.72725,75.85653,-39.84214,-107.003,174.8875,-35.57404,202408261022222541,
2-6,C_HumanVertical,1,Q1FrontDown,-53.37928,27.72725,75.85653,-39.84214,-107.003,174.8875,-35.57404,202408261022222850,
2-6,C_HumanVertical,1,Q1FrontDown,-51.84447,27.74974,74.44535,-39.87939,-106.9964,174.5697,-35.49979,202408261022223179,
2-6,C_HumanVertical,1,Q1FrontDown,-51.84447,27.74974,74.44535,-39.87939,-106.9964,174.5697,-35.49979,202408261022223378,
2-6,C_HumanVertical,1,Q1FrontDown,-51.14263,27.76317,73.82217,-39.91259,-106.9959,174.4341,-35.46373,202408261022223580,
2-6,C_HumanVertical,1,Q1FrontDown,-50.50966,27.77173,73.31799,-39.98436,-107.0021,174.3417,-35.44257,202408261022223818,
2-6,C_HumanVertical,1,Q1FrontDown,-50.50966,27.77173,73.31799,-39.98436,-107.0021,174.3417,-35.44257,202408261022224009,
2-6,C_HumanVertical,1,Q1FrontDown,-50.31965,27.80062,73.34279,-40.19407,-107.0265,174.3473,-35.45588,202408261022224176,
2-6,C_HumanVertical,1,Q1FrontDown,-50.13259,27.85393,73.32475,-40.37923,-107.0361,174.3462,-35.46464,202408261022224337,
2-6,C_HumanVertical,1,Q1FrontDown,-50.13259,27.85393,73.32475,-40.37923,-107.0361,174.3462,-35.46464,202408261022224513,
2-6,C_HumanVertical,1,Q1FrontDown,-49.98657,27.89047,73.29342,-40.47009,-107.0364,174.3468,-35.46792,202408261022224723,
2-6,C_HumanVertical,1,Q1FrontDown,-49.98657,27.89047,73.29342,-40.47009,-107.0364,174.3468,-35.46792,202408261022225008,
2-6,C_HumanVertical,1,Q1FrontDown,-49.8187,27.92319,73.12663,-40.49621,-107.0363,174.3461,-35.4681,202408261022225185,
2-6,C_HumanVertical,1,Q1FrontDown,-49.8187,27.92319,73.12663,-40.49621,-107.0363,174.3461,-35.4681,202408261022225495,
2-6,C_HumanVertical,1,Q1FrontDown,-49.36406,27.92334,72.53749,-40.46158,-107.0259,174.3424,-35.46645,202408261022225659,
2-6,C_HumanVertical,1,Q1FrontDown,-49.36406,27.92334,72.53749,-40.46158,-107.0259,174.3424,-35.46645,202408261022225869,
2-6,C_HumanVertical,1,Q1FrontDown,-48.98681,27.93056,72.01218,-40.44632,-107.0097,174.3265,-35.46496,202408261022226162,
2-6,C_HumanVertical,1,Q1FrontDown,-48.52473,27.96277,71.43158,-40.44303,-106.9863,174.286,-35.45132,202408261022226319,
2-6,C_HumanVertical,1,Q1FrontDown,-48.52473,27.96277,71.43158,-40.44303,-106.9863,174.286,-35.45132,202408261022226540,
2-6,C_HumanVertical,1,Q1FrontDown,-47.98388,27.99552,70.78563,-40.45137,-106.9661,174.2325,-35.44024,202408261022226847,
2-6,C_HumanVertical,1,Q1FrontDown,-47.98388,27.99552,70.78563,-40.45137,-106.9661,174.2325,-35.44024,202408261022227063,
2-6,C_HumanVertical,1,Q1FrontDown,-47.29353,28.06411,69.9725,-40.46616,-106.9259,174.1527,-35.41776,202408261022227358,
2-6,C_HumanVertical,1,Q1FrontDown,-46.58124,28.14417,69.16424,-40.48753,-106.8714,174.0666,-35.38432,202408261022227503,
2-6,C_HumanVertical,1,Q1FrontDown,-45.78197,28.24784,68.29984,-40.54115,-106.8152,173.952,-35.34481,202408261022227839,
2-6,C_HumanVertical,1,Q1FrontDown,-45.78197,28.24784,68.29984,-40.54115,-106.8152,173.952,-35.34481,202408261022228059,
2-6,C_HumanVertical,1,Q1FrontDown,-44.92441,28.37366,67.37659,-40.59293,-106.7209,173.8229,-35.29679,202408261022228318,
2-6,C_HumanVertical,1,Q1FrontDown,-44.11654,28.52301,66.52869,-40.66601,-106.6327,173.6929,-35.25454,202408261022228494,
2-6,C_HumanVertical,1,Q1FrontDown,-43.26789,28.66665,65.66772,-40.78256,-106.5604,173.54,-35.21218,202408261022228813,
2-6,C_HumanVertical,1,Q1FrontDown,-43.26789,28.66665,65.66772,-40.78256,-106.5604,173.54,-35.21218,202408261022228999,
2-6,C_HumanVertical,1,Q1FrontDown,-42.4721,28.84373,64.84517,-40.91742,-106.4937,173.4076,-35.1693,202408261022229213,
2-6,C_HumanVertical,1,Q1FrontDown,-41.75767,28.99401,64.17078,-41.07622,-106.4462,173.3005,-35.13251,202408261022229486,
2-6,C_HumanVertical,1,Q1FrontDown,-41.10386,29.18169,63.55012,-41.22256,-106.4255,173.2133,-35.10487,202408261022229747,
2-6,C_HumanVertical,1,Q1FrontDown,-40.90753,29.32783,63.55788,-41.46004,-106.4872,173.2175,-35.11763,202408261022230018,
2-6,C_HumanVertical,1,Q1FrontDown,-40.90753,29.32783,63.55788,-41.46004,-106.4872,173.2175,-35.11763,202408261022230216,
2-6,C_HumanVertical,1,Q1FrontDown,-40.73025,29.52335,63.5162,-41.69179,-106.5065,173.2165,-35.1235,202408261022230495,
2-6,C_HumanVertical,1,Q1FrontDown,-40.57111,29.6565,63.43098,-41.86222,-106.5078,173.2164,-35.12462,202408261022230664,
2-6,C_HumanVertical,1,Q1FrontDown,-40.57111,29.6565,63.43098,-41.86222,-106.5078,173.2164,-35.12462,202408261022230985,
2-6,C_HumanVertical,1,Q1FrontDown,-40.38754,29.7821,63.18554,-41.97494,-106.507,173.2161,-35.12445,202408261022231148,
2-6,C_HumanVertical,1,Q1FrontDown,-40.19555,29.82117,62.85189,-42.028,-106.4946,173.2141,-35.12324,202408261022231354,
2-6,C_HumanVertical,1,Q1FrontDown,-40.19555,29.82117,62.85189,-42.028,-106.4946,173.2141,-35.12324,202408261022231640,
2-6,C_HumanVertical,1,Q1FrontDown,-39.97599,29.8437,62.48059,-42.05021,-106.4812,173.2093,-35.1207,202408261022231824,
2-6,C_HumanVertical,1,Q1FrontDown,-39.62727,29.92144,61.93829,-42.10267,-106.4484,173.1801,-35.10653,202408261022232018,
2-6,C_HumanVertical,1,Q1FrontDown,-39.62727,29.92144,61.93829,-42.10267,-106.4484,173.1801,-35.10653,202408261022232204,
2-6,C_HumanVertical,1,Q1FrontDown,-39.18348,29.99552,61.29359,-42.21735,-106.4095,173.1484,-35.08133,202408261022232395,
2-6,C_HumanVertical,1,Q1FrontDown,-39.18348,29.99552,61.29359,-42.21735,-106.4095,173.1484,-35.08133,202408261022232680,
2-6,C_HumanVertical,1,Q1FrontDown,-39.18348,29.99552,61.29359,-42.21735,-106.4095,173.1484,-35.08133,202408261022232886,
2-6,C_HumanVertical,1,Q1FrontDown,-38.16075,30.15718,59.87778,-42.5842,-106.3218,173.0445,-35.00559,202408261022233170,
2-6,C_HumanVertical,1,Q1FrontDown,-38.16075,30.15718,59.87778,-42.5842,-106.3218,173.0445,-35.00559,202408261022233342,
2-6,C_HumanVertical,1,Q1FrontDown,-37.58035,30.28587,59.13938,-42.81297,-106.2596,172.9798,-34.95237,202408261022233522,
2-6,C_HumanVertical,1,Q1FrontDown,-36.937,30.45139,58.38076,-43.1042,-106.2084,172.9017,-34.89486,202408261022233804,
2-6,C_HumanVertical,1,Q1FrontDown,-36.937,30.45139,58.38076,-43.1042,-106.2084,172.9017,-34.89486,202408261022233986,
2-6,C_HumanVertical,1,Q1FrontDown,-36.33942,30.6366,57.69069,-43.3959,-106.1605,172.8241,-34.83861,202408261022234165,
2-6,C_HumanVertical,1,Q1FrontDown,-35.72327,30.86815,57.05832,-43.68469,-106.1248,172.7561,-34.79387,202408261022234367,
2-6,C_HumanVertical,1,Q1FrontDown,-35.72327,30.86815,57.05832,-43.68469,-106.1248,172.7561,-34.79387,202408261022234574,
2-6,C_HumanVertical,1,Q1FrontDown,-35.72327,30.86815,57.05832,-43.68469,-106.1248,172.7561,-34.79387,202408261022234846,
2-6,C_HumanVertical,1,Q1FrontDown,-34.61524,31.30053,55.71927,-44.55666,-106.0201,172.5695,-34.66146,202408261022235179,
2-6,C_HumanVertical,1,Q1FrontDown,-34.08412,31.46964,55.00684,-45.13938,-105.9777,172.4715,-34.57248,202408261022235365,
2-6,C_HumanVertical,1,Q1FrontDown,-34.08412,31.46964,55.00684,-45.13938,-105.9777,172.4715,-34.57248,202408261022235546,
2-6,C_HumanVertical,1,Q1FrontDown,-33.55418,31.68799,54.29236,-45.74965,-105.9434,172.3602,-34.48928,202408261022235806,
2-6,C_HumanVertical,1,Q1FrontDown,-33.55418,31.68799,54.29236,-45.74965,-105.9434,172.3602,-34.48928,202408261022235992,
2-6,C_HumanVertical,1,Q1FrontDown,-33.02656,31.88228,53.68646,-46.32935,-105.9159,172.2735,-34.4112,202408261022236213,
2-6,C_HumanVertical,1,Q1FrontDown,-32.47996,32.1799,53.08521,-46.89462,-105.89,172.177,-34.3349,202408261022236484,
2-6,C_HumanVertical,1,Q1FrontDown,-31.98237,32.49092,52.51151,-47.44608,-105.8654,172.0948,-34.255,202408261022236704,
2-6,C_HumanVertical,1,Q1FrontDown,-31.98237,32.49092,52.51151,-47.44608,-105.8654,172.0948,-34.255,202408261022236995,
2-6,C_HumanVertical,1,Q1FrontDown,-31.51201,32.76491,51.98331,-48.00795,-105.8546,172.0749,-34.16031,202408261022237154,
2-6,C_HumanVertical,1,Q1FrontDown,-31.51201,32.76491,51.98331,-48.00795,-105.8546,172.0749,-34.16031,202408261022237326,
2-6,C_HumanVertical,1,Q1FrontDown,-31.07357,33.04035,51.49397,-48.50366,-105.8461,172.059,-34.07193,202408261022237503,
2-6,C_HumanVertical,1,Q1FrontDown,-30.66316,33.31406,50.99041,-48.97605,-105.8313,172.0381,-33.97802,202408261022237710,
2-6,C_HumanVertical,1,Q1FrontDown,-30.29934,33.57978,50.55307,-49.46856,-105.8274,172.0309,-33.8904,202408261022237980,
2-6,C_HumanVertical,1,Q1FrontDown,-30.29934,33.57978,50.55307,-49.46856,-105.8274,172.0309,-33.8904,202408261022238179,
2-6,C_HumanVertical,1,Q1FrontDown,-29.91766,33.85008,50.12318,-49.92737,-105.8181,172.0271,-33.8014,202408261022238481,
2-6,C_HumanVertical,1,Q1FrontDown,-29.60626,34.07674,49.72376,-50.35277,-105.8059,172.0246,-33.72023,202408261022238642,
2-6,C_HumanVertical,1,Q1FrontDown,-29.60626,34.07674,49.72376,-50.35277,-105.8059,172.0246,-33.72023,202408261022238897,
2-6,C_HumanVertical,1,Q1FrontDown,-29.31624,34.28355,49.35237,-50.73067,-105.7961,172.0167,-33.6506,202408261022239138,
2-6,C_HumanVertical,1,Q1FrontDown,-29.31624,34.28355,49.35237,-50.73067,-105.7961,172.0167,-33.6506,202408261022239365,
2-6,C_HumanVertical,1,Q1FrontDown,-29.31624,34.28355,49.35237,-50.73067,-105.7961,172.0167,-33.6506,202408261022239641,
2-6,C_HumanVertical,1,Q1FrontDown,-29.31624,34.28355,49.35237,-50.73067,-105.7961,172.0167,-33.6506,202408261022239864,
2-6,C_HumanVertical,1,Q1FrontDown,-29.31624,34.28355,49.35237,-50.73067,-105.7961,172.0167,-33.6506,202408261022240052,
2-6,C_HumanVertical,1,Q1FrontDown,-28.35451,35.10794,48.14886,-52.01416,-105.7924,171.8998,-33.38364,202408261022240362,
2-6,C_HumanVertical,1,Q1FrontDown,-28.35451,35.10794,48.14886,-52.01416,-105.7924,171.8998,-33.38364,202408261022240652,
2-6,C_HumanVertical,1,Q1FrontDown,-28.17689,35.27987,47.90887,-52.26672,-105.7913,171.8689,-33.33378,202408261022240880,
2-6,C_HumanVertical,1,Q1FrontDown,-28.00578,35.42544,47.66572,-52.48556,-105.7914,171.8387,-33.28649,202408261022241042,
2-6,C_HumanVertical,1,Q1FrontDown,-28.00578,35.42544,47.66572,-52.48556,-105.7914,171.8387,-33.28649,202408261022241320,
2-6,C_HumanVertical,1,Q1FrontDown,-28.00578,35.42544,47.66572,-52.48556,-105.7914,171.8387,-33.28649,202408261022241500,
2-6,C_HumanVertical,1,Q1FrontDown,-27.67679,35.70394,47.18723,-52.83718,-105.7888,171.7512,-33.20975,202408261022241662,
2-6,C_HumanVertical,1,Q1FrontDown,-27.67679,35.70394,47.18723,-52.83718,-105.7888,171.7512,-33.20975,202408261022241838,
2-6,C_HumanVertical,1,Q1FrontDown,-27.67679,35.70394,47.18723,-52.83718,-105.7888,171.7512,-33.20975,202408261022241995,
2-6,C_HumanVertical,1,Q1FrontDown,-27.53567,35.816,46.98626,-53.00515,-105.7884,171.6981,-33.16634,202408261022242222,
2-6,C_HumanVertical,1,Q1FrontDown,-27.39021,35.90487,46.75353,-53.18179,-105.78,171.6342,-33.11962,202408261022242404,
2-6,C_HumanVertical,1,Q1FrontDown,-27.39021,35.90487,46.75353,-53.18179,-105.78,171.6342,-33.11962,202408261022242735,
2-6,C_HumanVertical,1,Q1FrontDown,-27.12007,36.03495,46.32048,-53.4646,-105.7688,171.4581,-33.02626,202408261022243014,
2-6,C_HumanVertical,1,Q1FrontDown,-27.12007,36.03495,46.32048,-53.4646,-105.7688,171.4581,-33.02626,202408261022243195,
2-6,C_HumanVertical,1,Q1FrontDown,-26.98475,36.09098,46.1113,-53.59969,-105.7677,171.3233,-32.97483,202408261022243495,
2-6,C_HumanVertical,1,Q1FrontDown,-26.98475,36.09098,46.1113,-53.59969,-105.7677,171.3233,-32.97483,202408261022243658,
2-6,C_HumanVertical,1,Q1FrontDown,-26.86042,36.142,45.90408,-53.71299,-105.7672,171.1898,-32.91836,202408261022243830,
2-6,C_HumanVertical,1,Q1FrontDown,-26.7474,36.19791,45.72304,-53.82318,-105.767,171.0692,-32.86239,202408261022244080,
2-6,C_HumanVertical,1,Q1FrontDown,-26.7474,36.19791,45.72304,-53.82318,-105.767,171.0692,-32.86239,202408261022244346,
2-6,C_HumanVertical,1,Q1FrontDown,-26.63566,36.25937,45.55735,-53.9021,-105.7658,170.9723,-32.80323,202408261022244501,
2-6,C_HumanVertical,1,Q1FrontDown,-26.5357,36.30969,45.39189,-53.95458,-105.7647,170.897,-32.75005,202408261022244652,
2-6,C_HumanVertical,1,Q1FrontDown,-26.5357,36.30969,45.39189,-53.95458,-105.7647,170.897,-32.75005,202408261022244855,
2-6,C_HumanVertical,1,Q1FrontDown,-26.42528,36.35063,45.21259,-54.00198,-105.764,170.8383,-32.69606,202408261022245182,
2-6,C_HumanVertical,1,Q1FrontDown,-26.31597,36.39261,45.05587,-54.04514,-105.7638,170.7879,-32.6438,202408261022245370,
2-6,C_HumanVertical,1,Q1FrontDown,-26.31597,36.39261,45.05587,-54.04514,-105.7638,170.7879,-32.6438,202408261022245547,
2-6,C_HumanVertical,1,Q1FrontDown,-26.2297,36.44169,44.94136,-54.07853,-105.763,170.7446,-32.60022,202408261022245818,
2-6,C_HumanVertical,1,Q1FrontDown,-26.2297,36.44169,44.94136,-54.07853,-105.763,170.7446,-32.60022,202408261022245995,
2-6,C_HumanVertical,1,Q1FrontDown,-26.2297,36.44169,44.94136,-54.07853,-105.763,170.7446,-32.60022,202408261022246165,
2-6,C_HumanVertical,1,Q1FrontDown,-26.10031,36.53901,44.80892,-54.1259,-105.7601,170.6357,-32.54119,202408261022246371,
2-6,C_HumanVertical,1,Q1FrontDown,-26.10031,36.53901,44.80892,-54.1259,-105.7601,170.6357,-32.54119,202408261022246584,
2-6,C_HumanVertical,1,Q1FrontDown,-26.0505,36.58239,44.76135,-54.15363,-105.7593,170.5638,-32.51363,202408261022246836,
2-6,C_HumanVertical,1,Q1FrontDown,-26.0081,36.61955,44.71354,-54.19939,-105.7577,170.4759,-32.4842,202408261022247026,
2-6,C_HumanVertical,1,Q1FrontDown,-26.0081,36.61955,44.71354,-54.19939,-105.7577,170.4759,-32.4842,202408261022247266,
2-6,C_HumanVertical,1,Q1FrontDown,-25.96958,36.65019,44.66739,-54.2515,-105.7559,170.3946,-32.45399,202408261022247540,
2-6,C_HumanVertical,1,Q1FrontDown,-25.9357,36.67934,44.62105,-54.30788,-105.7481,170.3167,-32.42315,202408261022247717,
2-6,C_HumanVertical,1,Q1FrontDown,-25.9357,36.67934,44.62105,-54.30788,-105.7481,170.3167,-32.42315,202408261022247998,
2-6,C_HumanVertical,1,Q1FrontDown,-25.91645,36.70171,44.56444,-54.41684,-105.741,170.2624,-32.39358,202408261022248202,
2-6,C_HumanVertical,1,Q1FrontDown,-25.89774,36.72319,44.50412,-54.54588,-105.7379,170.2104,-32.36326,202408261022248493,
2-6,C_HumanVertical,1,Q1FrontDown,-25.89774,36.72319,44.50412,-54.54588,-105.7379,170.2104,-32.36326,202408261022248659,
2-6,C_HumanVertical,1,Q1FrontDown,-25.88026,36.75448,44.43822,-54.67879,-105.736,170.1591,-32.33336,202408261022248907,
2-6,C_HumanVertical,1,Q1FrontDown,-25.86595,36.77847,44.34983,-54.83763,-105.736,170.1191,-32.3011,202408261022249188,
2-6,C_HumanVertical,1,Q1FrontDown,-25.86595,36.77847,44.34983,-54.83763,-105.736,170.1191,-32.3011,202408261022249336,
2-6,C_HumanVertical,1,Q1FrontDown,-25.86449,36.80329,44.2835,-55.04461,-105.7358,170.0567,-32.26311,202408261022249519,
2-6,C_HumanVertical,1,Q1FrontDown,-25.8648,36.82757,44.21105,-55.28715,-105.7358,169.9868,-32.22671,202408261022249707,
2-6,C_HumanVertical,1,Q1FrontDown,-25.8648,36.82757,44.21105,-55.28715,-105.7358,169.9868,-32.22671,202408261022249908,
2-6,C_HumanVertical,1,Q1FrontDown,-25.86033,36.86533,44.15063,-55.51406,-105.7359,169.929,-32.19236,202408261022250182,
2-6,C_HumanVertical,1,Q1FrontDown,-25.85159,36.90509,44.08863,-55.76267,-105.7356,169.8708,-32.16483,202408261022250395,
2-6,C_HumanVertical,1,Q1FrontDown,-25.84569,36.92953,44.02904,-56.03138,-105.7355,169.8159,-32.14338,202408261022250667,
2-6,C_HumanVertical,1,Q1FrontDown,-25.84569,36.92953,44.02904,-56.03138,-105.7355,169.8159,-32.14338,202408261022250825,
2-6,C_HumanVertical,1,Q1FrontDown,-25.84569,36.92953,44.02904,-56.03138,-105.7355,169.8159,-32.14338,202408261022251031,
2-6,C_HumanVertical,1,Q1FrontDown,-25.84165,36.98913,43.86875,-56.65987,-105.7357,169.737,-32.09291,202408261022251321,
2-6,C_HumanVertical,1,Q1FrontDown,-25.84165,36.98913,43.86875,-56.65987,-105.7357,169.737,-32.09291,202408261022251485,
2-6,C_HumanVertical,1,Q1FrontDown,-25.84165,36.98913,43.86875,-56.65987,-105.7357,169.737,-32.09291,202408261022251654,
2-6,C_HumanVertical,1,Q1FrontDown,-25.83098,37.00115,43.77379,-57.00014,-105.736,169.7037,-32.06043,202408261022251819,
2-6,C_HumanVertical,1,Q1FrontDown,-25.80797,37.0266,43.66805,-57.32951,-105.7359,169.6812,-32.01949,202408261022252079,
2-6,C_HumanVertical,1,Q1FrontDown,-25.79763,37.05529,43.55814,-57.68834,-105.7366,169.6611,-31.96264,202408261022252345,
2-6,C_HumanVertical,1,Q1FrontDown,-25.79763,37.05529,43.55814,-57.68834,-105.7366,169.6611,-31.96264,202408261022252519,
2-6,C_HumanVertical,1,Q1FrontDown,-25.79763,37.05529,43.55814,-57.68834,-105.7366,169.6611,-31.96264,202408261022252695,
2-6,C_HumanVertical,1,Q1FrontDown,-25.78038,37.08305,43.46247,-58.02808,-105.7364,169.6493,-31.90261,202408261022252997,
2-6,C_HumanVertical,1,Q1FrontDown,-25.77036,37.11325,43.36303,-58.37742,-105.7365,169.6085,-31.83607,202408261022253174,
2-6,C_HumanVertical,1,Q1FrontDown,-25.77036,37.11325,43.36303,-58.37742,-105.7365,169.6085,-31.83607,202408261022253396,
2-6,C_HumanVertical,1,Q1FrontDown,-25.75108,37.15226,43.2798,-58.68724,-105.7366,169.5695,-31.77023,202408261022253580,
2-6,C_HumanVertical,1,Q1FrontDown,-25.72837,37.20038,43.20851,-58.96966,-105.7365,169.5212,-31.7057,202408261022253853,
2-6,C_HumanVertical,1,Q1FrontDown,-25.72837,37.20038,43.20851,-58.96966,-105.7365,169.5212,-31.7057,202408261022254017,
2-6,C_HumanVertical,1,Q1FrontDown,-25.71689,37.24076,43.15368,-59.25335,-105.7367,169.4674,-31.62888,202408261022254178,
2-6,C_HumanVertical,1,Q1FrontDown,-25.70625,37.28116,43.10337,-59.52445,-105.7366,169.3918,-31.54744,202408261022254375,
2-6,C_HumanVertical,1,Q1FrontDown,-25.70625,37.28116,43.10337,-59.52445,-105.7366,169.3918,-31.54744,202408261022254547,
2-6,C_HumanVertical,1,Q1FrontDown,-25.70316,37.30594,43.0575,-59.81713,-105.7367,169.3055,-31.46371,202408261022254821,
2-6,C_HumanVertical,1,Q1FrontDown,-25.68994,37.32255,43.01425,-60.0873,-105.7368,169.1886,-31.37614,202408261022255006,
2-6,C_HumanVertical,1,Q1FrontDown,-25.68994,37.32255,43.01425,-60.0873,-105.7368,169.1886,-31.37614,202408261022255215,
2-6,C_HumanVertical,1,Q1FrontDown,-25.67771,37.34504,42.96893,-60.35699,-105.7366,169.0384,-31.28533,202408261022255507,
2-6,C_HumanVertical,1,Q1FrontDown,-25.67483,37.35002,42.92268,-60.63963,-105.7365,168.891,-31.19536,202408261022255703,
2-6,C_HumanVertical,1,Q1FrontDown,-25.67483,37.35002,42.92268,-60.63963,-105.7365,168.891,-31.19536,202408261022255996,
2-6,C_HumanVertical,1,Q1FrontDown,-25.67055,37.3489,42.86985,-60.94499,-105.7364,168.7099,-31.08848,202408261022256164,
2-6,C_HumanVertical,1,Q1FrontDown,-25.67106,37.35038,42.82463,-61.23481,-105.7367,168.5647,-30.99259,202408261022256341,
2-6,C_HumanVertical,1,Q1FrontDown,-25.67106,37.35038,42.82463,-61.23481,-105.7367,168.5647,-30.99259,202408261022256663,
2-6,C_HumanVertical,1,Q1FrontDown,-25.66741,37.35173,42.7869,-61.51167,-105.7362,168.4348,-30.89255,202408261022256907,
2-6,C_HumanVertical,1,Q1FrontDown,-25.66532,37.35167,42.75354,-61.84034,-105.7363,168.2572,-30.78625,202408261022257195,
2-6,C_HumanVertical,1,Q1FrontDown,-25.66532,37.35167,42.75354,-61.84034,-105.7363,168.2572,-30.78625,202408261022257353,
2-6,C_HumanVertical,1,Q1FrontDown,-25.66532,37.35167,42.75354,-61.84034,-105.7363,168.2572,-30.78625,202408261022257526,
2-6,C_HumanVertical,1,Q1FrontDown,-25.66111,37.35563,42.69242,-62.49586,-105.7364,167.9023,-30.59627,202408261022257858,
2-6,C_HumanVertical,1,Q1FrontDown,-25.661,37.35372,42.66277,-62.83701,-105.7364,167.7335,-30.49277,202408261022258039,
2-6,C_HumanVertical,1,Q1FrontDown,-25.6553,37.35823,42.64734,-63.13583,-105.7365,167.603,-30.39477,202408261022258405,
2-6,C_HumanVertical,1,Q1FrontDown,-25.6553,37.35823,42.64734,-63.13583,-105.7365,167.603,-30.39477,202408261022258649,
2-6,C_HumanVertical,1,Q1FrontDown,-25.64955,37.3758,42.62627,-63.4637,-105.7362,167.4824,-30.3034,202408261022258827,
2-6,C_HumanVertical,1,Q1FrontDown,-25.64559,37.37986,42.60407,-63.79437,-105.7366,167.367,-30.23631,202408261022259014,
2-6,C_HumanVertical,1,Q1FrontDown,-25.64559,37.37986,42.60407,-63.79437,-105.7366,167.367,-30.23631,202408261022259240,
2-6,C_HumanVertical,1,Q1FrontDown,-25.63798,37.38253,42.57794,-64.13039,-105.7363,167.2422,-30.14466,202408261022259524,
2-6,C_HumanVertical,1,Q1FrontDown,-25.63798,37.38253,42.57794,-64.13039,-105.7363,167.2422,-30.14466,202408261022259681,
2-6,C_HumanVertical,1,Q1FrontDown,-25.60688,37.38742,42.49968,-64.79781,-105.7363,167.0048,-29.98889,202408261022260093,
2-6,C_HumanVertical,1,Q1FrontDown,-25.58876,37.39833,42.44739,-65.12924,-105.7364,166.8702,-29.91586,202408261022260379,
2-6,C_HumanVertical,1,Q1FrontDown,-25.58876,37.39833,42.44739,-65.12924,-105.7364,166.8702,-29.91586,202408261022260642,
2-6,C_HumanVertical,1,Q1FrontDown,-25.56506,37.41144,42.3932,-65.42238,-105.7362,166.7481,-29.85053,202408261022260823,
2-6,C_HumanVertical,1,Q1FrontDown,-25.55149,37.42451,42.33265,-65.73904,-105.7365,166.6438,-29.77412,202408261022261164,
2-6,C_HumanVertical,1,Q1FrontDown,-25.53572,37.43832,42.27715,-66.04809,-105.7364,166.5479,-29.69376,202408261022261393,
2-6,C_HumanVertical,1,Q1FrontDown,-25.53572,37.43832,42.27715,-66.04809,-105.7364,166.5479,-29.69376,202408261022261560,
2-6,C_HumanVertical,1,Q1FrontDown,-25.51376,37.46069,42.21557,-66.34786,-105.736,166.4534,-29.60981,202408261022261835,
2-6,C_HumanVertical,1,Q1FrontDown,-25.51376,37.46069,42.21557,-66.34786,-105.736,166.4534,-29.60981,202408261022262013,
2-6,C_HumanVertical,1,Q1FrontDown,-25.50887,37.46181,42.14938,-66.69199,-105.7363,166.3552,-29.5146,202408261022262194,
2-6,C_HumanVertical,1,Q1FrontDown,-25.50044,37.46487,42.08426,-67.03521,-105.7362,166.2684,-29.40793,202408261022262429,
2-6,C_HumanVertical,1,Q1FrontDown,-25.50044,37.46487,42.08426,-67.03521,-105.7362,166.2684,-29.40793,202408261022262674,
2-6,C_HumanVertical,1,Q1FrontDown,-25.50044,37.46487,42.08426,-67.03521,-105.7362,166.2684,-29.40793,202408261022262856,
2-6,C_HumanVertical,1,Q1FrontDown,-25.4785,37.46687,41.92643,-67.80574,-105.7362,166.083,-29.17883,202408261022263214,
2-6,C_HumanVertical,1,Q1FrontDown,-25.47019,37.46864,41.84951,-68.19553,-105.7364,165.9735,-29.08158,202408261022263484,
2-6,C_HumanVertical,1,Q1FrontDown,-25.47019,37.46864,41.84951,-68.19553,-105.7364,165.9735,-29.08158,202408261022263646,
2-6,C_HumanVertical,1,Q1FrontDown,-25.4617,37.46988,41.7732,-68.60073,-105.7364,165.8664,-28.98984,202408261022263819,
2-6,C_HumanVertical,1,Q1FrontDown,-25.4617,37.46988,41.7732,-68.60073,-105.7364,165.8664,-28.98984,202408261022263993,
2-6,C_HumanVertical,1,Q1FrontDown,-25.44876,37.48426,41.69125,-68.98817,-105.7364,165.7634,-28.91014,202408261022264152,
2-6,C_HumanVertical,1,Q1FrontDown,-25.44876,37.48426,41.69125,-68.98817,-105.7364,165.7634,-28.91014,202408261022264342,
2-6,C_HumanVertical,1,Q1FrontDown,-25.42162,37.50391,41.60002,-69.35904,-105.7363,165.6609,-28.84163,202408261022264559,
2-6,C_HumanVertical,1,Q1FrontDown,-25.40713,37.5078,41.50954,-69.71413,-105.7364,165.5626,-28.77735,202408261022264837,
2-6,C_HumanVertical,1,Q1FrontDown,-25.38283,37.51759,41.4138,-70.04233,-105.7363,165.4591,-28.70445,202408261022265183,
2-6,C_HumanVertical,1,Q1FrontDown,-25.37197,37.53242,41.31905,-70.36391,-105.7363,165.3575,-28.62198,202408261022265544,
2-6,C_HumanVertical,1,Q1FrontDown,-25.36171,37.55665,41.245,-70.64836,-105.7365,165.2675,-28.53645,202408261022265809,
2-6,C_HumanVertical,1,Q1FrontDown,-25.35824,37.59625,41.18968,-70.87498,-105.7363,165.1778,-28.48082,202408261022265977,
2-6,C_HumanVertical,1,Q1FrontDown,-25.35824,37.59625,41.18968,-70.87498,-105.7363,165.1778,-28.48082,202408261022266153,
2-6,C_HumanVertical,1,Q1FrontDown,-25.35524,37.64244,41.13158,-71.04028,-105.7358,165.0787,-28.42163,202408261022266411,
2-6,C_HumanVertical,1,Q1FrontDown,-25.35524,37.64244,41.13158,-71.04028,-105.7358,165.0787,-28.42163,202408261022266596,
2-6,C_HumanVertical,1,Q1FrontDown,-25.35538,37.69987,41.08465,-71.15974,-105.736,164.9639,-28.35712,202408261022266844,
2-6,C_HumanVertical,1,Q1FrontDown,-25.35584,37.75958,41.03561,-71.24735,-105.7358,164.8537,-28.28902,202408261022267161,
2-6,C_HumanVertical,1,Q1FrontDown,-25.35324,37.81528,40.9752,-71.28766,-105.7329,164.7319,-28.22013,202408261022267367,
2-6,C_HumanVertical,1,Q1FrontDown,-25.35324,37.81528,40.9752,-71.28766,-105.7329,164.7319,-28.22013,202408261022267535,
2-6,C_HumanVertical,1,Q1FrontDown,-25.35042,37.8726,40.90177,-71.28811,-105.7242,164.5866,-28.15242,202408261022267716,
2-6,C_HumanVertical,1,Q1FrontDown,-25.35042,37.8726,40.90177,-71.28811,-105.7242,164.5866,-28.15242,202408261022267894,
2-6,C_HumanVertical,1,Q1FrontDown,-25.34749,37.92891,40.79072,-71.26647,-105.6854,164.4007,-28.07285,202408261022268156,
2-6,C_HumanVertical,1,Q1FrontDown,-25.35105,37.98375,40.67393,-71.23151,-105.6482,164.2412,-28.00711,202408261022268318,
2-6,C_HumanVertical,1,Q1FrontDown,-25.35105,37.98375,40.67393,-71.23151,-105.6482,164.2412,-28.00711,202408261022268480,
2-6,C_HumanVertical,1,Q1FrontDown,-25.35105,37.98375,40.67393,-71.23151,-105.6482,164.2412,-28.00711,202408261022268664,
2-6,C_HumanVertical,1,Q1FrontDown,-25.36006,38.04391,40.52553,-71.18222,-105.5987,164.0924,-27.93567,202408261022268903,
2-6,C_HumanVertical,1,Q1FrontDown,-25.359,38.11575,40.29613,-71.05482,-105.4935,163.9486,-27.83895,202408261022269163,
2-6,C_HumanVertical,1,Q1FrontDown,-25.359,38.11575,40.29613,-71.05482,-105.4935,163.9486,-27.83895,202408261022269342,
2-6,C_HumanVertical,1,Q1FrontDown,-25.359,38.11575,40.29613,-71.05482,-105.4935,163.9486,-27.83895,202408261022269568,
2-6,C_HumanVertical,1,Q1FrontDown,-25.359,38.11575,40.29613,-71.05482,-105.4935,163.9486,-27.83895,202408261022269913,
2-6,C_HumanVertical,1,Q1FrontDown,-25.46646,38.39755,39.4809,-70.55917,-105.1793,163.425,-27.56494,202408261022270196,
2-6,C_HumanVertical,1,Q1FrontDown,-25.52418,38.50546,39.1606,-70.37008,-105.0663,163.2449,-27.46362,202408261022270516,
2-6,C_HumanVertical,1,Q1FrontDown,-25.6157,38.59453,38.88572,-70.20907,-104.9655,163.0791,-27.36437,202408261022270835,
2-6,C_HumanVertical,1,Q1FrontDown,-25.79152,38.76475,38.70215,-69.9879,-104.8106,162.8672,-27.25137,202408261022271053,
2-6,C_HumanVertical,1,Q1FrontDown,-25.79152,38.76475,38.70215,-69.9879,-104.8106,162.8672,-27.25137,202408261022271233,
2-6,C_HumanVertical,1,Q1FrontDown,-25.79152,38.76475,38.70215,-69.9879,-104.8106,162.8672,-27.25137,202408261022271523,
2-6,C_HumanVertical,1,Q1FrontDown,-25.979,38.91135,38.51397,-69.76176,-104.6681,162.6577,-27.14072,202408261022271701,
2-6,C_HumanVertical,1,Q1FrontDown,-26.18317,39.05894,38.34096,-69.54366,-104.5316,162.455,-27.02898,202408261022271842,
2-6,C_HumanVertical,1,Q1FrontDown,-26.18317,39.05894,38.34096,-69.54366,-104.5316,162.455,-27.02898,202408261022272068,
2-6,C_HumanVertical,1,Q1FrontDown,-26.45206,39.20699,38.23976,-69.33538,-104.3982,162.2352,-26.93022,202408261022272344,
2-6,C_HumanVertical,1,Q1FrontDown,-26.71968,39.35975,38.11204,-69.1131,-104.2933,162.0443,-26.8491,202408261022272526,
2-6,C_HumanVertical,1,Q1FrontDown,-26.99977,39.49934,37.9618,-68.88533,-104.1971,161.8814,-26.77201,202408261022272907,
2-6,C_HumanVertical,1,Q1FrontDown,-27.28475,39.61956,37.77829,-68.69863,-104.0941,161.7435,-26.70251,202408261022273165,
2-6,C_HumanVertical,1,Q1FrontDown,-27.28475,39.61956,37.77829,-68.69863,-104.0941,161.7435,-26.70251,202408261022273318,
2-6,C_HumanVertical,1,Q1FrontDown,-27.56079,39.74139,37.60942,-68.52572,-104,161.6071,-26.6416,202408261022273482,
2-6,C_HumanVertical,1,Q1FrontDown,-27.56079,39.74139,37.60942,-68.52572,-104,161.6071,-26.6416,202408261022273680,
2-6,C_HumanVertical,1,Q1FrontDown,-27.83046,39.86056,37.46315,-68.36909,-103.9254,161.4612,-26.59232,202408261022273841,
2-6,C_HumanVertical,1,Q1FrontDown,-28.12037,40.00549,37.39373,-68.21224,-103.8954,161.3359,-26.56215,202408261022274038,
2-6,C_HumanVertical,1,Q1FrontDown,-28.12037,40.00549,37.39373,-68.21224,-103.8954,161.3359,-26.56215,202408261022274247,
2-6,C_HumanVertical,1,Q1FrontDown,-28.42462,40.13816,37.31826,-68.07915,-103.8498,161.2178,-26.53613,202408261022274398,
2-6,C_HumanVertical,1,Q1FrontDown,-28.68792,40.25963,37.23523,-67.96687,-103.8061,161.1013,-26.51267,202408261022274684,
2-6,C_HumanVertical,1,Q1FrontDown,-28.68792,40.25963,37.23523,-67.96687,-103.8061,161.1013,-26.51267,202408261022274846,
2-6,C_HumanVertical,1,Q1FrontDown,-28.92505,40.36897,37.17498,-67.86638,-103.7646,161.0111,-26.48663,202408261022275210,
2-6,C_HumanVertical,1,Q1FrontDown,-29.14022,40.47831,37.10549,-67.77207,-103.723,160.927,-26.46622,202408261022275373,
2-6,C_HumanVertical,1,Q1FrontDown,-29.14022,40.47831,37.10549,-67.77207,-103.723,160.927,-26.46622,202408261022275649,
2-6,C_HumanVertical,1,Q1FrontDown,-29.32407,40.57149,37.02009,-67.68816,-103.6884,160.8468,-26.43802,202408261022275818,
2-6,C_HumanVertical,1,Q1FrontDown,-29.32407,40.57149,37.02009,-67.68816,-103.6884,160.8468,-26.43802,202408261022276027,
2-6,C_HumanVertical,1,Q1FrontDown,-29.58207,40.74361,36.76167,-67.51952,-103.6522,160.6911,-26.38082,202408261022276338,
2-6,C_HumanVertical,1,Q1FrontDown,-29.58207,40.74361,36.76167,-67.51952,-103.6522,160.6911,-26.38082,202408261022276567,
2-6,C_HumanVertical,1,Q1FrontDown,-29.69101,40.81901,36.57983,-67.42962,-103.6245,160.5921,-26.36172,202408261022276838,
2-6,C_HumanVertical,1,Q1FrontDown,-29.76496,40.88278,36.34475,-67.35153,-103.6178,160.4697,-26.3238,202408261022277029,
2-6,C_HumanVertical,1,Q1FrontDown,-29.84687,40.93324,36.10441,-67.29374,-103.6066,160.3267,-26.28913,202408261022277369,
2-6,C_HumanVertical,1,Q1FrontDown,-29.84687,40.93324,36.10441,-67.29374,-103.6066,160.3267,-26.28913,202408261022277575,
2-6,C_HumanVertical,1,Q1FrontDown,-29.94131,40.99673,35.88295,-67.25738,-103.5956,160.1533,-26.26004,202408261022277834,
2-6,C_HumanVertical,1,Q1FrontDown,-30.05251,41.05379,35.66891,-67.2558,-103.5944,159.9444,-26.24578,202408261022278182,
2-6,C_HumanVertical,1,Q1FrontDown,-30.16043,41.11482,35.44957,-67.25592,-103.5935,159.7624,-26.23071,202408261022278342,
2-6,C_HumanVertical,1,Q1FrontDown,-30.16043,41.11482,35.44957,-67.25592,-103.5935,159.7624,-26.23071,202408261022278502,
2-6,C_HumanVertical,1,Q1FrontDown,-30.26636,41.18078,35.25727,-67.25958,-103.5929,159.614,-26.21504,202408261022278731,
2-6,C_HumanVertical,1,Q1FrontDown,-30.39578,41.25984,35.14387,-67.27687,-103.593,159.5374,-26.20895,202408261022278993,
2-6,C_HumanVertical,1,Q1FrontDown,-30.39578,41.25984,35.14387,-67.27687,-103.593,159.5374,-26.20895,202408261022279226,
2-6,C_HumanVertical,1,Q1FrontDown,-30.54825,41.31874,35.05641,-67.35043,-103.5928,159.5129,-26.20598,202408261022279495,
2-6,C_HumanVertical,1,Q1FrontDown,-30.69188,41.36264,34.9793,-67.45845,-103.593,159.5114,-26.20564,202408261022279693,
2-6,C_HumanVertical,1,Q1FrontDown,-30.69188,41.36264,34.9793,-67.45845,-103.593,159.5114,-26.20564,202408261022279917,
2-6,C_HumanVertical,1,Q1FrontDown,-30.83403,41.37907,34.93596,-67.65064,-103.5934,159.5122,-26.20483,202408261022280165,
2-6,C_HumanVertical,1,Q1FrontDown,-30.83403,41.37907,34.93596,-67.65064,-103.5934,159.5122,-26.20483,202408261022280332,
2-6,C_HumanVertical,1,Q1FrontDown,-30.95734,41.3838,34.89244,-67.89914,-103.5947,159.5121,-26.20135,202408261022280519,
2-6,C_HumanVertical,1,Q1FrontDown,-31.06349,41.37852,34.85131,-68.19199,-103.5978,159.512,-26.19542,202408261022280705,
2-6,C_HumanVertical,1,Q1FrontDown,-31.06349,41.37852,34.85131,-68.19199,-103.5978,159.512,-26.19542,202408261022280866,
2-6,C_HumanVertical,1,Q1FrontDown,-31.14409,41.37245,34.81046,-68.5556,-103.6067,159.5119,-26.19103,202408261022281150,
2-6,C_HumanVertical,1,Q1FrontDown,-31.14409,41.37245,34.81046,-68.5556,-103.6067,159.5119,-26.19103,202408261022281318,
2-6,C_HumanVertical,1,Q1FrontDown,-31.14409,41.37245,34.81046,-68.5556,-103.6067,159.5119,-26.19103,202408261022281519,
2-6,C_HumanVertical,1,Q1FrontDown,-31.22518,41.40652,34.71543,-69.31999,-103.6249,159.5105,-26.18124,202408261022281639,
2-6,C_HumanVertical,1,Q1FrontDown,-31.22518,41.40652,34.71543,-69.31999,-103.6249,159.5105,-26.18124,202408261022281844,
2-6,C_HumanVertical,1,Q1FrontDown,-31.25098,41.42516,34.66537,-69.76952,-103.6425,159.5093,-26.17476,202408261022282049,
2-6,C_HumanVertical,1,Q1FrontDown,-31.25098,41.42516,34.66537,-69.76952,-103.6425,159.5093,-26.17476,202408261022282251,
2-6,C_HumanVertical,1,Q1FrontDown,-31.2602,41.44343,34.60925,-70.23866,-103.6573,159.5089,-26.16836,202408261022282531,
2-6,C_HumanVertical,1,Q1FrontDown,-31.26529,41.48758,34.55021,-70.72665,-103.6763,159.5088,-26.16096,202408261022282850,
2-6,C_HumanVertical,1,Q1FrontDown,-31.27095,41.52528,34.50862,-71.20187,-103.6785,159.5087,-26.15686,202408261022283068,
2-6,C_HumanVertical,1,Q1FrontDown,-31.27095,41.52528,34.50862,-71.20187,-103.6785,159.5087,-26.15686,202408261022283334,
2-6,C_HumanVertical,1,Q1FrontDown,-31.27999,41.56861,34.48042,-71.66653,-103.6796,159.5072,-26.15552,202408261022283480,
2-6,C_HumanVertical,1,Q1FrontDown,-31.28054,41.64162,34.46269,-72.09786,-103.6805,159.5058,-26.15543,202408261022283881,
2-6,C_HumanVertical,1,Q1FrontDown,-31.28054,41.64162,34.46269,-72.09786,-103.6805,159.5058,-26.15543,202408261022284049,
2-6,C_HumanVertical,1,Q1FrontDown,-31.27794,41.74085,34.46302,-72.49224,-103.6802,159.5055,-26.15289,202408261022284348,
2-6,C_HumanVertical,1,Q1FrontDown,-31.28177,41.89266,34.45549,-73.21316,-103.6806,159.5052,-26.14517,202408261022284638,
2-6,C_HumanVertical,1,Q1FrontDown,-31.28177,41.89266,34.45549,-73.21316,-103.6806,159.5052,-26.14517,202408261022284826,
2-6,C_HumanVertical,1,Q1FrontDown,-31.27736,41.97232,34.435,-73.51575,-103.6807,159.5052,-26.14416,202408261022285013,
2-6,C_HumanVertical,1,Q1FrontDown,-31.27736,41.97232,34.435,-73.51575,-103.6807,159.5052,-26.14416,202408261022285206,
2-6,C_HumanVertical,1,Q1FrontDown,-31.27263,42.05968,34.43199,-73.76682,-103.6806,159.5047,-26.14054,202408261022285523,
2-6,C_HumanVertical,1,Q1FrontDown,-31.27453,42.12838,34.43005,-73.98477,-103.6808,159.5042,-26.13516,202408261022285820,
2-6,C_HumanVertical,1,Q1FrontDown,-31.27453,42.12838,34.43005,-73.98477,-103.6808,159.5042,-26.13516,202408261022285997,
2-6,C_HumanVertical,1,Q1FrontDown,-31.27453,42.12838,34.43005,-73.98477,-103.6808,159.5042,-26.13516,202408261022286167,
2-6,C_HumanVertical,1,Q1FrontDown,-31.27389,42.21748,34.41609,-74.3144,-103.6801,159.4726,-26.09435,202408261022286395,
2-6,C_HumanVertical,1,Q1FrontDown,-31.27389,42.21748,34.41609,-74.3144,-103.6801,159.4726,-26.09435,202408261022286645,
2-6,C_HumanVertical,1,Q1FrontDown,-31.27636,42.23208,34.40261,-74.45708,-103.6797,159.4369,-26.07281,202408261022286851,
2-6,C_HumanVertical,1,Q1FrontDown,-31.28228,42.23551,34.39416,-74.55895,-103.679,159.3807,-26.05107,202408261022287064,
2-6,C_HumanVertical,1,Q1FrontDown,-31.28228,42.23551,34.39416,-74.55895,-103.679,159.3807,-26.05107,202408261022287345,
2-6,C_HumanVertical,1,Q1FrontDown,-31.29626,42.23877,34.38292,-74.64083,-103.6788,159.3175,-26.02743,202408261022287563,
2-6,C_HumanVertical,1,Q1FrontDown,-31.31401,42.2387,34.37261,-74.70309,-103.6785,159.255,-26.00678,202408261022287848,
2-6,C_HumanVertical,1,Q1FrontDown,-31.3287,42.24066,34.35291,-74.71656,-103.6781,159.175,-25.98807,202408261022288152,
2-6,C_HumanVertical,1,Q1FrontDown,-31.3287,42.24066,34.35291,-74.71656,-103.6781,159.175,-25.98807,202408261022288327,
2-6,C_HumanVertical,1,Q1FrontDown,-31.36136,42.24087,34.31369,-74.70472,-103.6765,159.0922,-25.95807,202408261022288493,
2-6,C_HumanVertical,1,Q1FrontDown,-31.40998,42.24463,34.25312,-74.66053,-103.6711,159.0015,-25.92949,202408261022288758,
2-6,C_HumanVertical,1,Q1FrontDown,-31.40998,42.24463,34.25312,-74.66053,-103.6711,159.0015,-25.92949,202408261022288988,
2-6,C_HumanVertical,1,Q1FrontDown,-31.46879,42.2658,34.16987,-74.53512,-103.6549,158.9142,-25.92311,202408261022289175,
2-6,C_HumanVertical,1,Q1FrontDown,-31.57465,42.27828,34.10657,-74.40045,-103.6393,158.8239,-25.91267,202408261022289322,
2-6,C_HumanVertical,1,Q1FrontDown,-31.57465,42.27828,34.10657,-74.40045,-103.6393,158.8239,-25.91267,202408261022289512,
2-6,C_HumanVertical,1,Q1FrontDown,-31.72277,42.29075,34.06994,-74.23105,-103.6284,158.7437,-25.90694,202408261022289725,
2-6,C_HumanVertical,1,Q1FrontDown,-31.92453,42.30114,34.07066,-74.03912,-103.6249,158.6729,-25.90364,202408261022290029,
2-6,C_HumanVertical,1,Q1FrontDown,-31.92453,42.30114,34.07066,-74.03912,-103.6249,158.6729,-25.90364,202408261022290210,
2-6,C_HumanVertical,1,Q1FrontDown,-32.1467,42.30051,34.06836,-73.85032,-103.6234,158.6093,-25.89864,202408261022290484,
2-6,C_HumanVertical,1,Q1FrontDown,-32.38776,42.29953,34.0634,-73.62048,-103.6176,158.554,-25.89159,202408261022290661,
2-6,C_HumanVertical,1,Q1FrontDown,-32.38776,42.29953,34.0634,-73.62048,-103.6176,158.554,-25.89159,202408261022290856,
2-6,C_HumanVertical,1,Q1FrontDown,-32.64026,42.29824,34.06847,-73.37209,-103.5912,158.5037,-25.8888,202408261022291155,
2-6,C_HumanVertical,1,Q1FrontDown,-32.64026,42.29824,34.06847,-73.37209,-103.5912,158.5037,-25.8888,202408261022291494,
2-6,C_HumanVertical,1,Q1FrontDown,-32.90776,42.29519,34.07092,-73.14565,-103.5771,158.4594,-25.88722,202408261022291685,
2-6,C_HumanVertical,1,Q1FrontDown,-33.17761,42.29499,34.06922,-72.90031,-103.5702,158.4084,-25.88533,202408261022291999,
2-6,C_HumanVertical,1,Q1FrontDown,-33.43526,42.2943,34.04617,-72.66112,-103.5695,158.3577,-25.88238,202408261022292324,
2-6,C_HumanVertical,1,Q1FrontDown,-33.65743,42.28309,33.99303,-72.46205,-103.5639,158.3071,-25.87044,202408261022292490,
2-6,C_HumanVertical,1,Q1FrontDown,-33.65743,42.28309,33.99303,-72.46205,-103.5639,158.3071,-25.87044,202408261022292663,
2-6,C_HumanVertical,1,Q1FrontDown,-34.05514,42.27004,33.79955,-71.971,-103.5558,158.2122,-25.84036,202408261022293029,
2-6,C_HumanVertical,1,Q1FrontDown,-34.05514,42.27004,33.79955,-71.971,-103.5558,158.2122,-25.84036,202408261022293203,
2-6,C_HumanVertical,1,Q1FrontDown,-34.25885,42.26859,33.70195,-71.74609,-103.5551,158.1628,-25.82881,202408261022293378,
2-6,C_HumanVertical,1,Q1FrontDown,-34.46423,42.27177,33.5971,-71.52601,-103.5548,158.1205,-25.81958,202408261022293657,
2-6,C_HumanVertical,1,Q1FrontDown,-34.46423,42.27177,33.5971,-71.52601,-103.5548,158.1205,-25.81958,202408261022293829,
2-6,C_HumanVertical,1,Q1FrontDown,-34.46423,42.27177,33.5971,-71.52601,-103.5548,158.1205,-25.81958,202408261022294006,
2-6,C_HumanVertical,1,Q1FrontDown,-34.6642,42.28114,33.50732,-71.28055,-103.5535,158.0903,-25.80472,202408261022294205,
2-6,C_HumanVertical,1,Q1FrontDown,-34.88346,42.27988,33.4566,-71.06597,-103.5411,158.0585,-25.79472,202408261022294439,
2-6,C_HumanVertical,1,Q1FrontDown,-34.88346,42.27988,33.4566,-71.06597,-103.5411,158.0585,-25.79472,202408261022294686,
2-6,C_HumanVertical,1,Q1FrontDown,-35.09858,42.27649,33.45243,-70.87434,-103.5156,158.0334,-25.78073,202408261022294855,
2-6,C_HumanVertical,1,Q1FrontDown,-35.29803,42.27443,33.44775,-70.69288,-103.4807,157.9953,-25.76213,202408261022295144,
2-6,C_HumanVertical,1,Q1FrontDown,-35.29803,42.27443,33.44775,-70.69288,-103.4807,157.9953,-25.76213,202408261022295380,
2-6,C_HumanVertical,1,Q1FrontDown,-35.48809,42.27189,33.44197,-70.52087,-103.445,157.9588,-25.74387,202408261022295575,
2-6,C_HumanVertical,1,Q1FrontDown,-35.65834,42.26107,33.44132,-70.37141,-103.4038,157.9252,-25.72811,202408261022295817,
2-6,C_HumanVertical,1,Q1FrontDown,-35.65834,42.26107,33.44132,-70.37141,-103.4038,157.9252,-25.72811,202408261022295993,
2-6,C_HumanVertical,1,Q1FrontDown,-35.82671,42.23631,33.42954,-70.29251,-103.3622,157.8969,-25.71039,202408261022296165,
2-6,C_HumanVertical,1,Q1FrontDown,-35.99245,42.21533,33.4161,-70.25561,-103.322,157.8682,-25.688,202408261022296345,
2-6,C_HumanVertical,1,Q1FrontDown,-35.99245,42.21533,33.4161,-70.25561,-103.322,157.8682,-25.688,202408261022296508,
2-6,C_HumanVertical,1,Q1FrontDown,-36.13785,42.19482,33.40434,-70.26063,-103.2991,157.8426,-25.66633,202408261022296791,
2-6,C_HumanVertical,1,Q1FrontDown,-36.29137,42.1585,33.396,-70.32629,-103.2952,157.8378,-25.65509,202408261022297024,
2-6,C_HumanVertical,1,Q1FrontDown,-36.43469,42.1242,33.38901,-70.41537,-103.2906,157.836,-25.64462,202408261022297368,
2-6,C_HumanVertical,1,Q1FrontDown,-36.43469,42.1242,33.38901,-70.41537,-103.2906,157.836,-25.64462,202408261022297575,
2-6,C_HumanVertical,1,Q1FrontDown,-36.56566,42.11036,33.37807,-70.52837,-103.2878,157.8351,-25.63685,202408261022297783,
2-6,C_HumanVertical,1,Q1FrontDown,-36.56566,42.11036,33.37807,-70.52837,-103.2878,157.8351,-25.63685,202408261022298007,
2-6,C_HumanVertical,1,Q1FrontDown,-36.56566,42.11036,33.37807,-70.52837,-103.2878,157.8351,-25.63685,202408261022298212,
2-6,C_HumanVertical,1,Q1FrontDown,-36.81174,42.08759,33.35502,-70.87506,-103.2871,157.8348,-25.6302,202408261022298419,
2-6,C_HumanVertical,1,Q1FrontDown,-36.81174,42.08759,33.35502,-70.87506,-103.2871,157.8348,-25.6302,202408261022298662,
2-6,C_HumanVertical,1,Q1FrontDown,-36.81174,42.08759,33.35502,-70.87506,-103.2871,157.8348,-25.6302,202408261022298902,
2-6,C_HumanVertical,1,Q1FrontDown,-37.01858,42.0612,33.30436,-71.44269,-103.2875,157.8353,-25.6161,202408261022299169,
2-6,C_HumanVertical,1,Q1FrontDown,-37.01858,42.0612,33.30436,-71.44269,-103.2875,157.8353,-25.6161,202408261022299355,
2-6,C_HumanVertical,1,Q1FrontDown,-37.01858,42.0612,33.30436,-71.44269,-103.2875,157.8353,-25.6161,202408261022299533,
2-6,C_HumanVertical,1,Q1FrontDown,-37.01858,42.0612,33.30436,-71.44269,-103.2875,157.8353,-25.6161,202408261022299706,
2-6,C_HumanVertical,1,Q1FrontDown,-37.01858,42.0612,33.30436,-71.44269,-103.2875,157.8353,-25.6161,202408261022299938,
2-6,C_HumanVertical,1,Q1FrontDown,-37.22897,42.08887,33.12251,-72.46337,-103.2882,157.8349,-25.59926,202408261022300329,
2-6,C_HumanVertical,1,Q1FrontDown,-37.29245,42.1049,33.05285,-72.83452,-103.2881,157.8348,-25.59366,202408261022300541,
2-6,C_HumanVertical,1,Q1FrontDown,-37.35264,42.13354,33.00071,-73.18635,-103.2886,157.8336,-25.58787,202408261022300734,
2-6,C_HumanVertical,1,Q1FrontDown,-37.35264,42.13354,33.00071,-73.18635,-103.2886,157.8336,-25.58787,202408261022300995,
2-6,C_HumanVertical,1,Q1FrontDown,-37.43742,42.16325,32.99707,-73.56473,-103.2899,157.8336,-25.57503,202408261022301202,
2-6,C_HumanVertical,1,Q1FrontDown,-37.50354,42.18436,32.98857,-73.93529,-103.2897,157.8313,-25.56821,202408261022301522,
2-6,C_HumanVertical,1,Q1FrontDown,-37.56015,42.20258,32.96992,-74.3196,-103.2899,157.8246,-25.5641,202408261022301777,
2-6,C_HumanVertical,1,Q1FrontDown,-37.56015,42.20258,32.96992,-74.3196,-103.2899,157.8246,-25.5641,202408261022302142,
2-6,C_HumanVertical,1,Q1FrontDown,-37.67658,42.22691,32.96331,-75.12549,-103.291,157.8088,-25.54068,202408261022302363,
2-6,C_HumanVertical,1,Q1FrontDown,-37.67658,42.22691,32.96331,-75.12549,-103.291,157.8088,-25.54068,202408261022302543,
2-6,C_HumanVertical,1,Q1FrontDown,-37.73626,42.24539,32.96406,-75.50018,-103.2913,157.8045,-25.53141,202408261022302849,
2-6,C_HumanVertical,1,Q1FrontDown,-37.80694,42.25908,32.96636,-75.84182,-103.2911,157.801,-25.52961,202408261022303177,
2-6,C_HumanVertical,1,Q1FrontDown,-37.80694,42.25908,32.96636,-75.84182,-103.2911,157.801,-25.52961,202408261022303479,
2-6,C_HumanVertical,1,Q1FrontDown,-37.87751,42.2741,32.96747,-76.15209,-103.2912,157.795,-25.52792,202408261022303674,
2-6,C_HumanVertical,1,Q1FrontDown,-37.95819,42.29498,32.96743,-76.46454,-103.2911,157.7889,-25.52724,202408261022303828,
2-6,C_HumanVertical,1,Q1FrontDown,-37.95819,42.29498,32.96743,-76.46454,-103.2911,157.7889,-25.52724,202408261022304012,
2-6,C_HumanVertical,1,Q1FrontDown,-38.04158,42.30283,32.9679,-76.73086,-103.2913,157.7856,-25.52713,202408261022304304,
2-6,C_HumanVertical,1,Q1FrontDown,-38.14995,42.30604,33.00238,-76.96121,-103.2914,157.7789,-25.52385,202408261022304556,
2-6,C_HumanVertical,1,Q1FrontDown,-38.2629,42.30874,33.05018,-77.15888,-103.2914,157.7705,-25.51835,202408261022304713,
2-6,C_HumanVertical,1,Q1FrontDown,-38.2629,42.30874,33.05018,-77.15888,-103.2914,157.7705,-25.51835,202408261022304951,
2-6,C_HumanVertical,1,Q1FrontDown,-38.37959,42.31429,33.1086,-77.31264,-103.2913,157.7676,-25.51414,202408261022305225,
2-6,C_HumanVertical,1,Q1FrontDown,-38.48569,42.31042,33.14644,-77.43895,-103.2912,157.7663,-25.50889,202408261022305396,
2-6,C_HumanVertical,1,Q1FrontDown,-38.61397,42.30801,33.19582,-77.53874,-103.2911,157.7662,-25.49809,202408261022305640,
2-6,C_HumanVertical,1,Q1FrontDown,-38.61397,42.30801,33.19582,-77.53874,-103.2911,157.7662,-25.49809,202408261022305826,
2-6,C_HumanVertical,1,Q1FrontDown,-38.75295,42.31176,33.23013,-77.59204,-103.2911,157.7654,-25.48685,202408261022306149,
2-6,C_HumanVertical,1,Q1FrontDown,-38.75295,42.31176,33.23013,-77.59204,-103.2911,157.7654,-25.48685,202408261022306331,
2-6,C_HumanVertical,1,Q1FrontDown,-38.90454,42.31052,33.23786,-77.63857,-103.2913,157.764,-25.47231,202408261022306538,
2-6,C_HumanVertical,1,Q1FrontDown,-39.06225,42.31079,33.24055,-77.66447,-103.2913,157.7626,-25.4635,202408261022306812,
2-6,C_HumanVertical,1,Q1FrontDown,-39.06225,42.31079,33.24055,-77.66447,-103.2913,157.7626,-25.4635,202408261022306978,
2-6,C_HumanVertical,1,Q1FrontDown,-39.25126,42.313,33.26543,-77.66828,-103.2911,157.7624,-25.45964,202408261022307176,
2-6,C_HumanVertical,1,Q1FrontDown,-39.47705,42.31124,33.31929,-77.66753,-103.2911,157.7596,-25.45788,202408261022307372,
2-6,C_HumanVertical,1,Q1FrontDown,-39.47705,42.31124,33.31929,-77.66753,-103.2911,157.7596,-25.45788,202408261022307613,
2-6,C_HumanVertical,1,Q1FrontDown,-39.70517,42.30912,33.38309,-77.66559,-103.2908,157.7413,-25.45664,202408261022307869,
2-6,C_HumanVertical,1,Q1FrontDown,-39.70517,42.30912,33.38309,-77.66559,-103.2908,157.7413,-25.45664,202408261022308040,
2-6,C_HumanVertical,1,Q1FrontDown,-39.95366,42.30883,33.43799,-77.65051,-103.2902,157.7293,-25.4559,202408261022308336,
2-6,C_HumanVertical,1,Q1FrontDown,-40.45938,42.30553,33.50773,-77.61943,-103.2895,157.7046,-25.45373,202408261022308694,
2-6,C_HumanVertical,1,Q1FrontDown,-40.70632,42.30785,33.51853,-77.57676,-103.2888,157.6919,-25.44966,202408261022308985,
2-6,C_HumanVertical,1,Q1FrontDown,-40.70632,42.30785,33.51853,-77.57676,-103.2888,157.6919,-25.44966,202408261022309152,
2-6,C_HumanVertical,1,Q1FrontDown,-40.95324,42.30847,33.52901,-77.53694,-103.287,157.6829,-25.44652,202408261022309330,
2-6,C_HumanVertical,1,Q1FrontDown,-40.95324,42.30847,33.52901,-77.53694,-103.287,157.6829,-25.44652,202408261022309531,
2-6,C_HumanVertical,1,Q1FrontDown,-41.20121,42.30964,33.53991,-77.48713,-103.2859,157.6806,-25.44424,202408261022309758,
2-6,C_HumanVertical,1,Q1FrontDown,-41.20121,42.30964,33.53991,-77.48713,-103.2859,157.6806,-25.44424,202408261022310000,
2-6,C_HumanVertical,1,Q1FrontDown,-41.20121,42.30964,33.53991,-77.48713,-103.2859,157.6806,-25.44424,202408261022310186,
2-6,C_HumanVertical,1,Q1FrontDown,-41.69375,42.30913,33.57168,-77.33786,-103.277,157.6795,-25.44089,202408261022310358,
2-6,C_HumanVertical,1,Q1FrontDown,-41.69375,42.30913,33.57168,-77.33786,-103.277,157.6795,-25.44089,202408261022310682,
2-6,C_HumanVertical,1,Q1FrontDown,-41.69375,42.30913,33.57168,-77.33786,-103.277,157.6795,-25.44089,202408261022310857,
2-6,C_HumanVertical,1,Q1FrontDown,-42.17044,42.31072,33.57399,-77.08466,-103.2457,157.6777,-25.43057,202408261022311150,
2-6,C_HumanVertical,1,Q1FrontDown,-42.17044,42.31072,33.57399,-77.08466,-103.2457,157.6777,-25.43057,202408261022311386,
2-6,C_HumanVertical,1,Q1FrontDown,-42.62306,42.31134,33.58123,-76.81119,-103.201,157.6758,-25.42269,202408261022311659,
2-6,C_HumanVertical,1,Q1FrontDown,-42.62306,42.31134,33.58123,-76.81119,-103.201,157.6758,-25.42269,202408261022311855,
2-6,C_HumanVertical,1,Q1FrontDown,-42.81116,42.31802,33.57967,-76.63242,-103.1226,157.6284,-25.42235,202408261022312077,
2-6,C_HumanVertical,1,Q1FrontDown,-42.9943,42.32877,33.57122,-76.42451,-103.0493,157.5893,-25.42226,202408261022312364,
2-6,C_HumanVertical,1,Q1FrontDown,-42.9943,42.32877,33.57122,-76.42451,-103.0493,157.5893,-25.42226,202408261022312692,
2-6,C_HumanVertical,1,Q1FrontDown,-43.1681,42.33116,33.55684,-76.22145,-102.9787,157.5579,-25.42244,202408261022312878,
2-6,C_HumanVertical,1,Q1FrontDown,-43.30737,42.33969,33.50714,-76.00383,-102.8847,157.5193,-25.42245,202408261022313106,
2-6,C_HumanVertical,1,Q1FrontDown,-43.30737,42.33969,33.50714,-76.00383,-102.8847,157.5193,-25.42245,202408261022313308,
2-6,C_HumanVertical,1,Q1FrontDown,-43.42652,42.35786,33.43073,-75.75997,-102.8007,157.4975,-25.42265,202408261022313480,
2-6,C_HumanVertical,1,Q1FrontDown,-43.53738,42.36584,33.33341,-75.50491,-102.7165,157.4849,-25.42233,202408261022313655,
2-6,C_HumanVertical,1,Q1FrontDown,-43.53738,42.36584,33.33341,-75.50491,-102.7165,157.4849,-25.42233,202408261022313836,
2-6,C_HumanVertical,1,Q1FrontDown,-43.53738,42.36584,33.33341,-75.50491,-102.7165,157.4849,-25.42233,202408261022314024,
2-6,C_HumanVertical,1,Q1FrontDown,-43.64072,42.37093,33.24696,-75.26279,-102.6214,157.4684,-25.42202,202408261022314249,
2-6,C_HumanVertical,1,Q1FrontDown,-43.71078,42.38687,33.14091,-75.01205,-102.5284,157.4598,-25.42233,202408261022314435,
2-6,C_HumanVertical,1,Q1FrontDown,-43.77418,42.39991,33.02742,-74.77824,-102.4463,157.4547,-25.42194,202408261022314662,
2-6,C_HumanVertical,1,Q1FrontDown,-43.77418,42.39991,33.02742,-74.77824,-102.4463,157.4547,-25.42194,202408261022314880,
2-6,C_HumanVertical,1,Q1FrontDown,-43.80951,42.41793,32.87735,-74.53088,-102.3766,157.4465,-25.4181,202408261022315229,
2-6,C_HumanVertical,1,Q1FrontDown,-43.83543,42.45064,32.72737,-74.25111,-102.3176,157.4347,-25.40197,202408261022315533,
2-6,C_HumanVertical,1,Q1FrontDown,-43.85366,42.48693,32.55954,-73.95367,-102.2484,157.4212,-25.38369,202408261022315829,
2-6,C_HumanVertical,1,Q1FrontDown,-43.85366,42.48693,32.55954,-73.95367,-102.2484,157.4212,-25.38369,202408261022316083,
2-6,C_HumanVertical,1,Q1FrontDown,-43.866,42.57372,32.18822,-73.25813,-102.0707,157.4142,-25.36125,202408261022316336,
2-6,C_HumanVertical,1,Q1FrontDown,-43.866,42.57372,32.18822,-73.25813,-102.0707,157.4142,-25.36125,202408261022316572,
2-6,C_HumanVertical,1,Q1FrontDown,-43.88184,42.60869,32.00991,-72.93422,-101.9989,157.3982,-25.3586,202408261022316849,
2-6,C_HumanVertical,1,Q1FrontDown,-43.89796,42.63387,31.82384,-72.59998,-101.9205,157.3984,-25.35767,202408261022317005,
2-6,C_HumanVertical,1,Q1FrontDown,-43.89796,42.63387,31.82384,-72.59998,-101.9205,157.3984,-25.35767,202408261022317175,
2-6,C_HumanVertical,1,Q1FrontDown,-43.89796,42.63387,31.82384,-72.59998,-101.9205,157.3984,-25.35767,202408261022317372,
2-6,C_HumanVertical,1,Q1FrontDown,-43.91929,42.64325,31.63642,-72.28965,-101.8446,157.3983,-25.35617,202408261022317598,
2-6,C_HumanVertical,1,Q1FrontDown,-43.95417,42.65219,31.4765,-71.9837,-101.7701,157.3984,-25.35399,202408261022317829,
2-6,C_HumanVertical,1,Q1FrontDown,-43.98991,42.65227,31.3179,-71.70602,-101.7159,157.3981,-25.34483,202408261022317992,
2-6,C_HumanVertical,1,Q1FrontDown,-43.98991,42.65227,31.3179,-71.70602,-101.7159,157.3981,-25.34483,202408261022318204,
2-6,C_HumanVertical,1,Q1FrontDown,-44.02515,42.65047,31.16312,-71.45868,-101.6867,157.3981,-25.31725,202408261022318502,
2-6,C_HumanVertical,1,Q1FrontDown,-44.05198,42.64998,31.00212,-71.21138,-101.6677,157.3983,-25.27933,202408261022318793,
2-6,C_HumanVertical,1,Q1FrontDown,-44.07674,42.6489,30.84605,-71.00353,-101.6503,157.3984,-25.23846,202408261022319048,
2-6,C_HumanVertical,1,Q1FrontDown,-44.1089,42.64429,30.71782,-70.84982,-101.6116,157.3925,-25.221,202408261022319304,
2-6,C_HumanVertical,1,Q1FrontDown,-44.1089,42.64429,30.71782,-70.84982,-101.6116,157.3925,-25.221,202408261022319506,
2-6,C_HumanVertical,1,Q1FrontDown,-44.13357,42.64009,30.59411,-70.73213,-101.5768,157.382,-25.21947,202408261022319738,
2-6,C_HumanVertical,1,Q1FrontDown,-44.13357,42.64009,30.59411,-70.73213,-101.5768,157.382,-25.21947,202408261022320000,
2-6,C_HumanVertical,1,Q1FrontDown,-44.14743,42.63123,30.46603,-70.69216,-101.5722,157.3795,-25.21963,202408261022320169,
2-6,C_HumanVertical,1,Q1FrontDown,-44.14873,42.62709,30.34159,-70.67728,-101.5703,157.3788,-25.21932,202408261022320511,
2-6,C_HumanVertical,1,Q1FrontDown,-44.14565,42.62438,30.22709,-70.68828,-101.5679,157.3787,-25.21953,202408261022320759,
2-6,C_HumanVertical,1,Q1FrontDown,-44.14565,42.62438,30.22709,-70.68828,-101.5679,157.3787,-25.21953,202408261022320995,
2-6,C_HumanVertical,1,Q1FrontDown,-44.14692,42.56005,30.0722,-70.89928,-101.5666,157.3782,-25.21899,202408261022321150,
2-6,C_HumanVertical,1,Q1FrontDown,-44.14757,42.51283,29.92728,-71.14579,-101.5665,157.3781,-25.21898,202408261022321322,
2-6,C_HumanVertical,1,Q1FrontDown,-44.14757,42.51283,29.92728,-71.14579,-101.5665,157.3781,-25.21898,202408261022321517,
2-6,C_HumanVertical,1,Q1FrontDown,-44.14771,42.5056,29.80845,-71.3905,-101.5663,157.378,-25.21878,202408261022321703,
2-6,C_HumanVertical,1,Q1FrontDown,-44.14771,42.5056,29.80845,-71.3905,-101.5663,157.378,-25.21878,202408261022321944,
2-6,C_HumanVertical,1,Q1FrontDown,-44.14771,42.5056,29.80845,-71.3905,-101.5663,157.378,-25.21878,202408261022322197,
2-6,C_HumanVertical,1,Q1FrontDown,-44.14392,42.47819,29.53194,-71.97697,-101.5665,157.3612,-25.21914,202408261022322443,
2-6,C_HumanVertical,1,Q1FrontDown,-44.13155,42.49119,29.39429,-72.28143,-101.5665,157.334,-25.21799,202408261022322718,
2-6,C_HumanVertical,1,Q1FrontDown,-44.13155,42.49119,29.39429,-72.28143,-101.5665,157.334,-25.21799,202408261022322920,
2-6,C_HumanVertical,1,Q1FrontDown,-44.13337,42.50664,29.30153,-72.60477,-101.5665,157.3193,-25.21377,202408261022323178,
2-6,C_HumanVertical,1,Q1FrontDown,-44.13141,42.51286,29.21653,-72.89546,-101.5666,157.3078,-25.2063,202408261022323484,
2-6,C_HumanVertical,1,Q1FrontDown,-44.13141,42.51286,29.21653,-72.89546,-101.5666,157.3078,-25.2063,202408261022323653,
2-6,C_HumanVertical,1,Q1FrontDown,-44.13256,42.51923,29.14183,-73.18366,-101.5657,157.2974,-25.19981,202408261022323843,
2-6,C_HumanVertical,1,Q1FrontDown,-44.13236,42.52117,29.09923,-73.45083,-101.5576,157.2974,-25.19995,202408261022324096,
2-6,C_HumanVertical,1,Q1FrontDown,-44.12855,42.53267,29.08251,-73.69556,-101.5554,157.2972,-25.19994,202408261022324383,
2-6,C_HumanVertical,1,Q1FrontDown,-44.12855,42.53267,29.08251,-73.69556,-101.5554,157.2972,-25.19994,202408261022324696,
2-6,C_HumanVertical,1,Q1FrontDown,-44.12517,42.53826,29.07405,-73.9446,-101.5556,157.2975,-25.19769,202408261022324898,
2-6,C_HumanVertical,1,Q1FrontDown,-44.1116,42.53808,29.07361,-74.1848,-101.5555,157.2976,-25.19622,202408261022325087,
2-6,C_HumanVertical,1,Q1FrontDown,-44.1116,42.53808,29.07361,-74.1848,-101.5555,157.2976,-25.19622,202408261022325352,
2-6,C_HumanVertical,1,Q1FrontDown,-44.0926,42.53764,29.07361,-74.40426,-101.5557,157.2978,-25.19085,202408261022325564,
2-6,C_HumanVertical,1,Q1FrontDown,-44.07407,42.53563,29.07383,-74.6293,-101.5561,157.2978,-25.18289,202408261022325827,
2-6,C_HumanVertical,1,Q1FrontDown,-44.07407,42.53563,29.07383,-74.6293,-101.5561,157.2978,-25.18289,202408261022326016,
2-6,C_HumanVertical,1,Q1FrontDown,-44.07407,42.53563,29.07383,-74.6293,-101.5561,157.2978,-25.18289,202408261022326251,
2-6,C_HumanVertical,1,Q1FrontDown,-44.02313,42.55037,29.07653,-75.04462,-101.5572,157.2978,-25.16681,202408261022326514,
2-6,C_HumanVertical,1,Q1FrontDown,-44.02313,42.55037,29.07653,-75.04462,-101.5572,157.2978,-25.16681,202408261022326667,
2-6,C_HumanVertical,1,Q1FrontDown,-43.99364,42.57128,29.08273,-75.21561,-101.5569,157.2977,-25.16639,202408261022326858,
2-6,C_HumanVertical,1,Q1FrontDown,-43.96426,42.57931,29.0896,-75.38082,-101.5568,157.2978,-25.15891,202408261022327112,
2-6,C_HumanVertical,1,Q1FrontDown,-43.93206,42.5826,29.09745,-75.54981,-101.5569,157.2978,-25.14711,202408261022327420,
2-6,C_HumanVertical,1,Q1FrontDown,-43.89852,42.58481,29.10555,-75.71003,-101.5568,157.2979,-25.14197,202408261022327680,
2-6,C_HumanVertical,1,Q1FrontDown,-43.89852,42.58481,29.10555,-75.71003,-101.5568,157.2979,-25.14197,202408261022327841,
2-6,C_HumanVertical,1,Q1FrontDown,-43.89852,42.58481,29.10555,-75.71003,-101.5568,157.2979,-25.14197,202408261022328032,
2-6,C_HumanVertical,1,Q1FrontDown,-43.8597,42.58438,29.10774,-75.86996,-101.557,157.2982,-25.14209,202408261022328179,
2-6,C_HumanVertical,1,Q1FrontDown,-43.82239,42.58353,29.11055,-76.03362,-101.5566,157.2985,-25.14214,202408261022328401,
2-6,C_HumanVertical,1,Q1FrontDown,-43.82239,42.58353,29.11055,-76.03362,-101.5566,157.2985,-25.14214,202408261022328571,
2-6,C_HumanVertical,1,Q1FrontDown,-43.78758,42.5831,29.11119,-76.19826,-101.5564,157.2984,-25.14208,202408261022328843,
2-6,C_HumanVertical,1,Q1FrontDown,-43.75524,42.58631,29.11123,-76.38956,-101.5573,157.2995,-25.14104,202408261022329010,
2-6,C_HumanVertical,1,Q1FrontDown,-43.75524,42.58631,29.11123,-76.38956,-101.5573,157.2995,-25.14104,202408261022329197,
2-6,C_HumanVertical,1,Q1FrontDown,-43.75524,42.58631,29.11123,-76.38956,-101.5573,157.2995,-25.14104,202408261022329393,
2-6,C_HumanVertical,1,Q1FrontDown,-43.75524,42.58631,29.11123,-76.38956,-101.5573,157.2995,-25.14104,202408261022329584,
2-6,C_HumanVertical,1,Q1FrontDown,-43.75524,42.58631,29.11123,-76.38956,-101.5573,157.2995,-25.14104,202408261022329872,
2-6,C_HumanVertical,1,Q1FrontDown,-43.64667,42.65875,29.11081,-76.91112,-101.5582,157.2997,-25.11511,202408261022330228,
2-6,C_HumanVertical,1,Q1FrontDown,-43.61161,42.69266,29.11107,-77.08495,-101.558,157.2998,-25.10879,202408261022330518,
2-6,C_HumanVertical,1,Q1FrontDown,-43.61161,42.69266,29.11107,-77.08495,-101.558,157.2998,-25.10879,202408261022330705,
2-6,C_HumanVertical,1,Q1FrontDown,-43.57066,42.73557,29.11028,-77.24447,-101.5594,157.2998,-25.09987,202408261022330994,
2-6,C_HumanVertical,1,Q1FrontDown,-43.5355,42.75722,29.10881,-77.48955,-101.5654,157.3022,-25.07273,202408261022331163,
2-6,C_HumanVertical,1,Q1FrontDown,-43.5355,42.75722,29.10881,-77.48955,-101.5654,157.3022,-25.07273,202408261022331325,
2-6,C_HumanVertical,1,Q1FrontDown,-43.5355,42.75722,29.10881,-77.48955,-101.5654,157.3022,-25.07273,202408261022331526,
2-6,C_HumanVertical,1,Q1FrontDown,-43.4496,42.81132,29.10821,-78.02282,-101.5722,157.3129,-25.02616,202408261022331684,
2-6,C_HumanVertical,1,Q1FrontDown,-43.4496,42.81132,29.10821,-78.02282,-101.5722,157.3129,-25.02616,202408261022331930,
2-6,C_HumanVertical,1,Q1FrontDown,-43.39721,42.83353,29.10878,-78.3206,-101.5739,157.3533,-25.0087,202408261022332202,
2-6,C_HumanVertical,1,Q1FrontDown,-43.34893,42.84972,29.10835,-78.64077,-101.5743,157.3757,-24.99552,202408261022332517,
2-6,C_HumanVertical,1,Q1FrontDown,-43.34893,42.84972,29.10835,-78.64077,-101.5743,157.3757,-24.99552,202408261022332692,
2-6,C_HumanVertical,1,Q1FrontDown,-43.29604,42.87586,29.10845,-78.94413,-101.5744,157.3878,-24.98606,202408261022332884,
2-6,C_HumanVertical,1,Q1FrontDown,-43.23816,42.8925,29.10868,-79.26991,-101.5744,157.401,-24.97458,202408261022333197,
2-6,C_HumanVertical,1,Q1FrontDown,-43.23816,42.8925,29.10868,-79.26991,-101.5744,157.401,-24.97458,202408261022333419,
2-6,C_HumanVertical,1,Q1FrontDown,-43.12247,42.95004,29.10815,-79.82664,-101.5749,157.4323,-24.94886,202408261022333675,
2-6,C_HumanVertical,1,Q1FrontDown,-43.12247,42.95004,29.10815,-79.82664,-101.5749,157.4323,-24.94886,202408261022333856,
2-6,C_HumanVertical,1,Q1FrontDown,-43.12247,42.95004,29.10815,-79.82664,-101.5749,157.4323,-24.94886,202408261022334065,
2-6,C_HumanVertical,1,Q1FrontDown,-42.98954,43.02885,29.10842,-80.31765,-101.5759,157.4409,-24.91799,202408261022334367,
2-6,C_HumanVertical,1,Q1FrontDown,-42.98954,43.02885,29.10842,-80.31765,-101.5759,157.4409,-24.91799,202408261022334502,
2-6,C_HumanVertical,1,Q1FrontDown,-42.92533,43.06369,29.10716,-80.53246,-101.5768,157.4409,-24.89931,202408261022334679,
2-6,C_HumanVertical,1,Q1FrontDown,-42.92533,43.06369,29.10716,-80.53246,-101.5768,157.4409,-24.89931,202408261022334856,
2-6,C_HumanVertical,1,Q1FrontDown,-42.86259,43.08232,29.1064,-80.73785,-101.5768,157.4408,-24.8924,202408261022335095,
2-6,C_HumanVertical,1,Q1FrontDown,-42.79416,43.10183,29.10485,-80.924,-101.5765,157.4407,-24.88789,202408261022335327,
2-6,C_HumanVertical,1,Q1FrontDown,-42.79416,43.10183,29.10485,-80.924,-101.5765,157.4407,-24.88789,202408261022335513,
2-6,C_HumanVertical,1,Q1FrontDown,-42.72776,43.13208,29.10297,-81.06149,-101.5769,157.4418,-24.87901,202408261022335685,
2-6,C_HumanVertical,1,Q1FrontDown,-42.66757,43.15281,29.0909,-81.13436,-101.5766,157.4416,-24.86897,202408261022335997,
2-6,C_HumanVertical,1,Q1FrontDown,-42.66757,43.15281,29.0909,-81.13436,-101.5766,157.4416,-24.86897,202408261022336179,
2-6,C_HumanVertical,1,Q1FrontDown,-42.62722,43.1631,29.08277,-81.18053,-101.5766,157.4414,-24.86111,202408261022336396,
2-6,C_HumanVertical,1,Q1FrontDown,-42.62722,43.1631,29.08277,-81.18053,-101.5766,157.4414,-24.86111,202408261022336574,
2-6,C_HumanVertical,1,Q1FrontDown,-42.60651,43.16388,29.07343,-81.20168,-101.5763,157.4424,-24.85183,202408261022336862,
2-6,C_HumanVertical,1,Q1FrontDown,-42.59292,43.16152,29.02161,-81.20056,-101.5763,157.442,-24.8471,202408261022337198,
2-6,C_HumanVertical,1,Q1FrontDown,-42.58707,43.15641,28.93583,-81.17803,-101.5763,157.442,-24.84495,202408261022337392,
2-6,C_HumanVertical,1,Q1FrontDown,-42.58715,43.15725,28.8072,-81.11038,-101.5759,157.4432,-24.84277,202408261022337703,
2-6,C_HumanVertical,1,Q1FrontDown,-42.58579,43.15868,28.61563,-80.99787,-101.5756,157.4423,-24.84284,202408261022337996,
2-6,C_HumanVertical,1,Q1FrontDown,-42.58579,43.15868,28.61563,-80.99787,-101.5756,157.4423,-24.84284,202408261022338235,
2-6,C_HumanVertical,1,Q1FrontDown,-42.59731,43.15872,28.41459,-80.89645,-101.5754,157.4411,-24.84286,202408261022338493,
2-6,C_HumanVertical,1,Q1FrontDown,-42.59731,43.15872,28.41459,-80.89645,-101.5754,157.4411,-24.84286,202408261022338654,
2-6,C_HumanVertical,1,Q1FrontDown,-42.59731,43.15872,28.41459,-80.89645,-101.5754,157.4411,-24.84286,202408261022338841,
2-6,C_HumanVertical,1,Q1FrontDown,-42.62148,43.14808,27.89548,-80.71564,-101.5749,157.4422,-24.83887,202408261022339009,
2-6,C_HumanVertical,1,Q1FrontDown,-42.62148,43.14808,27.89548,-80.71564,-101.5749,157.4422,-24.83887,202408261022339186,
2-6,C_HumanVertical,1,Q1FrontDown,-42.63275,43.13293,27.61576,-80.6299,-101.575,157.4421,-24.83574,202408261022339362,
2-6,C_HumanVertical,1,Q1FrontDown,-42.63275,43.13293,27.61576,-80.6299,-101.575,157.4421,-24.83574,202408261022339571,
2-6,C_HumanVertical,1,Q1FrontDown,-42.64723,43.12382,27.31961,-80.53481,-101.5747,157.4429,-24.82939,202408261022339748,
2-6,C_HumanVertical,1,Q1FrontDown,-42.65606,43.09829,26.98145,-80.46217,-101.575,157.4413,-24.82266,202408261022340026,
2-6,C_HumanVertical,1,Q1FrontDown,-42.67213,43.09005,26.65468,-80.40245,-101.5748,157.4408,-24.81743,202408261022340369,
2-6,C_HumanVertical,1,Q1FrontDown,-42.67213,43.09005,26.65468,-80.40245,-101.5748,157.4408,-24.81743,202408261022340571,
2-6,C_HumanVertical,1,Q1FrontDown,-42.68192,43.08246,26.32429,-80.3558,-101.575,157.4413,-24.80926,202408261022340836,
2-6,C_HumanVertical,1,Q1FrontDown,-42.71812,43.07978,26.02122,-80.30743,-101.5748,157.4406,-24.79991,202408261022341015,
2-6,C_HumanVertical,1,Q1FrontDown,-42.71812,43.07978,26.02122,-80.30743,-101.5748,157.4406,-24.79991,202408261022341183,
2-6,C_HumanVertical,1,Q1FrontDown,-42.74384,43.07876,25.71904,-80.26923,-101.5751,157.4382,-24.79295,202408261022341427,
2-6,C_HumanVertical,1,Q1FrontDown,-42.76006,43.08079,25.4655,-80.24888,-101.575,157.4345,-24.78144,202408261022341673,
2-6,C_HumanVertical,1,Q1FrontDown,-42.76006,43.08079,25.4655,-80.24888,-101.575,157.4345,-24.78144,202408261022341837,
2-6,C_HumanVertical,1,Q1FrontDown,-42.78456,43.08256,25.23347,-80.24218,-101.5748,157.434,-24.74945,202408261022342033,
2-6,C_HumanVertical,1,Q1FrontDown,-42.80542,43.08693,25.02542,-80.23069,-101.5751,157.4185,-24.73598,202408261022342370,
2-6,C_HumanVertical,1,Q1FrontDown,-42.80542,43.08693,25.02542,-80.23069,-101.5751,157.4185,-24.73598,202408261022342537,
2-6,C_HumanVertical,1,Q1FrontDown,-42.80542,43.08693,25.02542,-80.23069,-101.5751,157.4185,-24.73598,202408261022342755,
2-6,C_HumanVertical,1,Q1FrontDown,-42.81644,43.112,24.66123,-80.11452,-101.5749,157.3902,-24.73309,202408261022342995,
2-6,C_HumanVertical,1,Q1FrontDown,-42.81644,43.112,24.66123,-80.11452,-101.5749,157.3902,-24.73309,202408261022343175,
2-6,C_HumanVertical,1,Q1FrontDown,-42.81768,43.1302,24.49795,-80.04201,-101.5748,157.388,-24.7317,202408261022343509,
2-6,C_HumanVertical,1,Q1FrontDown,-42.81768,43.1302,24.49795,-80.04201,-101.5748,157.388,-24.7317,202408261022343667,
2-6,C_HumanVertical,1,Q1FrontDown,-42.81391,43.14212,24.33736,-79.96785,-101.5749,157.3892,-24.72911,202408261022343943,
2-6,C_HumanVertical,1,Q1FrontDown,-42.81095,43.15338,24.19078,-79.89471,-101.575,157.3901,-24.72582,202408261022344194,
2-6,C_HumanVertical,1,Q1FrontDown,-42.81095,43.15338,24.19078,-79.89471,-101.575,157.3901,-24.72582,202408261022344350,
2-6,C_HumanVertical,1,Q1FrontDown,-42.81049,43.16948,24.06392,-79.81714,-101.5748,157.3899,-24.72003,202408261022344593,
2-6,C_HumanVertical,1,Q1FrontDown,-42.8092,43.18744,23.952,-79.73439,-101.5741,157.39,-24.7154,202408261022344906,
2-6,C_HumanVertical,1,Q1FrontDown,-42.80404,43.21446,23.84127,-79.65721,-101.5699,157.3902,-24.71484,202408261022345105,
2-6,C_HumanVertical,1,Q1FrontDown,-42.80404,43.21446,23.84127,-79.65721,-101.5699,157.3902,-24.71484,202408261022345378,
2-6,C_HumanVertical,1,Q1FrontDown,-42.76558,43.25904,23.69397,-79.55027,-101.5673,157.3889,-24.71364,202408261022345585,
2-6,C_HumanVertical,1,Q1FrontDown,-42.71171,43.30167,23.51897,-79.43277,-101.5674,157.3876,-24.71031,202408261022345841,
2-6,C_HumanVertical,1,Q1FrontDown,-42.71171,43.30167,23.51897,-79.43277,-101.5674,157.3876,-24.71031,202408261022346022,
2-6,C_HumanVertical,1,Q1FrontDown,-42.66965,43.35125,23.34676,-79.33305,-101.5674,157.3852,-24.7081,202408261022346253,
2-6,C_HumanVertical,1,Q1FrontDown,-42.61831,43.44443,23.1672,-79.20032,-101.5657,157.3398,-24.70744,202408261022346510,
2-6,C_HumanVertical,1,Q1FrontDown,-42.61831,43.44443,23.1672,-79.20032,-101.5657,157.3398,-24.70744,202408261022346676,
2-6,C_HumanVertical,1,Q1FrontDown,-42.57148,43.56699,22.97218,-79.0122,-101.5648,157.2956,-24.70746,202408261022346836,
2-6,C_HumanVertical,1,Q1FrontDown,-42.51069,43.75739,22.71493,-78.68782,-101.5641,157.295,-24.69866,202408261022347032,
2-6,C_HumanVertical,1,Q1FrontDown,-42.51069,43.75739,22.71493,-78.68782,-101.5641,157.295,-24.69866,202408261022347205,
2-6,C_HumanVertical,1,Q1FrontDown,-42.49335,43.92488,22.477,-78.37048,-101.5641,157.2937,-24.6913,202408261022347401,
2-6,C_HumanVertical,1,Q1FrontDown,-42.49785,44.13077,22.24061,-78.01519,-101.5607,157.2943,-24.68095,202408261022347785,
2-6,C_HumanVertical,1,Q1FrontDown,-42.49785,44.13077,22.24061,-78.01519,-101.5607,157.2943,-24.68095,202408261022348017,
2-6,C_HumanVertical,1,Q1FrontDown,-42.49284,44.50994,22.04044,-77.35605,-101.5374,157.2952,-24.67517,202408261022348203,
2-6,C_HumanVertical,1,Q1FrontDown,-42.52176,45.17928,21.62037,-75.97382,-101.4749,157.2941,-24.65575,202408261022348615,
2-6,C_HumanVertical,1,Q1FrontDown,-42.52176,45.17928,21.62037,-75.97382,-101.4749,157.2941,-24.65575,202408261022348875,
2-6,C_HumanVertical,1,Q1FrontDown,-42.52139,45.50803,21.41097,-75.24097,-101.3873,157.2927,-24.65556,202408261022349031,
2-6,C_HumanVertical,1,Q1FrontDown,-42.50222,45.84029,21.20389,-74.54773,-101.3275,157.2944,-24.65594,202408261022349453,
2-6,C_HumanVertical,1,Q1FrontDown,-42.4995,46.08266,21.01883,-73.94414,-101.2799,157.2933,-24.65621,202408261022349842,
2-6,C_HumanVertical,1,Q1FrontDown,-42.50022,46.31946,20.82574,-73.3539,-101.2218,157.2926,-24.65648,202408261022350060,
2-6,C_HumanVertical,1,Q1FrontDown,-42.49298,46.53557,20.65964,-72.839,-101.1575,157.2928,-24.65685,202408261022350368,
2-6,C_HumanVertical,1,Q1FrontDown,-42.49298,46.53557,20.65964,-72.839,-101.1575,157.2928,-24.65685,202408261022350540,
2-6,C_HumanVertical,1,Q1FrontDown,-42.47762,46.73784,20.51493,-72.38919,-101.0959,157.2931,-24.65709,202408261022350736,
2-6,C_HumanVertical,1,Q1FrontDown,-42.47762,46.73784,20.51493,-72.38919,-101.0959,157.2931,-24.65709,202408261022350933,
2-6,C_HumanVertical,1,Q1FrontDown,-42.45622,46.96266,20.37864,-71.90742,-101.0321,157.2936,-24.65819,202408261022351176,
2-6,C_HumanVertical,1,Q1FrontDown,-42.43846,47.16511,20.28091,-71.52802,-100.9913,157.2938,-24.66195,202408261022351358,
2-6,C_HumanVertical,1,Q1FrontDown,-42.41899,47.37695,20.20665,-71.19975,-100.9637,157.2937,-24.66478,202408261022351705,
2-6,C_HumanVertical,1,Q1FrontDown,-42.41899,47.37695,20.20665,-71.19975,-100.9637,157.2937,-24.66478,202408261022351913,
2-6,C_HumanVertical,1,Q1FrontDown,-42.38183,47.60615,20.14329,-70.93889,-100.9457,157.2937,-24.66451,202408261022352198,
2-6,C_HumanVertical,1,Q1FrontDown,-42.33163,47.85273,20.10092,-70.72158,-100.9417,157.2938,-24.6651,202408261022352364,
2-6,C_HumanVertical,1,Q1FrontDown,-42.33163,47.85273,20.10092,-70.72158,-100.9417,157.2938,-24.6651,202408261022352575,
2-6,C_HumanVertical,1,Q1FrontDown,-42.25861,48.12729,20.07968,-70.51208,-100.9409,157.2945,-24.66619,202408261022352908,
2-6,C_HumanVertical,1,Q1FrontDown,-42.145,48.4281,20.06219,-70.3401,-100.9403,157.2956,-24.66612,202408261022353165,
2-6,C_HumanVertical,1,Q1FrontDown,-42.145,48.4281,20.06219,-70.3401,-100.9403,157.2956,-24.66612,202408261022353327,
2-6,C_HumanVertical,1,Q1FrontDown,-42.00695,48.71622,20.05572,-70.23751,-100.9394,157.2961,-24.66716,202408261022353495,
2-6,C_HumanVertical,1,Q1FrontDown,-41.83852,49.00158,20.05523,-70.19066,-100.9393,157.2963,-24.66802,202408261022353676,
2-6,C_HumanVertical,1,Q1FrontDown,-41.83852,49.00158,20.05523,-70.19066,-100.9393,157.2963,-24.66802,202408261022353875,
2-6,C_HumanVertical,1,Q1FrontDown,-41.62938,49.31848,20.05538,-70.1431,-100.9389,157.296,-24.66791,202408261022354122,
2-6,C_HumanVertical,1,Q1FrontDown,-41.41059,49.62783,20.05559,-70.1056,-100.9392,157.2964,-24.66804,202408261022354456,
2-6,C_HumanVertical,1,Q1FrontDown,-41.16112,49.9284,20.0555,-70.07626,-100.9394,157.2958,-24.66812,202408261022354707,
2-6,C_HumanVertical,1,Q1FrontDown,-41.16112,49.9284,20.0555,-70.07626,-100.9394,157.2958,-24.66812,202408261022354868,
2-6,C_HumanVertical,1,Q1FrontDown,-40.88283,50.26822,20.07282,-69.98792,-100.939,157.2964,-24.66805,202408261022355037,
2-6,C_HumanVertical,1,Q1FrontDown,-40.88283,50.26822,20.07282,-69.98792,-100.939,157.2964,-24.66805,202408261022355263,
2-6,C_HumanVertical,1,Q1FrontDown,-40.59783,50.61016,20.09734,-69.85875,-100.9389,157.2963,-24.66784,202408261022355516,
2-6,C_HumanVertical,1,Q1FrontDown,-40.28447,50.96957,20.13497,-69.68917,-100.939,157.2963,-24.66748,202408261022355708,
2-6,C_HumanVertical,1,Q1FrontDown,-40.28447,50.96957,20.13497,-69.68917,-100.939,157.2963,-24.66748,202408261022355921,
2-6,C_HumanVertical,1,Q1FrontDown,-39.99525,51.29997,20.17725,-69.54119,-100.9388,157.2947,-24.6672,202408261022356230,
2-6,C_HumanVertical,1,Q1FrontDown,-39.71028,51.59443,20.21889,-69.41505,-100.9389,157.2949,-24.66527,202408261022356415,
2-6,C_HumanVertical,1,Q1FrontDown,-39.43723,51.87292,20.27983,-69.30702,-100.939,157.2959,-24.6629,202408261022356712,
2-6,C_HumanVertical,1,Q1FrontDown,-39.43723,51.87292,20.27983,-69.30702,-100.939,157.2959,-24.6629,202408261022356837,
2-6,C_HumanVertical,1,Q1FrontDown,-39.16735,52.11374,20.33266,-69.22034,-100.9393,157.2957,-24.66191,202408261022357064,
2-6,C_HumanVertical,1,Q1FrontDown,-38.88468,52.33777,20.37456,-69.12753,-100.9394,157.2959,-24.65922,202408261022357372,
2-6,C_HumanVertical,1,Q1FrontDown,-38.88468,52.33777,20.37456,-69.12753,-100.9394,157.2959,-24.65922,202408261022357606,
2-6,C_HumanVertical,1,Q1FrontDown,-38.62969,52.55025,20.41023,-69.01417,-100.9396,157.2957,-24.65815,202408261022357868,
2-6,C_HumanVertical,1,Q1FrontDown,-38.62969,52.55025,20.41023,-69.01417,-100.9396,157.2957,-24.65815,202408261022358174,
2-6,C_HumanVertical,1,Q1FrontDown,-38.15144,52.97693,20.4681,-68.71521,-100.9393,157.2963,-24.65538,202408261022358327,
2-6,C_HumanVertical,1,Q1FrontDown,-38.15144,52.97693,20.4681,-68.71521,-100.9393,157.2963,-24.65538,202408261022358536,
2-6,C_HumanVertical,1,Q1FrontDown,-37.9502,53.1893,20.51981,-68.52039,-100.9401,157.2978,-24.65135,202408261022358752,
2-6,C_HumanVertical,1,Q1FrontDown,-37.9502,53.1893,20.51981,-68.52039,-100.9401,157.2978,-24.65135,202408261022359019,
2-6,C_HumanVertical,1,Q1FrontDown,-37.73483,53.49452,20.53555,-68.14767,-100.9395,157.2973,-24.64901,202408261022359255,
2-6,C_HumanVertical,1,Q1FrontDown,-37.73483,53.49452,20.53555,-68.14767,-100.9395,157.2973,-24.64901,202408261022359552,
2-6,C_HumanVertical,1,Q1FrontDown,-37.73483,53.49452,20.53555,-68.14767,-100.9395,157.2973,-24.64901,202408261022359760,
2-6,C_HumanVertical,1,Q1FrontDown,-37.73483,53.49452,20.53555,-68.14767,-100.9395,157.2973,-24.64901,202408261022360029,
2-6,C_HumanVertical,1,Q1FrontDown,-37.25097,54.39188,20.5385,-66.98585,-100.9396,157.296,-24.63901,202408261022360200,
2-6,C_HumanVertical,1,Q1FrontDown,-37.143,54.70915,20.53886,-66.56087,-100.9397,157.2963,-24.62928,202408261022360510,
2-6,C_HumanVertical,1,Q1FrontDown,-37.07524,54.98176,20.53689,-66.17221,-100.9397,157.2962,-24.62446,202408261022360681,
2-6,C_HumanVertical,1,Q1FrontDown,-37.07524,54.98176,20.53689,-66.17221,-100.9397,157.2962,-24.62446,202408261022360941,
2-6,C_HumanVertical,1,Q1FrontDown,-37.0079,55.3018,20.53791,-65.70371,-100.9385,157.2955,-24.62248,202408261022361166,
2-6,C_HumanVertical,1,Q1FrontDown,-36.93243,55.62977,20.53833,-65.25807,-100.9385,157.2963,-24.62087,202408261022361495,
2-6,C_HumanVertical,1,Q1FrontDown,-36.93243,55.62977,20.53833,-65.25807,-100.9385,157.2963,-24.62087,202408261022361661,
2-6,C_HumanVertical,1,Q1FrontDown,-36.86666,55.90082,20.53765,-64.85413,-100.9386,157.2955,-24.61857,202408261022361868,
2-6,C_HumanVertical,1,Q1FrontDown,-36.80639,56.16098,20.53842,-64.44688,-100.938,157.2953,-24.6159,202408261022362096,
2-6,C_HumanVertical,1,Q1FrontDown,-36.74386,56.40023,20.54053,-64.08987,-100.9375,157.2952,-24.61352,202408261022362406,
2-6,C_HumanVertical,1,Q1FrontDown,-36.68373,56.63415,20.54589,-63.74837,-100.9379,157.2955,-24.60991,202408261022362683,
2-6,C_HumanVertical,1,Q1FrontDown,-36.68373,56.63415,20.54589,-63.74837,-100.9379,157.2955,-24.60991,202408261022362859,
2-6,C_HumanVertical,1,Q1FrontDown,-36.63821,56.88078,20.58038,-63.34902,-100.9374,157.2952,-24.59204,202408261022363051,
2-6,C_HumanVertical,1,Q1FrontDown,-36.60984,57.10888,20.63647,-62.94847,-100.9246,157.2939,-24.58759,202408261022363327,
2-6,C_HumanVertical,1,Q1FrontDown,-36.60984,57.10888,20.63647,-62.94847,-100.9246,157.2939,-24.58759,202408261022363508,
2-6,C_HumanVertical,1,Q1FrontDown,-36.59524,57.31559,20.72121,-62.58529,-100.8987,157.2918,-24.58698,202408261022363723,
2-6,C_HumanVertical,1,Q1FrontDown,-36.59524,57.31559,20.72121,-62.58529,-100.8987,157.2918,-24.58698,202408261022363849,
2-6,C_HumanVertical,1,Q1FrontDown,-36.5993,57.51758,20.86277,-62.24918,-100.8515,157.2919,-24.58726,202408261022364104,
2-6,C_HumanVertical,1,Q1FrontDown,-36.59935,57.64563,20.98028,-62.04007,-100.8365,157.2924,-24.57641,202408261022364415,
2-6,C_HumanVertical,1,Q1FrontDown,-36.59935,57.64563,20.98028,-62.04007,-100.8365,157.2924,-24.57641,202408261022364666,
2-6,C_HumanVertical,1,Q1FrontDown,-36.59836,57.72742,21.06418,-61.96512,-100.8367,157.2933,-24.56008,202408261022364849,
2-6,C_HumanVertical,1,Q1FrontDown,-36.58947,57.8049,21.14608,-61.89809,-100.8366,157.2937,-24.54538,202408261022365194,
2-6,C_HumanVertical,1,Q1FrontDown,-36.5883,57.85501,21.20018,-61.91278,-100.8384,157.2937,-24.52888,202408261022365392,
2-6,C_HumanVertical,1,Q1FrontDown,-36.5883,57.85501,21.20018,-61.91278,-100.8384,157.2937,-24.52888,202408261022365555,
2-6,C_HumanVertical,1,Q1FrontDown,-36.59151,57.8729,21.23468,-62.01705,-100.8433,157.2924,-24.51125,202408261022365834,
2-6,C_HumanVertical,1,Q1FrontDown,-36.59151,57.8729,21.23468,-62.01705,-100.8433,157.2924,-24.51125,202408261022366000,
2-6,C_HumanVertical,1,Q1FrontDown,-36.59151,57.8729,21.23468,-62.01705,-100.8433,157.2924,-24.51125,202408261022366177,
2-6,C_HumanVertical,1,Q1FrontDown,-36.59686,57.85075,21.31147,-62.60804,-100.8678,157.2939,-24.4648,202408261022366370,
2-6,C_HumanVertical,1,Q1FrontDown,-36.59686,57.85075,21.31147,-62.60804,-100.8678,157.2939,-24.4648,202408261022366577,
2-6,C_HumanVertical,1,Q1FrontDown,-36.59686,57.85075,21.31147,-62.60804,-100.8678,157.2939,-24.4648,202408261022366861,
2-6,C_HumanVertical,1,Q1FrontDown,-36.59381,57.83084,21.42004,-63.44966,-100.9017,157.2939,-24.4436,202408261022367035,
2-6,C_HumanVertical,1,Q1FrontDown,-36.59381,57.83084,21.42004,-63.44966,-100.9017,157.2939,-24.4436,202408261022367277,
2-6,C_HumanVertical,1,Q1FrontDown,-36.5938,57.81877,21.50348,-63.99203,-100.9074,157.2958,-24.43986,202408261022367554,
2-6,C_HumanVertical,1,Q1FrontDown,-36.58406,57.81824,21.59871,-64.58406,-100.9106,157.3002,-24.43949,202408261022367808,
2-6,C_HumanVertical,1,Q1FrontDown,-36.58406,57.81824,21.59871,-64.58406,-100.9106,157.3002,-24.43949,202408261022368009,
2-6,C_HumanVertical,1,Q1FrontDown,-36.58406,57.81824,21.59871,-64.58406,-100.9106,157.3002,-24.43949,202408261022368194,
2-6,C_HumanVertical,1,Q1FrontDown,-36.5301,57.80357,21.77236,-65.73527,-100.9257,157.3203,-24.43941,202408261022368508,
2-6,C_HumanVertical,1,Q1FrontDown,-36.5301,57.80357,21.77236,-65.73527,-100.9257,157.3203,-24.43941,202408261022368678,
2-6,C_HumanVertical,1,Q1FrontDown,-36.49527,57.80293,21.8625,-66.28407,-100.9467,157.3341,-24.43878,202408261022368936,
2-6,C_HumanVertical,1,Q1FrontDown,-36.46146,57.80496,21.94209,-66.84515,-100.9789,157.3345,-24.43888,202408261022369212,
2-6,C_HumanVertical,1,Q1FrontDown,-36.46146,57.80496,21.94209,-66.84515,-100.9789,157.3345,-24.43888,202408261022369398,
2-6,C_HumanVertical,1,Q1FrontDown,-36.40607,57.79972,22.11736,-67.91461,-101.0299,157.3336,-24.43858,202408261022369730,
2-6,C_HumanVertical,1,Q1FrontDown,-36.40607,57.79972,22.11736,-67.91461,-101.0299,157.3336,-24.43858,202408261022369947,
2-6,C_HumanVertical,1,Q1FrontDown,-36.39987,57.79873,22.21042,-68.42666,-101.062,157.3344,-24.43859,202408261022370177,
2-6,C_HumanVertical,1,Q1FrontDown,-36.39987,57.79873,22.21042,-68.42666,-101.062,157.3344,-24.43859,202408261022370355,
2-6,C_HumanVertical,1,Q1FrontDown,-36.40195,57.78828,22.33399,-68.9174,-101.0984,157.334,-24.4391,202408261022370633,
2-6,C_HumanVertical,1,Q1FrontDown,-36.40114,57.78659,22.45532,-69.41822,-101.1421,157.3335,-24.43999,202408261022370860,
2-6,C_HumanVertical,1,Q1FrontDown,-36.40427,57.78242,22.57064,-69.92113,-101.177,157.3399,-24.44119,202408261022371114,
