mpan31415/robot-x-ar/study2/data/raw_all_participants/Participant_2-23_1.csv
ParticipantID,Condition,Trial,PostureID,J1,J2,J3,J4,J5,J6,J7,Timestamp,
2-23,A_Baseline,1,Q3FrontUp,-44.30124,29.39845,83.78361,-37.10313,-102.3512,152.3176,-56.20348,202408291816410922,
2-23,A_Baseline,1,Q3FrontUp,-44.30121,29.39855,83.78379,-37.10314,-102.3512,152.3175,-56.20381,202408291816411352,
2-23,A_Baseline,1,Q3FrontUp,-44.30121,29.39855,83.78379,-37.10314,-102.3512,152.3175,-56.20381,202408291816411620,
2-23,A_Baseline,1,Q3FrontUp,-44.30126,29.39869,83.78379,-37.10291,-102.3514,152.3177,-56.20344,202408291816411854,
2-23,A_Baseline,1,Q3FrontUp,-44.30137,29.39872,83.78367,-37.10337,-102.3513,152.3177,-56.2035,202408291816412141,
2-23,A_Baseline,1,Q3FrontUp,-44.30223,29.39812,83.78686,-37.10332,-102.3466,152.3176,-56.20372,202408291816412340,
2-23,A_Baseline,1,Q3FrontUp,-44.30223,29.39812,83.78686,-37.10332,-102.3466,152.3176,-56.20372,202408291816412611,
2-23,A_Baseline,1,Q3FrontUp,-44.30665,29.40139,83.96162,-37.10045,-102.2527,152.3151,-56.20375,202408291816412782,
2-23,A_Baseline,1,Q3FrontUp,-44.29881,29.3975,84.1114,-37.11019,-102.1781,152.3143,-56.20357,202408291816413019,
2-23,A_Baseline,1,Q3FrontUp,-44.29881,29.3975,84.1114,-37.11019,-102.1781,152.3143,-56.20357,202408291816413203,
2-23,A_Baseline,1,Q3FrontUp,-44.27707,29.38024,84.24413,-37.11411,-102.1401,152.3145,-56.20308,202408291816413364,
2-23,A_Baseline,1,Q3FrontUp,-44.27707,29.38024,84.24413,-37.11411,-102.1401,152.3145,-56.20308,202408291816413710,
2-23,A_Baseline,1,Q3FrontUp,-44.27613,29.33878,84.23296,-37.16193,-102.2327,152.3183,-56.20371,202408291816413885,
2-23,A_Baseline,1,Q3FrontUp,-44.29392,29.27991,84.22938,-37.1751,-102.2855,152.3183,-56.20346,202408291816414242,
2-23,A_Baseline,1,Q3FrontUp,-44.31421,29.2572,84.22485,-37.1743,-102.3167,152.3176,-56.20341,202408291816414466,
2-23,A_Baseline,1,Q3FrontUp,-44.31421,29.2572,84.22485,-37.1743,-102.3167,152.3176,-56.20341,202408291816414688,
2-23,A_Baseline,1,Q3FrontUp,-44.33381,29.25882,84.21237,-37.17354,-102.3401,152.3167,-56.20348,202408291816414959,
2-23,A_Baseline,1,Q3FrontUp,-44.33928,29.27112,84.18423,-37.18909,-102.3527,152.3166,-56.20373,202408291816415155,
2-23,A_Baseline,1,Q3FrontUp,-44.33928,29.27112,84.18423,-37.18909,-102.3527,152.3166,-56.20373,202408291816415314,
2-23,A_Baseline,1,Q3FrontUp,-44.34869,29.30115,84.15486,-37.20891,-102.3729,152.3164,-56.20374,202408291816415582,
2-23,A_Baseline,1,Q3FrontUp,-44.36427,29.32304,84.12584,-37.21276,-102.3867,152.3164,-56.20388,202408291816415847,
2-23,A_Baseline,1,Q3FrontUp,-44.36427,29.32304,84.12584,-37.21276,-102.3867,152.3164,-56.20388,202408291816416001,
2-23,A_Baseline,1,Q3FrontUp,-44.37656,29.34941,84.10299,-37.22125,-102.3995,152.3164,-56.20345,202408291816416216,
2-23,A_Baseline,1,Q3FrontUp,-44.39287,29.37368,84.08923,-37.22492,-102.4079,152.3162,-56.20344,202408291816416512,
2-23,A_Baseline,1,Q3FrontUp,-44.39287,29.37368,84.08923,-37.22492,-102.4079,152.3162,-56.20344,202408291816416685,
2-23,A_Baseline,1,Q3FrontUp,-44.41192,29.39378,84.07377,-37.22523,-102.4203,152.3162,-56.20351,202408291816416844,
2-23,A_Baseline,1,Q3FrontUp,-44.4257,29.41308,84.06136,-37.22732,-102.4285,152.316,-56.20366,202408291816417105,
2-23,A_Baseline,1,Q3FrontUp,-44.4257,29.41308,84.06136,-37.22732,-102.4285,152.316,-56.20366,202408291816417328,
2-23,A_Baseline,1,Q3FrontUp,-44.4257,29.41308,84.06136,-37.22732,-102.4285,152.316,-56.20366,202408291816417511,
2-23,A_Baseline,1,Q3FrontUp,-44.45579,29.43967,84.03441,-37.22967,-102.4442,152.3162,-56.20346,202408291816417765,
2-23,A_Baseline,1,Q3FrontUp,-44.46722,29.44881,84.02093,-37.23045,-102.4491,152.3161,-56.20333,202408291816418132,
2-23,A_Baseline,1,Q3FrontUp,-44.46722,29.44881,84.02093,-37.23045,-102.4491,152.3161,-56.20333,202408291816418358,
2-23,A_Baseline,1,Q3FrontUp,-44.47989,29.4531,84.01294,-37.23111,-102.4534,152.3161,-56.20385,202408291816418612,
2-23,A_Baseline,1,Q3FrontUp,-44.47989,29.4531,84.01294,-37.23111,-102.4534,152.3161,-56.20385,202408291816418953,
2-23,A_Baseline,1,Q3FrontUp,-44.50598,29.45592,84.00318,-37.23299,-102.4581,152.3161,-56.20375,202408291816419128,
2-23,A_Baseline,1,Q3FrontUp,-44.51855,29.45606,84.00275,-37.23456,-102.4592,152.3164,-56.20321,202408291816419427,
2-23,A_Baseline,1,Q3FrontUp,-44.51855,29.45606,84.00275,-37.23456,-102.4592,152.3164,-56.20321,202408291816419662,
2-23,A_Baseline,1,Q3FrontUp,-44.53133,29.45615,84.00261,-37.23439,-102.4594,152.3163,-56.20335,202408291816419976,
2-23,A_Baseline,1,Q3FrontUp,-44.55757,29.45592,84.00291,-37.23536,-102.4596,152.3165,-56.20377,202408291816420434,
2-23,A_Baseline,1,Q3FrontUp,-44.57382,29.45595,84.00251,-37.23792,-102.4596,152.3164,-56.2033,202408291816420709,
2-23,A_Baseline,1,Q3FrontUp,-44.58154,29.45437,84.07049,-37.23686,-102.3981,152.3123,-56.20368,202408291816421040,
2-23,A_Baseline,1,Q3FrontUp,-44.58154,29.45437,84.07049,-37.23686,-102.3981,152.3123,-56.20368,202408291816421297,
2-23,A_Baseline,1,Q3FrontUp,-44.57539,29.44988,84.17702,-37.23142,-102.2985,152.2924,-56.20321,202408291816421475,
2-23,A_Baseline,1,Q3FrontUp,-44.57539,29.44988,84.17702,-37.23142,-102.2985,152.2924,-56.20321,202408291816421683,
2-23,A_Baseline,1,Q3FrontUp,-44.55531,29.43806,84.29346,-37.22969,-102.213,152.2903,-56.2033,202408291816421874,
2-23,A_Baseline,1,Q3FrontUp,-44.52121,29.40498,84.42725,-37.23187,-102.126,152.2886,-56.20341,202408291816422105,
2-23,A_Baseline,1,Q3FrontUp,-44.52121,29.40498,84.42725,-37.23187,-102.126,152.2886,-56.20341,202408291816422301,
2-23,A_Baseline,1,Q3FrontUp,-44.47549,29.35019,84.58012,-37.23179,-102.0567,152.2883,-56.20353,202408291816422609,
2-23,A_Baseline,1,Q3FrontUp,-44.44213,29.26753,84.72479,-37.22792,-101.9948,152.2874,-56.20336,202408291816422833,
2-23,A_Baseline,1,Q3FrontUp,-44.38925,29.18338,84.84879,-37.23043,-101.9561,152.2879,-56.20287,202408291816423103,
2-23,A_Baseline,1,Q3FrontUp,-44.38925,29.18338,84.84879,-37.23043,-101.9561,152.2879,-56.20287,202408291816423268,
2-23,A_Baseline,1,Q3FrontUp,-44.31863,29.09483,84.94595,-37.23184,-101.9263,152.2878,-56.20143,202408291816423571,
2-23,A_Baseline,1,Q3FrontUp,-44.2713,28.98337,85.0532,-37.23095,-101.9099,152.2878,-56.19843,202408291816423834,
2-23,A_Baseline,1,Q3FrontUp,-44.22468,28.88658,85.15729,-37.2322,-101.8989,152.288,-56.19485,202408291816424021,
2-23,A_Baseline,1,Q3FrontUp,-44.22468,28.88658,85.15729,-37.2322,-101.8989,152.288,-56.19485,202408291816424290,
2-23,A_Baseline,1,Q3FrontUp,-44.18122,28.78653,85.26169,-37.233,-101.8954,152.2881,-56.19108,202408291816424735,
2-23,A_Baseline,1,Q3FrontUp,-43.93147,28.03432,85.73186,-37.2048,-101.8905,152.2878,-56.14384,202408291816427420,
2-23,A_Baseline,1,Q3FrontUp,-43.8887,27.90043,85.77745,-37.20349,-101.8903,152.2879,-56.14309,202408291816427715,
2-23,A_Baseline,1,Q3FrontUp,-43.8887,27.90043,85.77745,-37.20349,-101.8903,152.2879,-56.14309,202408291816427962,
2-23,A_Baseline,1,Q3FrontUp,-43.86916,27.84329,85.80051,-37.20353,-101.8889,152.2878,-56.14009,202408291816428125,
2-23,A_Baseline,1,Q3FrontUp,-43.85136,27.79268,85.81871,-37.20381,-101.888,152.2879,-56.12903,202408291816428300,
2-23,A_Baseline,1,Q3FrontUp,-43.85136,27.79268,85.81871,-37.20381,-101.888,152.2879,-56.12903,202408291816428527,
2-23,A_Baseline,1,Q3FrontUp,-43.83307,27.74774,85.83521,-37.20353,-101.8875,152.2877,-56.12298,202408291816428739,
2-23,A_Baseline,1,Q3FrontUp,-43.83307,27.74774,85.83521,-37.20353,-101.8875,152.2877,-56.12298,202408291816429005,
2-23,A_Baseline,1,Q3FrontUp,-43.8012,27.70412,85.86839,-37.2033,-101.8869,152.2887,-56.02393,202408291816429231,
2-23,A_Baseline,1,Q3FrontUp,-43.76072,27.67724,85.91293,-37.20687,-101.8938,152.2887,-55.88818,202408291816429505,
2-23,A_Baseline,1,Q3FrontUp,-43.76132,27.64508,85.87265,-37.23524,-101.988,152.2985,-55.73116,202408291816429900,
2-23,A_Baseline,1,Q3FrontUp,-43.77139,27.61209,85.86269,-37.25484,-102.0127,152.3044,-55.54697,202408291816430136,
2-23,A_Baseline,1,Q3FrontUp,-43.78812,27.59717,85.87099,-37.28452,-102.0064,152.3062,-55.36283,202408291816430524,
2-23,A_Baseline,1,Q3FrontUp,-43.80716,27.58268,86.00156,-37.28105,-101.8996,152.3034,-55.16132,202408291816430912,
2-23,A_Baseline,1,Q3FrontUp,-43.79935,27.57194,86.14342,-37.3106,-101.8187,152.3044,-54.98342,202408291816431220,
2-23,A_Baseline,1,Q3FrontUp,-43.77758,27.53572,86.29609,-37.34137,-101.7325,152.305,-54.79877,202408291816431488,
2-23,A_Baseline,1,Q3FrontUp,-43.77758,27.53572,86.29609,-37.34137,-101.7325,152.305,-54.79877,202408291816431654,
2-23,A_Baseline,1,Q3FrontUp,-43.75472,27.45365,86.43255,-37.36678,-101.6621,152.3055,-54.62196,202408291816431828,
2-23,A_Baseline,1,Q3FrontUp,-43.74492,27.35114,86.58183,-37.37674,-101.5986,152.3055,-54.45567,202408291816431982,
2-23,A_Baseline,1,Q3FrontUp,-43.74492,27.35114,86.58183,-37.37674,-101.5986,152.3055,-54.45567,202408291816432176,
2-23,A_Baseline,1,Q3FrontUp,-43.73758,27.2125,86.74188,-37.38185,-101.5389,152.3054,-54.29234,202408291816432441,
2-23,A_Baseline,1,Q3FrontUp,-43.73758,27.2125,86.74188,-37.38185,-101.5389,152.3054,-54.29234,202408291816432609,
2-23,A_Baseline,1,Q3FrontUp,-43.71759,27.08281,86.91739,-37.39396,-101.4837,152.306,-54.13152,202408291816432786,
2-23,A_Baseline,1,Q3FrontUp,-43.70149,26.93091,87.07683,-37.39735,-101.4276,152.3072,-53.96266,202408291816433159,
2-23,A_Baseline,1,Q3FrontUp,-43.67389,26.78241,87.22099,-37.40622,-101.3772,152.308,-53.81141,202408291816433407,
2-23,A_Baseline,1,Q3FrontUp,-43.67389,26.78241,87.22099,-37.40622,-101.3772,152.308,-53.81141,202408291816433663,
2-23,A_Baseline,1,Q3FrontUp,-43.65994,26.62367,87.3792,-37.4135,-101.3247,152.3106,-53.65495,202408291816433854,
2-23,A_Baseline,1,Q3FrontUp,-43.63773,26.46031,87.53506,-37.42726,-101.2727,152.3474,-53.51447,202408291816434033,
2-23,A_Baseline,1,Q3FrontUp,-43.63773,26.46031,87.53506,-37.42726,-101.2727,152.3474,-53.51447,202408291816434372,
2-23,A_Baseline,1,Q3FrontUp,-43.60891,26.3162,87.69035,-37.4407,-101.2258,152.3576,-53.37667,202408291816434670,
2-23,A_Baseline,1,Q3FrontUp,-43.58147,26.16513,87.84396,-37.45145,-101.1925,152.3719,-53.22776,202408291816434934,
2-23,A_Baseline,1,Q3FrontUp,-43.55213,26.02809,87.97409,-37.46646,-101.1536,152.3826,-53.09294,202408291816435283,
2-23,A_Baseline,1,Q3FrontUp,-43.55213,26.02809,87.97409,-37.46646,-101.1536,152.3826,-53.09294,202408291816435487,
2-23,A_Baseline,1,Q3FrontUp,-43.52644,25.76288,88.26256,-37.50314,-101.0804,152.3856,-52.82505,202408291816435707,
2-23,A_Baseline,1,Q3FrontUp,-43.52644,25.76288,88.26256,-37.50314,-101.0804,152.3856,-52.82505,202408291816435982,
2-23,A_Baseline,1,Q3FrontUp,-43.51501,25.63983,88.41089,-37.52257,-101.0468,152.3872,-52.70401,202408291816436322,
2-23,A_Baseline,1,Q3FrontUp,-43.50496,25.51507,88.53709,-37.54175,-101.0191,152.3884,-52.56926,202408291816436537,
2-23,A_Baseline,1,Q3FrontUp,-43.49689,25.40301,88.63702,-37.55257,-100.9968,152.3902,-52.45592,202408291816436804,
2-23,A_Baseline,1,Q3FrontUp,-43.4914,25.3137,88.66676,-37.56136,-101.0244,152.4223,-52.3361,202408291816437125,
2-23,A_Baseline,1,Q3FrontUp,-43.4914,25.3137,88.66676,-37.56136,-101.0244,152.4223,-52.3361,202408291816437326,
2-23,A_Baseline,1,Q3FrontUp,-43.50432,25.2231,88.65103,-37.57215,-101.0705,152.4496,-52.21904,202408291816437503,
2-23,A_Baseline,1,Q3FrontUp,-43.52261,25.17006,88.62767,-37.58164,-101.1069,152.4718,-52.10457,202408291816437762,
2-23,A_Baseline,1,Q3FrontUp,-43.52261,25.17006,88.62767,-37.58164,-101.1069,152.4718,-52.10457,202408291816437936,
2-23,A_Baseline,1,Q3FrontUp,-43.55216,25.15767,88.60928,-37.58181,-101.1263,152.4877,-51.9968,202408291816438111,
2-23,A_Baseline,1,Q3FrontUp,-43.55216,25.15767,88.60928,-37.58181,-101.1263,152.4877,-51.9968,202408291816438282,
2-23,A_Baseline,1,Q3FrontUp,-43.58963,25.16228,88.57711,-37.58704,-101.1458,152.4909,-51.88717,202408291816438479,
2-23,A_Baseline,1,Q3FrontUp,-43.62412,25.18363,88.54273,-37.6088,-101.1615,152.4925,-51.77938,202408291816438693,
2-23,A_Baseline,1,Q3FrontUp,-43.62412,25.18363,88.54273,-37.6088,-101.1615,152.4925,-51.77938,202408291816438876,
2-23,A_Baseline,1,Q3FrontUp,-43.67091,25.20803,88.51071,-37.62368,-101.1712,152.493,-51.68172,202408291816439137,
2-23,A_Baseline,1,Q3FrontUp,-43.67091,25.20803,88.51071,-37.62368,-101.1712,152.493,-51.68172,202408291816439311,
2-23,A_Baseline,1,Q3FrontUp,-43.71579,25.23507,88.47935,-37.63286,-101.1794,152.4936,-51.59238,202408291816439486,
2-23,A_Baseline,1,Q3FrontUp,-43.75955,25.26086,88.45432,-37.64757,-101.185,152.4944,-51.49511,202408291816439672,
2-23,A_Baseline,1,Q3FrontUp,-43.75955,25.26086,88.45432,-37.64757,-101.185,152.4944,-51.49511,202408291816439962,
2-23,A_Baseline,1,Q3FrontUp,-43.80547,25.28142,88.44079,-37.65148,-101.1924,152.495,-51.40815,202408291816440266,
2-23,A_Baseline,1,Q3FrontUp,-43.85055,25.3004,88.42813,-37.65445,-101.1968,152.4954,-51.33199,202408291816440515,
2-23,A_Baseline,1,Q3FrontUp,-43.85055,25.3004,88.42813,-37.65445,-101.1968,152.4954,-51.33199,202408291816440659,
2-23,A_Baseline,1,Q3FrontUp,-43.89613,25.31676,88.4229,-37.66601,-101.1993,152.4959,-51.25828,202408291816440966,
2-23,A_Baseline,1,Q3FrontUp,-43.94622,25.33141,88.42132,-37.68,-101.2,152.4969,-51.18196,202408291816441113,
2-23,A_Baseline,1,Q3FrontUp,-43.94622,25.33141,88.42132,-37.68,-101.2,152.4969,-51.18196,202408291816441309,
2-23,A_Baseline,1,Q3FrontUp,-43.9969,25.34616,88.42191,-37.69698,-101.2001,152.4976,-51.10468,202408291816441485,
2-23,A_Baseline,1,Q3FrontUp,-43.9969,25.34616,88.42191,-37.69698,-101.2001,152.4976,-51.10468,202408291816441663,
2-23,A_Baseline,1,Q3FrontUp,-44.04523,25.35864,88.42262,-37.72068,-101.2006,152.4987,-51.02811,202408291816441897,
2-23,A_Baseline,1,Q3FrontUp,-44.0883,25.36691,88.42233,-37.74333,-101.2007,152.4997,-50.96391,202408291816442203,
2-23,A_Baseline,1,Q3FrontUp,-44.12409,25.37769,88.42173,-37.76554,-101.2006,152.5056,-50.89617,202408291816442442,
2-23,A_Baseline,1,Q3FrontUp,-44.12409,25.37769,88.42173,-37.76554,-101.2006,152.5056,-50.89617,202408291816442610,
2-23,A_Baseline,1,Q3FrontUp,-44.14828,25.3868,88.42173,-37.78527,-101.2007,152.5325,-50.83238,202408291816442779,
2-23,A_Baseline,1,Q3FrontUp,-44.16223,25.39364,88.42162,-37.81142,-101.2008,152.5442,-50.77603,202408291816442986,
2-23,A_Baseline,1,Q3FrontUp,-44.16223,25.39364,88.42162,-37.81142,-101.2008,152.5442,-50.77603,202408291816443265,
2-23,A_Baseline,1,Q3FrontUp,-44.17215,25.3956,88.42158,-37.8382,-101.2006,152.5597,-50.727,202408291816443449,
2-23,A_Baseline,1,Q3FrontUp,-44.17495,25.39559,88.42187,-37.87508,-101.2003,152.5735,-50.67557,202408291816443688,
2-23,A_Baseline,1,Q3FrontUp,-44.17461,25.39413,88.42308,-37.9154,-101.2002,152.589,-50.62562,202408291816443992,
2-23,A_Baseline,1,Q3FrontUp,-44.17461,25.39413,88.42308,-37.9154,-101.2002,152.589,-50.62562,202408291816444191,
2-23,A_Baseline,1,Q3FrontUp,-44.17467,25.39335,88.42426,-37.96027,-101.2,152.6114,-50.58024,202408291816444435,
2-23,A_Baseline,1,Q3FrontUp,-44.17467,25.39335,88.42426,-37.96027,-101.2,152.6114,-50.58024,202408291816444683,
2-23,A_Baseline,1,Q3FrontUp,-44.17423,25.39257,88.43,-38.01056,-101.2001,152.6298,-50.53437,202408291816444935,
2-23,A_Baseline,1,Q3FrontUp,-44.17401,25.39274,88.43141,-38.05893,-101.2001,152.6485,-50.49775,202408291816445160,
2-23,A_Baseline,1,Q3FrontUp,-44.17401,25.39274,88.43141,-38.05893,-101.2001,152.6485,-50.49775,202408291816445440,
2-23,A_Baseline,1,Q3FrontUp,-44.17454,25.39264,88.43265,-38.10245,-101.2005,152.6608,-50.46061,202408291816445601,
2-23,A_Baseline,1,Q3FrontUp,-44.17767,25.39342,88.44306,-38.15204,-101.2006,152.6869,-50.41856,202408291816445762,
2-23,A_Baseline,1,Q3FrontUp,-44.17767,25.39342,88.44306,-38.15204,-101.2006,152.6869,-50.41856,202408291816445931,
2-23,A_Baseline,1,Q3FrontUp,-44.18148,25.39373,88.45274,-38.19889,-101.201,152.7077,-50.36989,202408291816446109,
2-23,A_Baseline,1,Q3FrontUp,-44.18148,25.39373,88.45274,-38.19889,-101.201,152.7077,-50.36989,202408291816446318,
2-23,A_Baseline,1,Q3FrontUp,-44.18575,25.39284,88.45829,-38.23939,-101.2012,152.7312,-50.32563,202408291816446532,
2-23,A_Baseline,1,Q3FrontUp,-44.1869,25.39181,88.45856,-38.28121,-101.2011,152.7464,-50.28318,202408291816446699,
2-23,A_Baseline,1,Q3FrontUp,-44.1869,25.39181,88.45856,-38.28121,-101.2011,152.7464,-50.28318,202408291816446939,
2-23,A_Baseline,1,Q3FrontUp,-44.18761,25.39167,88.45914,-38.31743,-101.2012,152.7735,-50.24332,202408291816447168,
2-23,A_Baseline,1,Q3FrontUp,-44.18797,25.39185,88.45901,-38.35356,-101.2011,152.7898,-50.20599,202408291816447543,
2-23,A_Baseline,1,Q3FrontUp,-44.18858,25.39227,88.45874,-38.39005,-101.201,152.8076,-50.17427,202408291816447820,
2-23,A_Baseline,1,Q3FrontUp,-44.18858,25.39227,88.45874,-38.39005,-101.201,152.8076,-50.17427,202408291816447988,
2-23,A_Baseline,1,Q3FrontUp,-44.18872,25.39285,88.45679,-38.47112,-101.2015,152.8353,-50.10862,202408291816448389,
2-23,A_Baseline,1,Q3FrontUp,-44.1884,25.39216,88.45636,-38.50864,-101.2013,152.8548,-50.07986,202408291816448685,
2-23,A_Baseline,1,Q3FrontUp,-44.1884,25.39216,88.45636,-38.50864,-101.2013,152.8548,-50.07986,202408291816448866,
2-23,A_Baseline,1,Q3FrontUp,-44.1866,25.39128,88.45007,-38.54166,-101.201,152.8769,-50.05502,202408291816449197,
2-23,A_Baseline,1,Q3FrontUp,-44.18274,25.38779,88.44839,-38.57232,-101.1932,152.8849,-50.03384,202408291816449361,
2-23,A_Baseline,1,Q3FrontUp,-44.18274,25.38779,88.44839,-38.57232,-101.1932,152.8849,-50.03384,202408291816449522,
2-23,A_Baseline,1,Q3FrontUp,-44.15545,25.37039,88.51553,-38.59318,-101.1035,152.8828,-50.00657,202408291816449841,
2-23,A_Baseline,1,Q3FrontUp,-44.15545,25.37039,88.51553,-38.59318,-101.1035,152.8828,-50.00657,202408291816450126,
2-23,A_Baseline,1,Q3FrontUp,-44.06356,25.29469,88.62854,-38.67643,-101.0109,152.8845,-49.95273,202408291816450454,
2-23,A_Baseline,1,Q3FrontUp,-44.06356,25.29469,88.62854,-38.67643,-101.0109,152.8845,-49.95273,202408291816450610,
2-23,A_Baseline,1,Q3FrontUp,-44.0016,25.21231,88.66322,-38.73502,-100.9931,152.8855,-49.92273,202408291816450808,
2-23,A_Baseline,1,Q3FrontUp,-43.94136,25.11555,88.69441,-38.77653,-100.975,152.8864,-49.88758,202408291816451085,
2-23,A_Baseline,1,Q3FrontUp,-43.94136,25.11555,88.69441,-38.77653,-100.975,152.8864,-49.88758,202408291816451285,
2-23,A_Baseline,1,Q3FrontUp,-43.8816,25.0017,88.71146,-38.80275,-100.9661,152.8863,-49.85627,202408291816451584,
2-23,A_Baseline,1,Q3FrontUp,-43.83012,24.8946,88.64439,-38.85688,-101.0115,152.902,-49.8298,202408291816451862,
2-23,A_Baseline,1,Q3FrontUp,-43.83012,24.8946,88.64439,-38.85688,-101.0115,152.902,-49.8298,202408291816452151,
2-23,A_Baseline,1,Q3FrontUp,-43.79814,24.79926,88.60246,-38.87848,-101.0353,152.914,-49.80843,202408291816452471,
2-23,A_Baseline,1,Q3FrontUp,-43.79814,24.79926,88.60246,-38.87848,-101.0353,152.914,-49.80843,202408291816452788,
2-23,A_Baseline,1,Q3FrontUp,-43.73024,24.67359,88.4289,-38.90818,-101.0549,152.9212,-49.74544,202408291816453041,
2-23,A_Baseline,1,Q3FrontUp,-43.73024,24.67359,88.4289,-38.90818,-101.0549,152.9212,-49.74544,202408291816453308,
2-23,A_Baseline,1,Q3FrontUp,-43.697,24.67125,88.33485,-38.92549,-101.0583,152.922,-49.72523,202408291816453612,
2-23,A_Baseline,1,Q3FrontUp,-43.67707,24.67136,88.21658,-38.93604,-101.0719,152.9218,-49.69937,202408291816453802,
2-23,A_Baseline,1,Q3FrontUp,-43.67707,24.67136,88.21658,-38.93604,-101.0719,152.9218,-49.69937,202408291816453985,
2-23,A_Baseline,1,Q3FrontUp,-43.64198,24.67656,87.94405,-38.97683,-101.083,152.92,-49.65685,202408291816454345,
2-23,A_Baseline,1,Q3FrontUp,-43.57619,24.68456,87.83139,-38.97783,-101.068,152.9163,-49.63216,202408291816454627,
2-23,A_Baseline,1,Q3FrontUp,-43.57619,24.68456,87.83139,-38.97783,-101.068,152.9163,-49.63216,202408291816454853,
2-23,A_Baseline,1,Q3FrontUp,-43.50334,24.68845,87.78945,-38.98926,-101.026,152.8966,-49.61797,202408291816455103,
2-23,A_Baseline,1,Q3FrontUp,-43.50334,24.68845,87.78945,-38.98926,-101.026,152.8966,-49.61797,202408291816455275,
2-23,A_Baseline,1,Q3FrontUp,-43.42412,24.68532,87.79055,-39.00238,-100.9955,152.8787,-49.61246,202408291816455471,
2-23,A_Baseline,1,Q3FrontUp,-43.32178,24.66699,87.79259,-39.03419,-100.9756,152.8758,-49.6001,202408291816455762,
2-23,A_Baseline,1,Q3FrontUp,-43.32178,24.66699,87.79259,-39.03419,-100.9756,152.8758,-49.6001,202408291816455941,
2-23,A_Baseline,1,Q3FrontUp,-43.19059,24.63237,87.7633,-39.04485,-100.9679,152.8731,-49.59112,202408291816456201,
2-23,A_Baseline,1,Q3FrontUp,-43.04321,24.57819,87.7039,-39.04268,-100.9695,152.8696,-49.57876,202408291816456526,
2-23,A_Baseline,1,Q3FrontUp,-43.04321,24.57819,87.7039,-39.04268,-100.9695,152.8696,-49.57876,202408291816456800,
2-23,A_Baseline,1,Q3FrontUp,-42.90411,24.49572,87.49957,-39.04538,-101.009,152.8573,-49.55574,202408291816457002,
2-23,A_Baseline,1,Q3FrontUp,-42.76471,24.39916,87.21913,-39.04846,-101.0648,152.847,-49.53055,202408291816457332,
2-23,A_Baseline,1,Q3FrontUp,-42.63072,24.30494,86.90177,-39.06295,-101.1064,152.8377,-49.51117,202408291816457574,
2-23,A_Baseline,1,Q3FrontUp,-42.44339,24.2336,86.61713,-39.04826,-101.0665,152.7702,-49.49586,202408291816457830,
2-23,A_Baseline,1,Q3FrontUp,-42.22611,24.18464,86.33256,-39.04806,-101.0501,152.7149,-49.48198,202408291816458100,
2-23,A_Baseline,1,Q3FrontUp,-42.22611,24.18464,86.33256,-39.04806,-101.0501,152.7149,-49.48198,202408291816458267,
2-23,A_Baseline,1,Q3FrontUp,-42.22611,24.18464,86.33256,-39.04806,-101.0501,152.7149,-49.48198,202408291816458455,
2-23,A_Baseline,1,Q3FrontUp,-41.7305,24.09935,85.83755,-39.07345,-101.0075,152.6067,-49.45313,202408291816458697,
2-23,A_Baseline,1,Q3FrontUp,-41.7305,24.09935,85.83755,-39.07345,-101.0075,152.6067,-49.45313,202408291816458966,
2-23,A_Baseline,1,Q3FrontUp,-41.48965,24.03616,85.58481,-39.08064,-100.9949,152.5478,-49.43726,202408291816459152,
2-23,A_Baseline,1,Q3FrontUp,-41.48965,24.03616,85.58481,-39.08064,-100.9949,152.5478,-49.43726,202408291816459404,
2-23,A_Baseline,1,Q3FrontUp,-41.2538,23.97429,85.37148,-39.08469,-100.9876,152.4849,-49.42447,202408291816459633,
2-23,A_Baseline,1,Q3FrontUp,-41.05632,23.91741,85.22847,-39.11937,-100.987,152.4259,-49.41516,202408291816459862,
2-23,A_Baseline,1,Q3FrontUp,-40.87262,23.85838,85.09001,-39.14891,-100.9861,152.3711,-49.40241,202408291816460120,
2-23,A_Baseline,1,Q3FrontUp,-40.70374,23.7982,84.95709,-39.16904,-100.9857,152.3215,-49.38972,202408291816460447,
2-23,A_Baseline,1,Q3FrontUp,-40.55181,23.73655,84.83813,-39.19394,-100.985,152.2729,-49.38345,202408291816460619,
2-23,A_Baseline,1,Q3FrontUp,-40.55181,23.73655,84.83813,-39.19394,-100.985,152.2729,-49.38345,202408291816460796,
2-23,A_Baseline,1,Q3FrontUp,-40.55181,23.73655,84.83813,-39.19394,-100.985,152.2729,-49.38345,202408291816461052,
2-23,A_Baseline,1,Q3FrontUp,-40.41922,23.6711,84.74664,-39.20961,-100.9841,152.2286,-49.37987,202408291816461321,
2-23,A_Baseline,1,Q3FrontUp,-40.30209,23.60643,84.65283,-39.23251,-100.9855,152.1784,-49.37796,202408291816461489,
2-23,A_Baseline,1,Q3FrontUp,-40.30209,23.60643,84.65283,-39.23251,-100.9855,152.1784,-49.37796,202408291816461659,
2-23,A_Baseline,1,Q3FrontUp,-40.16417,23.45883,84.22464,-39.2569,-101.0574,152.078,-49.37904,202408291816462029,
2-23,A_Baseline,1,Q3FrontUp,-40.16417,23.45883,84.22464,-39.2569,-101.0574,152.078,-49.37904,202408291816462266,
2-23,A_Baseline,1,Q3FrontUp,-40.13873,23.40438,83.99384,-39.26243,-101.0915,152.0558,-49.37815,202408291816462454,
2-23,A_Baseline,1,Q3FrontUp,-40.13873,23.40438,83.99384,-39.26243,-101.0915,152.0558,-49.37815,202408291816462642,
2-23,A_Baseline,1,Q3FrontUp,-40.12839,23.38965,83.77852,-39.26184,-101.1071,152.0293,-49.37737,202408291816462940,
2-23,A_Baseline,1,Q3FrontUp,-40.1219,23.3917,83.55832,-39.26218,-101.1189,152.0048,-49.37575,202408291816463161,
2-23,A_Baseline,1,Q3FrontUp,-40.12056,23.39817,83.3243,-39.26429,-101.1206,151.9697,-49.37585,202408291816463436,
2-23,A_Baseline,1,Q3FrontUp,-40.12056,23.39817,83.3243,-39.26429,-101.1206,151.9697,-49.37585,202408291816463612,
2-23,A_Baseline,1,Q3FrontUp,-40.07108,23.42604,83.22609,-39.26273,-101.0493,151.9088,-49.37506,202408291816463822,
2-23,A_Baseline,1,Q3FrontUp,-40.07108,23.42604,83.22609,-39.26273,-101.0493,151.9088,-49.37506,202408291816463975,
2-23,A_Baseline,1,Q3FrontUp,-40.00197,23.44709,83.13009,-39.28125,-101.0143,151.8686,-49.37398,202408291816464279,
2-23,A_Baseline,1,Q3FrontUp,-39.92444,23.44617,83.05288,-39.29263,-100.9976,151.8436,-49.37333,202408291816464444,
2-23,A_Baseline,1,Q3FrontUp,-39.92444,23.44617,83.05288,-39.29263,-100.9976,151.8436,-49.37333,202408291816464669,
2-23,A_Baseline,1,Q3FrontUp,-39.83155,23.43005,82.95539,-39.33134,-100.999,151.8441,-49.37231,202408291816464934,
2-23,A_Baseline,1,Q3FrontUp,-39.77408,23.40125,82.84148,-39.35168,-101.0189,151.8475,-49.35506,202408291816465141,
2-23,A_Baseline,1,Q3FrontUp,-39.77408,23.40125,82.84148,-39.35168,-101.0189,151.8475,-49.35506,202408291816465361,
2-23,A_Baseline,1,Q3FrontUp,-39.75037,23.37139,82.71485,-39.37065,-101.0377,151.8532,-49.33722,202408291816465607,
2-23,A_Baseline,1,Q3FrontUp,-39.74095,23.35687,82.59777,-39.3791,-101.049,151.8554,-49.32208,202408291816465856,
2-23,A_Baseline,1,Q3FrontUp,-39.717,23.36214,82.53059,-39.38612,-100.9864,151.8587,-49.31664,202408291816466119,
2-23,A_Baseline,1,Q3FrontUp,-39.717,23.36214,82.53059,-39.38612,-100.9864,151.8587,-49.31664,202408291816466295,
2-23,A_Baseline,1,Q3FrontUp,-39.69353,23.38183,82.48682,-39.39425,-100.9068,151.8605,-49.31647,202408291816466529,
2-23,A_Baseline,1,Q3FrontUp,-39.64541,23.3973,82.45808,-39.41788,-100.8109,151.8842,-49.30825,202408291816466813,
2-23,A_Baseline,1,Q3FrontUp,-39.64541,23.3973,82.45808,-39.41788,-100.8109,151.8842,-49.30825,202408291816466972,
2-23,A_Baseline,1,Q3FrontUp,-39.58373,23.39588,82.44414,-39.45984,-100.7234,151.9048,-49.29616,202408291816467382,
2-23,A_Baseline,1,Q3FrontUp,-39.42152,23.37462,82.43843,-39.51883,-100.5425,151.944,-49.27202,202408291816467674,
2-23,A_Baseline,1,Q3FrontUp,-39.3054,23.35699,82.41646,-39.53006,-100.4537,151.9536,-49.25748,202408291816467956,
2-23,A_Baseline,1,Q3FrontUp,-39.3054,23.35699,82.41646,-39.53006,-100.4537,151.9536,-49.25748,202408291816468131,
2-23,A_Baseline,1,Q3FrontUp,-39.3054,23.35699,82.41646,-39.53006,-100.4537,151.9536,-49.25748,202408291816468294,
2-23,A_Baseline,1,Q3FrontUp,-39.17018,23.34634,82.39054,-39.5359,-100.3506,151.9564,-49.24664,202408291816468501,
2-23,A_Baseline,1,Q3FrontUp,-39.03752,23.33631,82.36873,-39.54477,-100.2561,151.9606,-49.23203,202408291816468710,
2-23,A_Baseline,1,Q3FrontUp,-39.03752,23.33631,82.36873,-39.54477,-100.2561,151.9606,-49.23203,202408291816468987,
2-23,A_Baseline,1,Q3FrontUp,-38.90789,23.32538,82.35381,-39.56653,-100.1659,151.9707,-49.216,202408291816469327,
2-23,A_Baseline,1,Q3FrontUp,-38.78459,23.31008,82.34367,-39.58799,-100.0757,151.9761,-49.20589,202408291816469671,
2-23,A_Baseline,1,Q3FrontUp,-38.66984,23.30122,82.33447,-39.59843,-99.98335,151.9766,-49.20375,202408291816469945,
2-23,A_Baseline,1,Q3FrontUp,-38.56593,23.28432,82.33172,-39.61253,-99.88324,151.9779,-49.20258,202408291816470114,
2-23,A_Baseline,1,Q3FrontUp,-38.56593,23.28432,82.33172,-39.61253,-99.88324,151.9779,-49.20258,202408291816470272,
2-23,A_Baseline,1,Q3FrontUp,-38.46685,23.26711,82.33186,-39.62316,-99.8059,151.9792,-49.20134,202408291816470536,
2-23,A_Baseline,1,Q3FrontUp,-38.46685,23.26711,82.33186,-39.62316,-99.8059,151.9792,-49.20134,202408291816470700,
2-23,A_Baseline,1,Q3FrontUp,-38.37044,23.24897,82.33218,-39.62811,-99.73772,151.9796,-49.1999,202408291816470973,
2-23,A_Baseline,1,Q3FrontUp,-38.28173,23.22397,82.33211,-39.63675,-99.67744,151.9808,-49.19823,202408291816471126,
2-23,A_Baseline,1,Q3FrontUp,-38.19816,23.19785,82.33264,-39.64783,-99.62253,151.9821,-49.19621,202408291816471320,
2-23,A_Baseline,1,Q3FrontUp,-38.19816,23.19785,82.33264,-39.64783,-99.62253,151.9821,-49.19621,202408291816471491,
2-23,A_Baseline,1,Q3FrontUp,-38.19816,23.19785,82.33264,-39.64783,-99.62253,151.9821,-49.19621,202408291816471661,
2-23,A_Baseline,1,Q3FrontUp,-38.13636,23.17342,82.3332,-39.65804,-99.57184,151.983,-49.19569,202408291816471893,
2-23,A_Baseline,1,Q3FrontUp,-38.08759,23.15173,82.3331,-39.66623,-99.52055,151.9837,-49.19468,202408291816472261,
2-23,A_Baseline,1,Q3FrontUp,-38.04577,23.1332,82.33431,-39.66992,-99.47498,151.9841,-49.19421,202408291816472450,
2-23,A_Baseline,1,Q3FrontUp,-38.02324,23.11769,82.33566,-39.67181,-99.43275,151.9863,-49.19267,202408291816472782,
2-23,A_Baseline,1,Q3FrontUp,-38.00571,23.10794,82.33577,-39.67359,-99.39566,152.002,-49.19194,202408291816473035,
2-23,A_Baseline,1,Q3FrontUp,-38.00571,23.10794,82.33577,-39.67359,-99.39566,152.002,-49.19194,202408291816473277,
2-23,A_Baseline,1,Q3FrontUp,-37.98993,23.09983,82.33566,-39.6748,-99.36039,152.0194,-49.19096,202408291816473468,
2-23,A_Baseline,1,Q3FrontUp,-37.97908,23.09645,82.33565,-39.67544,-99.32959,152.0294,-49.19014,202408291816473700,
2-23,A_Baseline,1,Q3FrontUp,-37.96993,23.09458,82.33511,-39.6754,-99.29514,152.035,-49.18933,202408291816473992,
2-23,A_Baseline,1,Q3FrontUp,-37.96993,23.09458,82.33511,-39.6754,-99.29514,152.035,-49.18933,202408291816474220,
2-23,A_Baseline,1,Q3FrontUp,-37.95988,23.09394,82.33467,-39.67567,-99.26398,152.0402,-49.18925,202408291816474450,
2-23,A_Baseline,1,Q3FrontUp,-37.95988,23.09394,82.33467,-39.67567,-99.26398,152.0402,-49.18925,202408291816474688,
2-23,A_Baseline,1,Q3FrontUp,-37.95116,23.09394,82.33379,-39.67579,-99.23241,152.0569,-49.1874,202408291816474935,
2-23,A_Baseline,1,Q3FrontUp,-37.93827,23.09411,82.33232,-39.67551,-99.20255,152.0691,-49.18438,202408291816475110,
2-23,A_Baseline,1,Q3FrontUp,-37.93827,23.09411,82.33232,-39.67551,-99.20255,152.0691,-49.18438,202408291816475364,
2-23,A_Baseline,1,Q3FrontUp,-37.92327,23.09332,82.32407,-39.67509,-99.18083,152.0875,-49.16807,202408291816475621,
2-23,A_Baseline,1,Q3FrontUp,-37.92097,23.08881,82.23026,-39.67798,-99.19109,152.1204,-49.16175,202408291816475798,
2-23,A_Baseline,1,Q3FrontUp,-37.92097,23.08881,82.23026,-39.67798,-99.19109,152.1204,-49.16175,202408291816475998,
2-23,A_Baseline,1,Q3FrontUp,-37.92294,23.08885,82.13234,-39.67482,-99.19535,152.1455,-49.15326,202408291816476179,
2-23,A_Baseline,1,Q3FrontUp,-37.92561,23.09181,82.01865,-39.67051,-99.20457,152.1558,-49.14267,202408291816476385,
2-23,A_Baseline,1,Q3FrontUp,-37.92561,23.09181,82.01865,-39.67051,-99.20457,152.1558,-49.14267,202408291816476664,
2-23,A_Baseline,1,Q3FrontUp,-37.93616,23.10002,81.8662,-39.64467,-99.2396,152.1779,-49.13911,202408291816476861,
2-23,A_Baseline,1,Q3FrontUp,-37.94781,23.12603,81.73238,-39.63422,-99.26138,152.183,-49.13494,202408291816477176,
2-23,A_Baseline,1,Q3FrontUp,-37.94922,23.15933,81.60942,-39.63295,-99.2707,152.1898,-49.13104,202408291816477444,
2-23,A_Baseline,1,Q3FrontUp,-37.94922,23.15933,81.60942,-39.63295,-99.2707,152.1898,-49.13104,202408291816477642,
2-23,A_Baseline,1,Q3FrontUp,-37.94213,23.18689,81.49277,-39.60104,-99.26672,152.1976,-49.12836,202408291816477937,
2-23,A_Baseline,1,Q3FrontUp,-37.91366,23.20303,81.40794,-39.57761,-99.21651,152.2012,-49.12576,202408291816478106,
2-23,A_Baseline,1,Q3FrontUp,-37.91366,23.20303,81.40794,-39.57761,-99.21651,152.2012,-49.12576,202408291816478286,
2-23,A_Baseline,1,Q3FrontUp,-37.86444,23.20868,81.36163,-39.5571,-99.17535,152.2013,-49.12238,202408291816478552,
2-23,A_Baseline,1,Q3FrontUp,-37.79463,23.20561,81.34041,-39.54082,-99.13583,152.2019,-49.12242,202408291816478817,
2-23,A_Baseline,1,Q3FrontUp,-37.79463,23.20561,81.34041,-39.54082,-99.13583,152.2019,-49.12242,202408291816478981,
2-23,A_Baseline,1,Q3FrontUp,-37.70058,23.19006,81.33843,-39.51852,-99.10786,152.2061,-49.12242,202408291816479338,
2-23,A_Baseline,1,Q3FrontUp,-37.59803,23.15242,81.33971,-39.49759,-99.08225,152.2284,-49.12011,202408291816479655,
2-23,A_Baseline,1,Q3FrontUp,-37.49614,23.1055,81.34253,-39.47022,-99.06412,152.2472,-49.11971,202408291816479962,
2-23,A_Baseline,1,Q3FrontUp,-37.41051,23.04535,81.35644,-39.44675,-99.0334,152.2635,-49.11912,202408291816480135,
2-23,A_Baseline,1,Q3FrontUp,-37.33306,22.97178,81.37245,-39.43381,-98.99758,152.2784,-49.11921,202408291816480437,
2-23,A_Baseline,1,Q3FrontUp,-37.33306,22.97178,81.37245,-39.43381,-98.99758,152.2784,-49.11921,202408291816480632,
2-23,A_Baseline,1,Q3FrontUp,-37.26274,22.90222,81.38963,-39.41855,-98.95875,152.2931,-49.11896,202408291816480939,
2-23,A_Baseline,1,Q3FrontUp,-37.20307,22.8233,81.42169,-39.39721,-98.92127,152.3078,-49.11916,202408291816481103,
2-23,A_Baseline,1,Q3FrontUp,-37.16094,22.73856,81.45817,-39.37318,-98.90115,152.3383,-49.11819,202408291816481314,
2-23,A_Baseline,1,Q3FrontUp,-37.16094,22.73856,81.45817,-39.37318,-98.90115,152.3383,-49.11819,202408291816481501,
2-23,A_Baseline,1,Q3FrontUp,-37.16201,22.66352,81.45437,-39.34634,-98.94727,152.3922,-49.11756,202408291816481684,
2-23,A_Baseline,1,Q3FrontUp,-37.16201,22.66352,81.45437,-39.34634,-98.94727,152.3922,-49.11756,202408291816481951,
2-23,A_Baseline,1,Q3FrontUp,-37.16738,22.60388,81.44655,-39.29678,-98.9803,152.4449,-49.11734,202408291816482144,
2-23,A_Baseline,1,Q3FrontUp,-37.18072,22.56451,81.4342,-39.24428,-98.99938,152.4962,-49.11684,202408291816482465,
2-23,A_Baseline,1,Q3FrontUp,-37.2024,22.54402,81.40329,-39.13649,-99.00537,152.5412,-49.11702,202408291816482665,
2-23,A_Baseline,1,Q3FrontUp,-37.2024,22.54402,81.40329,-39.13649,-99.00537,152.5412,-49.11702,202408291816482872,
2-23,A_Baseline,1,Q3FrontUp,-37.2024,22.54402,81.40329,-39.13649,-99.00537,152.5412,-49.11702,202408291816483060,
2-23,A_Baseline,1,Q3FrontUp,-37.22382,22.54259,81.38884,-39.02868,-99.02592,152.5838,-49.11631,202408291816483266,
2-23,A_Baseline,1,Q3FrontUp,-37.25665,22.54741,81.38188,-38.94104,-99.04842,152.6365,-49.11604,202408291816483519,
2-23,A_Baseline,1,Q3FrontUp,-37.3044,22.55593,81.36554,-38.85384,-99.06425,152.6827,-49.11591,202408291816483800,
2-23,A_Baseline,1,Q3FrontUp,-37.36105,22.56141,81.35667,-38.76471,-99.0788,152.7341,-49.11557,202408291816484034,
2-23,A_Baseline,1,Q3FrontUp,-37.36105,22.56141,81.35667,-38.76471,-99.0788,152.7341,-49.11557,202408291816484319,
2-23,A_Baseline,1,Q3FrontUp,-37.39745,22.56023,81.35663,-38.6877,-99.07383,152.7846,-49.11437,202408291816484653,
2-23,A_Baseline,1,Q3FrontUp,-37.30407,22.54998,81.41159,-38.47631,-98.87328,152.8553,-49.08385,202408291816485046,
2-23,A_Baseline,1,Q3FrontUp,-37.24074,22.52318,81.4447,-38.39461,-98.80138,152.8935,-49.07534,202408291816485336,
2-23,A_Baseline,1,Q3FrontUp,-37.24074,22.52318,81.4447,-38.39461,-98.80138,152.8935,-49.07534,202408291816485592,
2-23,A_Baseline,1,Q3FrontUp,-37.21752,22.47579,81.43679,-38.35706,-98.80416,152.961,-49.06998,202408291816485760,
2-23,A_Baseline,1,Q3FrontUp,-37.21752,22.47579,81.43679,-38.35706,-98.80416,152.961,-49.06998,202408291816485939,
2-23,A_Baseline,1,Q3FrontUp,-37.20967,22.42358,81.42998,-38.29624,-98.80436,153.0189,-49.0663,202408291816486118,
2-23,A_Baseline,1,Q3FrontUp,-37.19771,22.38594,81.4215,-38.2382,-98.80117,153.065,-49.06482,202408291816486370,
2-23,A_Baseline,1,Q3FrontUp,-37.19771,22.38594,81.4215,-38.2382,-98.80117,153.065,-49.06482,202408291816486536,
2-23,A_Baseline,1,Q3FrontUp,-37.1383,22.37092,81.36742,-38.20066,-98.77802,153.0832,-49.06487,202408291816486810,
2-23,A_Baseline,1,Q3FrontUp,-37.05247,22.3593,81.33251,-38.19136,-98.72297,153.0882,-49.06435,202408291816487148,
2-23,A_Baseline,1,Q3FrontUp,-36.94312,22.35762,81.29423,-38.1973,-98.66348,153.0885,-49.06433,202408291816487343,
2-23,A_Baseline,1,Q3FrontUp,-36.94312,22.35762,81.29423,-38.1973,-98.66348,153.0885,-49.06433,202408291816487609,
2-23,A_Baseline,1,Q3FrontUp,-36.80146,22.35836,81.26553,-38.2155,-98.61011,153.0895,-49.0643,202408291816487929,
2-23,A_Baseline,1,Q3FrontUp,-36.68254,22.36607,81.14676,-38.25156,-98.61664,153.107,-49.06332,202408291816488165,
2-23,A_Baseline,1,Q3FrontUp,-36.601,22.36733,80.98957,-38.31404,-98.6454,153.119,-49.06272,202408291816488514,
2-23,A_Baseline,1,Q3FrontUp,-36.601,22.36733,80.98957,-38.31404,-98.6454,153.119,-49.06272,202408291816488801,
2-23,A_Baseline,1,Q3FrontUp,-36.47484,22.38243,80.91271,-38.32457,-98.57046,153.1169,-49.06062,202408291816488992,
2-23,A_Baseline,1,Q3FrontUp,-36.38035,22.41992,80.8115,-38.33014,-98.54674,153.1169,-49.06017,202408291816489154,
2-23,A_Baseline,1,Q3FrontUp,-36.29898,22.45255,80.68578,-38.32999,-98.54433,153.1171,-49.06015,202408291816489320,
2-23,A_Baseline,1,Q3FrontUp,-36.29898,22.45255,80.68578,-38.32999,-98.54433,153.1171,-49.06015,202408291816489527,
2-23,A_Baseline,1,Q3FrontUp,-36.17006,22.49161,80.57967,-38.36217,-98.53571,153.1177,-49.05998,202408291816489800,
2-23,A_Baseline,1,Q3FrontUp,-36.17006,22.49161,80.57967,-38.36217,-98.53571,153.1177,-49.05998,202408291816490109,
2-23,A_Baseline,1,Q3FrontUp,-35.99339,22.56338,80.39597,-38.38236,-98.51428,153.1169,-49.06052,202408291816490426,
2-23,A_Baseline,1,Q3FrontUp,-35.99339,22.56338,80.39597,-38.38236,-98.51428,153.1169,-49.06052,202408291816490677,
2-23,A_Baseline,1,Q3FrontUp,-35.89041,22.59373,80.33722,-38.40986,-98.47651,153.1167,-49.05985,202408291816490928,
2-23,A_Baseline,1,Q3FrontUp,-35.80183,22.62926,80.3073,-38.44558,-98.43018,153.1165,-49.05923,202408291816491129,
2-23,A_Baseline,1,Q3FrontUp,-35.80183,22.62926,80.3073,-38.44558,-98.43018,153.1165,-49.05923,202408291816491365,
2-23,A_Baseline,1,Q3FrontUp,-35.66222,22.68515,80.23012,-38.49305,-98.38185,153.1182,-49.05917,202408291816491696,
2-23,A_Baseline,1,Q3FrontUp,-35.66222,22.68515,80.23012,-38.49305,-98.38185,153.1182,-49.05917,202408291816491955,
2-23,A_Baseline,1,Q3FrontUp,-35.60988,22.69721,80.18762,-38.51586,-98.37901,153.1175,-49.05929,202408291816492146,
2-23,A_Baseline,1,Q3FrontUp,-35.60988,22.69721,80.18762,-38.51586,-98.37901,153.1175,-49.05929,202408291816492308,
2-23,A_Baseline,1,Q3FrontUp,-35.57049,22.72144,80.15127,-38.52726,-98.37527,153.1161,-49.05899,202408291816492607,
2-23,A_Baseline,1,Q3FrontUp,-35.54379,22.75416,80.15214,-38.55679,-98.36092,153.1148,-49.05898,202408291816492809,
2-23,A_Baseline,1,Q3FrontUp,-35.50835,22.78297,80.15249,-38.59181,-98.34766,153.1143,-49.05886,202408291816493092,
2-23,A_Baseline,1,Q3FrontUp,-35.50835,22.78297,80.15249,-38.59181,-98.34766,153.1143,-49.05886,202408291816493264,
2-23,A_Baseline,1,Q3FrontUp,-35.48071,22.81728,80.15125,-38.61903,-98.3471,153.1133,-49.05872,202408291816493438,
2-23,A_Baseline,1,Q3FrontUp,-35.48071,22.81728,80.15125,-38.61903,-98.3471,153.1133,-49.05872,202408291816493594,
2-23,A_Baseline,1,Q3FrontUp,-35.47776,22.87807,80.12657,-38.65776,-98.40617,153.1159,-49.05933,202408291816493812,
2-23,A_Baseline,1,Q3FrontUp,-35.46469,22.92309,80.11777,-38.68621,-98.40046,153.1115,-49.05962,202408291816494043,
2-23,A_Baseline,1,Q3FrontUp,-35.44242,22.99314,80.11712,-38.70848,-98.37714,153.1088,-49.05936,202408291816494316,
2-23,A_Baseline,1,Q3FrontUp,-35.44242,22.99314,80.11712,-38.70848,-98.37714,153.1088,-49.05936,202408291816494490,
2-23,A_Baseline,1,Q3FrontUp,-35.44242,22.99314,80.11712,-38.70848,-98.37714,153.1088,-49.05936,202408291816494671,
2-23,A_Baseline,1,Q3FrontUp,-35.3795,23.15817,80.11642,-38.77153,-98.37175,153.1073,-49.05915,202408291816495001,
2-23,A_Baseline,1,Q3FrontUp,-35.3795,23.15817,80.11642,-38.77153,-98.37175,153.1073,-49.05915,202408291816495267,
2-23,A_Baseline,1,Q3FrontUp,-35.3333,23.22388,80.11628,-38.82227,-98.37186,153.1076,-49.05909,202408291816495435,
2-23,A_Baseline,1,Q3FrontUp,-35.3333,23.22388,80.11628,-38.82227,-98.37186,153.1076,-49.05909,202408291816495600,
2-23,A_Baseline,1,Q3FrontUp,-35.30583,23.28743,80.11584,-38.84486,-98.37169,153.1072,-49.05911,202408291816495761,
2-23,A_Baseline,1,Q3FrontUp,-35.30583,23.28743,80.11584,-38.84486,-98.37169,153.1072,-49.05911,202408291816495966,
2-23,A_Baseline,1,Q3FrontUp,-35.30583,23.28743,80.11584,-38.84486,-98.37169,153.1072,-49.05911,202408291816496196,
2-23,A_Baseline,1,Q3FrontUp,-35.18973,23.42015,80.11293,-38.8868,-98.36803,153.1071,-49.05927,202408291816496457,
2-23,A_Baseline,1,Q3FrontUp,-35.18973,23.42015,80.11293,-38.8868,-98.36803,153.1071,-49.05927,202408291816496646,
2-23,A_Baseline,1,Q3FrontUp,-35.12466,23.47382,80.08765,-38.89101,-98.36483,153.1067,-49.05907,202408291816496814,
2-23,A_Baseline,1,Q3FrontUp,-35.05951,23.5123,80.04794,-38.90072,-98.36395,153.1068,-49.05923,202408291816497123,
2-23,A_Baseline,1,Q3FrontUp,-35.05951,23.5123,80.04794,-38.90072,-98.36395,153.1068,-49.05923,202408291816497434,
2-23,A_Baseline,1,Q3FrontUp,-34.98032,23.54584,79.994,-38.91862,-98.3639,153.1069,-49.05921,202408291816497600,
2-23,A_Baseline,1,Q3FrontUp,-34.89517,23.58268,79.92132,-38.94244,-98.3637,153.1068,-49.05894,202408291816497798,
2-23,A_Baseline,1,Q3FrontUp,-34.79741,23.62226,79.79919,-38.9605,-98.36893,153.1072,-49.05896,202408291816498096,
2-23,A_Baseline,1,Q3FrontUp,-34.79741,23.62226,79.79919,-38.9605,-98.36893,153.1072,-49.05896,202408291816498275,
2-23,A_Baseline,1,Q3FrontUp,-34.69621,23.65598,79.65526,-38.97403,-98.3724,153.1077,-49.05919,202408291816498517,
2-23,A_Baseline,1,Q3FrontUp,-34.60581,23.70533,79.52822,-38.98975,-98.37495,153.1077,-49.05915,202408291816498781,
2-23,A_Baseline,1,Q3FrontUp,-34.60581,23.70533,79.52822,-38.98975,-98.37495,153.1077,-49.05915,202408291816498929,
2-23,A_Baseline,1,Q3FrontUp,-34.51255,23.76972,79.42797,-39.00947,-98.37489,153.1073,-49.05902,202408291816499163,
2-23,A_Baseline,1,Q3FrontUp,-34.51255,23.76972,79.42797,-39.00947,-98.37489,153.1073,-49.05902,202408291816499336,
2-23,A_Baseline,1,Q3FrontUp,-34.41643,23.85336,79.34586,-39.0325,-98.37408,153.1064,-49.05894,202408291816499563,
2-23,A_Baseline,1,Q3FrontUp,-34.31894,23.94463,79.26186,-39.06842,-98.37389,153.1057,-49.05922,202408291816499825,
2-23,A_Baseline,1,Q3FrontUp,-34.22444,24.01357,79.17239,-39.10484,-98.37427,153.1053,-49.05891,202408291816500108,
2-23,A_Baseline,1,Q3FrontUp,-34.12943,24.0841,79.078,-39.14515,-98.3742,153.1056,-49.05877,202408291816500440,
2-23,A_Baseline,1,Q3FrontUp,-34.01487,24.1607,78.95914,-39.18593,-98.37416,153.1054,-49.05929,202408291816500696,
2-23,A_Baseline,1,Q3FrontUp,-34.01487,24.1607,78.95914,-39.18593,-98.37416,153.1054,-49.05929,202408291816500934,
2-23,A_Baseline,1,Q3FrontUp,-33.89769,24.22205,78.83743,-39.23528,-98.37416,153.1054,-49.05894,202408291816501103,
2-23,A_Baseline,1,Q3FrontUp,-33.89769,24.22205,78.83743,-39.23528,-98.37416,153.1054,-49.05894,202408291816501300,
2-23,A_Baseline,1,Q3FrontUp,-33.79205,24.27598,78.73766,-39.29484,-98.37411,153.105,-49.05909,202408291816501634,
2-23,A_Baseline,1,Q3FrontUp,-33.68656,24.33496,78.64531,-39.36388,-98.37396,153.1048,-49.05922,202408291816501864,
2-23,A_Baseline,1,Q3FrontUp,-33.58267,24.39627,78.55349,-39.45031,-98.37401,153.1051,-49.05907,202408291816502136,
2-23,A_Baseline,1,Q3FrontUp,-33.48974,24.44818,78.45963,-39.53497,-98.37423,153.1054,-49.05882,202408291816502521,
2-23,A_Baseline,1,Q3FrontUp,-33.48974,24.44818,78.45963,-39.53497,-98.37423,153.1054,-49.05882,202408291816502773,
2-23,A_Baseline,1,Q3FrontUp,-33.28159,24.54738,78.21327,-39.67756,-98.37422,153.1049,-49.05916,202408291816503008,
2-23,A_Baseline,1,Q3FrontUp,-33.28159,24.54738,78.21327,-39.67756,-98.37422,153.1049,-49.05916,202408291816503269,
2-23,A_Baseline,1,Q3FrontUp,-33.16292,24.60883,78.09463,-39.73957,-98.37428,153.105,-49.05906,202408291816503437,
2-23,A_Baseline,1,Q3FrontUp,-33.16292,24.60883,78.09463,-39.73957,-98.37428,153.105,-49.05906,202408291816503622,
2-23,A_Baseline,1,Q3FrontUp,-33.04374,24.6789,77.98331,-39.80152,-98.37435,153.1046,-49.05882,202408291816503793,
2-23,A_Baseline,1,Q3FrontUp,-33.04374,24.6789,77.98331,-39.80152,-98.37435,153.1046,-49.05882,202408291816504029,
2-23,A_Baseline,1,Q3FrontUp,-32.93822,24.73695,77.88157,-39.86351,-98.37415,153.1046,-49.05882,202408291816504327,
2-23,A_Baseline,1,Q3FrontUp,-32.84737,24.79413,77.78991,-39.93631,-98.37375,153.1049,-49.05922,202408291816504687,
2-23,A_Baseline,1,Q3FrontUp,-32.72835,24.83307,77.58411,-40.01968,-98.37443,153.1045,-49.05892,202408291816505028,
2-23,A_Baseline,1,Q3FrontUp,-32.61835,24.8633,77.38105,-40.10994,-98.37426,153.1047,-49.05902,202408291816505276,
2-23,A_Baseline,1,Q3FrontUp,-32.50756,24.89471,77.20352,-40.19523,-98.37397,153.105,-49.05882,202408291816505461,
2-23,A_Baseline,1,Q3FrontUp,-32.35135,24.91535,76.95763,-40.26948,-98.37408,153.1041,-49.05877,202408291816505691,
2-23,A_Baseline,1,Q3FrontUp,-32.35135,24.91535,76.95763,-40.26948,-98.37408,153.1041,-49.05877,202408291816505961,
2-23,A_Baseline,1,Q3FrontUp,-32.1749,24.92467,76.65724,-40.34539,-98.37436,153.1047,-49.05877,202408291816506211,
2-23,A_Baseline,1,Q3FrontUp,-32.00372,24.92519,76.36549,-40.42995,-98.37354,153.1046,-49.05817,202408291816506469,
2-23,A_Baseline,1,Q3FrontUp,-32.00372,24.92519,76.36549,-40.42995,-98.37354,153.1046,-49.05817,202408291816506642,
2-23,A_Baseline,1,Q3FrontUp,-31.7918,24.92326,75.99346,-40.49339,-98.37416,153.1035,-49.05664,202408291816506814,
2-23,A_Baseline,1,Q3FrontUp,-31.7918,24.92326,75.99346,-40.49339,-98.37416,153.1035,-49.05664,202408291816506962,
2-23,A_Baseline,1,Q3FrontUp,-31.5411,24.92226,75.55746,-40.54028,-98.37379,153.103,-49.05553,202408291816507190,
2-23,A_Baseline,1,Q3FrontUp,-31.29232,24.91183,75.09344,-40.58698,-98.37331,153.103,-49.05171,202408291816507454,
2-23,A_Baseline,1,Q3FrontUp,-31.02361,24.90263,74.55878,-40.62718,-98.37402,153.0988,-49.03214,202408291816507768,
2-23,A_Baseline,1,Q3FrontUp,-31.02361,24.90263,74.55878,-40.62718,-98.37402,153.0988,-49.03214,202408291816507942,
2-23,A_Baseline,1,Q3FrontUp,-30.78202,24.90673,74.06789,-40.66009,-98.37461,153.0933,-49.02094,202408291816508141,
2-23,A_Baseline,1,Q3FrontUp,-30.56181,24.90622,73.57451,-40.71656,-98.37353,153.0869,-49.01,202408291816508403,
2-23,A_Baseline,1,Q3FrontUp,-30.56181,24.90622,73.57451,-40.71656,-98.37353,153.0869,-49.01,202408291816508684,
2-23,A_Baseline,1,Q3FrontUp,-30.29885,24.90283,72.95663,-40.77931,-98.37425,153.0816,-48.99388,202408291816508873,
2-23,A_Baseline,1,Q3FrontUp,-30.01515,24.90375,72.3299,-40.83327,-98.37375,153.0807,-48.96769,202408291816509134,
2-23,A_Baseline,1,Q3FrontUp,-30.01515,24.90375,72.3299,-40.83327,-98.37375,153.0807,-48.96769,202408291816509337,
2-23,A_Baseline,1,Q3FrontUp,-29.74935,24.89536,71.70964,-40.90561,-98.3741,153.0797,-48.94227,202408291816509525,
2-23,A_Baseline,1,Q3FrontUp,-29.47881,24.89244,71.04958,-40.9665,-98.37409,153.0765,-48.92489,202408291816509803,
2-23,A_Baseline,1,Q3FrontUp,-29.20866,24.89562,70.44255,-41.05072,-98.3746,153.0751,-48.90387,202408291816510100,
2-23,A_Baseline,1,Q3FrontUp,-29.20866,24.89562,70.44255,-41.05072,-98.3746,153.0751,-48.90387,202408291816510264,
2-23,A_Baseline,1,Q3FrontUp,-28.9852,24.89895,69.90306,-41.15233,-98.37437,153.075,-48.88494,202408291816510495,
2-23,A_Baseline,1,Q3FrontUp,-28.77299,24.90779,69.39903,-41.25833,-98.37418,153.0749,-48.85468,202408291816510693,
2-23,A_Baseline,1,Q3FrontUp,-28.77299,24.90779,69.39903,-41.25833,-98.37418,153.0749,-48.85468,202408291816510989,
2-23,A_Baseline,1,Q3FrontUp,-28.58072,24.91272,68.9667,-41.35183,-98.37462,153.0741,-48.82753,202408291816511314,
2-23,A_Baseline,1,Q3FrontUp,-28.4349,24.92413,68.6208,-41.44073,-98.37432,153.0753,-48.80536,202408291816511654,
2-23,A_Baseline,1,Q3FrontUp,-28.30886,24.92358,68.27911,-41.52749,-98.3743,153.0748,-48.78356,202408291816511889,
2-23,A_Baseline,1,Q3FrontUp,-28.22239,24.92503,68.02654,-41.59698,-98.3744,153.0746,-48.76696,202408291816512089,
2-23,A_Baseline,1,Q3FrontUp,-28.22239,24.92503,68.02654,-41.59698,-98.3744,153.0746,-48.76696,202408291816512307,
2-23,A_Baseline,1,Q3FrontUp,-28.14823,24.9241,67.77797,-41.66544,-98.37434,153.0747,-48.74705,202408291816512460,
2-23,A_Baseline,1,Q3FrontUp,-28.07752,24.92245,67.54494,-41.72211,-98.37447,153.0748,-48.73973,202408291816512776,
2-23,A_Baseline,1,Q3FrontUp,-28.07752,24.92245,67.54494,-41.72211,-98.37447,153.0748,-48.73973,202408291816513031,
2-23,A_Baseline,1,Q3FrontUp,-28.00663,24.92436,67.34866,-41.75623,-98.3743,153.0749,-48.73131,202408291816513277,
2-23,A_Baseline,1,Q3FrontUp,-27.94102,24.92455,67.16647,-41.78271,-98.37432,153.0747,-48.72303,202408291816513459,
2-23,A_Baseline,1,Q3FrontUp,-27.94102,24.92455,67.16647,-41.78271,-98.37432,153.0747,-48.72303,202408291816513699,
2-23,A_Baseline,1,Q3FrontUp,-27.87063,24.92439,66.98225,-41.80289,-98.37437,153.0749,-48.71535,202408291816513999,
2-23,A_Baseline,1,Q3FrontUp,-27.78198,24.92459,66.79589,-41.82262,-98.37429,153.0745,-48.70304,202408291816514200,
2-23,A_Baseline,1,Q3FrontUp,-27.69994,24.92311,66.63068,-41.83764,-98.37449,153.0752,-48.69618,202408291816514453,
2-23,A_Baseline,1,Q3FrontUp,-27.69994,24.92311,66.63068,-41.83764,-98.37449,153.0752,-48.69618,202408291816514662,
2-23,A_Baseline,1,Q3FrontUp,-27.62381,24.91831,66.47154,-41.84686,-98.37455,153.0754,-48.6844,202408291816514939,
2-23,A_Baseline,1,Q3FrontUp,-27.53711,24.90603,66.3007,-41.85481,-98.37446,153.0753,-48.66706,202408291816515120,
2-23,A_Baseline,1,Q3FrontUp,-27.44814,24.89264,66.12614,-41.86408,-98.3744,153.0754,-48.65388,202408291816515364,
2-23,A_Baseline,1,Q3FrontUp,-27.44814,24.89264,66.12614,-41.86408,-98.3744,153.0754,-48.65388,202408291816515608,
2-23,A_Baseline,1,Q3FrontUp,-27.36502,24.8762,65.95811,-41.87333,-98.37421,153.0748,-48.64594,202408291816515784,
2-23,A_Baseline,1,Q3FrontUp,-27.36502,24.8762,65.95811,-41.87333,-98.37421,153.0748,-48.64594,202408291816515951,
2-23,A_Baseline,1,Q3FrontUp,-27.27504,24.86719,65.81625,-41.87755,-98.37432,153.0749,-48.63536,202408291816516185,
2-23,A_Baseline,1,Q3FrontUp,-27.17844,24.86032,65.68335,-41.87865,-98.37364,153.0754,-48.63017,202408291816516357,
2-23,A_Baseline,1,Q3FrontUp,-27.17844,24.86032,65.68335,-41.87865,-98.37364,153.0754,-48.63017,202408291816516653,
2-23,A_Baseline,1,Q3FrontUp,-27.0309,24.8304,65.41835,-41.87949,-98.37403,153.0751,-48.60969,202408291816516889,
2-23,A_Baseline,1,Q3FrontUp,-26.89278,24.79412,65.18263,-41.88511,-98.37415,153.0757,-48.59644,202408291816517190,
2-23,A_Baseline,1,Q3FrontUp,-26.6246,24.73262,64.72437,-41.90128,-98.37344,153.0754,-48.56137,202408291816517718,
2-23,A_Baseline,1,Q3FrontUp,-26.49275,24.71339,64.51002,-41.90877,-98.37344,153.0751,-48.54834,202408291816518050,
2-23,A_Baseline,1,Q3FrontUp,-26.36121,24.70163,64.32072,-41.91308,-98.37331,153.075,-48.53157,202408291816518323,
2-23,A_Baseline,1,Q3FrontUp,-26.36121,24.70163,64.32072,-41.91308,-98.37331,153.075,-48.53157,202408291816518581,
2-23,A_Baseline,1,Q3FrontUp,-26.25259,24.69791,64.16852,-41.91752,-98.37322,153.0754,-48.52155,202408291816518990,
2-23,A_Baseline,1,Q3FrontUp,-26.12917,24.6901,63.96667,-41.92702,-98.37309,153.0753,-48.50885,202408291816519284,
2-23,A_Baseline,1,Q3FrontUp,-26.00426,24.68109,63.75394,-41.94603,-98.37309,153.0757,-48.49523,202408291816519477,
2-23,A_Baseline,1,Q3FrontUp,-26.00426,24.68109,63.75394,-41.94603,-98.37309,153.0757,-48.49523,202408291816519661,
2-23,A_Baseline,1,Q3FrontUp,-25.86456,24.66988,63.49885,-41.95317,-98.37314,153.0751,-48.47673,202408291816519863,
2-23,A_Baseline,1,Q3FrontUp,-25.70036,24.64921,63.19315,-41.95382,-98.37166,153.0755,-48.4607,202408291816520071,
2-23,A_Baseline,1,Q3FrontUp,-25.70036,24.64921,63.19315,-41.95382,-98.37166,153.0755,-48.4607,202408291816520316,
2-23,A_Baseline,1,Q3FrontUp,-25.52976,24.62599,62.88911,-41.96289,-98.37064,153.0759,-48.45226,202408291816520621,
2-23,A_Baseline,1,Q3FrontUp,-25.35515,24.59765,62.53415,-41.99351,-98.37122,153.0755,-48.44147,202408291816520804,
2-23,A_Baseline,1,Q3FrontUp,-25.35515,24.59765,62.53415,-41.99351,-98.37122,153.0755,-48.44147,202408291816520996,
2-23,A_Baseline,1,Q3FrontUp,-25.20403,24.57287,62.20805,-42.03186,-98.3709,153.0749,-48.43048,202408291816521285,
2-23,A_Baseline,1,Q3FrontUp,-25.05635,24.55901,61.89474,-42.06507,-98.36905,153.0759,-48.41652,202408291816521527,
2-23,A_Baseline,1,Q3FrontUp,-24.84189,24.50842,61.40531,-42.10051,-98.36858,153.075,-48.39106,202408291816521860,
2-23,A_Baseline,1,Q3FrontUp,-24.84189,24.50842,61.40531,-42.10051,-98.36858,153.075,-48.39106,202408291816522152,
2-23,A_Baseline,1,Q3FrontUp,-24.51163,24.4422,60.61489,-42.19717,-98.36542,153.0761,-48.3498,202408291816522441,
2-23,A_Baseline,1,Q3FrontUp,-24.51163,24.4422,60.61489,-42.19717,-98.36542,153.0761,-48.3498,202408291816522598,
2-23,A_Baseline,1,Q3FrontUp,-24.32866,24.40089,60.16153,-42.26345,-98.3371,153.0753,-48.32434,202408291816522934,
2-23,A_Baseline,1,Q3FrontUp,-24.16236,24.3661,59.74498,-42.34176,-98.33122,153.0745,-48.30211,202408291816523180,
2-23,A_Baseline,1,Q3FrontUp,-24.16236,24.3661,59.74498,-42.34176,-98.33122,153.0745,-48.30211,202408291816523354,
2-23,A_Baseline,1,Q3FrontUp,-24.01578,24.32718,59.33543,-42.43734,-98.32821,153.075,-48.28032,202408291816523636,
2-23,A_Baseline,1,Q3FrontUp,-23.90494,24.28972,58.98476,-42.55787,-98.32636,153.0753,-48.25937,202408291816523813,
2-23,A_Baseline,1,Q3FrontUp,-23.90494,24.28972,58.98476,-42.55787,-98.32636,153.0753,-48.25937,202408291816523983,
2-23,A_Baseline,1,Q3FrontUp,-23.79643,24.2594,58.63495,-42.6653,-98.32377,153.075,-48.24702,202408291816524198,
2-23,A_Baseline,1,Q3FrontUp,-23.70048,24.2444,58.33721,-42.76166,-98.32223,153.0751,-48.2338,202408291816524441,
2-23,A_Baseline,1,Q3FrontUp,-23.70048,24.2444,58.33721,-42.76166,-98.32223,153.0751,-48.2338,202408291816524681,
2-23,A_Baseline,1,Q3FrontUp,-23.61653,24.23795,58.06058,-42.84612,-98.31743,153.0752,-48.22157,202408291816524873,
2-23,A_Baseline,1,Q3FrontUp,-23.54827,24.23259,57.79824,-42.92078,-98.31221,153.0748,-48.21041,202408291816525120,
2-23,A_Baseline,1,Q3FrontUp,-23.48282,24.23215,57.5577,-42.99972,-98.30994,153.075,-48.18819,202408291816525330,
2-23,A_Baseline,1,Q3FrontUp,-23.48282,24.23215,57.5577,-42.99972,-98.30994,153.075,-48.18819,202408291816525608,
2-23,A_Baseline,1,Q3FrontUp,-23.39364,24.227,57.28576,-43.07731,-98.30888,153.0752,-48.16612,202408291816525765,
2-23,A_Baseline,1,Q3FrontUp,-23.39364,24.227,57.28576,-43.07731,-98.30888,153.0752,-48.16612,202408291816525939,
2-23,A_Baseline,1,Q3FrontUp,-23.31155,24.21496,57.03425,-43.14854,-98.30854,153.0748,-48.1385,202408291816526164,
2-23,A_Baseline,1,Q3FrontUp,-23.23658,24.21066,56.81881,-43.22421,-98.3077,153.0756,-48.11196,202408291816526372,
2-23,A_Baseline,1,Q3FrontUp,-23.23658,24.21066,56.81881,-43.22421,-98.3077,153.0756,-48.11196,202408291816526558,
2-23,A_Baseline,1,Q3FrontUp,-23.14579,24.19492,56.55737,-43.30852,-98.30744,153.0751,-48.08667,202408291816526825,
2-23,A_Baseline,1,Q3FrontUp,-23.14579,24.19492,56.55737,-43.30852,-98.30744,153.0751,-48.08667,202408291816527013,
2-23,A_Baseline,1,Q3FrontUp,-22.98594,24.18146,56.09823,-43.44313,-98.30654,153.0755,-48.04297,202408291816527353,
2-23,A_Baseline,1,Q3FrontUp,-22.98594,24.18146,56.09823,-43.44313,-98.30654,153.0755,-48.04297,202408291816527625,
2-23,A_Baseline,1,Q3FrontUp,-22.9022,24.16794,55.85807,-43.50338,-98.30696,153.0763,-48.01919,202408291816527936,
2-23,A_Baseline,1,Q3FrontUp,-22.83064,24.14441,55.61682,-43.55997,-98.30691,153.0752,-48.00098,202408291816528196,
2-23,A_Baseline,1,Q3FrontUp,-22.76368,24.12285,55.39941,-43.62391,-98.30641,153.0754,-47.98088,202408291816528520,
2-23,A_Baseline,1,Q3FrontUp,-22.67857,24.08846,55.1561,-43.68798,-98.30585,153.0754,-47.95775,202408291816528803,
2-23,A_Baseline,1,Q3FrontUp,-22.59614,24.04926,54.91465,-43.75271,-98.30554,153.0752,-47.93737,202408291816529162,
2-23,A_Baseline,1,Q3FrontUp,-22.50954,24.01265,54.70754,-43.82726,-98.30536,153.0758,-47.91674,202408291816529342,
2-23,A_Baseline,1,Q3FrontUp,-22.50954,24.01265,54.70754,-43.82726,-98.30536,153.0758,-47.91674,202408291816529577,
2-23,A_Baseline,1,Q3FrontUp,-22.44105,23.97688,54.53577,-43.924,-98.30542,153.076,-47.89876,202408291816529851,
2-23,A_Baseline,1,Q3FrontUp,-22.38066,23.93663,54.35331,-44.02734,-98.30529,153.0765,-47.88023,202408291816530155,
2-23,A_Baseline,1,Q3FrontUp,-22.31429,23.88991,54.16258,-44.13836,-98.30515,153.0766,-47.86117,202408291816530453,
2-23,A_Baseline,1,Q3FrontUp,-22.23808,23.83941,53.96342,-44.24617,-98.30544,153.0764,-47.84594,202408291816530708,
2-23,A_Baseline,1,Q3FrontUp,-22.23808,23.83941,53.96342,-44.24617,-98.30544,153.0764,-47.84594,202408291816530948,
2-23,A_Baseline,1,Q3FrontUp,-22.15099,23.79648,53.75141,-44.34276,-98.30531,153.0757,-47.83182,202408291816531145,
2-23,A_Baseline,1,Q3FrontUp,-22.04586,23.75068,53.49508,-44.44762,-98.3053,153.0762,-47.81786,202408291816531365,
2-23,A_Baseline,1,Q3FrontUp,-21.94029,23.71598,53.26745,-44.55165,-98.30523,153.076,-47.80111,202408291816531739,
2-23,A_Baseline,1,Q3FrontUp,-21.94029,23.71598,53.26745,-44.55165,-98.30523,153.076,-47.80111,202408291816531976,
2-23,A_Baseline,1,Q3FrontUp,-21.8382,23.6821,53.06589,-44.65385,-98.30557,153.076,-47.77901,202408291816532151,
2-23,A_Baseline,1,Q3FrontUp,-21.72949,23.64208,52.85096,-44.76547,-98.30553,153.077,-47.75559,202408291816532433,
2-23,A_Baseline,1,Q3FrontUp,-21.61615,23.59708,52.61939,-44.87592,-98.30566,153.0768,-47.73163,202408291816532664,
2-23,A_Baseline,1,Q3FrontUp,-21.61615,23.59708,52.61939,-44.87592,-98.30566,153.0768,-47.73163,202408291816532832,
2-23,A_Baseline,1,Q3FrontUp,-21.51009,23.55909,52.40771,-44.97285,-98.30582,153.0766,-47.71238,202408291816533106,
2-23,A_Baseline,1,Q3FrontUp,-21.51009,23.55909,52.40771,-44.97285,-98.30582,153.0766,-47.71238,202408291816533277,
2-23,A_Baseline,1,Q3FrontUp,-21.51009,23.55909,52.40771,-44.97285,-98.30582,153.0766,-47.71238,202408291816533439,
2-23,A_Baseline,1,Q3FrontUp,-21.41741,23.52368,52.20565,-45.05716,-98.30553,153.0769,-47.69536,202408291816533616,
2-23,A_Baseline,1,Q3FrontUp,-21.32579,23.48954,51.97161,-45.13542,-98.30563,153.0768,-47.67106,202408291816533870,
2-23,A_Baseline,1,Q3FrontUp,-21.23079,23.4524,51.7328,-45.21191,-98.30563,153.0764,-47.65115,202408291816534193,
2-23,A_Baseline,1,Q3FrontUp,-21.13807,23.41445,51.49671,-45.29767,-98.30538,153.0771,-47.62983,202408291816534469,
2-23,A_Baseline,1,Q3FrontUp,-21.13807,23.41445,51.49671,-45.29767,-98.30538,153.0771,-47.62983,202408291816534686,
2-23,A_Baseline,1,Q3FrontUp,-21.0504,23.37218,51.26496,-45.38243,-98.30549,153.0768,-47.61208,202408291816534953,
2-23,A_Baseline,1,Q3FrontUp,-20.95356,23.3188,51.02039,-45.48771,-98.30565,153.0765,-47.59916,202408291816535167,
2-23,A_Baseline,1,Q3FrontUp,-20.95356,23.3188,51.02039,-45.48771,-98.30565,153.0765,-47.59916,202408291816535451,
2-23,A_Baseline,1,Q3FrontUp,-20.8728,23.27431,50.80378,-45.60703,-98.30534,153.0768,-47.58118,202408291816535617,
2-23,A_Baseline,1,Q3FrontUp,-20.80689,23.24223,50.60817,-45.70758,-98.30558,153.0771,-47.55822,202408291816535790,
2-23,A_Baseline,1,Q3FrontUp,-20.72499,23.21042,50.39647,-45.79439,-98.30529,153.0771,-47.53994,202408291816536066,
2-23,A_Baseline,1,Q3FrontUp,-20.64684,23.18489,50.20081,-45.87824,-98.3055,153.0772,-47.51516,202408291816536419,
2-23,A_Baseline,1,Q3FrontUp,-20.64684,23.18489,50.20081,-45.87824,-98.3055,153.0772,-47.51516,202408291816536636,
2-23,A_Baseline,1,Q3FrontUp,-20.59053,23.16185,50.0299,-45.96638,-98.30556,153.077,-47.48795,202408291816536842,
2-23,A_Baseline,1,Q3FrontUp,-20.51987,23.13005,49.84035,-46.05854,-98.30566,153.0771,-47.4673,202408291816537172,
2-23,A_Baseline,1,Q3FrontUp,-20.44039,23.0848,49.64018,-46.15778,-98.30555,153.0771,-47.44582,202408291816537593,
2-23,A_Baseline,1,Q3FrontUp,-20.39179,23.03688,49.48241,-46.27559,-98.3059,153.0771,-47.42755,202408291816537756,
2-23,A_Baseline,1,Q3FrontUp,-20.39179,23.03688,49.48241,-46.27559,-98.3059,153.0771,-47.42755,202408291816537945,
2-23,A_Baseline,1,Q3FrontUp,-20.34146,22.99459,49.34625,-46.38116,-98.30619,153.0771,-47.40871,202408291816538276,
2-23,A_Baseline,1,Q3FrontUp,-20.29302,22.96535,49.23534,-46.45738,-98.30604,153.0776,-47.38777,202408291816538534,
2-23,A_Baseline,1,Q3FrontUp,-20.23377,22.92689,49.08451,-46.52015,-98.30592,153.0772,-47.36806,202408291816538755,
2-23,A_Baseline,1,Q3FrontUp,-20.23377,22.92689,49.08451,-46.52015,-98.30592,153.0772,-47.36806,202408291816538962,
2-23,A_Baseline,1,Q3FrontUp,-20.17052,22.8716,48.90971,-46.58775,-98.30595,153.0772,-47.35073,202408291816539185,
2-23,A_Baseline,1,Q3FrontUp,-20.11552,22.80118,48.72853,-46.67117,-98.3058,153.0779,-47.33487,202408291816539620,
2-23,A_Baseline,1,Q3FrontUp,-20.05097,22.7244,48.51288,-46.7543,-98.30585,153.0775,-47.30767,202408291816539900,
2-23,A_Baseline,1,Q3FrontUp,-19.97959,22.64416,48.29332,-46.83834,-98.30579,153.0777,-47.28523,202408291816540113,
2-23,A_Baseline,1,Q3FrontUp,-19.97959,22.64416,48.29332,-46.83834,-98.30579,153.0777,-47.28523,202408291816540275,
2-23,A_Baseline,1,Q3FrontUp,-19.90702,22.54358,48.07185,-46.93759,-98.30588,153.0779,-47.26586,202408291816540441,
2-23,A_Baseline,1,Q3FrontUp,-19.83591,22.46183,47.87272,-47.0327,-98.30575,153.0775,-47.25365,202408291816540698,
2-23,A_Baseline,1,Q3FrontUp,-19.83591,22.46183,47.87272,-47.0327,-98.30575,153.0775,-47.25365,202408291816540971,
2-23,A_Baseline,1,Q3FrontUp,-19.7616,22.40514,47.70376,-47.11012,-98.30599,153.0778,-47.24003,202408291816541154,
2-23,A_Baseline,1,Q3FrontUp,-19.7616,22.40514,47.70376,-47.11012,-98.30599,153.0778,-47.24003,202408291816541474,
2-23,A_Baseline,1,Q3FrontUp,-19.67168,22.34678,47.52123,-47.18306,-98.30537,153.0781,-47.22702,202408291816541700,
2-23,A_Baseline,1,Q3FrontUp,-19.57405,22.27215,47.31166,-47.26444,-98.3059,153.0775,-47.2177,202408291816541955,
2-23,A_Baseline,1,Q3FrontUp,-19.48742,22.21053,47.13925,-47.34862,-98.30579,153.0777,-47.20716,202408291816542173,
2-23,A_Baseline,1,Q3FrontUp,-19.41172,22.14834,46.97859,-47.45328,-98.30583,153.0783,-47.1973,202408291816542467,
2-23,A_Baseline,1,Q3FrontUp,-19.34844,22.06297,46.80986,-47.56519,-98.30597,153.0784,-47.1829,202408291816542664,
2-23,A_Baseline,1,Q3FrontUp,-19.34844,22.06297,46.80986,-47.56519,-98.30597,153.0784,-47.1829,202408291816542945,
2-23,A_Baseline,1,Q3FrontUp,-19.28618,21.98126,46.64912,-47.66706,-98.30576,153.0784,-47.17466,202408291816543101,
2-23,A_Baseline,1,Q3FrontUp,-19.28618,21.98126,46.64912,-47.66706,-98.30576,153.0784,-47.17466,202408291816543283,
2-23,A_Baseline,1,Q3FrontUp,-19.23294,21.92042,46.52329,-47.75919,-98.30578,153.0783,-47.16468,202408291816543443,
2-23,A_Baseline,1,Q3FrontUp,-19.23294,21.92042,46.52329,-47.75919,-98.30578,153.0783,-47.16468,202408291816543640,
2-23,A_Baseline,1,Q3FrontUp,-19.23294,21.92042,46.52329,-47.75919,-98.30578,153.0783,-47.16468,202408291816543853,
2-23,A_Baseline,1,Q3FrontUp,-19.20378,21.809,46.40189,-47.94768,-98.30602,153.0787,-47.1523,202408291816544131,
2-23,A_Baseline,1,Q3FrontUp,-19.20378,21.809,46.40189,-47.94768,-98.30602,153.0787,-47.1523,202408291816544310,
2-23,A_Baseline,1,Q3FrontUp,-19.20762,21.77199,46.39938,-48.023,-98.30618,153.0784,-47.14548,202408291816544707,
2-23,A_Baseline,1,Q3FrontUp,-19.215,21.74381,46.40166,-48.09398,-98.30615,153.0787,-47.13542,202408291816544986,
2-23,A_Baseline,1,Q3FrontUp,-19.22532,21.71518,46.40358,-48.15396,-98.30598,153.0787,-47.12416,202408291816545266,
2-23,A_Baseline,1,Q3FrontUp,-19.24021,21.6856,46.41119,-48.21148,-98.30612,153.0785,-47.11249,202408291816545492,
2-23,A_Baseline,1,Q3FrontUp,-19.28598,21.65821,46.4491,-48.2792,-98.3059,153.0785,-47.10388,202408291816545785,
2-23,A_Baseline,1,Q3FrontUp,-19.28598,21.65821,46.4491,-48.2792,-98.3059,153.0785,-47.10388,202408291816546043,
2-23,A_Baseline,1,Q3FrontUp,-19.32495,21.63428,46.47268,-48.34916,-98.30585,153.0783,-47.09772,202408291816546320,
2-23,A_Baseline,1,Q3FrontUp,-19.37425,21.60696,46.50009,-48.42683,-98.30634,153.0775,-47.09048,202408291816546646,
2-23,A_Baseline,1,Q3FrontUp,-19.49122,21.58925,46.62104,-48.51596,-98.30605,153.0786,-47.08821,202408291816546818,
2-23,A_Baseline,1,Q3FrontUp,-19.49122,21.58925,46.62104,-48.51596,-98.30605,153.0786,-47.08821,202408291816547030,
2-23,A_Baseline,1,Q3FrontUp,-19.58258,21.56958,46.69867,-48.59438,-98.30602,153.0783,-47.08648,202408291816547271,
2-23,A_Baseline,1,Q3FrontUp,-19.67606,21.55169,46.77406,-48.65956,-98.30621,153.078,-47.08524,202408291816547603,
2-23,A_Baseline,1,Q3FrontUp,-19.79362,21.5401,46.88129,-48.7152,-98.30613,153.0787,-47.08204,202408291816547939,
2-23,A_Baseline,1,Q3FrontUp,-19.91953,21.52374,46.99699,-48.76467,-98.30603,153.0784,-47.07977,202408291816548180,
2-23,A_Baseline,1,Q3FrontUp,-20.06264,21.51588,47.12669,-48.81021,-98.30609,153.0781,-47.0771,202408291816548474,
2-23,A_Baseline,1,Q3FrontUp,-20.22982,21.51072,47.2812,-48.85453,-98.30602,153.0788,-47.06472,202408291816548712,
2-23,A_Baseline,1,Q3FrontUp,-20.22982,21.51072,47.2812,-48.85453,-98.30602,153.0788,-47.06472,202408291816548974,
2-23,A_Baseline,1,Q3FrontUp,-20.39177,21.50265,47.42316,-48.89069,-98.30611,153.0787,-47.05674,202408291816549182,
2-23,A_Baseline,1,Q3FrontUp,-20.55921,21.49773,47.56706,-48.92489,-98.30652,153.0783,-47.05341,202408291816549456,
2-23,A_Baseline,1,Q3FrontUp,-20.74039,21.49706,47.72242,-48.95929,-98.30636,153.0779,-47.05021,202408291816549799,
2-23,A_Baseline,1,Q3FrontUp,-20.91708,21.49694,47.87074,-48.99291,-98.30647,153.0781,-47.04702,202408291816550120,
2-23,A_Baseline,1,Q3FrontUp,-20.91708,21.49694,47.87074,-48.99291,-98.30647,153.0781,-47.04702,202408291816550320,
2-23,A_Baseline,1,Q3FrontUp,-21.08022,21.49674,47.9945,-49.02392,-98.30617,153.0781,-47.04433,202408291816550624,
2-23,A_Baseline,1,Q3FrontUp,-21.08022,21.49674,47.9945,-49.02392,-98.30617,153.0781,-47.04433,202408291816550777,
2-23,A_Baseline,1,Q3FrontUp,-21.22519,21.49694,48.10189,-49.0522,-98.30637,153.078,-47.04118,202408291816550980,
2-23,A_Baseline,1,Q3FrontUp,-21.35011,21.49414,48.19482,-49.08646,-98.30641,153.0781,-47.03823,202408291816551146,
2-23,A_Baseline,1,Q3FrontUp,-21.35011,21.49414,48.19482,-49.08646,-98.30641,153.0781,-47.03823,202408291816551291,
2-23,A_Baseline,1,Q3FrontUp,-21.47375,21.49138,48.28862,-49.11999,-98.30615,153.0782,-47.03343,202408291816551559,
2-23,A_Baseline,1,Q3FrontUp,-21.58849,21.4916,48.37332,-49.15222,-98.30631,153.078,-47.02298,202408291816551811,
2-23,A_Baseline,1,Q3FrontUp,-21.69823,21.4916,48.45997,-49.18577,-98.30654,153.0783,-47.0163,202408291816551974,
2-23,A_Baseline,1,Q3FrontUp,-21.69823,21.4916,48.45997,-49.18577,-98.30654,153.0783,-47.0163,202408291816552151,
2-23,A_Baseline,1,Q3FrontUp,-21.80038,21.4917,48.54884,-49.21907,-98.30666,153.078,-47.00926,202408291816552443,
2-23,A_Baseline,1,Q3FrontUp,-21.90138,21.49166,48.6385,-49.25894,-98.30687,153.0783,-46.99801,202408291816552755,
2-23,A_Baseline,1,Q3FrontUp,-21.90138,21.49166,48.6385,-49.25894,-98.30687,153.0783,-46.99801,202408291816552952,
2-23,A_Baseline,1,Q3FrontUp,-21.98394,21.49183,48.71866,-49.29232,-98.30692,153.0784,-46.98605,202408291816553115,
2-23,A_Baseline,1,Q3FrontUp,-22.06675,21.49155,48.80408,-49.32318,-98.30669,153.0782,-46.97348,202408291816553320,
2-23,A_Baseline,1,Q3FrontUp,-22.06675,21.49155,48.80408,-49.32318,-98.30669,153.0782,-46.97348,202408291816553465,
2-23,A_Baseline,1,Q3FrontUp,-22.17461,21.49162,48.9157,-49.35963,-98.30688,153.0783,-46.96814,202408291816553738,
2-23,A_Baseline,1,Q3FrontUp,-22.17461,21.49162,48.9157,-49.35963,-98.30688,153.0783,-46.96814,202408291816554014,
2-23,A_Baseline,1,Q3FrontUp,-22.27489,21.49184,49.01683,-49.38711,-98.3067,153.0783,-46.95872,202408291816554355,
2-23,A_Baseline,1,Q3FrontUp,-22.55285,21.50354,49.32265,-49.42402,-98.30697,153.0781,-46.95201,202408291816554676,
2-23,A_Baseline,1,Q3FrontUp,-22.55285,21.50354,49.32265,-49.42402,-98.30697,153.0781,-46.95201,202408291816554964,
2-23,A_Baseline,1,Q3FrontUp,-22.7029,21.51107,49.49414,-49.43298,-98.30687,153.0777,-46.95129,202408291816555151,
2-23,A_Baseline,1,Q3FrontUp,-22.85053,21.51282,49.65065,-49.44127,-98.30671,153.0784,-46.9505,202408291816555428,
2-23,A_Baseline,1,Q3FrontUp,-22.85053,21.51282,49.65065,-49.44127,-98.30671,153.0784,-46.9505,202408291816555616,
2-23,A_Baseline,1,Q3FrontUp,-23.0106,21.51297,49.80515,-49.45366,-98.30659,153.0783,-46.94911,202408291816555976,
2-23,A_Baseline,1,Q3FrontUp,-23.1733,21.51239,49.97522,-49.45791,-98.30669,153.0781,-46.94836,202408291816556327,
2-23,A_Baseline,1,Q3FrontUp,-23.33541,21.51468,50.15322,-49.45831,-98.30672,153.0777,-46.94838,202408291816556517,
2-23,A_Baseline,1,Q3FrontUp,-23.33541,21.51468,50.15322,-49.45831,-98.30672,153.0777,-46.94838,202408291816556680,
2-23,A_Baseline,1,Q3FrontUp,-23.48142,21.51713,50.29626,-49.45849,-98.30671,153.0778,-46.94847,202408291816556839,
2-23,A_Baseline,1,Q3FrontUp,-23.61103,21.51723,50.40782,-49.45997,-98.30678,153.0779,-46.94821,202408291816557161,
2-23,A_Baseline,1,Q3FrontUp,-23.72051,21.5168,50.49285,-49.46329,-98.3065,153.0777,-46.94815,202408291816557451,
2-23,A_Baseline,1,Q3FrontUp,-23.72051,21.5168,50.49285,-49.46329,-98.3065,153.0777,-46.94815,202408291816557616,
2-23,A_Baseline,1,Q3FrontUp,-23.80472,21.51564,50.52709,-49.48593,-98.30662,153.0772,-46.94815,202408291816557784,
2-23,A_Baseline,1,Q3FrontUp,-23.80472,21.51564,50.52709,-49.48593,-98.30662,153.0772,-46.94815,202408291816557956,
2-23,A_Baseline,1,Q3FrontUp,-23.87661,21.51726,50.56227,-49.50785,-98.30674,153.0779,-46.94802,202408291816558200,
2-23,A_Baseline,1,Q3FrontUp,-23.93715,21.51753,50.58998,-49.5434,-98.30669,153.0779,-46.94806,202408291816558412,
2-23,A_Baseline,1,Q3FrontUp,-23.93715,21.51753,50.58998,-49.5434,-98.30669,153.0779,-46.94806,202408291816558619,
2-23,A_Baseline,1,Q3FrontUp,-23.93715,21.51753,50.58998,-49.5434,-98.30669,153.0779,-46.94806,202408291816558799,
2-23,A_Baseline,1,Q3FrontUp,-23.96897,21.51833,50.59629,-49.59919,-98.30669,153.0778,-46.94815,202408291816558976,
2-23,A_Baseline,1,Q3FrontUp,-24.00542,21.51927,50.61349,-49.68117,-98.30676,153.0778,-46.94847,202408291816559197,
2-23,A_Baseline,1,Q3FrontUp,-24.04658,21.5181,50.63871,-49.79783,-98.30683,153.0777,-46.94849,202408291816559452,
2-23,A_Baseline,1,Q3FrontUp,-24.04658,21.5181,50.63871,-49.79783,-98.30683,153.0777,-46.94849,202408291816559638,
2-23,A_Baseline,1,Q3FrontUp,-24.11014,21.51703,50.71329,-49.94786,-98.30727,153.0775,-46.94842,202408291816560002,
2-23,A_Baseline,1,Q3FrontUp,-24.17483,21.5188,50.79228,-50.11259,-98.30782,153.0778,-46.94833,202408291816560154,
2-23,A_Baseline,1,Q3FrontUp,-24.23111,21.52441,50.87253,-50.26353,-98.30804,153.0774,-46.94796,202408291816560430,
2-23,A_Baseline,1,Q3FrontUp,-24.23111,21.52441,50.87253,-50.26353,-98.30804,153.0774,-46.94796,202408291816560601,
2-23,A_Baseline,1,Q3FrontUp,-24.33649,21.538,51.00669,-50.46893,-98.30895,153.078,-46.94784,202408291816560764,
2-23,A_Baseline,1,Q3FrontUp,-24.33649,21.538,51.00669,-50.46893,-98.30895,153.078,-46.94784,202408291816560941,
2-23,A_Baseline,1,Q3FrontUp,-24.44728,21.54404,51.1218,-50.68021,-98.30929,153.0783,-46.9482,202408291816561126,
2-23,A_Baseline,1,Q3FrontUp,-24.55199,21.56156,51.20975,-50.89833,-98.30999,153.078,-46.94806,202408291816561373,
2-23,A_Baseline,1,Q3FrontUp,-24.65464,21.58069,51.3017,-51.08986,-98.31021,153.0783,-46.94788,202408291816561695,
2-23,A_Baseline,1,Q3FrontUp,-24.65464,21.58069,51.3017,-51.08986,-98.31021,153.0783,-46.94788,202408291816561970,
2-23,A_Baseline,1,Q3FrontUp,-24.73869,21.61411,51.37388,-51.28537,-98.30999,153.0782,-46.94799,202408291816562136,
2-23,A_Baseline,1,Q3FrontUp,-24.81383,21.64881,51.41965,-51.49469,-98.30984,153.0784,-46.94787,202408291816562424,
2-23,A_Baseline,1,Q3FrontUp,-24.81383,21.64881,51.41965,-51.49469,-98.30984,153.0784,-46.94787,202408291816562597,
2-23,A_Baseline,1,Q3FrontUp,-24.87555,21.68172,51.44425,-51.70719,-98.31057,153.0776,-46.94783,202408291816562766,
2-23,A_Baseline,1,Q3FrontUp,-24.87555,21.68172,51.44425,-51.70719,-98.31057,153.0776,-46.94783,202408291816562940,
2-23,A_Baseline,1,Q3FrontUp,-24.90263,21.71456,51.45215,-51.91327,-98.31058,153.0781,-46.94814,202408291816563213,
2-23,A_Baseline,1,Q3FrontUp,-24.90263,21.71456,51.45215,-51.91327,-98.31058,153.0781,-46.94814,202408291816563519,
2-23,A_Baseline,1,Q3FrontUp,-24.92172,21.77828,51.4481,-52.39065,-98.31104,153.077,-46.94796,202408291816563810,
2-23,A_Baseline,1,Q3FrontUp,-24.92172,21.77828,51.4481,-52.39065,-98.31104,153.077,-46.94796,202408291816563986,
2-23,A_Baseline,1,Q3FrontUp,-24.9061,21.83915,51.44952,-52.87053,-98.31101,153.0779,-46.9482,202408291816564364,
2-23,A_Baseline,1,Q3FrontUp,-24.9061,21.83915,51.44952,-52.87053,-98.31101,153.0779,-46.9482,202408291816564751,
2-23,A_Baseline,1,Q3FrontUp,-24.90594,21.85744,51.44873,-53.09848,-98.31116,153.0777,-46.94815,202408291816564971,
2-23,A_Baseline,1,Q3FrontUp,-24.90619,21.89174,51.45141,-53.30233,-98.31155,153.0779,-46.94802,202408291816565268,
2-23,A_Baseline,1,Q3FrontUp,-24.90729,21.91523,51.45744,-53.49682,-98.31196,153.0776,-46.94777,202408291816565436,
2-23,A_Baseline,1,Q3FrontUp,-24.90895,21.93563,51.47644,-53.69351,-98.31391,153.0776,-46.94806,202408291816565676,
2-23,A_Baseline,1,Q3FrontUp,-24.90895,21.93563,51.47644,-53.69351,-98.31391,153.0776,-46.94806,202408291816565943,
2-23,A_Baseline,1,Q3FrontUp,-24.9086,21.96399,51.48681,-53.88222,-98.31639,153.0775,-46.94802,202408291816566106,
2-23,A_Baseline,1,Q3FrontUp,-24.90561,21.99198,51.49538,-54.05709,-98.32018,153.0777,-46.94811,202408291816566361,
2-23,A_Baseline,1,Q3FrontUp,-24.90561,21.99198,51.49538,-54.05709,-98.32018,153.0777,-46.94811,202408291816566642,
2-23,A_Baseline,1,Q3FrontUp,-24.90622,22.02154,51.51641,-54.21773,-98.33123,153.0777,-46.94793,202408291816566862,
2-23,A_Baseline,1,Q3FrontUp,-24.9071,22.04526,51.52192,-54.37145,-98.34149,153.0773,-46.94791,202408291816567129,
2-23,A_Baseline,1,Q3FrontUp,-24.9071,22.04526,51.52192,-54.37145,-98.34149,153.0773,-46.94791,202408291816567442,
2-23,A_Baseline,1,Q3FrontUp,-24.9075,22.06854,51.52142,-54.51591,-98.35274,153.0774,-46.94798,202408291816567622,
2-23,A_Baseline,1,Q3FrontUp,-24.90001,22.0856,51.52214,-54.64168,-98.35936,153.0777,-46.94825,202408291816567826,
2-23,A_Baseline,1,Q3FrontUp,-24.90001,22.0856,51.52214,-54.64168,-98.35936,153.0777,-46.94825,202408291816568104,
2-23,A_Baseline,1,Q3FrontUp,-24.90001,22.0856,51.52214,-54.64168,-98.35936,153.0777,-46.94825,202408291816568264,
2-23,A_Baseline,1,Q3FrontUp,-24.86696,22.12875,51.52029,-54.83043,-98.38828,153.077,-46.94793,202408291816568434,
2-23,A_Baseline,1,Q3FrontUp,-24.86696,22.12875,51.52029,-54.83043,-98.38828,153.077,-46.94793,202408291816568661,
2-23,A_Baseline,1,Q3FrontUp,-24.82197,22.16825,51.52022,-54.88461,-98.38873,153.0771,-46.94819,202408291816568871,
2-23,A_Baseline,1,Q3FrontUp,-24.77172,22.20209,51.51849,-54.93528,-98.3899,153.077,-46.94815,202408291816569140,
2-23,A_Baseline,1,Q3FrontUp,-24.77172,22.20209,51.51849,-54.93528,-98.3899,153.077,-46.94815,202408291816569379,
2-23,A_Baseline,1,Q3FrontUp,-24.72351,22.22245,51.51846,-54.97266,-98.39037,153.0774,-46.94786,202408291816569624,
2-23,A_Baseline,1,Q3FrontUp,-24.67022,22.23695,51.51915,-55.018,-98.39138,153.0775,-46.94796,202408291816569825,
2-23,A_Baseline,1,Q3FrontUp,-24.62391,22.24389,51.51988,-55.06981,-98.39228,153.0775,-46.94775,202408291816570068,
2-23,A_Baseline,1,Q3FrontUp,-24.62391,22.24389,51.51988,-55.06981,-98.39228,153.0775,-46.94775,202408291816570266,
2-23,A_Baseline,1,Q3FrontUp,-24.59017,22.24514,51.52023,-55.11776,-98.39268,153.0776,-46.94815,202408291816570439,
2-23,A_Baseline,1,Q3FrontUp,-24.59017,22.24514,51.52023,-55.11776,-98.39268,153.0776,-46.94815,202408291816570605,
2-23,A_Baseline,1,Q3FrontUp,-24.55717,22.24448,51.52086,-55.15694,-98.39309,153.0777,-46.94784,202408291816570768,
2-23,A_Baseline,1,Q3FrontUp,-24.54751,22.24479,51.54893,-55.19238,-98.39429,153.0779,-46.94824,202408291816571084,
2-23,A_Baseline,1,Q3FrontUp,-24.55021,22.24655,51.58973,-55.22623,-98.39623,153.0771,-46.94826,202408291816571371,
2-23,A_Baseline,1,Q3FrontUp,-24.55021,22.24655,51.58973,-55.22623,-98.39623,153.0771,-46.94826,202408291816571631,
2-23,A_Baseline,1,Q3FrontUp,-24.55742,22.25087,51.6521,-55.25518,-98.40627,153.0771,-46.94794,202408291816571843,
2-23,A_Baseline,1,Q3FrontUp,-24.56448,22.25862,51.71732,-55.27992,-98.41174,153.0771,-46.94776,202408291816572136,
2-23,A_Baseline,1,Q3FrontUp,-24.56448,22.25862,51.71732,-55.27992,-98.41174,153.0771,-46.94776,202408291816572332,
2-23,A_Baseline,1,Q3FrontUp,-24.58219,22.26479,51.80241,-55.29794,-98.4244,153.0756,-46.94774,202408291816572590,
2-23,A_Baseline,1,Q3FrontUp,-24.68172,22.30221,52.07869,-55.31606,-98.4566,153.0764,-46.94787,202408291816572754,
2-23,A_Baseline,1,Q3FrontUp,-24.68172,22.30221,52.07869,-55.31606,-98.4566,153.0764,-46.94787,202408291816572929,
2-23,A_Baseline,1,Q3FrontUp,-24.80856,22.3663,52.43909,-55.32054,-98.49088,153.0771,-46.9481,202408291816573094,
2-23,A_Baseline,1,Q3FrontUp,-24.80856,22.3663,52.43909,-55.32054,-98.49088,153.0771,-46.9481,202408291816573317,
2-23,A_Baseline,1,Q3FrontUp,-24.92778,22.43868,52.78759,-55.32068,-98.51727,153.077,-46.94802,202408291816573524,
2-23,A_Baseline,1,Q3FrontUp,-25.02161,22.48615,53.1253,-55.32024,-98.53938,153.0772,-46.94784,202408291816573829,
2-23,A_Baseline,1,Q3FrontUp,-25.02161,22.48615,53.1253,-55.32024,-98.53938,153.0772,-46.94784,202408291816573983,
2-23,A_Baseline,1,Q3FrontUp,-25.15549,22.53648,53.52765,-55.32335,-98.5722,153.0775,-46.94796,202408291816574173,
2-23,A_Baseline,1,Q3FrontUp,-25.15549,22.53648,53.52765,-55.32335,-98.5722,153.0775,-46.94796,202408291816574367,
2-23,A_Baseline,1,Q3FrontUp,-25.31325,22.59678,53.97264,-55.32327,-98.60595,153.0758,-46.94825,202408291816574676,
2-23,A_Baseline,1,Q3FrontUp,-25.49534,22.67056,54.44056,-55.32269,-98.64255,153.0768,-46.94836,202408291816574938,
2-23,A_Baseline,1,Q3FrontUp,-25.68125,22.7328,54.93558,-55.32209,-98.6805,153.0779,-46.94829,202408291816575134,
2-23,A_Baseline,1,Q3FrontUp,-25.86809,22.77714,55.40818,-55.32305,-98.7147,153.0759,-46.94825,202408291816575465,
2-23,A_Baseline,1,Q3FrontUp,-25.86809,22.77714,55.40818,-55.32305,-98.7147,153.0759,-46.94825,202408291816575753,
2-23,A_Baseline,1,Q3FrontUp,-26.29467,22.89115,56.43588,-55.31927,-98.80029,153.0778,-46.94814,202408291816576098,
2-23,A_Baseline,1,Q3FrontUp,-26.29467,22.89115,56.43588,-55.31927,-98.80029,153.0778,-46.94814,202408291816576275,
2-23,A_Baseline,1,Q3FrontUp,-26.47331,22.94711,56.88679,-55.31806,-98.82767,153.0766,-46.94799,202408291816576487,
2-23,A_Baseline,1,Q3FrontUp,-26.47331,22.94711,56.88679,-55.31806,-98.82767,153.0766,-46.94799,202408291816576697,
2-23,A_Baseline,1,Q3FrontUp,-26.79997,23.01025,57.65887,-55.31345,-98.87317,153.0767,-46.94815,202408291816576974,
2-23,A_Baseline,1,Q3FrontUp,-26.92242,23.04415,57.96528,-55.31354,-98.89235,153.0776,-46.94812,202408291816577351,
2-23,A_Baseline,1,Q3FrontUp,-26.92242,23.04415,57.96528,-55.31354,-98.89235,153.0776,-46.94812,202408291816577546,
2-23,A_Baseline,1,Q3FrontUp,-27.00426,23.08356,58.20994,-55.31207,-98.90969,153.0768,-46.94825,202408291816577820,
2-23,A_Baseline,1,Q3FrontUp,-27.08364,23.1221,58.45277,-55.31068,-98.92966,153.0771,-46.94831,202408291816578110,
2-23,A_Baseline,1,Q3FrontUp,-27.14003,23.16568,58.65564,-55.30955,-98.94768,153.077,-46.94844,202408291816578441,
2-23,A_Baseline,1,Q3FrontUp,-27.14003,23.16568,58.65564,-55.30955,-98.94768,153.077,-46.94844,202408291816578623,
2-23,A_Baseline,1,Q3FrontUp,-27.16389,23.21836,58.82494,-55.3097,-98.9558,153.0761,-46.94844,202408291816578864,
2-23,A_Baseline,1,Q3FrontUp,-27.16389,23.21836,58.82494,-55.3097,-98.9558,153.0761,-46.94844,202408291816579036,
2-23,A_Baseline,1,Q3FrontUp,-27.17852,23.2676,58.9866,-55.31105,-98.96857,153.0765,-46.94857,202408291816579312,
2-23,A_Baseline,1,Q3FrontUp,-27.19376,23.32401,59.16461,-55.31128,-98.97921,153.0764,-46.94826,202408291816579637,
2-23,A_Baseline,1,Q3FrontUp,-27.19376,23.32401,59.16461,-55.31128,-98.97921,153.0764,-46.94826,202408291816579829,
2-23,A_Baseline,1,Q3FrontUp,-27.27312,23.46078,59.57276,-55.31384,-99.03542,153.0769,-46.94872,202408291816580105,
2-23,A_Baseline,1,Q3FrontUp,-27.27312,23.46078,59.57276,-55.31384,-99.03542,153.0769,-46.94872,202408291816580265,
2-23,A_Baseline,1,Q3FrontUp,-27.36272,23.52438,59.83336,-55.31409,-99.07341,153.076,-46.94835,202408291816580442,
2-23,A_Baseline,1,Q3FrontUp,-27.36272,23.52438,59.83336,-55.31409,-99.07341,153.076,-46.94835,202408291816580688,
2-23,A_Baseline,1,Q3FrontUp,-27.49449,23.59908,60.1297,-55.31565,-99.11517,153.077,-46.94878,202408291816580853,
2-23,A_Baseline,1,Q3FrontUp,-27.62054,23.6735,60.38595,-55.31525,-99.15498,153.0766,-46.94838,202408291816581109,
2-23,A_Baseline,1,Q3FrontUp,-27.62054,23.6735,60.38595,-55.31525,-99.15498,153.0766,-46.94838,202408291816581302,
2-23,A_Baseline,1,Q3FrontUp,-27.74325,23.73896,60.63641,-55.31425,-99.19121,153.0762,-46.94851,202408291816581473,
2-23,A_Baseline,1,Q3FrontUp,-27.74325,23.73896,60.63641,-55.31425,-99.19121,153.0762,-46.94851,202408291816581642,
2-23,A_Baseline,1,Q3FrontUp,-27.87822,23.80758,60.90417,-55.31141,-99.22929,153.0774,-46.94919,202408291816581805,
2-23,A_Baseline,1,Q3FrontUp,-28.01078,23.88774,61.15955,-55.30523,-99.27006,153.077,-46.94903,202408291816582071,
2-23,A_Baseline,1,Q3FrontUp,-28.14083,23.98283,61.41578,-55.3,-99.31053,153.077,-46.94904,202408291816582363,
2-23,A_Baseline,1,Q3FrontUp,-28.14083,23.98283,61.41578,-55.3,-99.31053,153.077,-46.94904,202408291816582600,
2-23,A_Baseline,1,Q3FrontUp,-28.25547,24.07112,61.60629,-55.29687,-99.36207,153.0772,-46.94867,202408291816582939,
2-23,A_Baseline,1,Q3FrontUp,-28.36361,24.1607,61.7614,-55.28493,-99.41501,153.0769,-46.94867,202408291816583186,
2-23,A_Baseline,1,Q3FrontUp,-28.36361,24.1607,61.7614,-55.28493,-99.41501,153.0769,-46.94867,202408291816583427,
2-23,A_Baseline,1,Q3FrontUp,-28.45642,24.24615,61.89465,-55.27641,-99.46555,153.0766,-46.94894,202408291816583622,
2-23,A_Baseline,1,Q3FrontUp,-28.51128,24.32928,61.9785,-55.2748,-99.50627,153.076,-46.94907,202408291816583853,
2-23,A_Baseline,1,Q3FrontUp,-28.55294,24.41523,62.06507,-55.27213,-99.54271,153.0762,-46.94912,202408291816584199,
2-23,A_Baseline,1,Q3FrontUp,-28.57812,24.5006,62.1417,-55.2732,-99.57353,153.0764,-46.94899,202408291816584438,
2-23,A_Baseline,1,Q3FrontUp,-28.57812,24.5006,62.1417,-55.2732,-99.57353,153.0764,-46.94899,202408291816584680,
2-23,A_Baseline,1,Q3FrontUp,-28.5773,24.68049,62.23841,-55.2748,-99.59483,153.0764,-46.94942,202408291816585087,
2-23,A_Baseline,1,Q3FrontUp,-28.5773,24.68049,62.23841,-55.2748,-99.59483,153.0764,-46.94942,202408291816585276,
2-23,A_Baseline,1,Q3FrontUp,-28.57882,24.76428,62.28395,-55.28,-99.59629,153.0758,-46.95007,202408291816585478,
2-23,A_Baseline,1,Q3FrontUp,-28.58048,24.85872,62.34869,-55.29725,-99.59735,153.076,-46.95006,202408291816585761,
2-23,A_Baseline,1,Q3FrontUp,-28.58048,24.85872,62.34869,-55.29725,-99.59735,153.076,-46.95006,202408291816585925,
2-23,A_Baseline,1,Q3FrontUp,-28.58048,24.85872,62.34869,-55.29725,-99.59735,153.076,-46.95006,202408291816586109,
2-23,A_Baseline,1,Q3FrontUp,-28.58007,24.95078,62.40481,-55.30535,-99.59797,153.0762,-46.95,202408291816586317,
2-23,A_Baseline,1,Q3FrontUp,-28.58221,25.02825,62.4557,-55.31789,-99.59982,153.0761,-46.95015,202408291816586534,
2-23,A_Baseline,1,Q3FrontUp,-28.59458,25.1166,62.53629,-55.33829,-99.60217,153.0765,-46.95004,202408291816586811,
2-23,A_Baseline,1,Q3FrontUp,-28.62859,25.21747,62.66092,-55.34103,-99.60955,153.0768,-46.95041,202408291816587019,
2-23,A_Baseline,1,Q3FrontUp,-28.62859,25.21747,62.66092,-55.34103,-99.60955,153.0768,-46.95041,202408291816587283,
2-23,A_Baseline,1,Q3FrontUp,-28.67467,25.31691,62.81261,-55.3413,-99.61543,153.0758,-46.9505,202408291816587451,
2-23,A_Baseline,1,Q3FrontUp,-28.67467,25.31691,62.81261,-55.3413,-99.61543,153.0758,-46.9505,202408291816587644,
2-23,A_Baseline,1,Q3FrontUp,-28.7196,25.43937,62.98438,-55.33957,-99.62454,153.0766,-46.95045,202408291816587936,
2-23,A_Baseline,1,Q3FrontUp,-28.78293,25.54479,63.15418,-55.34033,-99.63124,153.077,-46.95046,202408291816588117,
2-23,A_Baseline,1,Q3FrontUp,-28.78293,25.54479,63.15418,-55.34033,-99.63124,153.077,-46.95046,202408291816588331,
2-23,A_Baseline,1,Q3FrontUp,-28.84142,25.65817,63.31584,-55.34112,-99.64317,153.0761,-46.95084,202408291816588550,
2-23,A_Baseline,1,Q3FrontUp,-28.9037,25.76383,63.49553,-55.34007,-99.65141,153.0762,-46.95087,202408291816588817,
2-23,A_Baseline,1,Q3FrontUp,-28.98426,25.87226,63.6875,-55.34116,-99.67136,153.0764,-46.95106,202408291816589150,
2-23,A_Baseline,1,Q3FrontUp,-28.98426,25.87226,63.6875,-55.34116,-99.67136,153.0764,-46.95106,202408291816589320,
2-23,A_Baseline,1,Q3FrontUp,-29.06462,25.98436,63.87107,-55.33952,-99.68622,153.0764,-46.95128,202408291816589481,
2-23,A_Baseline,1,Q3FrontUp,-29.14982,26.08218,64.04796,-55.33963,-99.71644,153.0765,-46.95094,202408291816589829,
2-23,A_Baseline,1,Q3FrontUp,-29.14982,26.08218,64.04796,-55.33963,-99.71644,153.0765,-46.95094,202408291816590004,
2-23,A_Baseline,1,Q3FrontUp,-29.23277,26.2091,64.23522,-55.33661,-99.74097,153.0762,-46.95109,202408291816590284,
2-23,A_Baseline,1,Q3FrontUp,-29.31669,26.31022,64.40443,-55.33527,-99.76001,153.0753,-46.95119,202408291816590451,
2-23,A_Baseline,1,Q3FrontUp,-29.31669,26.31022,64.40443,-55.33527,-99.76001,153.0753,-46.95119,202408291816590617,
2-23,A_Baseline,1,Q3FrontUp,-29.39638,26.43785,64.59476,-55.33507,-99.77238,153.0759,-46.95086,202408291816590816,
2-23,A_Baseline,1,Q3FrontUp,-29.45843,26.53502,64.74216,-55.33521,-99.7795,153.0761,-46.95111,202408291816591051,
2-23,A_Baseline,1,Q3FrontUp,-29.45843,26.53502,64.74216,-55.33521,-99.7795,153.0761,-46.95111,202408291816591322,
2-23,A_Baseline,1,Q3FrontUp,-29.51874,26.62723,64.88892,-55.33693,-99.79314,153.0755,-46.95119,202408291816591506,
2-23,A_Baseline,1,Q3FrontUp,-29.60398,26.73234,65.11183,-55.33645,-99.81659,153.0761,-46.95092,202408291816591754,
2-23,A_Baseline,1,Q3FrontUp,-29.60398,26.73234,65.11183,-55.33645,-99.81659,153.0761,-46.95092,202408291816591973,
2-23,A_Baseline,1,Q3FrontUp,-29.70687,26.81591,65.34389,-55.33701,-99.83424,153.076,-46.95124,202408291816592189,
2-23,A_Baseline,1,Q3FrontUp,-29.80526,26.90975,65.56809,-55.33519,-99.84447,153.0753,-46.95148,202408291816592432,
2-23,A_Baseline,1,Q3FrontUp,-29.80526,26.90975,65.56809,-55.33519,-99.84447,153.0753,-46.95148,202408291816592631,
2-23,A_Baseline,1,Q3FrontUp,-29.91487,26.99492,65.81503,-55.3348,-99.8477,153.0756,-46.95119,202408291816592944,
2-23,A_Baseline,1,Q3FrontUp,-30.02253,27.07372,66.06148,-55.3348,-99.85606,153.0759,-46.9512,202408291816593109,
2-23,A_Baseline,1,Q3FrontUp,-30.11243,27.14612,66.28192,-55.33209,-99.86236,153.0751,-46.95173,202408291816593370,
2-23,A_Baseline,1,Q3FrontUp,-30.11243,27.14612,66.28192,-55.33209,-99.86236,153.0751,-46.95173,202408291816593635,
2-23,A_Baseline,1,Q3FrontUp,-30.19883,27.21751,66.53261,-55.33212,-99.87357,153.0755,-46.95143,202408291816593808,
2-23,A_Baseline,1,Q3FrontUp,-30.19883,27.21751,66.53261,-55.33212,-99.87357,153.0755,-46.95143,202408291816594150,
2-23,A_Baseline,1,Q3FrontUp,-30.34707,27.31204,66.97397,-55.33258,-99.89044,153.0752,-46.95137,202408291816594362,
2-23,A_Baseline,1,Q3FrontUp,-30.34707,27.31204,66.97397,-55.33258,-99.89044,153.0752,-46.95137,202408291816594655,
2-23,A_Baseline,1,Q3FrontUp,-30.4278,27.35049,67.18986,-55.33207,-99.90501,153.0759,-46.95142,202408291816594853,
2-23,A_Baseline,1,Q3FrontUp,-30.50351,27.40365,67.41879,-55.33192,-99.91354,153.0762,-46.95155,202408291816595101,
2-23,A_Baseline,1,Q3FrontUp,-30.50351,27.40365,67.41879,-55.33192,-99.91354,153.0762,-46.95155,202408291816595275,
2-23,A_Baseline,1,Q3FrontUp,-30.58151,27.45399,67.63621,-55.32984,-99.91728,153.0756,-46.95161,202408291816595483,
2-23,A_Baseline,1,Q3FrontUp,-30.66543,27.49528,67.8628,-55.32859,-99.92148,153.0758,-46.95142,202408291816595795,
2-23,A_Baseline,1,Q3FrontUp,-30.66543,27.49528,67.8628,-55.32859,-99.92148,153.0758,-46.95142,202408291816595952,
2-23,A_Baseline,1,Q3FrontUp,-30.73662,27.54951,68.10587,-55.32918,-99.92912,153.0758,-46.95287,202408291816596152,
2-23,A_Baseline,1,Q3FrontUp,-30.79823,27.61772,68.35531,-55.3283,-99.93658,153.0753,-46.95353,202408291816596332,
2-23,A_Baseline,1,Q3FrontUp,-30.79823,27.61772,68.35531,-55.3283,-99.93658,153.0753,-46.95353,202408291816596523,
2-23,A_Baseline,1,Q3FrontUp,-30.86617,27.70048,68.63065,-55.32708,-99.9491,153.076,-46.9538,202408291816596797,
2-23,A_Baseline,1,Q3FrontUp,-30.86617,27.70048,68.63065,-55.32708,-99.9491,153.076,-46.9538,202408291816596969,
2-23,A_Baseline,1,Q3FrontUp,-30.94011,27.77407,68.92786,-55.32805,-99.95441,153.076,-46.95404,202408291816597276,
2-23,A_Baseline,1,Q3FrontUp,-30.99751,27.8489,69.1914,-55.32844,-99.95514,153.0751,-46.95393,202408291816597439,
2-23,A_Baseline,1,Q3FrontUp,-30.99751,27.8489,69.1914,-55.32844,-99.95514,153.0751,-46.95393,202408291816597645,
2-23,A_Baseline,1,Q3FrontUp,-31.04406,27.92397,69.46525,-55.32666,-99.95483,153.075,-46.95389,202408291816597945,
2-23,A_Baseline,1,Q3FrontUp,-31.0809,27.98758,69.73882,-55.32961,-99.95499,153.0752,-46.95448,202408291816598194,
2-23,A_Baseline,1,Q3FrontUp,-31.10978,28.02305,69.97144,-55.3291,-99.95568,153.0751,-46.95403,202408291816598455,
2-23,A_Baseline,1,Q3FrontUp,-31.10978,28.02305,69.97144,-55.3291,-99.95568,153.0751,-46.95403,202408291816598684,
2-23,A_Baseline,1,Q3FrontUp,-31.15891,28.06054,70.22775,-55.32772,-99.95898,153.0759,-46.95452,202408291816598954,
2-23,A_Baseline,1,Q3FrontUp,-31.20943,28.10927,70.46255,-55.32935,-99.9767,153.0757,-46.95488,202408291816599186,
2-23,A_Baseline,1,Q3FrontUp,-31.2562,28.15679,70.66431,-55.32588,-99.99744,153.076,-46.95606,202408291816599522,
2-23,A_Baseline,1,Q3FrontUp,-31.32279,28.20773,70.86458,-55.31768,-100.0115,153.0761,-46.95629,202408291816599778,
2-23,A_Baseline,1,Q3FrontUp,-31.39774,28.26985,71.09972,-55.30932,-100.017,153.0763,-46.95598,202408291817000129,
2-23,A_Baseline,1,Q3FrontUp,-31.46307,28.36584,71.33258,-55.30068,-100.0213,153.0766,-46.95649,202408291817000480,
2-23,A_Baseline,1,Q3FrontUp,-31.52121,28.47716,71.53112,-55.28749,-100.0405,153.0772,-46.95606,202408291817000852,
2-23,A_Baseline,1,Q3FrontUp,-31.5913,28.57527,71.72485,-55.27736,-100.0592,153.0762,-46.95618,202408291817001142,
2-23,A_Baseline,1,Q3FrontUp,-31.66495,28.6893,71.91371,-55.27512,-100.0773,153.0759,-46.95627,202408291817001325,
2-23,A_Baseline,1,Q3FrontUp,-31.66495,28.6893,71.91371,-55.27512,-100.0773,153.0759,-46.95627,202408291817001529,
2-23,A_Baseline,1,Q3FrontUp,-31.75511,28.79764,72.10275,-55.2684,-100.0777,153.0762,-46.95621,202408291817001868,
2-23,A_Baseline,1,Q3FrontUp,-31.83562,28.92642,72.25986,-55.26868,-100.0935,153.0763,-46.95618,202408291817002140,
2-23,A_Baseline,1,Q3FrontUp,-31.93494,29.04017,72.43477,-55.25729,-100.1136,153.0764,-46.95618,202408291817002439,
2-23,A_Baseline,1,Q3FrontUp,-31.93494,29.04017,72.43477,-55.25729,-100.1136,153.0764,-46.95618,202408291817002610,
2-23,A_Baseline,1,Q3FrontUp,-31.93494,29.04017,72.43477,-55.25729,-100.1136,153.0764,-46.95618,202408291817002774,
2-23,A_Baseline,1,Q3FrontUp,-32.0413,29.16843,72.60318,-55.24143,-100.1229,153.0764,-46.95609,202408291817002997,
2-23,A_Baseline,1,Q3FrontUp,-32.14812,29.28631,72.74252,-55.21561,-100.1296,153.0766,-46.95618,202408291817003277,
2-23,A_Baseline,1,Q3FrontUp,-32.24118,29.40669,72.84179,-55.19073,-100.1404,153.0765,-46.9564,202408291817003456,
2-23,A_Baseline,1,Q3FrontUp,-32.24118,29.40669,72.84179,-55.19073,-100.1404,153.0765,-46.9564,202408291817003625,
2-23,A_Baseline,1,Q3FrontUp,-32.32121,29.52027,72.91229,-55.16322,-100.1535,153.0763,-46.95642,202408291817003832,
2-23,A_Baseline,1,Q3FrontUp,-32.39736,29.61942,72.9705,-55.13773,-100.1655,153.0759,-46.95657,202408291817004118,
2-23,A_Baseline,1,Q3FrontUp,-32.46548,29.73368,73.03166,-55.11327,-100.1805,153.0758,-46.95644,202408291817004329,
2-23,A_Baseline,1,Q3FrontUp,-32.46548,29.73368,73.03166,-55.11327,-100.1805,153.0758,-46.95644,202408291817004482,
2-23,A_Baseline,1,Q3FrontUp,-32.46548,29.73368,73.03166,-55.11327,-100.1805,153.0758,-46.95644,202408291817004674,
2-23,A_Baseline,1,Q3FrontUp,-32.52889,29.83138,73.08794,-55.08953,-100.1923,153.0759,-46.95642,202408291817004965,
2-23,A_Baseline,1,Q3FrontUp,-32.58631,29.93736,73.14042,-55.07669,-100.2021,153.0758,-46.95617,202408291817005157,
2-23,A_Baseline,1,Q3FrontUp,-32.65056,30.02376,73.20498,-55.06281,-100.212,153.0753,-46.95618,202408291817005451,
2-23,A_Baseline,1,Q3FrontUp,-32.72686,30.14433,73.32864,-55.05522,-100.2287,153.0761,-46.95648,202408291817005765,
2-23,A_Baseline,1,Q3FrontUp,-32.79347,30.2525,73.43752,-55.03832,-100.2408,153.0758,-46.95606,202408291817006221,
2-23,A_Baseline,1,Q3FrontUp,-32.86209,30.34176,73.53828,-55.02382,-100.2516,153.0744,-46.95642,202408291817006541,
2-23,A_Baseline,1,Q3FrontUp,-32.86209,30.34176,73.53828,-55.02382,-100.2516,153.0744,-46.95642,202408291817006801,
2-23,A_Baseline,1,Q3FrontUp,-32.93434,30.4526,73.70483,-55.01143,-100.2512,153.0753,-46.95601,202408291817006963,
2-23,A_Baseline,1,Q3FrontUp,-32.99111,30.55139,73.87963,-54.99597,-100.2513,153.0762,-46.95635,202408291817007135,
2-23,A_Baseline,1,Q3FrontUp,-32.99111,30.55139,73.87963,-54.99597,-100.2513,153.0762,-46.95635,202408291817007311,
2-23,A_Baseline,1,Q3FrontUp,-33.03584,30.66261,74.07412,-54.97997,-100.2512,153.0766,-46.95613,202408291817007485,
2-23,A_Baseline,1,Q3FrontUp,-33.03584,30.66261,74.07412,-54.97997,-100.2512,153.0766,-46.95613,202408291817007675,
2-23,A_Baseline,1,Q3FrontUp,-33.06529,30.75925,74.25095,-54.96264,-100.2512,153.0779,-46.95623,202408291817007890,
2-23,A_Baseline,1,Q3FrontUp,-33.10197,30.84863,74.43205,-54.94716,-100.2514,153.0785,-46.95628,202408291817008130,
2-23,A_Baseline,1,Q3FrontUp,-33.14077,30.95612,74.6349,-54.93071,-100.2531,153.0789,-46.95619,202408291817008484,
2-23,A_Baseline,1,Q3FrontUp,-33.18579,31.06035,74.84436,-54.91474,-100.2685,153.0843,-46.95621,202408291817008663,
2-23,A_Baseline,1,Q3FrontUp,-33.18579,31.06035,74.84436,-54.91474,-100.2685,153.0843,-46.95621,202408291817008940,
2-23,A_Baseline,1,Q3FrontUp,-33.23005,31.16004,75.01422,-54.89984,-100.2811,153.136,-46.95609,202408291817009186,
2-23,A_Baseline,1,Q3FrontUp,-33.2756,31.24389,75.15807,-54.87988,-100.2889,153.1573,-46.95611,202408291817009333,
2-23,A_Baseline,1,Q3FrontUp,-33.2756,31.24389,75.15807,-54.87988,-100.2889,153.1573,-46.95611,202408291817009522,
2-23,A_Baseline,1,Q3FrontUp,-33.3302,31.33562,75.31952,-54.85619,-100.2894,153.1791,-46.95599,202408291817009834,
2-23,A_Baseline,1,Q3FrontUp,-33.3829,31.44376,75.48316,-54.83838,-100.2908,153.1925,-46.95609,202408291817010152,
2-23,A_Baseline,1,Q3FrontUp,-33.44936,31.53318,75.63905,-54.81678,-100.2945,153.2052,-46.95627,202408291817010441,
2-23,A_Baseline,1,Q3FrontUp,-33.44936,31.53318,75.63905,-54.81678,-100.2945,153.2052,-46.95627,202408291817010618,
2-23,A_Baseline,1,Q3FrontUp,-33.5128,31.63933,75.75217,-54.79304,-100.325,153.2231,-46.95606,202408291817010863,
2-23,A_Baseline,1,Q3FrontUp,-33.57507,31.73468,75.84422,-54.75752,-100.3481,153.2365,-46.9561,202408291817011028,
2-23,A_Baseline,1,Q3FrontUp,-33.57507,31.73468,75.84422,-54.75752,-100.3481,153.2365,-46.9561,202408291817011276,
2-23,A_Baseline,1,Q3FrontUp,-33.63734,31.82047,75.89433,-54.72439,-100.3746,153.2524,-46.9564,202408291817011628,
2-23,A_Baseline,1,Q3FrontUp,-33.7006,31.92165,75.94073,-54.69089,-100.4035,153.2605,-46.95629,202408291817011832,
2-23,A_Baseline,1,Q3FrontUp,-33.7006,31.92165,75.94073,-54.69089,-100.4035,153.2605,-46.95629,202408291817012017,
2-23,A_Baseline,1,Q3FrontUp,-33.75502,32.0176,75.99561,-54.66402,-100.4159,153.2642,-46.95632,202408291817012280,
2-23,A_Baseline,1,Q3FrontUp,-33.80207,32.1189,76.04218,-54.6476,-100.4234,153.2652,-46.95627,202408291817012464,
2-23,A_Baseline,1,Q3FrontUp,-33.80207,32.1189,76.04218,-54.6476,-100.4234,153.2652,-46.95627,202408291817012654,
2-23,A_Baseline,1,Q3FrontUp,-33.82646,32.21144,76.0573,-54.62582,-100.4233,153.2658,-46.95607,202408291817012942,
2-23,A_Baseline,1,Q3FrontUp,-33.84209,32.28307,76.07761,-54.62054,-100.4236,153.267,-46.95625,202408291817013190,
2-23,A_Baseline,1,Q3FrontUp,-33.84732,32.35046,76.09888,-54.62093,-100.4238,153.2679,-46.95612,202408291817013436,
2-23,A_Baseline,1,Q3FrontUp,-33.84732,32.35046,76.09888,-54.62093,-100.4238,153.2679,-46.95612,202408291817013600,
2-23,A_Baseline,1,Q3FrontUp,-33.84695,32.40835,76.12419,-54.62076,-100.4238,153.269,-46.95658,202408291817013763,
2-23,A_Baseline,1,Q3FrontUp,-33.84695,32.40835,76.12419,-54.62076,-100.4238,153.269,-46.95658,202408291817013952,
2-23,A_Baseline,1,Q3FrontUp,-33.84372,32.45667,76.15161,-54.62381,-100.4237,153.2736,-46.95641,202408291817014153,
2-23,A_Baseline,1,Q3FrontUp,-33.84372,32.45667,76.15161,-54.62381,-100.4237,153.2736,-46.95641,202408291817014351,
2-23,A_Baseline,1,Q3FrontUp,-33.83729,32.50988,76.18211,-54.63041,-100.4237,153.334,-46.95613,202408291817014663,
2-23,A_Baseline,1,Q3FrontUp,-33.83729,32.50988,76.18211,-54.63041,-100.4237,153.334,-46.95613,202408291817014951,
2-23,A_Baseline,1,Q3FrontUp,-33.83422,32.52032,76.18221,-54.63496,-100.4237,153.3659,-46.95597,202408291817015276,
2-23,A_Baseline,1,Q3FrontUp,-33.83422,32.52032,76.18221,-54.63496,-100.4237,153.3659,-46.95597,202408291817015528,
2-23,A_Baseline,1,Q3FrontUp,-33.82188,32.58433,76.18057,-54.66826,-100.4239,153.4537,-46.95608,202408291817015771,
2-23,A_Baseline,1,Q3FrontUp,-33.81215,32.62382,76.17763,-54.69046,-100.4237,153.5149,-46.95605,202408291817016034,
2-23,A_Baseline,1,Q3FrontUp,-33.81215,32.62382,76.17763,-54.69046,-100.4237,153.5149,-46.95605,202408291817016301,
2-23,A_Baseline,1,Q3FrontUp,-33.79984,32.68534,76.17667,-54.72461,-100.423,153.5759,-46.9559,202408291817016480,
2-23,A_Baseline,1,Q3FrontUp,-33.79984,32.68534,76.17667,-54.72461,-100.423,153.5759,-46.9559,202408291817016689,
2-23,A_Baseline,1,Q3FrontUp,-33.78525,32.74689,76.17504,-54.75169,-100.4226,153.6339,-46.95579,202408291817016952,
2-23,A_Baseline,1,Q3FrontUp,-33.75312,32.82713,76.15681,-54.79169,-100.4218,153.6812,-46.95577,202408291817017125,
2-23,A_Baseline,1,Q3FrontUp,-33.75312,32.82713,76.15681,-54.79169,-100.4218,153.6812,-46.95577,202408291817017301,
2-23,A_Baseline,1,Q3FrontUp,-33.72256,32.91393,76.13656,-54.83362,-100.4211,153.7332,-46.95594,202408291817017543,
2-23,A_Baseline,1,Q3FrontUp,-33.69635,33.01235,76.09899,-54.86758,-100.4214,153.784,-46.9558,202408291817017830,
2-23,A_Baseline,1,Q3FrontUp,-33.67345,33.10002,76.04459,-54.89652,-100.4216,153.8469,-46.95589,202408291817018092,
2-23,A_Baseline,1,Q3FrontUp,-33.67345,33.10002,76.04459,-54.89652,-100.4216,153.8469,-46.95589,202408291817018262,
2-23,A_Baseline,1,Q3FrontUp,-33.6542,33.20741,75.98704,-54.92816,-100.4214,153.9134,-46.95595,202408291817018437,
2-23,A_Baseline,1,Q3FrontUp,-33.6542,33.20741,75.98704,-54.92816,-100.4214,153.9134,-46.95595,202408291817018611,
2-23,A_Baseline,1,Q3FrontUp,-33.64657,33.3119,75.92528,-54.9576,-100.4217,153.9679,-46.9556,202408291817018857,
2-23,A_Baseline,1,Q3FrontUp,-33.64657,33.3119,75.92528,-54.9576,-100.4217,153.9679,-46.9556,202408291817019027,
2-23,A_Baseline,1,Q3FrontUp,-33.63865,33.43136,75.85914,-54.99684,-100.4219,154.016,-46.95578,202408291817019325,
2-23,A_Baseline,1,Q3FrontUp,-33.63825,33.5464,75.8148,-55.02863,-100.4223,154.0545,-46.95589,202408291817019479,
2-23,A_Baseline,1,Q3FrontUp,-33.63825,33.5464,75.8148,-55.02863,-100.4223,154.0545,-46.95589,202408291817019651,
2-23,A_Baseline,1,Q3FrontUp,-33.63806,33.68272,75.76971,-55.0659,-100.4235,154.0865,-46.95556,202408291817019843,
2-23,A_Baseline,1,Q3FrontUp,-33.63914,33.80848,75.72344,-55.10519,-100.4237,154.1203,-46.9553,202408291817020104,
2-23,A_Baseline,1,Q3FrontUp,-33.63914,33.80848,75.72344,-55.10519,-100.4237,154.1203,-46.9553,202408291817020272,
2-23,A_Baseline,1,Q3FrontUp,-33.63888,33.93804,75.67422,-55.14717,-100.4241,154.1464,-46.95526,202408291817020432,
2-23,A_Baseline,1,Q3FrontUp,-33.63888,33.93804,75.67422,-55.14717,-100.4241,154.1464,-46.95526,202408291817020686,
2-23,A_Baseline,1,Q3FrontUp,-33.63888,33.93804,75.67422,-55.14717,-100.4241,154.1464,-46.95526,202408291817020934,
2-23,A_Baseline,1,Q3FrontUp,-33.63924,34.17348,75.57081,-55.25293,-100.4242,154.1805,-46.95554,202408291817021111,
2-23,A_Baseline,1,Q3FrontUp,-33.63924,34.17348,75.57081,-55.25293,-100.4242,154.1805,-46.95554,202408291817021307,
2-23,A_Baseline,1,Q3FrontUp,-33.63924,34.28296,75.52482,-55.3103,-100.4241,154.2018,-46.95544,202408291817021642,
2-23,A_Baseline,1,Q3FrontUp,-33.63765,34.38884,75.47615,-55.36077,-100.424,154.2187,-46.95553,202408291817021818,
2-23,A_Baseline,1,Q3FrontUp,-33.63765,34.38884,75.47615,-55.36077,-100.424,154.2187,-46.95553,202408291817022022,
2-23,A_Baseline,1,Q3FrontUp,-33.63655,34.49319,75.43452,-55.40368,-100.424,154.237,-46.95549,202408291817022194,
