mpan31415/robot-x-ar/study2/data/raw_all_participants/Participant_2-4_1.csv
ParticipantID,Condition,Trial,PostureID,J1,J2,J3,J4,J5,J6,J7,Timestamp,
2-4,C_HumanVertical,1,Q3FrontDown,-70.4124,27.84823,88.25512,-47.5312,-138.2442,147.2322,-37.12372,202408231157369713,
2-4,C_HumanVertical,1,Q3FrontDown,-70.4124,27.84823,88.25512,-47.5312,-138.2442,147.2322,-37.12372,202408231157370078,
2-4,C_HumanVertical,1,Q3FrontDown,-70.41831,27.84829,88.2554,-47.54674,-138.2719,147.232,-37.18782,202408231157370398,
2-4,C_HumanVertical,1,Q3FrontDown,-70.42251,27.84848,88.25485,-47.55756,-138.2871,147.2323,-37.22417,202408231157370703,
2-4,C_HumanVertical,1,Q3FrontDown,-70.34382,27.83269,88.05292,-47.5641,-138.3521,147.3328,-37.30016,202408231157371022,
2-4,C_HumanVertical,1,Q3FrontDown,-70.19964,27.7334,87.45818,-47.58279,-138.4705,147.5527,-37.41637,202408231157371415,
2-4,C_HumanVertical,1,Q3FrontDown,-70.10071,27.66998,86.91625,-47.60163,-138.5841,147.7502,-37.5234,202408231157371731,
2-4,C_HumanVertical,1,Q3FrontDown,-70.01509,27.67357,86.4587,-47.64273,-138.6892,147.9263,-37.60596,202408231157372014,
2-4,C_HumanVertical,1,Q3FrontDown,-69.9258,27.71599,85.90332,-47.68491,-138.835,148.1181,-37.7109,202408231157372321,
2-4,C_HumanVertical,1,Q3FrontDown,-69.82656,27.79044,85.39904,-47.77651,-138.9464,148.3016,-37.79834,202408231157372607,
2-4,C_HumanVertical,1,Q3FrontDown,-69.82656,27.79044,85.39904,-47.77651,-138.9464,148.3016,-37.79834,202408231157372808,
2-4,C_HumanVertical,1,Q3FrontDown,-69.75338,27.88889,84.93295,-47.87124,-139.0534,148.4704,-37.88275,202408231157373002,
2-4,C_HumanVertical,1,Q3FrontDown,-69.72224,27.96929,84.53076,-47.92428,-139.1454,148.592,-37.95295,202408231157373247,
2-4,C_HumanVertical,1,Q3FrontDown,-69.72224,27.96929,84.53076,-47.92428,-139.1454,148.592,-37.95295,202408231157373450,
2-4,C_HumanVertical,1,Q3FrontDown,-69.70609,28.04436,84.11412,-47.95406,-139.2303,148.7133,-38.02644,202408231157373617,
2-4,C_HumanVertical,1,Q3FrontDown,-69.70609,28.04436,84.11412,-47.95406,-139.2303,148.7133,-38.02644,202408231157373796,
2-4,C_HumanVertical,1,Q3FrontDown,-69.7005,28.12008,83.75564,-47.98293,-139.3022,148.8121,-38.09775,202408231157373969,
2-4,C_HumanVertical,1,Q3FrontDown,-69.7005,28.12008,83.75564,-47.98293,-139.3022,148.8121,-38.09775,202408231157374150,
2-4,C_HumanVertical,1,Q3FrontDown,-69.70157,28.20291,83.4341,-48.00515,-139.3584,148.9049,-38.16116,202408231157374319,
2-4,C_HumanVertical,1,Q3FrontDown,-69.70157,28.20291,83.4341,-48.00515,-139.3584,148.9049,-38.16116,202408231157374591,
2-4,C_HumanVertical,1,Q3FrontDown,-69.70941,28.28686,83.14041,-48.01174,-139.4091,149.0105,-38.21381,202408231157374757,
2-4,C_HumanVertical,1,Q3FrontDown,-69.71331,28.36863,82.88215,-48.01293,-139.4582,149.1105,-38.26251,202408231157374918,
2-4,C_HumanVertical,1,Q3FrontDown,-69.71331,28.36863,82.88215,-48.01293,-139.4582,149.1105,-38.26251,202408231157375087,
2-4,C_HumanVertical,1,Q3FrontDown,-69.715,28.42706,82.61909,-48.01798,-139.502,149.2068,-38.30745,202408231157375332,
2-4,C_HumanVertical,1,Q3FrontDown,-69.71751,28.48286,82.38972,-48.02242,-139.5494,149.2932,-38.35379,202408231157375627,
2-4,C_HumanVertical,1,Q3FrontDown,-69.71751,28.48286,82.38972,-48.02242,-139.5494,149.2932,-38.35379,202408231157375802,
2-4,C_HumanVertical,1,Q3FrontDown,-69.72004,28.54144,82.18036,-48.02961,-139.5943,149.3579,-38.40872,202408231157376008,
2-4,C_HumanVertical,1,Q3FrontDown,-69.71963,28.58781,81.98472,-48.03975,-139.6351,149.3929,-38.46711,202408231157376331,
2-4,C_HumanVertical,1,Q3FrontDown,-69.71963,28.58781,81.98472,-48.03975,-139.6351,149.3929,-38.46711,202408231157376591,
2-4,C_HumanVertical,1,Q3FrontDown,-69.72087,28.62571,81.80398,-48.05035,-139.6755,149.4297,-38.5236,202408231157376785,
2-4,C_HumanVertical,1,Q3FrontDown,-69.72137,28.66537,81.65488,-48.05558,-139.7154,149.4659,-38.57894,202408231157377089,
2-4,C_HumanVertical,1,Q3FrontDown,-69.72202,28.6892,81.51949,-48.05647,-139.7574,149.4995,-38.62731,202408231157377260,
2-4,C_HumanVertical,1,Q3FrontDown,-69.72202,28.6892,81.51949,-48.05647,-139.7574,149.4995,-38.62731,202408231157377513,
2-4,C_HumanVertical,1,Q3FrontDown,-69.71982,28.70186,81.39204,-48.05182,-139.8653,149.5447,-38.65195,202408231157377666,
2-4,C_HumanVertical,1,Q3FrontDown,-69.69632,28.69915,81.24326,-48.03429,-139.9703,149.5916,-38.66733,202408231157377915,
2-4,C_HumanVertical,1,Q3FrontDown,-69.69632,28.69915,81.24326,-48.03429,-139.9703,149.5916,-38.66733,202408231157378135,
2-4,C_HumanVertical,1,Q3FrontDown,-69.66228,28.69243,81.0957,-48.00171,-140.0518,149.6323,-38.67868,202408231157378495,
2-4,C_HumanVertical,1,Q3FrontDown,-69.65816,28.70084,81.07931,-47.957,-140.138,149.6496,-38.69315,202408231157378797,
2-4,C_HumanVertical,1,Q3FrontDown,-69.63328,28.70205,81.05941,-47.89574,-140.2952,149.652,-38.6847,202408231157379101,
2-4,C_HumanVertical,1,Q3FrontDown,-69.6023,28.69521,81.04356,-47.81614,-140.4527,149.6524,-38.64449,202408231157379344,
2-4,C_HumanVertical,1,Q3FrontDown,-69.61125,28.6857,81.16258,-47.73915,-140.6286,149.6511,-38.53752,202408231157379594,
2-4,C_HumanVertical,1,Q3FrontDown,-69.65276,28.66871,81.36974,-47.68579,-140.8093,149.633,-38.40398,202408231157379929,
2-4,C_HumanVertical,1,Q3FrontDown,-69.65276,28.66871,81.36974,-47.68579,-140.8093,149.633,-38.40398,202408231157380096,
2-4,C_HumanVertical,1,Q3FrontDown,-69.70911,28.64624,81.63662,-47.61618,-140.9849,149.5976,-38.26358,202408231157380261,
2-4,C_HumanVertical,1,Q3FrontDown,-69.70911,28.64624,81.63662,-47.61618,-140.9849,149.5976,-38.26358,202408231157380491,
2-4,C_HumanVertical,1,Q3FrontDown,-69.74006,28.59651,81.90192,-47.54259,-141.1844,149.5732,-38.13084,202408231157380674,
2-4,C_HumanVertical,1,Q3FrontDown,-69.74006,28.59651,81.90192,-47.54259,-141.1844,149.5732,-38.13084,202408231157380847,
2-4,C_HumanVertical,1,Q3FrontDown,-69.84967,28.52341,82.30924,-47.54708,-141.2498,149.3306,-38.04583,202408231157381141,
2-4,C_HumanVertical,1,Q3FrontDown,-69.99451,28.47699,82.8278,-47.60907,-141.2355,148.881,-37.98206,202408231157381421,
2-4,C_HumanVertical,1,Q3FrontDown,-70.11753,28.40346,83.3423,-47.65862,-141.2242,148.4555,-37.92147,202408231157381603,
2-4,C_HumanVertical,1,Q3FrontDown,-70.11753,28.40346,83.3423,-47.65862,-141.2242,148.4555,-37.92147,202408231157381850,
2-4,C_HumanVertical,1,Q3FrontDown,-70.19057,28.32688,83.79868,-47.73342,-141.2181,148.038,-37.86058,202408231157382076,
2-4,C_HumanVertical,1,Q3FrontDown,-70.23875,28.23527,84.21413,-47.83024,-141.2172,147.5369,-37.79771,202408231157382251,
2-4,C_HumanVertical,1,Q3FrontDown,-70.23875,28.23527,84.21413,-47.83024,-141.2172,147.5369,-37.79771,202408231157382494,
2-4,C_HumanVertical,1,Q3FrontDown,-70.24178,28.1125,84.48074,-47.97532,-141.2131,147.0323,-37.72459,202408231157382843,
2-4,C_HumanVertical,1,Q3FrontDown,-70.23344,27.96335,84.72509,-48.16301,-141.2014,146.4675,-37.66331,202408231157383141,
2-4,C_HumanVertical,1,Q3FrontDown,-70.19793,27.82636,84.90554,-48.42194,-141.1846,145.9236,-37.60891,202408231157383466,
2-4,C_HumanVertical,1,Q3FrontDown,-70.15655,27.70418,85.06657,-48.6979,-141.1784,145.4177,-37.55915,202408231157383627,
2-4,C_HumanVertical,1,Q3FrontDown,-70.15655,27.70418,85.06657,-48.6979,-141.1784,145.4177,-37.55915,202408231157383839,
2-4,C_HumanVertical,1,Q3FrontDown,-70.0592,27.60117,85.18163,-49.00071,-141.1588,144.9211,-37.5093,202408231157384109,
2-4,C_HumanVertical,1,Q3FrontDown,-69.94521,27.49014,85.24397,-49.32478,-141.1413,144.4659,-37.46716,202408231157384427,
2-4,C_HumanVertical,1,Q3FrontDown,-69.75208,27.38926,85.24312,-49.66035,-141.1389,143.9994,-37.41191,202408231157384588,
2-4,C_HumanVertical,1,Q3FrontDown,-69.75208,27.38926,85.24312,-49.66035,-141.1389,143.9994,-37.41191,202408231157384776,
2-4,C_HumanVertical,1,Q3FrontDown,-69.52177,27.27097,85.19008,-50.04255,-141.1127,143.5771,-37.36895,202408231157385014,
2-4,C_HumanVertical,1,Q3FrontDown,-69.25806,27.12462,85.08961,-50.41158,-141.0865,143.1485,-37.33679,202408231157385264,
2-4,C_HumanVertical,1,Q3FrontDown,-69.25806,27.12462,85.08961,-50.41158,-141.0865,143.1485,-37.33679,202408231157385463,
2-4,C_HumanVertical,1,Q3FrontDown,-68.95227,27.01158,85.0048,-50.79874,-141.0635,142.7676,-37.30447,202408231157385699,
2-4,C_HumanVertical,1,Q3FrontDown,-68.62589,26.89076,84.91889,-51.18622,-141.0398,142.4513,-37.27816,202408231157386019,
2-4,C_HumanVertical,1,Q3FrontDown,-68.28693,26.79618,84.84315,-51.56831,-141.0104,142.1375,-37.25658,202408231157386287,
2-4,C_HumanVertical,1,Q3FrontDown,-68.28693,26.79618,84.84315,-51.56831,-141.0104,142.1375,-37.25658,202408231157386459,
2-4,C_HumanVertical,1,Q3FrontDown,-67.9922,26.69281,84.78967,-51.96915,-140.9839,142,-37.17801,202408231157386709,
2-4,C_HumanVertical,1,Q3FrontDown,-67.70648,26.58259,84.73992,-52.4134,-140.9318,141.9257,-37.09993,202408231157386940,
2-4,C_HumanVertical,1,Q3FrontDown,-67.70648,26.58259,84.73992,-52.4134,-140.9318,141.9257,-37.09993,202408231157387149,
2-4,C_HumanVertical,1,Q3FrontDown,-67.39967,26.43678,84.69235,-52.86235,-140.8591,141.8947,-37.02266,202408231157387326,
2-4,C_HumanVertical,1,Q3FrontDown,-67.39967,26.43678,84.69235,-52.86235,-140.8591,141.8947,-37.02266,202408231157387593,
2-4,C_HumanVertical,1,Q3FrontDown,-67.11608,26.31644,84.66485,-53.29787,-140.791,141.8645,-36.95462,202408231157387762,
2-4,C_HumanVertical,1,Q3FrontDown,-66.83218,26.19531,84.64931,-53.73722,-140.7284,141.8041,-36.88688,202408231157387973,
2-4,C_HumanVertical,1,Q3FrontDown,-66.83218,26.19531,84.64931,-53.73722,-140.7284,141.8041,-36.88688,202408231157388190,
2-4,C_HumanVertical,1,Q3FrontDown,-66.55754,26.09021,84.65033,-54.17591,-140.6627,141.7474,-36.82955,202408231157388460,
2-4,C_HumanVertical,1,Q3FrontDown,-66.27944,25.96028,84.61672,-54.64637,-140.5128,141.7058,-36.79208,202408231157388628,
2-4,C_HumanVertical,1,Q3FrontDown,-65.9988,25.82762,84.57675,-55.06716,-140.3555,141.6805,-36.76641,202408231157389007,
2-4,C_HumanVertical,1,Q3FrontDown,-65.73042,25.68795,84.53869,-55.50965,-140.226,141.674,-36.75108,202408231157389255,
2-4,C_HumanVertical,1,Q3FrontDown,-65.46877,25.56273,84.52551,-55.96568,-140.0966,141.6726,-36.74061,202408231157389576,
2-4,C_HumanVertical,1,Q3FrontDown,-65.46877,25.56273,84.52551,-55.96568,-140.0966,141.6726,-36.74061,202408231157389743,
2-4,C_HumanVertical,1,Q3FrontDown,-65.22592,25.42343,84.52092,-56.41774,-139.9527,141.7119,-36.72148,202408231157389908,
2-4,C_HumanVertical,1,Q3FrontDown,-65.22592,25.42343,84.52092,-56.41774,-139.9527,141.7119,-36.72148,202408231157390094,
2-4,C_HumanVertical,1,Q3FrontDown,-65.01061,25.29716,84.52217,-56.88341,-139.8192,141.789,-36.69667,202408231157390342,
2-4,C_HumanVertical,1,Q3FrontDown,-64.80183,25.16006,84.52254,-57.31418,-139.6898,141.8601,-36.67762,202408231157390641,
2-4,C_HumanVertical,1,Q3FrontDown,-64.80183,25.16006,84.52254,-57.31418,-139.6898,141.8601,-36.67762,202408231157390808,
2-4,C_HumanVertical,1,Q3FrontDown,-64.58549,25.03378,84.52237,-57.75357,-139.6183,141.9462,-36.60938,202408231157391138,
2-4,C_HumanVertical,1,Q3FrontDown,-64.39348,24.90653,84.52372,-58.15007,-139.5879,142.065,-36.52031,202408231157391317,
2-4,C_HumanVertical,1,Q3FrontDown,-64.23317,24.80653,84.53622,-58.57035,-139.5613,142.2392,-36.41903,202408231157391612,
2-4,C_HumanVertical,1,Q3FrontDown,-64.23317,24.80653,84.53622,-58.57035,-139.5613,142.2392,-36.41903,202408231157391927,
2-4,C_HumanVertical,1,Q3FrontDown,-64.08117,24.69098,84.54443,-58.9477,-139.53,142.4375,-36.32158,202408231157392130,
2-4,C_HumanVertical,1,Q3FrontDown,-63.92645,24.60579,84.54943,-59.29974,-139.5,142.6538,-36.22198,202408231157392502,
2-4,C_HumanVertical,1,Q3FrontDown,-63.77359,24.54305,84.56479,-59.63216,-139.4694,142.8204,-36.12229,202408231157392755,
2-4,C_HumanVertical,1,Q3FrontDown,-63.64994,24.48467,84.58234,-59.94218,-139.4335,142.9617,-36.02054,202408231157392959,
2-4,C_HumanVertical,1,Q3FrontDown,-63.64994,24.48467,84.58234,-59.94218,-139.4335,142.9617,-36.02054,202408231157393088,
2-4,C_HumanVertical,1,Q3FrontDown,-63.52928,24.43163,84.6131,-60.20645,-139.3911,143.108,-35.91839,202408231157393341,
2-4,C_HumanVertical,1,Q3FrontDown,-63.52928,24.43163,84.6131,-60.20645,-139.3911,143.108,-35.91839,202408231157393487,
2-4,C_HumanVertical,1,Q3FrontDown,-63.43399,24.39892,84.63386,-60.46115,-139.3524,143.2201,-35.82937,202408231157393687,
2-4,C_HumanVertical,1,Q3FrontDown,-63.38223,24.3787,84.68782,-60.68959,-139.3149,143.3235,-35.73391,202408231157393962,
2-4,C_HumanVertical,1,Q3FrontDown,-63.36478,24.37644,84.76038,-60.86429,-139.2841,143.4043,-35.64228,202408231157394294,
2-4,C_HumanVertical,1,Q3FrontDown,-63.39273,24.38383,84.87808,-60.99252,-139.2577,143.4256,-35.56947,202408231157394642,
2-4,C_HumanVertical,1,Q3FrontDown,-63.45436,24.41299,85.00751,-61.09336,-139.2415,143.436,-35.51722,202408231157394933,
2-4,C_HumanVertical,1,Q3FrontDown,-63.54205,24.4664,85.14768,-61.18209,-139.2338,143.4463,-35.48034,202408231157395340,
2-4,C_HumanVertical,1,Q3FrontDown,-63.64275,24.52194,85.28122,-61.24666,-139.2277,143.4555,-35.44156,202408231157395613,
2-4,C_HumanVertical,1,Q3FrontDown,-63.64275,24.52194,85.28122,-61.24666,-139.2277,143.4555,-35.44156,202408231157395820,
2-4,C_HumanVertical,1,Q3FrontDown,-63.76792,24.63047,85.44467,-61.27436,-139.2256,143.4588,-35.4104,202408231157396118,
2-4,C_HumanVertical,1,Q3FrontDown,-63.90833,24.75502,85.60496,-61.28523,-139.2255,143.4606,-35.38374,202408231157396284,
2-4,C_HumanVertical,1,Q3FrontDown,-64.09543,24.91998,85.80933,-61.30692,-139.2253,143.4767,-35.36428,202408231157396599,
2-4,C_HumanVertical,1,Q3FrontDown,-64.09543,24.91998,85.80933,-61.30692,-139.2253,143.4767,-35.36428,202408231157396840,
2-4,C_HumanVertical,1,Q3FrontDown,-64.34075,25.12271,86.02892,-61.32748,-139.2255,143.4895,-35.35316,202408231157397098,
2-4,C_HumanVertical,1,Q3FrontDown,-64.58962,25.36777,86.23067,-61.34221,-139.2254,143.4905,-35.34985,202408231157397424,
2-4,C_HumanVertical,1,Q3FrontDown,-64.58962,25.36777,86.23067,-61.34221,-139.2254,143.4905,-35.34985,202408231157397587,
2-4,C_HumanVertical,1,Q3FrontDown,-64.87808,25.65287,86.45413,-61.36949,-139.2252,143.4949,-35.35055,202408231157397760,
2-4,C_HumanVertical,1,Q3FrontDown,-65.21307,25.94946,86.64252,-61.39605,-139.2256,143.5146,-35.35117,202408231157398027,
2-4,C_HumanVertical,1,Q3FrontDown,-65.21307,25.94946,86.64252,-61.39605,-139.2256,143.5146,-35.35117,202408231157398251,
2-4,C_HumanVertical,1,Q3FrontDown,-65.53197,26.26807,86.77914,-61.41955,-139.2259,143.5406,-35.35037,202408231157398495,
2-4,C_HumanVertical,1,Q3FrontDown,-65.88154,26.59063,86.8731,-61.4404,-139.2263,143.5578,-35.3504,202408231157398810,
2-4,C_HumanVertical,1,Q3FrontDown,-66.2485,26.96684,86.94949,-61.46562,-139.227,143.5685,-35.34998,202408231157399014,
2-4,C_HumanVertical,1,Q3FrontDown,-66.67415,27.34081,87.04053,-61.50484,-139.2285,143.5865,-35.34861,202408231157399266,
2-4,C_HumanVertical,1,Q3FrontDown,-66.67415,27.34081,87.04053,-61.50484,-139.2285,143.5865,-35.34861,202408231157399432,
2-4,C_HumanVertical,1,Q3FrontDown,-67.06451,27.72645,87.09166,-61.56659,-139.2332,143.6039,-35.33065,202408231157399594,
2-4,C_HumanVertical,1,Q3FrontDown,-67.06451,27.72645,87.09166,-61.56659,-139.2332,143.6039,-35.33065,202408231157399755,
2-4,C_HumanVertical,1,Q3FrontDown,-67.52403,28.12583,87.12305,-61.62794,-139.2439,143.6238,-35.31153,202408231157400015,
2-4,C_HumanVertical,1,Q3FrontDown,-67.52403,28.12583,87.12305,-61.62794,-139.2439,143.6238,-35.31153,202408231157400185,
2-4,C_HumanVertical,1,Q3FrontDown,-67.98169,28.54589,87.14167,-61.69725,-139.2506,143.6371,-35.29262,202408231157400440,
2-4,C_HumanVertical,1,Q3FrontDown,-68.43129,28.94219,87.14194,-61.76716,-139.2572,143.6466,-35.27621,202408231157400631,
2-4,C_HumanVertical,1,Q3FrontDown,-68.43129,28.94219,87.14194,-61.76716,-139.2572,143.6466,-35.27621,202408231157400798,
2-4,C_HumanVertical,1,Q3FrontDown,-68.90186,29.38025,87.16199,-61.84737,-139.259,143.6526,-35.26443,202408231157400961,
2-4,C_HumanVertical,1,Q3FrontDown,-69.36855,29.81147,87.17078,-61.93534,-139.2598,143.6687,-35.25177,202408231157401347,
2-4,C_HumanVertical,1,Q3FrontDown,-69.36855,29.81147,87.17078,-61.93534,-139.2598,143.6687,-35.25177,202408231157401498,
2-4,C_HumanVertical,1,Q3FrontDown,-69.83527,30.24651,87.19062,-62.051,-139.2664,143.7017,-35.24409,202408231157401740,
2-4,C_HumanVertical,1,Q3FrontDown,-70.29244,30.68119,87.20395,-62.14513,-139.2696,143.7467,-35.23788,202408231157401931,
2-4,C_HumanVertical,1,Q3FrontDown,-70.29244,30.68119,87.20395,-62.14513,-139.2696,143.7467,-35.23788,202408231157402249,
2-4,C_HumanVertical,1,Q3FrontDown,-70.72567,31.10785,87.20894,-62.21289,-139.2708,143.7937,-35.23411,202408231157402487,
2-4,C_HumanVertical,1,Q3FrontDown,-71.16351,31.52621,87.21971,-62.29684,-139.2735,143.854,-35.22081,202408231157402774,
2-4,C_HumanVertical,1,Q3FrontDown,-71.58006,31.9415,87.22874,-62.38589,-139.2806,143.8985,-35.21379,202408231157402968,
2-4,C_HumanVertical,1,Q3FrontDown,-71.58006,31.9415,87.22874,-62.38589,-139.2806,143.8985,-35.21379,202408231157403187,
2-4,C_HumanVertical,1,Q3FrontDown,-71.97966,32.34344,87.24911,-62.47764,-139.2872,143.9233,-35.20536,202408231157403463,
2-4,C_HumanVertical,1,Q3FrontDown,-72.36496,32.72409,87.24924,-62.56097,-139.2907,143.953,-35.19299,202408231157403729,
2-4,C_HumanVertical,1,Q3FrontDown,-72.75113,33.08784,87.24968,-62.66378,-139.2923,143.9716,-35.18917,202408231157403959,
2-4,C_HumanVertical,1,Q3FrontDown,-73.08401,33.42806,87.25012,-62.76099,-139.2933,143.9736,-35.18961,202408231157404248,
2-4,C_HumanVertical,1,Q3FrontDown,-73.08401,33.42806,87.25012,-62.76099,-139.2933,143.9736,-35.18961,202408231157404439,
2-4,C_HumanVertical,1,Q3FrontDown,-73.39404,33.77099,87.24973,-62.85069,-139.2941,143.9756,-35.18927,202408231157404834,
2-4,C_HumanVertical,1,Q3FrontDown,-73.67456,34.08011,87.24782,-62.91863,-139.2983,143.9757,-35.18875,202408231157405116,
2-4,C_HumanVertical,1,Q3FrontDown,-73.9603,34.37281,87.25001,-62.99456,-139.3106,143.9752,-35.18727,202408231157405412,
2-4,C_HumanVertical,1,Q3FrontDown,-74.23999,34.6636,87.28575,-63.10978,-139.3306,143.9749,-35.18726,202408231157405602,
2-4,C_HumanVertical,1,Q3FrontDown,-74.23999,34.6636,87.28575,-63.10978,-139.3306,143.9749,-35.18726,202408231157405799,
2-4,C_HumanVertical,1,Q3FrontDown,-74.50994,34.95312,87.3425,-63.2395,-139.3518,143.9747,-35.18719,202408231157406002,
2-4,C_HumanVertical,1,Q3FrontDown,-74.79008,35.23729,87.4352,-63.39515,-139.3658,143.9749,-35.18705,202408231157406336,
2-4,C_HumanVertical,1,Q3FrontDown,-75.10171,35.52206,87.57362,-63.56266,-139.3721,143.9749,-35.18723,202408231157406614,
2-4,C_HumanVertical,1,Q3FrontDown,-75.39629,35.80703,87.7206,-63.7319,-139.378,143.9753,-35.18705,202408231157406954,
2-4,C_HumanVertical,1,Q3FrontDown,-75.39629,35.80703,87.7206,-63.7319,-139.378,143.9753,-35.18705,202408231157407160,
2-4,C_HumanVertical,1,Q3FrontDown,-75.66913,36.08382,87.85831,-63.91087,-139.3813,143.9748,-35.18742,202408231157407429,
2-4,C_HumanVertical,1,Q3FrontDown,-75.91621,36.33952,87.96221,-64.08302,-139.3869,143.975,-35.18728,202408231157407596,
2-4,C_HumanVertical,1,Q3FrontDown,-75.91621,36.33952,87.96221,-64.08302,-139.3869,143.975,-35.18728,202408231157407758,
2-4,C_HumanVertical,1,Q3FrontDown,-76.15685,36.60606,88.11095,-64.26128,-139.4041,143.9745,-35.18729,202408231157408028,
2-4,C_HumanVertical,1,Q3FrontDown,-76.15685,36.60606,88.11095,-64.26128,-139.4041,143.9745,-35.18729,202408231157408207,
2-4,C_HumanVertical,1,Q3FrontDown,-76.40511,36.89555,88.30498,-64.43307,-139.4289,143.9727,-35.18708,202408231157408466,
2-4,C_HumanVertical,1,Q3FrontDown,-76.6683,37.24514,88.59029,-64.64915,-139.4858,143.9603,-35.18706,202408231157408631,
2-4,C_HumanVertical,1,Q3FrontDown,-76.90381,37.57426,88.85568,-64.87982,-139.5345,143.9386,-35.18766,202408231157408947,
2-4,C_HumanVertical,1,Q3FrontDown,-77.15929,37.89706,89.13709,-65.14368,-139.5848,143.9218,-35.18788,202408231157409455,
2-4,C_HumanVertical,1,Q3FrontDown,-77.33885,38.21084,89.4097,-65.37473,-139.6532,143.906,-35.18808,202408231157409659,
2-4,C_HumanVertical,1,Q3FrontDown,-77.5857,38.65223,89.7851,-65.70452,-139.7442,143.8891,-35.18842,202408231157409918,
2-4,C_HumanVertical,1,Q3FrontDown,-77.5857,38.65223,89.7851,-65.70452,-139.7442,143.8891,-35.18842,202408231157410080,
2-4,C_HumanVertical,1,Q3FrontDown,-77.76875,39.03035,90.05373,-65.97813,-139.8241,143.8797,-35.18834,202408231157410296,
2-4,C_HumanVertical,1,Q3FrontDown,-77.76875,39.03035,90.05373,-65.97813,-139.8241,143.8797,-35.18834,202408231157410506,
2-4,C_HumanVertical,1,Q3FrontDown,-77.91582,39.36848,90.25583,-66.22158,-139.9026,143.8736,-35.18859,202408231157410801,
2-4,C_HumanVertical,1,Q3FrontDown,-78.04307,39.73286,90.47775,-66.48127,-139.9901,143.8465,-35.18964,202408231157410970,
2-4,C_HumanVertical,1,Q3FrontDown,-78.04307,39.73286,90.47775,-66.48127,-139.9901,143.8465,-35.18964,202408231157411171,
2-4,C_HumanVertical,1,Q3FrontDown,-78.15701,40.06652,90.68409,-66.70792,-140.0605,143.819,-35.19078,202408231157411498,
2-4,C_HumanVertical,1,Q3FrontDown,-78.24552,40.44532,90.87354,-66.94843,-140.1779,143.8095,-35.19062,202408231157411784,
2-4,C_HumanVertical,1,Q3FrontDown,-78.36501,40.8045,91.07098,-67.18687,-140.2591,143.8077,-35.19033,202408231157412080,
2-4,C_HumanVertical,1,Q3FrontDown,-78.47363,41.1539,91.25804,-67.40739,-140.3188,143.8075,-35.19001,202408231157412249,
2-4,C_HumanVertical,1,Q3FrontDown,-78.47363,41.1539,91.25804,-67.40739,-140.3188,143.8075,-35.19001,202408231157412429,
2-4,C_HumanVertical,1,Q3FrontDown,-78.58863,41.58829,91.52079,-67.58889,-140.371,143.8074,-35.18946,202408231157412671,
2-4,C_HumanVertical,1,Q3FrontDown,-78.58863,41.58829,91.52079,-67.58889,-140.371,143.8074,-35.18946,202408231157412844,
2-4,C_HumanVertical,1,Q3FrontDown,-78.69937,42.01645,91.74219,-67.75063,-140.3904,143.8071,-35.18943,202408231157413099,
2-4,C_HumanVertical,1,Q3FrontDown,-78.83733,42.40737,91.96124,-67.88589,-140.397,143.8064,-35.18879,202408231157413311,
2-4,C_HumanVertical,1,Q3FrontDown,-78.83733,42.40737,91.96124,-67.88589,-140.397,143.8064,-35.18879,202408231157413458,
2-4,C_HumanVertical,1,Q3FrontDown,-78.98068,42.7888,92.1667,-68.01263,-140.4026,143.8068,-35.18843,202408231157413729,
2-4,C_HumanVertical,1,Q3FrontDown,-79.16124,43.1679,92.39404,-68.12067,-140.4216,143.8068,-35.18617,202408231157413957,
2-4,C_HumanVertical,1,Q3FrontDown,-79.33089,43.56571,92.63609,-68.18995,-140.438,143.8065,-35.18261,202408231157414276,
2-4,C_HumanVertical,1,Q3FrontDown,-79.33089,43.56571,92.63609,-68.18995,-140.438,143.8065,-35.18261,202408231157414480,
2-4,C_HumanVertical,1,Q3FrontDown,-79.50627,43.96245,92.87171,-68.23611,-140.4576,143.8057,-35.16673,202408231157414746,
2-4,C_HumanVertical,1,Q3FrontDown,-79.50627,43.96245,92.87171,-68.23611,-140.4576,143.8057,-35.16673,202408231157414915,
2-4,C_HumanVertical,1,Q3FrontDown,-79.66008,44.36199,93.07642,-68.26858,-140.4694,143.8063,-35.16169,202408231157415089,
2-4,C_HumanVertical,1,Q3FrontDown,-79.66008,44.36199,93.07642,-68.26858,-140.4694,143.8063,-35.16169,202408231157415254,
2-4,C_HumanVertical,1,Q3FrontDown,-79.82595,44.71949,93.24731,-68.2837,-140.4762,143.8054,-35.15875,202408231157415428,
2-4,C_HumanVertical,1,Q3FrontDown,-79.98804,45.06957,93.41112,-68.28491,-140.4821,143.8056,-35.15845,202408231157415630,
2-4,C_HumanVertical,1,Q3FrontDown,-79.98804,45.06957,93.41112,-68.28491,-140.4821,143.8056,-35.15845,202408231157415814,
2-4,C_HumanVertical,1,Q3FrontDown,-80.14022,45.41489,93.54608,-68.27116,-140.4947,143.8049,-35.16059,202408231157416018,
2-4,C_HumanVertical,1,Q3FrontDown,-80.26208,45.76072,93.64873,-68.23965,-140.514,143.8047,-35.16585,202408231157416282,
2-4,C_HumanVertical,1,Q3FrontDown,-80.36587,46.07272,93.69411,-68.16771,-140.5518,143.8041,-35.17318,202408231157416614,
2-4,C_HumanVertical,1,Q3FrontDown,-80.46165,46.37896,93.7052,-68.07363,-140.5788,143.8033,-35.19142,202408231157417021,
2-4,C_HumanVertical,1,Q3FrontDown,-80.46165,46.37896,93.7052,-68.07363,-140.5788,143.8033,-35.19142,202408231157417254,
2-4,C_HumanVertical,1,Q3FrontDown,-80.54971,46.67437,93.70496,-67.96942,-140.6108,143.8022,-35.2021,202408231157417441,
2-4,C_HumanVertical,1,Q3FrontDown,-80.63712,46.9609,93.70422,-67.89145,-140.6395,143.8018,-35.2182,202408231157417671,
2-4,C_HumanVertical,1,Q3FrontDown,-80.71319,47.25753,93.70395,-67.797,-140.6735,143.8017,-35.22123,202408231157418046,
2-4,C_HumanVertical,1,Q3FrontDown,-80.78838,47.52136,93.70032,-67.66553,-140.7082,143.8023,-35.22149,202408231157418301,
2-4,C_HumanVertical,1,Q3FrontDown,-80.78838,47.52136,93.70032,-67.66553,-140.7082,143.8023,-35.22149,202408231157418612,
2-4,C_HumanVertical,1,Q3FrontDown,-80.89014,47.99694,93.67463,-67.29002,-140.7467,143.8019,-35.2271,202408231157418968,
2-4,C_HumanVertical,1,Q3FrontDown,-80.89014,47.99694,93.67463,-67.29002,-140.7467,143.8019,-35.2271,202408231157419137,
2-4,C_HumanVertical,1,Q3FrontDown,-80.94252,48.205,93.66573,-67.12852,-140.7702,143.8017,-35.23204,202408231157419441,
2-4,C_HumanVertical,1,Q3FrontDown,-80.98859,48.38261,93.6421,-66.96525,-140.8091,143.8021,-35.23326,202408231157419619,
2-4,C_HumanVertical,1,Q3FrontDown,-81.03609,48.54819,93.63395,-66.78135,-140.852,143.804,-35.23489,202408231157419927,
2-4,C_HumanVertical,1,Q3FrontDown,-81.03609,48.54819,93.63395,-66.78135,-140.852,143.804,-35.23489,202408231157420097,
2-4,C_HumanVertical,1,Q3FrontDown,-81.07343,48.70142,93.62785,-66.5897,-140.902,143.8042,-35.2378,202408231157420346,
2-4,C_HumanVertical,1,Q3FrontDown,-81.1113,48.8204,93.60741,-66.38966,-141.0101,143.8045,-35.24963,202408231157420624,
2-4,C_HumanVertical,1,Q3FrontDown,-81.1113,48.8204,93.60741,-66.38966,-141.0101,143.8045,-35.24963,202408231157420847,
2-4,C_HumanVertical,1,Q3FrontDown,-81.13624,48.93027,93.54446,-66.18875,-141.1672,143.8044,-35.26909,202408231157421126,
2-4,C_HumanVertical,1,Q3FrontDown,-81.17243,48.99482,93.46513,-65.99123,-141.3277,143.8046,-35.2906,202408231157421311,
2-4,C_HumanVertical,1,Q3FrontDown,-81.19086,49.02853,93.3512,-65.77127,-141.6051,143.8048,-35.35196,202408231157421621,
2-4,C_HumanVertical,1,Q3FrontDown,-81.19086,49.02853,93.3512,-65.77127,-141.6051,143.8048,-35.35196,202408231157421919,
2-4,C_HumanVertical,1,Q3FrontDown,-81.2094,49.04943,93.20339,-65.56303,-141.9186,143.8069,-35.41006,202408231157422086,
2-4,C_HumanVertical,1,Q3FrontDown,-81.22212,49.05119,93.02391,-65.36068,-142.2789,143.8084,-35.46401,202408231157422270,
2-4,C_HumanVertical,1,Q3FrontDown,-81.22212,49.05119,93.02391,-65.36068,-142.2789,143.8084,-35.46401,202408231157422505,
2-4,C_HumanVertical,1,Q3FrontDown,-81.24528,49.0621,92.8547,-65.17893,-142.5999,143.8097,-35.51661,202408231157422751,
2-4,C_HumanVertical,1,Q3FrontDown,-81.28096,49.09579,92.71623,-65.00915,-142.9414,143.8119,-35.59371,202408231157422915,
2-4,C_HumanVertical,1,Q3FrontDown,-81.28096,49.09579,92.71623,-65.00915,-142.9414,143.8119,-35.59371,202408231157423090,
2-4,C_HumanVertical,1,Q3FrontDown,-81.31462,49.14642,92.6049,-64.83695,-143.3154,143.8126,-35.67604,202408231157423270,
2-4,C_HumanVertical,1,Q3FrontDown,-81.31462,49.14642,92.6049,-64.83695,-143.3154,143.8126,-35.67604,202408231157423452,
2-4,C_HumanVertical,1,Q3FrontDown,-81.34146,49.2025,92.4886,-64.67078,-143.7392,143.8142,-35.74502,202408231157423672,
2-4,C_HumanVertical,1,Q3FrontDown,-81.37307,49.26114,92.37009,-64.48385,-144.1785,143.814,-35.82767,202408231157423984,
2-4,C_HumanVertical,1,Q3FrontDown,-81.37307,49.26114,92.37009,-64.48385,-144.1785,143.814,-35.82767,202408231157424266,
2-4,C_HumanVertical,1,Q3FrontDown,-81.43848,49.4217,92.15028,-64.10162,-145.0641,143.8094,-36.00086,202408231157424602,
2-4,C_HumanVertical,1,Q3FrontDown,-81.43848,49.4217,92.15028,-64.10162,-145.0641,143.8094,-36.00086,202408231157424827,
2-4,C_HumanVertical,1,Q3FrontDown,-81.46554,49.51599,92.01868,-63.89494,-145.5194,143.7716,-36.09182,202408231157425086,
2-4,C_HumanVertical,1,Q3FrontDown,-81.49368,49.60364,91.85264,-63.67508,-145.9625,143.7014,-36.18473,202408231157425266,
2-4,C_HumanVertical,1,Q3FrontDown,-81.49368,49.60364,91.85264,-63.67508,-145.9625,143.7014,-36.18473,202408231157425421,
2-4,C_HumanVertical,1,Q3FrontDown,-81.53666,49.69707,91.67876,-63.46307,-146.3577,143.6207,-36.27271,202408231157425662,
2-4,C_HumanVertical,1,Q3FrontDown,-81.53666,49.69707,91.67876,-63.46307,-146.3577,143.6207,-36.27271,202408231157425836,
2-4,C_HumanVertical,1,Q3FrontDown,-81.57685,49.78606,91.48779,-63.26809,-146.763,143.5041,-36.36529,202408231157426133,
2-4,C_HumanVertical,1,Q3FrontDown,-81.62414,49.88887,91.29091,-63.07117,-147.1287,143.3531,-36.45902,202408231157426467,
2-4,C_HumanVertical,1,Q3FrontDown,-81.66355,50.02404,91.10757,-62.83775,-147.4729,143.1593,-36.56687,202408231157426787,
2-4,C_HumanVertical,1,Q3FrontDown,-81.69168,50.16553,90.89757,-62.61714,-147.8053,142.9892,-36.65573,202408231157426969,
2-4,C_HumanVertical,1,Q3FrontDown,-81.69168,50.16553,90.89757,-62.61714,-147.8053,142.9892,-36.65573,202408231157427157,
2-4,C_HumanVertical,1,Q3FrontDown,-81.72081,50.3145,90.67232,-62.38385,-148.1245,142.8484,-36.73022,202408231157427420,
2-4,C_HumanVertical,1,Q3FrontDown,-81.73518,50.48369,90.41153,-62.12117,-148.4311,142.6886,-36.79612,202408231157427588,
2-4,C_HumanVertical,1,Q3FrontDown,-81.73518,50.48369,90.41153,-62.12117,-148.4311,142.6886,-36.79612,202408231157427757,
2-4,C_HumanVertical,1,Q3FrontDown,-81.7631,50.62559,90.13383,-61.88289,-148.6988,142.5482,-36.85507,202408231157427974,
2-4,C_HumanVertical,1,Q3FrontDown,-81.7631,50.62559,90.13383,-61.88289,-148.6988,142.5482,-36.85507,202408231157428182,
2-4,C_HumanVertical,1,Q3FrontDown,-81.8001,50.76988,89.85152,-61.63807,-148.9617,142.4083,-36.92126,202408231157428441,
2-4,C_HumanVertical,1,Q3FrontDown,-81.84219,50.93966,89.58524,-61.40923,-149.2047,142.2752,-36.98926,202408231157428628,
2-4,C_HumanVertical,1,Q3FrontDown,-81.84219,50.93966,89.58524,-61.40923,-149.2047,142.2752,-36.98926,202408231157428827,
2-4,C_HumanVertical,1,Q3FrontDown,-81.88857,51.13427,89.3822,-61.18956,-149.4134,142.1392,-37.03807,202408231157429107,
2-4,C_HumanVertical,1,Q3FrontDown,-81.91674,51.37622,89.2533,-60.93897,-149.5935,142.0036,-37.07648,202408231157429318,
2-4,C_HumanVertical,1,Q3FrontDown,-81.91674,51.37622,89.2533,-60.93897,-149.5935,142.0036,-37.07648,202408231157429606,
2-4,C_HumanVertical,1,Q3FrontDown,-81.94453,51.60554,89.1563,-60.69336,-149.7348,141.934,-37.08734,202408231157429764,
2-4,C_HumanVertical,1,Q3FrontDown,-81.97546,51.81089,89.01326,-60.46419,-149.8621,141.8776,-37.09028,202408231157429941,
2-4,C_HumanVertical,1,Q3FrontDown,-81.97546,51.81089,89.01326,-60.46419,-149.8621,141.8776,-37.09028,202408231157430130,
2-4,C_HumanVertical,1,Q3FrontDown,-82.02509,51.95485,88.80247,-60.27428,-149.9884,141.8359,-37.09005,202408231157430303,
2-4,C_HumanVertical,1,Q3FrontDown,-82.02509,51.95485,88.80247,-60.27428,-149.9884,141.8359,-37.09005,202408231157430509,
2-4,C_HumanVertical,1,Q3FrontDown,-82.0801,52.07575,88.57563,-60.08777,-150.1137,141.8,-37.08992,202408231157430802,
2-4,C_HumanVertical,1,Q3FrontDown,-82.12932,52.21287,88.36882,-59.89558,-150.2461,141.7749,-37.08961,202408231157430970,
2-4,C_HumanVertical,1,Q3FrontDown,-82.12932,52.21287,88.36882,-59.89558,-150.2461,141.7749,-37.08961,202408231157431142,
2-4,C_HumanVertical,1,Q3FrontDown,-82.16889,52.37075,88.19963,-59.72876,-150.3724,141.7701,-37.08858,202408231157431479,
2-4,C_HumanVertical,1,Q3FrontDown,-82.19417,52.53225,87.98768,-59.5992,-150.4683,141.7659,-37.08773,202408231157431677,
2-4,C_HumanVertical,1,Q3FrontDown,-82.23224,52.6999,87.83424,-59.47434,-150.5717,141.737,-37.08885,202408231157431949,
2-4,C_HumanVertical,1,Q3FrontDown,-82.23224,52.6999,87.83424,-59.47434,-150.5717,141.737,-37.08885,202408231157432218,
2-4,C_HumanVertical,1,Q3FrontDown,-82.24511,52.92017,87.79445,-59.3468,-150.6578,141.6885,-37.09012,202408231157432537,
2-4,C_HumanVertical,1,Q3FrontDown,-82.24641,53.10417,87.67693,-59.24312,-150.753,141.6625,-37.09129,202408231157432774,
2-4,C_HumanVertical,1,Q3FrontDown,-82.24335,53.29704,87.59375,-59.1655,-150.8532,141.6353,-37.10174,202408231157432999,
2-4,C_HumanVertical,1,Q3FrontDown,-82.24123,53.51317,87.52843,-59.11525,-150.9573,141.6148,-37.11851,202408231157433319,
2-4,C_HumanVertical,1,Q3FrontDown,-82.23937,53.68068,87.41085,-59.06902,-151.0405,141.5864,-37.14056,202408231157433628,
2-4,C_HumanVertical,1,Q3FrontDown,-82.23937,53.68068,87.41085,-59.06902,-151.0405,141.5864,-37.14056,202408231157433813,
2-4,C_HumanVertical,1,Q3FrontDown,-82.23003,53.87757,87.34718,-59.0321,-151.1251,141.5328,-37.17565,202408231157434010,
2-4,C_HumanVertical,1,Q3FrontDown,-82.19359,54.09796,87.34661,-59.0039,-151.1858,141.4789,-37.2114,202408231157434286,
2-4,C_HumanVertical,1,Q3FrontDown,-82.13491,54.2977,87.30139,-58.97746,-151.2562,141.4531,-37.22766,202408231157434602,
2-4,C_HumanVertical,1,Q3FrontDown,-82.07141,54.4784,87.25948,-58.95953,-151.3163,141.4332,-37.23709,202408231157434971,
2-4,C_HumanVertical,1,Q3FrontDown,-82.07141,54.4784,87.25948,-58.95953,-151.3163,141.4332,-37.23709,202408231157435149,
2-4,C_HumanVertical,1,Q3FrontDown,-81.97861,54.65707,87.24088,-58.95794,-151.3677,141.4243,-37.24633,202408231157435340,
2-4,C_HumanVertical,1,Q3FrontDown,-81.86193,54.82554,87.22916,-58.95907,-151.4161,141.4202,-37.25301,202408231157435636,
2-4,C_HumanVertical,1,Q3FrontDown,-81.86193,54.82554,87.22916,-58.95907,-151.4161,141.4202,-37.25301,202408231157435801,
2-4,C_HumanVertical,1,Q3FrontDown,-81.73496,54.9804,87.22534,-58.9587,-151.4364,141.4178,-37.25997,202408231157436128,
2-4,C_HumanVertical,1,Q3FrontDown,-81.58871,55.11742,87.25362,-58.96104,-151.4375,141.4185,-37.26162,202408231157436338,
2-4,C_HumanVertical,1,Q3FrontDown,-81.38766,55.28483,87.37482,-58.95937,-151.4381,141.418,-37.26369,202408231157436594,
2-4,C_HumanVertical,1,Q3FrontDown,-81.38766,55.28483,87.37482,-58.95937,-151.4381,141.418,-37.26369,202408231157436787,
2-4,C_HumanVertical,1,Q3FrontDown,-81.14865,55.43396,87.53104,-58.94894,-151.4384,141.419,-37.2648,202408231157436973,
2-4,C_HumanVertical,1,Q3FrontDown,-80.88672,55.55334,87.71483,-58.94587,-151.4383,141.4219,-37.26556,202408231157437257,
2-4,C_HumanVertical,1,Q3FrontDown,-80.88672,55.55334,87.71483,-58.94587,-151.4383,141.4219,-37.26556,202408231157437492,
2-4,C_HumanVertical,1,Q3FrontDown,-80.60349,55.62956,87.86337,-58.9467,-151.4384,141.4254,-37.26643,202408231157437752,
2-4,C_HumanVertical,1,Q3FrontDown,-80.26727,55.71115,87.98732,-58.93481,-151.4383,141.4262,-37.27994,202408231157437909,
2-4,C_HumanVertical,1,Q3FrontDown,-80.26727,55.71115,87.98732,-58.93481,-151.4383,141.4262,-37.27994,202408231157438104,
2-4,C_HumanVertical,1,Q3FrontDown,-79.91145,55.77102,88.10303,-58.93621,-151.4384,141.4265,-37.30817,202408231157438307,
2-4,C_HumanVertical,1,Q3FrontDown,-79.91145,55.77102,88.10303,-58.93621,-151.4384,141.4265,-37.30817,202408231157438497,
2-4,C_HumanVertical,1,Q3FrontDown,-79.52561,55.82886,88.20521,-58.95238,-151.438,141.4275,-37.33584,202408231157438789,
2-4,C_HumanVertical,1,Q3FrontDown,-79.12119,55.88709,88.33949,-58.95736,-151.4382,141.4288,-37.3702,202408231157439114,
2-4,C_HumanVertical,1,Q3FrontDown,-78.71341,55.98519,88.48573,-58.95895,-151.4385,141.4304,-37.40817,202408231157439430,
2-4,C_HumanVertical,1,Q3FrontDown,-78.3,56.08127,88.63454,-58.96748,-151.437,141.4302,-37.44701,202408231157439673,
2-4,C_HumanVertical,1,Q3FrontDown,-77.85722,56.18494,88.77731,-58.97411,-151.4356,141.4328,-37.49333,202408231157439939,
2-4,C_HumanVertical,1,Q3FrontDown,-77.85722,56.18494,88.77731,-58.97411,-151.4356,141.4328,-37.49333,202408231157440185,
2-4,C_HumanVertical,1,Q3FrontDown,-77.45033,56.2778,88.92625,-58.97242,-151.4352,141.4404,-37.53705,202408231157440476,
2-4,C_HumanVertical,1,Q3FrontDown,-77.03839,56.40825,89.09705,-58.97556,-151.4281,141.4407,-37.60249,202408231157440684,
2-4,C_HumanVertical,1,Q3FrontDown,-76.62793,56.53544,89.24805,-58.97441,-151.4239,141.4513,-37.64854,202408231157440958,
2-4,C_HumanVertical,1,Q3FrontDown,-76.22811,56.62713,89.36359,-58.97431,-151.4214,141.4765,-37.68139,202408231157441287,
2-4,C_HumanVertical,1,Q3FrontDown,-75.84804,56.72941,89.46566,-58.9697,-151.4201,141.4882,-37.71383,202408231157441615,
2-4,C_HumanVertical,1,Q3FrontDown,-75.84804,56.72941,89.46566,-58.9697,-151.4201,141.4882,-37.71383,202408231157441794,
2-4,C_HumanVertical,1,Q3FrontDown,-75.48981,56.82934,89.57494,-58.9581,-151.4055,141.4955,-37.75999,202408231157442085,
2-4,C_HumanVertical,1,Q3FrontDown,-75.10722,56.94304,89.69123,-58.9441,-151.3903,141.4987,-37.81169,202408231157442244,
2-4,C_HumanVertical,1,Q3FrontDown,-75.10722,56.94304,89.69123,-58.9441,-151.3903,141.4987,-37.81169,202408231157442429,
2-4,C_HumanVertical,1,Q3FrontDown,-75.10722,56.94304,89.69123,-58.9441,-151.3903,141.4987,-37.81169,202408231157442591,
2-4,C_HumanVertical,1,Q3FrontDown,-74.70719,57.04923,89.80531,-58.88323,-151.3785,141.5292,-37.83714,202408231157442803,
2-4,C_HumanVertical,1,Q3FrontDown,-74.32076,57.15365,89.87849,-58.7932,-151.3758,141.5749,-37.85589,202408231157443036,
2-4,C_HumanVertical,1,Q3FrontDown,-73.94371,57.24775,89.9596,-58.69704,-151.3755,141.6477,-37.8631,202408231157443303,
2-4,C_HumanVertical,1,Q3FrontDown,-73.94371,57.24775,89.9596,-58.69704,-151.3755,141.6477,-37.8631,202408231157443492,
2-4,C_HumanVertical,1,Q3FrontDown,-73.58873,57.31435,90.0077,-58.62231,-151.3765,141.7528,-37.8629,202408231157443798,
2-4,C_HumanVertical,1,Q3FrontDown,-73.25266,57.36742,90.03033,-58.57473,-151.3924,141.8512,-37.86239,202408231157444005,
2-4,C_HumanVertical,1,Q3FrontDown,-72.98032,57.41609,90.03027,-58.55575,-151.4062,141.9454,-37.86272,202408231157444261,
2-4,C_HumanVertical,1,Q3FrontDown,-72.98032,57.41609,90.03027,-58.55575,-151.4062,141.9454,-37.86272,202408231157444423,
2-4,C_HumanVertical,1,Q3FrontDown,-72.72807,57.4754,90.03056,-58.5335,-151.4122,142.0302,-37.86264,202408231157444605,
2-4,C_HumanVertical,1,Q3FrontDown,-72.54989,57.51842,90.05988,-58.53062,-151.434,142.0653,-37.87265,202408231157444933,
2-4,C_HumanVertical,1,Q3FrontDown,-72.54989,57.51842,90.05988,-58.53062,-151.434,142.0653,-37.87265,202408231157445165,
2-4,C_HumanVertical,1,Q3FrontDown,-72.39147,57.5766,90.10099,-58.52687,-151.4564,142.0621,-37.89622,202408231157445463,
2-4,C_HumanVertical,1,Q3FrontDown,-72.2638,57.63799,90.15199,-58.49299,-151.4883,142.0331,-37.93769,202408231157445643,
2-4,C_HumanVertical,1,Q3FrontDown,-72.2638,57.63799,90.15199,-58.49299,-151.4883,142.0331,-37.93769,202408231157445819,
2-4,C_HumanVertical,1,Q3FrontDown,-72.17431,57.72264,90.23375,-58.44163,-151.5178,141.9622,-37.989,202408231157445974,
2-4,C_HumanVertical,1,Q3FrontDown,-72.17431,57.72264,90.23375,-58.44163,-151.5178,141.9622,-37.989,202408231157446152,
2-4,C_HumanVertical,1,Q3FrontDown,-72.14037,57.7976,90.35003,-58.362,-151.5386,141.8734,-38.04806,202408231157446494,
2-4,C_HumanVertical,1,Q3FrontDown,-72.13748,57.84845,90.44125,-58.2228,-151.5482,141.791,-38.08537,202408231157446646,
2-4,C_HumanVertical,1,Q3FrontDown,-72.13962,57.91019,90.54823,-58.0273,-151.5526,141.7222,-38.12776,202408231157446926,
2-4,C_HumanVertical,1,Q3FrontDown,-72.13962,57.91019,90.54823,-58.0273,-151.5526,141.7222,-38.12776,202408231157447097,
2-4,C_HumanVertical,1,Q3FrontDown,-72.14684,57.98966,90.67635,-57.77576,-151.5523,141.6747,-38.16579,202408231157447348,
2-4,C_HumanVertical,1,Q3FrontDown,-72.19257,58.02201,90.73577,-57.47972,-151.5524,141.6376,-38.21978,202408231157447642,
2-4,C_HumanVertical,1,Q3FrontDown,-72.26157,58.0442,90.79299,-57.15722,-151.5528,141.6163,-38.25273,202408231157447951,
2-4,C_HumanVertical,1,Q3FrontDown,-72.26157,58.0442,90.79299,-57.15722,-151.5528,141.6163,-38.25273,202408231157448079,
2-4,C_HumanVertical,1,Q3FrontDown,-72.32645,58.0802,90.84349,-56.78868,-151.5528,141.6165,-38.27525,202408231157448426,
2-4,C_HumanVertical,1,Q3FrontDown,-72.43556,58.10959,90.90144,-56.43697,-151.5528,141.616,-38.29444,202408231157448683,
2-4,C_HumanVertical,1,Q3FrontDown,-72.55552,58.14087,90.9427,-56.07269,-151.5528,141.6158,-38.31093,202408231157448961,
2-4,C_HumanVertical,1,Q3FrontDown,-72.6993,58.17099,90.97031,-55.74217,-151.5531,141.6161,-38.31638,202408231157449284,
2-4,C_HumanVertical,1,Q3FrontDown,-72.87921,58.20296,91.00353,-55.42969,-151.5529,141.6162,-38.33083,202408231157449661,
2-4,C_HumanVertical,1,Q3FrontDown,-72.87921,58.20296,91.00353,-55.42969,-151.5529,141.6162,-38.33083,202408231157449818,
2-4,C_HumanVertical,1,Q3FrontDown,-73.06162,58.24707,91.02187,-55.1579,-151.5528,141.6171,-38.33946,202408231157450100,
2-4,C_HumanVertical,1,Q3FrontDown,-73.25738,58.2957,91.02637,-54.92548,-151.5529,141.6181,-38.33929,202408231157450276,
2-4,C_HumanVertical,1,Q3FrontDown,-73.25738,58.2957,91.02637,-54.92548,-151.5529,141.6181,-38.33929,202408231157450468,
2-4,C_HumanVertical,1,Q3FrontDown,-73.47445,58.37495,91.02635,-54.67277,-151.553,141.6186,-38.33947,202408231157450683,
2-4,C_HumanVertical,1,Q3FrontDown,-73.67767,58.47431,91.02505,-54.45515,-151.5531,141.6186,-38.34003,202408231157450957,
2-4,C_HumanVertical,1,Q3FrontDown,-73.67767,58.47431,91.02505,-54.45515,-151.5531,141.6186,-38.34003,202408231157451104,
2-4,C_HumanVertical,1,Q3FrontDown,-73.87827,58.56429,91.0137,-54.27918,-151.5532,141.6188,-38.34071,202408231157451507,
2-4,C_HumanVertical,1,Q3FrontDown,-74.09061,58.68149,90.98821,-54.09541,-151.5531,141.6192,-38.34131,202408231157451668,
2-4,C_HumanVertical,1,Q3FrontDown,-74.26797,58.79649,90.94344,-53.91985,-151.5529,141.6183,-38.35746,202408231157451929,
2-4,C_HumanVertical,1,Q3FrontDown,-74.26797,58.79649,90.94344,-53.91985,-151.5529,141.6183,-38.35746,202408231157452087,
2-4,C_HumanVertical,1,Q3FrontDown,-74.44332,58.91042,90.86035,-53.76637,-151.5531,141.6173,-38.38856,202408231157452260,
2-4,C_HumanVertical,1,Q3FrontDown,-74.44332,58.91042,90.86035,-53.76637,-151.5531,141.6173,-38.38856,202408231157452433,
2-4,C_HumanVertical,1,Q3FrontDown,-74.6115,59.02813,90.76474,-53.64514,-151.553,141.6179,-38.41899,202408231157452596,
2-4,C_HumanVertical,1,Q3FrontDown,-74.6115,59.02813,90.76474,-53.64514,-151.553,141.6179,-38.41899,202408231157452849,
2-4,C_HumanVertical,1,Q3FrontDown,-74.77826,59.15915,90.67755,-53.51059,-151.5533,141.618,-38.44275,202408231157453077,
2-4,C_HumanVertical,1,Q3FrontDown,-74.77826,59.15915,90.67755,-53.51059,-151.5533,141.618,-38.44275,202408231157453276,
2-4,C_HumanVertical,1,Q3FrontDown,-74.92023,59.30971,90.5944,-53.36358,-151.553,141.6191,-38.4642,202408231157453467,
2-4,C_HumanVertical,1,Q3FrontDown,-75.05017,59.44857,90.47865,-53.1992,-151.5531,141.637,-38.46611,202408231157453629,
2-4,C_HumanVertical,1,Q3FrontDown,-75.05017,59.44857,90.47865,-53.1992,-151.5531,141.637,-38.46611,202408231157453838,
2-4,C_HumanVertical,1,Q3FrontDown,-75.18517,59.58884,90.3628,-53.06007,-151.5532,141.6506,-38.47077,202408231157454086,
2-4,C_HumanVertical,1,Q3FrontDown,-75.325,59.71423,90.25176,-52.96112,-151.5529,141.657,-38.47846,202408231157454264,
2-4,C_HumanVertical,1,Q3FrontDown,-75.47123,59.82974,90.14568,-52.88426,-151.5532,141.6633,-38.48489,202408231157454639,
2-4,C_HumanVertical,1,Q3FrontDown,-75.47123,59.82974,90.14568,-52.88426,-151.5532,141.6633,-38.48489,202408231157454825,
2-4,C_HumanVertical,1,Q3FrontDown,-75.61285,59.94918,90.02976,-52.80418,-151.5531,141.6855,-38.48711,202408231157455089,
2-4,C_HumanVertical,1,Q3FrontDown,-75.61285,59.94918,90.02976,-52.80418,-151.5531,141.6855,-38.48711,202408231157455265,
2-4,C_HumanVertical,1,Q3FrontDown,-75.74521,60.06069,89.93645,-52.72261,-151.5532,141.7159,-38.48709,202408231157455415,
2-4,C_HumanVertical,1,Q3FrontDown,-75.87555,60.16947,89.84606,-52.63889,-151.5532,141.7434,-38.48688,202408231157455598,
2-4,C_HumanVertical,1,Q3FrontDown,-75.87555,60.16947,89.84606,-52.63889,-151.5532,141.7434,-38.48688,202408231157455814,
2-4,C_HumanVertical,1,Q3FrontDown,-76.00734,60.28328,89.77477,-52.5635,-151.5532,141.7655,-38.48707,202408231157456126,
2-4,C_HumanVertical,1,Q3FrontDown,-76.13847,60.37914,89.70798,-52.50481,-151.5531,141.785,-38.48721,202408231157456328,
2-4,C_HumanVertical,1,Q3FrontDown,-76.2798,60.46394,89.61247,-52.44969,-151.5533,141.8717,-38.48613,202408231157456642,
2-4,C_HumanVertical,1,Q3FrontDown,-76.4215,60.53266,89.52566,-52.38989,-151.5531,141.9519,-38.48428,202408231157456928,
2-4,C_HumanVertical,1,Q3FrontDown,-76.4215,60.53266,89.52566,-52.38989,-151.5531,141.9519,-38.48428,202408231157457173,
2-4,C_HumanVertical,1,Q3FrontDown,-76.54916,60.60376,89.43955,-52.33142,-151.5534,142.0197,-38.48273,202408231157457417,
2-4,C_HumanVertical,1,Q3FrontDown,-76.67262,60.67104,89.36871,-52.27781,-151.5533,142.0744,-38.48082,202408231157457612,
2-4,C_HumanVertical,1,Q3FrontDown,-76.67262,60.67104,89.36871,-52.27781,-151.5533,142.0744,-38.48082,202408231157457841,
2-4,C_HumanVertical,1,Q3FrontDown,-76.79139,60.73858,89.29144,-52.24469,-151.5534,142.1342,-38.48118,202408231157458099,
2-4,C_HumanVertical,1,Q3FrontDown,-76.92626,60.79337,89.20973,-52.24333,-151.5532,142.2099,-38.48172,202408231157458367,
2-4,C_HumanVertical,1,Q3FrontDown,-77.04549,60.83442,89.07764,-52.24111,-151.5534,142.3021,-38.48164,202408231157458628,
2-4,C_HumanVertical,1,Q3FrontDown,-77.16689,60.86883,88.94189,-52.23666,-151.5532,142.4012,-38.48169,202408231157458967,
2-4,C_HumanVertical,1,Q3FrontDown,-77.26996,60.90414,88.7925,-52.22982,-151.5534,142.4952,-38.48121,202408231157459277,
2-4,C_HumanVertical,1,Q3FrontDown,-77.26996,60.90414,88.7925,-52.22982,-151.5534,142.4952,-38.48121,202408231157459481,
2-4,C_HumanVertical,1,Q3FrontDown,-77.36841,60.9379,88.64169,-52.21904,-151.5534,142.5904,-38.48136,202408231157459761,
2-4,C_HumanVertical,1,Q3FrontDown,-77.45441,60.97508,88.4931,-52.2014,-151.5532,142.6933,-38.48103,202408231157459968,
2-4,C_HumanVertical,1,Q3FrontDown,-77.53732,61.01006,88.34826,-52.18574,-151.5533,142.7917,-38.48075,202408231157460279,
2-4,C_HumanVertical,1,Q3FrontDown,-77.62685,61.03573,88.18516,-52.17907,-151.5534,142.8648,-38.47665,202408231157460580,
2-4,C_HumanVertical,1,Q3FrontDown,-77.62685,61.03573,88.18516,-52.17907,-151.5534,142.8648,-38.47665,202408231157460820,
2-4,C_HumanVertical,1,Q3FrontDown,-77.70707,61.05932,88.02372,-52.16252,-151.5535,142.9431,-38.46814,202408231157460982,
2-4,C_HumanVertical,1,Q3FrontDown,-77.78121,61.07325,87.86467,-52.12864,-151.5539,143.0361,-38.45385,202408231157461266,
2-4,C_HumanVertical,1,Q3FrontDown,-77.78121,61.07325,87.86467,-52.12864,-151.5539,143.0361,-38.45385,202408231157461484,
2-4,C_HumanVertical,1,Q3FrontDown,-77.82542,61.10994,87.80077,-52.0262,-151.5546,143.1261,-38.42682,202408231157461672,
2-4,C_HumanVertical,1,Q3FrontDown,-77.85897,61.14679,87.76377,-51.90916,-151.5549,143.2034,-38.40587,202408231157461928,
2-4,C_HumanVertical,1,Q3FrontDown,-77.85897,61.14679,87.76377,-51.90916,-151.5549,143.2034,-38.40587,202408231157462085,
2-4,C_HumanVertical,1,Q3FrontDown,-77.85897,61.14679,87.76377,-51.90916,-151.5549,143.2034,-38.40587,202408231157462257,
2-4,C_HumanVertical,1,Q3FrontDown,-77.88654,61.16544,87.7448,-51.78649,-151.5541,143.2791,-38.38207,202408231157462434,
2-4,C_HumanVertical,1,Q3FrontDown,-77.88838,61.1456,87.58105,-51.62902,-151.5542,143.398,-38.33262,202408231157462669,
2-4,C_HumanVertical,1,Q3FrontDown,-77.88838,61.1456,87.58105,-51.62902,-151.5542,143.398,-38.33262,202408231157462857,
2-4,C_HumanVertical,1,Q3FrontDown,-77.91446,61.10542,87.38741,-51.47627,-151.5539,143.5078,-38.29118,202408231157463138,
2-4,C_HumanVertical,1,Q3FrontDown,-77.94653,61.06481,87.13721,-51.32996,-151.5537,143.5922,-38.25814,202408231157463458,
2-4,C_HumanVertical,1,Q3FrontDown,-77.98574,61.05402,86.89735,-51.16253,-151.5538,143.6821,-38.23586,202408231157463595,
2-4,C_HumanVertical,1,Q3FrontDown,-77.98574,61.05402,86.89735,-51.16253,-151.5538,143.6821,-38.23586,202408231157463811,
2-4,C_HumanVertical,1,Q3FrontDown,-78.02075,61.07986,86.70361,-50.96989,-151.554,143.7733,-38.22131,202408231157463994,
2-4,C_HumanVertical,1,Q3FrontDown,-78.02075,61.07986,86.70361,-50.96989,-151.554,143.7733,-38.22131,202408231157464208,
2-4,C_HumanVertical,1,Q3FrontDown,-78.04576,61.13254,86.55531,-50.77139,-151.5531,143.8452,-38.21527,202408231157464441,
2-4,C_HumanVertical,1,Q3FrontDown,-78.09707,61.11277,86.20292,-50.6465,-151.5525,143.9064,-38.19194,202408231157464603,
2-4,C_HumanVertical,1,Q3FrontDown,-78.09707,61.11277,86.20292,-50.6465,-151.5525,143.9064,-38.19194,202408231157464775,
2-4,C_HumanVertical,1,Q3FrontDown,-78.15545,61.10796,85.90151,-50.52331,-151.5524,143.9487,-38.1803,202408231157465165,
2-4,C_HumanVertical,1,Q3FrontDown,-78.19946,61.11321,85.57931,-50.40308,-151.5523,143.9759,-38.17036,202408231157465444,
2-4,C_HumanVertical,1,Q3FrontDown,-78.26621,61.11926,85.29736,-50.26911,-151.5521,143.9923,-38.16363,202408231157465620,
2-4,C_HumanVertical,1,Q3FrontDown,-78.26621,61.11926,85.29736,-50.26911,-151.5521,143.9923,-38.16363,202408231157465838,
2-4,C_HumanVertical,1,Q3FrontDown,-78.30959,61.13192,84.97863,-50.14816,-151.5526,143.9966,-38.1517,202408231157466146,
2-4,C_HumanVertical,1,Q3FrontDown,-78.34959,61.13195,84.62861,-50.0646,-151.5524,144.0025,-38.13647,202408231157466450,
2-4,C_HumanVertical,1,Q3FrontDown,-78.39114,61.17435,84.42738,-49.90124,-151.5536,144.0096,-38.10791,202408231157466611,
2-4,C_HumanVertical,1,Q3FrontDown,-78.40415,61.1951,84.17696,-49.72646,-151.5527,144.0247,-38.07214,202408231157466911,
2-4,C_HumanVertical,1,Q3FrontDown,-78.40415,61.1951,84.17696,-49.72646,-151.5527,144.0247,-38.07214,202408231157467098,
2-4,C_HumanVertical,1,Q3FrontDown,-78.40692,61.18238,83.8973,-49.53292,-151.5526,144.0548,-38.03368,202408231157467313,
2-4,C_HumanVertical,1,Q3FrontDown,-78.40692,61.18238,83.8973,-49.53292,-151.5526,144.0548,-38.03368,202408231157467512,
2-4,C_HumanVertical,1,Q3FrontDown,-78.40823,61.18762,83.61973,-49.36013,-151.5526,144.079,-37.99771,202408231157467772,
2-4,C_HumanVertical,1,Q3FrontDown,-78.4174,61.17172,83.2855,-49.2047,-151.552,144.1251,-37.96598,202408231157467948,
2-4,C_HumanVertical,1,Q3FrontDown,-78.4174,61.17172,83.2855,-49.2047,-151.552,144.1251,-37.96598,202408231157468090,
2-4,C_HumanVertical,1,Q3FrontDown,-78.43391,61.15245,82.93283,-49.04189,-151.5522,144.1827,-37.94329,202408231157468334,
2-4,C_HumanVertical,1,Q3FrontDown,-78.42384,61.18272,82.71364,-48.8108,-151.5521,144.2502,-37.92411,202408231157468607,
2-4,C_HumanVertical,1,Q3FrontDown,-78.42384,61.18272,82.71364,-48.8108,-151.5521,144.2502,-37.92411,202408231157468793,
2-4,C_HumanVertical,1,Q3FrontDown,-78.40218,61.20037,82.4465,-48.58092,-151.5512,144.3173,-37.90456,202408231157468953,
2-4,C_HumanVertical,1,Q3FrontDown,-78.40218,61.20037,82.4465,-48.58092,-151.5512,144.3173,-37.90456,202408231157469152,
2-4,C_HumanVertical,1,Q3FrontDown,-78.40353,61.20024,82.16316,-48.32589,-151.551,144.377,-37.88397,202408231157469435,
2-4,C_HumanVertical,1,Q3FrontDown,-78.40395,61.20025,81.8708,-48.08871,-151.5513,144.4334,-37.86724,202408231157469756,
2-4,C_HumanVertical,1,Q3FrontDown,-78.40145,61.19701,81.58411,-47.8161,-151.5377,144.5351,-37.85153,202408231157469927,
2-4,C_HumanVertical,1,Q3FrontDown,-78.40145,61.19701,81.58411,-47.8161,-151.5377,144.5351,-37.85153,202408231157470094,
2-4,C_HumanVertical,1,Q3FrontDown,-78.40281,61.20076,81.31313,-47.52741,-151.5244,144.655,-37.83338,202408231157470296,
2-4,C_HumanVertical,1,Q3FrontDown,-78.40281,61.20076,81.31313,-47.52741,-151.5244,144.655,-37.83338,202408231157470514,
2-4,C_HumanVertical,1,Q3FrontDown,-78.38871,61.25166,81.18623,-47.17696,-151.5222,144.7914,-37.81792,202408231157470800,
2-4,C_HumanVertical,1,Q3FrontDown,-78.37704,61.27365,80.98123,-46.87573,-151.5163,144.9273,-37.79342,202408231157470969,
2-4,C_HumanVertical,1,Q3FrontDown,-78.37704,61.27365,80.98123,-46.87573,-151.5163,144.9273,-37.79342,202408231157471128,
2-4,C_HumanVertical,1,Q3FrontDown,-78.38931,61.26869,80.74159,-46.61475,-151.5151,145.0468,-37.77077,202408231157471300,
2-4,C_HumanVertical,1,Q3FrontDown,-78.38931,61.26869,80.74159,-46.61475,-151.5151,145.0468,-37.77077,202408231157471510,
2-4,C_HumanVertical,1,Q3FrontDown,-78.402,61.27982,80.50748,-46.30962,-151.5138,145.1469,-37.74891,202408231157471764,
2-4,C_HumanVertical,1,Q3FrontDown,-78.4136,61.30159,80.34827,-46.05855,-151.5132,145.2324,-37.73855,202408231157472092,
2-4,C_HumanVertical,1,Q3FrontDown,-78.41373,61.34769,80.28315,-45.79156,-151.513,145.3098,-37.72814,202408231157472328,
2-4,C_HumanVertical,1,Q3FrontDown,-78.4135,61.4076,80.23598,-45.55471,-151.5131,145.3802,-37.72148,202408231157472673,
2-4,C_HumanVertical,1,Q3FrontDown,-78.41451,61.42809,80.15569,-45.36581,-151.5123,145.4328,-37.7097,202408231157472929,
2-4,C_HumanVertical,1,Q3FrontDown,-78.41451,61.42809,80.15569,-45.36581,-151.5123,145.4328,-37.7097,202408231157473130,
2-4,C_HumanVertical,1,Q3FrontDown,-78.4172,61.42964,80.04469,-45.19795,-151.512,145.4708,-37.69471,202408231157473464,
2-4,C_HumanVertical,1,Q3FrontDown,-78.41557,61.43289,79.9222,-45.0174,-151.5121,145.5065,-37.6832,202408231157473672,
2-4,C_HumanVertical,1,Q3FrontDown,-78.39834,61.4207,79.70923,-44.88409,-151.5088,145.555,-37.66603,202408231157473938,
2-4,C_HumanVertical,1,Q3FrontDown,-78.39834,61.4207,79.70923,-44.88409,-151.5088,145.555,-37.66603,202408231157474274,
2-4,C_HumanVertical,1,Q3FrontDown,-78.38654,61.40847,79.45663,-44.79669,-151.5066,145.6344,-37.65035,202408231157474442,
2-4,C_HumanVertical,1,Q3FrontDown,-78.38378,61.41768,79.19568,-44.74217,-151.506,145.67,-37.63141,202408231157474603,
2-4,C_HumanVertical,1,Q3FrontDown,-78.38378,61.41768,79.19568,-44.74217,-151.506,145.67,-37.63141,202408231157474814,
2-4,C_HumanVertical,1,Q3FrontDown,-78.37913,61.43445,78.93685,-44.68607,-151.5057,145.6972,-37.60487,202408231157475112,
2-4,C_HumanVertical,1,Q3FrontDown,-78.35522,61.47007,78.73347,-44.60846,-151.5062,145.7147,-37.5729,202408231157475512,
2-4,C_HumanVertical,1,Q3FrontDown,-78.3037,61.53048,78.59231,-44.52037,-151.5061,145.736,-37.547,202408231157475781,
2-4,C_HumanVertical,1,Q3FrontDown,-78.24637,61.57175,78.45341,-44.44492,-151.5059,145.7605,-37.52443,202408231157476050,
2-4,C_HumanVertical,1,Q3FrontDown,-78.19334,61.58661,78.32358,-44.37508,-151.5054,145.784,-37.50441,202408231157476273,
2-4,C_HumanVertical,1,Q3FrontDown,-78.19334,61.58661,78.32358,-44.37508,-151.5054,145.784,-37.50441,202408231157476481,
2-4,C_HumanVertical,1,Q3FrontDown,-78.13156,61.57862,78.12045,-44.33469,-151.5054,145.7915,-37.4812,202408231157476816,
2-4,C_HumanVertical,1,Q3FrontDown,-78.06544,61.58147,77.94826,-44.29217,-151.5056,145.8122,-37.45327,202408231157477010,
2-4,C_HumanVertical,1,Q3FrontDown,-78.00254,61.58948,77.78871,-44.25211,-151.5058,145.8335,-37.42282,202408231157477271,
2-4,C_HumanVertical,1,Q3FrontDown,-78.00254,61.58948,77.78871,-44.25211,-151.5058,145.8335,-37.42282,202408231157477445,
2-4,C_HumanVertical,1,Q3FrontDown,-77.95668,61.60609,77.67789,-44.21411,-151.5058,145.8783,-37.39632,202408231157477759,
2-4,C_HumanVertical,1,Q3FrontDown,-77.9114,61.61456,77.58376,-44.18906,-151.5047,145.9131,-37.38037,202408231157477961,
2-4,C_HumanVertical,1,Q3FrontDown,-77.9114,61.61456,77.58376,-44.18906,-151.5047,145.9131,-37.38037,202408231157478167,
2-4,C_HumanVertical,1,Q3FrontDown,-77.87175,61.61617,77.51177,-44.1849,-151.5035,145.9463,-37.36892,202408231157478439,
2-4,C_HumanVertical,1,Q3FrontDown,-77.86678,61.61036,77.46696,-44.18528,-151.493,146.017,-37.34774,202408231157478667,
2-4,C_HumanVertical,1,Q3FrontDown,-77.8702,61.60951,77.4565,-44.18221,-151.4807,146.0708,-37.32702,202408231157478971,
2-4,C_HumanVertical,1,Q3FrontDown,-77.8702,61.60951,77.4565,-44.18221,-151.4807,146.0708,-37.32702,202408231157479156,
2-4,C_HumanVertical,1,Q3FrontDown,-77.86862,61.60889,77.45737,-44.17861,-151.4673,146.1109,-37.30457,202408231157479452,
2-4,C_HumanVertical,1,Q3FrontDown,-77.87077,61.60633,77.45832,-44.17558,-151.4584,146.1517,-37.28268,202408231157479596,
2-4,C_HumanVertical,1,Q3FrontDown,-77.87077,61.60633,77.45832,-44.17558,-151.4584,146.1517,-37.28268,202408231157479769,
2-4,C_HumanVertical,1,Q3FrontDown,-77.88278,61.58597,77.44071,-44.17516,-151.4474,146.1798,-37.25986,202408231157479938,
2-4,C_HumanVertical,1,Q3FrontDown,-77.89017,61.55621,77.38833,-44.17752,-151.4348,146.2096,-37.24343,202408231157480299,
2-4,C_HumanVertical,1,Q3FrontDown,-77.89017,61.55621,77.38833,-44.17752,-151.4348,146.2096,-37.24343,202408231157480584,
2-4,C_HumanVertical,1,Q3FrontDown,-77.91986,61.52794,77.3877,-44.17795,-151.4336,146.2102,-37.2242,202408231157480806,
2-4,C_HumanVertical,1,Q3FrontDown,-77.9571,61.5012,77.38802,-44.18681,-151.4329,146.211,-37.21244,202408231157480983,
2-4,C_HumanVertical,1,Q3FrontDown,-78.00221,61.46192,77.38917,-44.19627,-151.4323,146.2115,-37.19839,202408231157481292,
2-4,C_HumanVertical,1,Q3FrontDown,-78.00221,61.46192,77.38917,-44.19627,-151.4323,146.2115,-37.19839,202408231157481484,
2-4,C_HumanVertical,1,Q3FrontDown,-78.06756,61.39672,77.41888,-44.19779,-151.4307,146.2155,-37.18093,202408231157481757,
2-4,C_HumanVertical,1,Q3FrontDown,-78.06756,61.39672,77.41888,-44.19779,-151.4307,146.2155,-37.18093,202408231157481918,
2-4,C_HumanVertical,1,Q3FrontDown,-78.15621,61.31458,77.4827,-44.21101,-151.4305,146.2234,-37.15811,202408231157482090,
2-4,C_HumanVertical,1,Q3FrontDown,-78.25272,61.21985,77.58073,-44.22389,-151.4303,146.2366,-37.13823,202408231157482256,
2-4,C_HumanVertical,1,Q3FrontDown,-78.25272,61.21985,77.58073,-44.22389,-151.4303,146.2366,-37.13823,202408231157482438,
2-4,C_HumanVertical,1,Q3FrontDown,-78.35912,61.08897,77.68259,-44.23283,-151.4306,146.2503,-37.11868,202408231157482660,
2-4,C_HumanVertical,1,Q3FrontDown,-78.49722,60.9355,77.79766,-44.25998,-151.4274,146.2661,-37.10089,202408231157482917,
2-4,C_HumanVertical,1,Q3FrontDown,-78.49722,60.9355,77.79766,-44.25998,-151.4274,146.2661,-37.10089,202408231157483104,
2-4,C_HumanVertical,1,Q3FrontDown,-78.6519,60.76492,77.89246,-44.2935,-151.4151,146.2871,-37.08738,202408231157483352,
2-4,C_HumanVertical,1,Q3FrontDown,-78.81322,60.67461,78.2478,-44.26774,-151.4079,146.288,-37.0831,202408231157483695,
2-4,C_HumanVertical,1,Q3FrontDown,-78.9713,60.55148,78.55619,-44.26059,-151.3942,146.2879,-37.07491,202408231157483954,
2-4,C_HumanVertical,1,Q3FrontDown,-78.9713,60.55148,78.55619,-44.26059,-151.3942,146.2879,-37.07491,202408231157484108,
2-4,C_HumanVertical,1,Q3FrontDown,-79.14391,60.3633,78.75648,-44.26362,-151.3902,146.2885,-37.06731,202408231157484414,
2-4,C_HumanVertical,1,Q3FrontDown,-79.31429,60.16421,78.91746,-44.26361,-151.3871,146.2886,-37.05946,202408231157484605,
2-4,C_HumanVertical,1,Q3FrontDown,-79.31429,60.16421,78.91746,-44.26361,-151.3871,146.2886,-37.05946,202408231157484844,
2-4,C_HumanVertical,1,Q3FrontDown,-79.50634,59.97223,79.16489,-44.25805,-151.3827,146.2881,-37.05106,202408231157485093,
2-4,C_HumanVertical,1,Q3FrontDown,-79.70055,59.82279,79.49397,-44.24395,-151.3748,146.2884,-37.04107,202408231157485315,
2-4,C_HumanVertical,1,Q3FrontDown,-79.90079,59.65475,79.82722,-44.23893,-151.3575,146.2886,-37.02717,202408231157485643,
2-4,C_HumanVertical,1,Q3FrontDown,-79.90079,59.65475,79.82722,-44.23893,-151.3575,146.2886,-37.02717,202408231157485812,
2-4,C_HumanVertical,1,Q3FrontDown,-80.09807,59.45074,80.10773,-44.24847,-151.3354,146.2897,-37.01043,202408231157486151,
2-4,C_HumanVertical,1,Q3FrontDown,-80.2861,59.23183,80.30095,-44.26295,-151.3182,146.2906,-37.0005,202408231157486338,
2-4,C_HumanVertical,1,Q3FrontDown,-80.49662,59.07592,80.68547,-44.25006,-151.3059,146.2906,-36.98922,202408231157486591,
2-4,C_HumanVertical,1,Q3FrontDown,-80.49662,59.07592,80.68547,-44.25006,-151.3059,146.2906,-36.98922,202408231157486769,
2-4,C_HumanVertical,1,Q3FrontDown,-80.70869,58.92035,81.0128,-44.24757,-151.2763,146.2927,-36.98235,202408231157487006,
2-4,C_HumanVertical,1,Q3FrontDown,-80.94312,58.7141,81.23658,-44.24545,-151.2465,146.292,-36.97952,202408231157487250,
2-4,C_HumanVertical,1,Q3FrontDown,-80.94312,58.7141,81.23658,-44.24545,-151.2465,146.292,-36.97952,202408231157487426,
2-4,C_HumanVertical,1,Q3FrontDown,-81.15373,58.53011,81.44535,-44.24655,-151.2258,146.2928,-36.97817,202408231157487598,
2-4,C_HumanVertical,1,Q3FrontDown,-81.15373,58.53011,81.44535,-44.24655,-151.2258,146.2928,-36.97817,202408231157487762,
2-4,C_HumanVertical,1,Q3FrontDown,-81.35526,58.36281,81.68819,-44.24533,-151.207,146.2945,-36.97745,202408231157488044,
2-4,C_HumanVertical,1,Q3FrontDown,-81.55711,58.20235,81.90001,-44.24252,-151.189,146.2957,-36.97664,202408231157488383,
2-4,C_HumanVertical,1,Q3FrontDown,-81.71964,58.05177,82.04159,-44.24183,-151.1822,146.2958,-36.96936,202408231157488639,
2-4,C_HumanVertical,1,Q3FrontDown,-81.84328,57.93322,82.17144,-44.24065,-151.1785,146.2953,-36.95346,202408231157488960,
2-4,C_HumanVertical,1,Q3FrontDown,-81.95503,57.82966,82.29253,-44.24001,-151.1774,146.2955,-36.95052,202408231157489313,
2-4,C_HumanVertical,1,Q3FrontDown,-81.95503,57.82966,82.29253,-44.24001,-151.1774,146.2955,-36.95052,202408231157489598,
2-4,C_HumanVertical,1,Q3FrontDown,-82.07553,57.70127,82.39372,-44.24497,-151.1763,146.2959,-36.94566,202408231157489943,
2-4,C_HumanVertical,1,Q3FrontDown,-82.07553,57.70127,82.39372,-44.24497,-151.1763,146.2959,-36.94566,202408231157490091,
2-4,C_HumanVertical,1,Q3FrontDown,-82.07441,57.65734,82.29962,-44.26759,-151.176,146.2964,-36.93233,202408231157490267,
2-4,C_HumanVertical,1,Q3FrontDown,-82.07441,57.65734,82.29962,-44.26759,-151.176,146.2964,-36.93233,202408231157490514,
2-4,C_HumanVertical,1,Q3FrontDown,-82.06133,57.65839,82.19708,-44.31026,-151.1759,146.2978,-36.92152,202408231157490802,
2-4,C_HumanVertical,1,Q3FrontDown,-82.02045,57.65508,81.99572,-44.35104,-151.1758,146.298,-36.91045,202408231157491178,
2-4,C_HumanVertical,1,Q3FrontDown,-81.93599,57.66441,81.74078,-44.38887,-151.1756,146.2981,-36.90797,202408231157491469,
2-4,C_HumanVertical,1,Q3FrontDown,-81.7951,57.71622,81.44801,-44.43647,-151.1754,146.2984,-36.90508,202408231157491777,
2-4,C_HumanVertical,1,Q3FrontDown,-81.6485,57.74685,81.10832,-44.49159,-151.1735,146.299,-36.90176,202408231157492098,
2-4,C_HumanVertical,1,Q3FrontDown,-81.4995,57.77552,80.76213,-44.55366,-151.1724,146.2997,-36.8996,202408231157492272,
2-4,C_HumanVertical,1,Q3FrontDown,-81.4995,57.77552,80.76213,-44.55366,-151.1724,146.2997,-36.8996,202408231157492444,
2-4,C_HumanVertical,1,Q3FrontDown,-81.30444,57.8437,80.37899,-44.61591,-151.1419,146.3506,-36.89505,202408231157492680,
2-4,C_HumanVertical,1,Q3FrontDown,-81.30444,57.8437,80.37899,-44.61591,-151.1419,146.3506,-36.89505,202408231157492850,
2-4,C_HumanVertical,1,Q3FrontDown,-81.08128,57.93444,80.00574,-44.68194,-151.1109,146.3987,-36.88147,202408231157493138,
2-4,C_HumanVertical,1,Q3FrontDown,-80.8537,58.03214,79.65695,-44.74512,-151.0764,146.4537,-36.86275,202408231157493302,
2-4,C_HumanVertical,1,Q3FrontDown,-80.8537,58.03214,79.65695,-44.74512,-151.0764,146.4537,-36.86275,202408231157493474,
2-4,C_HumanVertical,1,Q3FrontDown,-80.63269,58.12448,79.31696,-44.80764,-151.0535,146.4988,-36.84388,202408231157493669,
2-4,C_HumanVertical,1,Q3FrontDown,-80.39935,58.25226,79.01165,-44.85259,-151.0388,146.5315,-36.82709,202408231157493953,
2-4,C_HumanVertical,1,Q3FrontDown,-80.39935,58.25226,79.01165,-44.85259,-151.0388,146.5315,-36.82709,202408231157494111,
2-4,C_HumanVertical,1,Q3FrontDown,-80.1643,58.3741,78.72392,-44.89668,-151.0276,146.5635,-36.80799,202408231157494489,
2-4,C_HumanVertical,1,Q3FrontDown,-79.94531,58.51532,78.47878,-44.95377,-151.019,146.6042,-36.79288,202408231157494756,
2-4,C_HumanVertical,1,Q3FrontDown,-79.94531,58.51532,78.47878,-44.95377,-151.019,146.6042,-36.79288,202408231157494930,
2-4,C_HumanVertical,1,Q3FrontDown,-79.72842,58.61347,78.19205,-45.00401,-150.9947,146.65,-36.77351,202408231157495092,
2-4,C_HumanVertical,1,Q3FrontDown,-79.48505,58.70669,77.8717,-45.05516,-150.9661,146.6964,-36.75581,202408231157495259,
2-4,C_HumanVertical,1,Q3FrontDown,-79.48505,58.70669,77.8717,-45.05516,-150.9661,146.6964,-36.75581,202408231157495436,
2-4,C_HumanVertical,1,Q3FrontDown,-79.48505,58.70669,77.8717,-45.05516,-150.9661,146.6964,-36.75581,202408231157495606,
2-4,C_HumanVertical,1,Q3FrontDown,-79.2734,58.80713,77.57989,-45.12581,-150.9375,146.7333,-36.73619,202408231157495842,
2-4,C_HumanVertical,1,Q3FrontDown,-79.07829,58.88794,77.22533,-45.22444,-150.9063,146.7701,-36.72868,202408231157496014,
2-4,C_HumanVertical,1,Q3FrontDown,-78.91599,58.95579,76.87284,-45.33957,-150.8845,146.8019,-36.72855,202408231157496299,
2-4,C_HumanVertical,1,Q3FrontDown,-78.72896,59.05128,76.52463,-45.4497,-150.8178,146.8279,-36.72953,202408231157496628,
2-4,C_HumanVertical,1,Q3FrontDown,-78.72896,59.05128,76.52463,-45.4497,-150.8178,146.8279,-36.72953,202408231157496830,
2-4,C_HumanVertical,1,Q3FrontDown,-78.5512,59.16259,76.21519,-45.56076,-150.7853,146.8558,-36.72961,202408231157497084,
2-4,C_HumanVertical,1,Q3FrontDown,-78.35733,59.29847,75.90699,-45.65723,-150.774,146.8868,-36.72951,202408231157497263,
2-4,C_HumanVertical,1,Q3FrontDown,-78.35733,59.29847,75.90699,-45.65723,-150.774,146.8868,-36.72951,202408231157497429,
2-4,C_HumanVertical,1,Q3FrontDown,-78.15981,59.43982,75.60737,-45.75148,-150.7648,146.9095,-36.72947,202408231157497672,
2-4,C_HumanVertical,1,Q3FrontDown,-77.94639,59.58703,75.28439,-45.8518,-150.7419,146.923,-36.72909,202408231157497965,
2-4,C_HumanVertical,1,Q3FrontDown,-77.75096,59.69476,74.94408,-45.95967,-150.7166,146.9234,-36.72935,202408231157498303,
2-4,C_HumanVertical,1,Q3FrontDown,-77.55525,59.8425,74.64566,-46.0526,-150.7079,146.9238,-36.72945,202408231157498626,
2-4,C_HumanVertical,1,Q3FrontDown,-77.34699,59.99622,74.32344,-46.12167,-150.7016,146.9237,-36.72952,202408231157499005,
2-4,C_HumanVertical,1,Q3FrontDown,-77.14899,60.13697,73.99129,-46.2026,-150.7018,146.924,-36.72971,202408231157499269,
2-4,C_HumanVertical,1,Q3FrontDown,-77.14899,60.13697,73.99129,-46.2026,-150.7018,146.924,-36.72971,202408231157499585,
2-4,C_HumanVertical,1,Q3FrontDown,-76.94209,60.29747,73.65943,-46.28815,-150.7014,146.9245,-36.72953,202408231157499760,
2-4,C_HumanVertical,1,Q3FrontDown,-76.72881,60.43942,73.34911,-46.34444,-150.7015,146.924,-36.72945,202408231157499933,
2-4,C_HumanVertical,1,Q3FrontDown,-76.72881,60.43942,73.34911,-46.34444,-150.7015,146.924,-36.72945,202408231157500187,
2-4,C_HumanVertical,1,Q3FrontDown,-76.49997,60.61764,73.07067,-46.37247,-150.7011,146.9247,-36.72985,202408231157500471,
2-4,C_HumanVertical,1,Q3FrontDown,-76.27286,60.79901,72.79009,-46.39135,-150.7012,146.925,-36.72926,202408231157500856,
2-4,C_HumanVertical,1,Q3FrontDown,-75.84475,61.13665,72.21706,-46.40082,-150.6768,146.9245,-36.73023,202408231157501226,
2-4,C_HumanVertical,1,Q3FrontDown,-75.84475,61.13665,72.21706,-46.40082,-150.6768,146.9245,-36.73023,202408231157501446,
2-4,C_HumanVertical,1,Q3FrontDown,-75.63654,61.2861,71.94365,-46.40522,-150.663,146.9247,-36.73108,202408231157501804,
2-4,C_HumanVertical,1,Q3FrontDown,-75.43595,61.44757,71.68597,-46.42312,-150.6561,146.9254,-36.73064,202408231157502103,
2-4,C_HumanVertical,1,Q3FrontDown,-75.23898,61.59103,71.42957,-46.43811,-150.6558,146.9263,-36.73078,202408231157502340,
2-4,C_HumanVertical,1,Q3FrontDown,-75.04426,61.7393,71.17883,-46.4528,-150.6557,146.9267,-36.73113,202408231157502640,
2-4,C_HumanVertical,1,Q3FrontDown,-74.85891,61.88382,70.95452,-46.46601,-150.653,146.9265,-36.73133,202408231157502928,
2-4,C_HumanVertical,1,Q3FrontDown,-74.85891,61.88382,70.95452,-46.46601,-150.653,146.9265,-36.73133,202408231157503091,
2-4,C_HumanVertical,1,Q3FrontDown,-74.65856,62.02654,70.72173,-46.46682,-150.6479,146.9268,-36.72993,202408231157503307,
2-4,C_HumanVertical,1,Q3FrontDown,-74.46488,62.14613,70.47694,-46.46343,-150.65,146.9261,-36.72551,202408231157503543,
2-4,C_HumanVertical,1,Q3FrontDown,-74.46488,62.14613,70.47694,-46.46343,-150.65,146.9261,-36.72551,202408231157503797,
2-4,C_HumanVertical,1,Q3FrontDown,-74.27022,62.28782,70.25232,-46.45858,-150.6509,146.9267,-36.71664,202408231157503976,
2-4,C_HumanVertical,1,Q3FrontDown,-74.08903,62.40109,70.03983,-46.4591,-150.6523,146.9267,-36.70451,202408231157504264,
2-4,C_HumanVertical,1,Q3FrontDown,-74.08903,62.40109,70.03983,-46.4591,-150.6523,146.9267,-36.70451,202408231157504431,
2-4,C_HumanVertical,1,Q3FrontDown,-73.89582,62.53162,69.82955,-46.46074,-150.6522,146.9272,-36.69629,202408231157504636,
2-4,C_HumanVertical,1,Q3FrontDown,-73.70863,62.63412,69.61583,-46.46255,-150.6526,146.927,-36.6887,202408231157504977,
2-4,C_HumanVertical,1,Q3FrontDown,-73.52047,62.72954,69.38696,-46.47025,-150.6531,146.9277,-36.68156,202408231157505203,
2-4,C_HumanVertical,1,Q3FrontDown,-73.52047,62.72954,69.38696,-46.47025,-150.6531,146.9277,-36.68156,202408231157505460,
2-4,C_HumanVertical,1,Q3FrontDown,-73.33541,62.82897,69.21333,-46.47009,-150.6547,146.9271,-36.68102,202408231157505655,
2-4,C_HumanVertical,1,Q3FrontDown,-73.33541,62.82897,69.21333,-46.47009,-150.6547,146.9271,-36.68102,202408231157505830,
2-4,C_HumanVertical,1,Q3FrontDown,-73.15424,62.92461,69.02871,-46.46818,-150.6551,146.927,-36.67989,202408231157506117,
2-4,C_HumanVertical,1,Q3FrontDown,-72.98912,63.02296,68.87864,-46.46579,-150.6552,146.9267,-36.67941,202408231157506469,
2-4,C_HumanVertical,1,Q3FrontDown,-72.81049,63.13763,68.76234,-46.46354,-150.6554,146.9267,-36.67854,202408231157506815,
2-4,C_HumanVertical,1,Q3FrontDown,-72.64214,63.24338,68.65797,-46.46259,-150.6551,146.927,-36.67838,202408231157507171,
2-4,C_HumanVertical,1,Q3FrontDown,-72.46793,63.32943,68.54208,-46.46423,-150.6553,146.9264,-36.6784,202408231157507450,
2-4,C_HumanVertical,1,Q3FrontDown,-72.27881,63.42196,68.42155,-46.46807,-150.6552,146.9268,-36.67791,202408231157507755,
2-4,C_HumanVertical,1,Q3FrontDown,-72.09268,63.51535,68.33913,-46.46497,-150.6551,146.927,-36.67834,202408231157507941,
2-4,C_HumanVertical,1,Q3FrontDown,-72.09268,63.51535,68.33913,-46.46497,-150.6551,146.927,-36.67834,202408231157508161,
2-4,C_HumanVertical,1,Q3FrontDown,-71.91407,63.60388,68.28342,-46.46567,-150.6552,146.9272,-36.67813,202408231157508472,
2-4,C_HumanVertical,1,Q3FrontDown,-71.72666,63.69331,68.21084,-46.46442,-150.6556,146.9272,-36.67796,202408231157508642,
2-4,C_HumanVertical,1,Q3FrontDown,-71.72666,63.69331,68.21084,-46.46442,-150.6556,146.9272,-36.67796,202408231157508826,
2-4,C_HumanVertical,1,Q3FrontDown,-71.54395,63.77231,68.12025,-46.46204,-150.6602,146.9269,-36.67794,202408231157509157,
2-4,C_HumanVertical,1,Q3FrontDown,-71.34798,63.84256,67.97346,-46.46265,-150.6724,146.9268,-36.67787,202408231157509427,
2-4,C_HumanVertical,1,Q3FrontDown,-71.15463,63.90827,67.83435,-46.46416,-150.6723,146.9262,-36.67762,202408231157509754,
2-4,C_HumanVertical,1,Q3FrontDown,-70.95728,63.97557,67.71238,-46.45848,-150.6724,146.9263,-36.67805,202408231157509930,
2-4,C_HumanVertical,1,Q3FrontDown,-70.95728,63.97557,67.71238,-46.45848,-150.6724,146.9263,-36.67805,202408231157510114,
2-4,C_HumanVertical,1,Q3FrontDown,-70.74796,64.04917,67.60554,-46.4489,-150.6724,146.9261,-36.67768,202408231157510354,
2-4,C_HumanVertical,1,Q3FrontDown,-70.74796,64.04917,67.60554,-46.4489,-150.6724,146.9261,-36.67768,202408231157510512,
2-4,C_HumanVertical,1,Q3FrontDown,-70.54098,64.11606,67.50995,-46.44712,-150.6725,146.9267,-36.6777,202408231157510791,
2-4,C_HumanVertical,1,Q3FrontDown,-70.35171,64.16241,67.41635,-46.44697,-150.6723,146.927,-36.67782,202408231157510966,
2-4,C_HumanVertical,1,Q3FrontDown,-70.35171,64.16241,67.41635,-46.44697,-150.6723,146.927,-36.67782,202408231157511130,
2-4,C_HumanVertical,1,Q3FrontDown,-70.16032,64.19052,67.30218,-46.44365,-150.672,146.927,-36.67739,202408231157511342,
2-4,C_HumanVertical,1,Q3FrontDown,-69.98044,64.21008,67.1747,-46.43435,-150.6724,146.9269,-36.67714,202408231157511614,
2-4,C_HumanVertical,1,Q3FrontDown,-69.98044,64.21008,67.1747,-46.43435,-150.6724,146.9269,-36.67714,202408231157511906,
2-4,C_HumanVertical,1,Q3FrontDown,-69.79401,64.21722,66.9915,-46.4277,-150.6748,146.9272,-36.67723,202408231157512156,
2-4,C_HumanVertical,1,Q3FrontDown,-69.62331,64.21712,66.77757,-46.42653,-150.68,146.9272,-36.6767,202408231157512420,
2-4,C_HumanVertical,1,Q3FrontDown,-69.47315,64.22881,66.58582,-46.4291,-150.6842,146.9275,-36.67682,202408231157512586,
2-4,C_HumanVertical,1,Q3FrontDown,-69.47315,64.22881,66.58582,-46.4291,-150.6842,146.9275,-36.67682,202408231157512762,
2-4,C_HumanVertical,1,Q3FrontDown,-69.32363,64.26065,66.3911,-46.42186,-150.6903,146.9278,-36.67623,202408231157512918,
2-4,C_HumanVertical,1,Q3FrontDown,-69.32363,64.26065,66.3911,-46.42186,-150.6903,146.9278,-36.67623,202408231157513143,
2-4,C_HumanVertical,1,Q3FrontDown,-69.17014,64.29977,66.19656,-46.39063,-150.6964,146.9278,-36.67568,202408231157513516,
2-4,C_HumanVertical,1,Q3FrontDown,-69.0272,64.33574,66.01512,-46.37574,-150.6991,146.928,-36.67566,202408231157513685,
2-4,C_HumanVertical,1,Q3FrontDown,-68.89663,64.37333,65.8722,-46.35708,-150.6997,146.9275,-36.67571,202408231157513952,
2-4,C_HumanVertical,1,Q3FrontDown,-68.78005,64.41901,65.75858,-46.33139,-150.6992,146.9271,-36.67561,202408231157514288,
2-4,C_HumanVertical,1,Q3FrontDown,-68.78005,64.41901,65.75858,-46.33139,-150.6992,146.9271,-36.67561,202408231157514470,
2-4,C_HumanVertical,1,Q3FrontDown,-68.66062,64.46605,65.6202,-46.31876,-150.6993,146.9271,-36.67562,202408231157514761,
2-4,C_HumanVertical,1,Q3FrontDown,-68.53766,64.51924,65.49974,-46.29068,-150.6999,146.9272,-36.6757,202408231157514929,
2-4,C_HumanVertical,1,Q3FrontDown,-68.53766,64.51924,65.49974,-46.29068,-150.6999,146.9272,-36.6757,202408231157515098,
2-4,C_HumanVertical,1,Q3FrontDown,-68.41006,64.5705,65.38702,-46.24464,-150.7002,146.927,-36.67577,202408231157515339,
2-4,C_HumanVertical,1,Q3FrontDown,-68.41006,64.5705,65.38702,-46.24464,-150.7002,146.927,-36.67577,202408231157515531,
2-4,C_HumanVertical,1,Q3FrontDown,-68.28098,64.61886,65.2777,-46.21074,-150.7003,146.9269,-36.676,202408231157515773,
2-4,C_HumanVertical,1,Q3FrontDown,-68.1409,64.66311,65.15066,-46.18597,-150.7003,146.927,-36.67548,202408231157515960,
2-4,C_HumanVertical,1,Q3FrontDown,-68.1409,64.66311,65.15066,-46.18597,-150.7003,146.927,-36.67548,202408231157516130,
2-4,C_HumanVertical,1,Q3FrontDown,-67.99886,64.69736,64.99946,-46.18122,-150.7002,146.9274,-36.67582,202408231157516481,
2-4,C_HumanVertical,1,Q3FrontDown,-67.84552,64.72424,64.77842,-46.17925,-150.7005,146.928,-36.67602,202408231157516653,
2-4,C_HumanVertical,1,Q3FrontDown,-67.69668,64.74737,64.56596,-46.16699,-150.7012,146.927,-36.67598,202408231157516982,
2-4,C_HumanVertical,1,Q3FrontDown,-67.69668,64.74737,64.56596,-46.16699,-150.7012,146.927,-36.67598,202408231157517274,
2-4,C_HumanVertical,1,Q3FrontDown,-67.38603,64.85006,64.18123,-46.14303,-150.7014,146.9271,-36.67667,202408231157517617,
2-4,C_HumanVertical,1,Q3FrontDown,-67.38603,64.85006,64.18123,-46.14303,-150.7014,146.9271,-36.67667,202408231157517831,
2-4,C_HumanVertical,1,Q3FrontDown,-67.2365,64.90469,63.97756,-46.13858,-150.7021,146.9271,-36.67658,202408231157518094,
2-4,C_HumanVertical,1,Q3FrontDown,-67.09232,64.95424,63.76723,-46.13213,-150.7033,146.9273,-36.67649,202408231157518312,
2-4,C_HumanVertical,1,Q3FrontDown,-67.09232,64.95424,63.76723,-46.13213,-150.7033,146.9273,-36.67649,202408231157518552,
2-4,C_HumanVertical,1,Q3FrontDown,-66.94315,65.02721,63.57606,-46.10083,-150.7162,146.9272,-36.67665,202408231157518802,
2-4,C_HumanVertical,1,Q3FrontDown,-66.79498,65.09516,63.38042,-46.07164,-150.7213,146.9272,-36.6769,202408231157518958,
2-4,C_HumanVertical,1,Q3FrontDown,-66.79498,65.09516,63.38042,-46.07164,-150.7213,146.9272,-36.6769,202408231157519275,
2-4,C_HumanVertical,1,Q3FrontDown,-66.50507,65.24042,63.01834,-46.04362,-150.7437,146.9273,-36.67649,202408231157519599,
2-4,C_HumanVertical,1,Q3FrontDown,-66.50507,65.24042,63.01834,-46.04362,-150.7437,146.9273,-36.67649,202408231157519763,
2-4,C_HumanVertical,1,Q3FrontDown,-66.38252,65.32169,62.89542,-46.03249,-150.7484,146.9274,-36.67617,202408231157519974,
2-4,C_HumanVertical,1,Q3FrontDown,-66.38252,65.32169,62.89542,-46.03249,-150.7484,146.9274,-36.67617,202408231157520163,
2-4,C_HumanVertical,1,Q3FrontDown,-66.25044,65.40711,62.78687,-46.00772,-150.7484,146.9276,-36.67637,202408231157520412,
2-4,C_HumanVertical,1,Q3FrontDown,-66.25044,65.40711,62.78687,-46.00772,-150.7484,146.9276,-36.67637,202408231157520588,
2-4,C_HumanVertical,1,Q3FrontDown,-66.10384,65.48314,62.68135,-45.9595,-150.7482,146.9273,-36.67624,202408231157520792,
2-4,C_HumanVertical,1,Q3FrontDown,-65.94797,65.53675,62.5694,-45.91824,-150.7484,146.9272,-36.67669,202408231157520953,
2-4,C_HumanVertical,1,Q3FrontDown,-65.94797,65.53675,62.5694,-45.91824,-150.7484,146.9272,-36.67669,202408231157521177,
2-4,C_HumanVertical,1,Q3FrontDown,-65.79388,65.56252,62.44724,-45.90041,-150.7484,146.9274,-36.67699,202408231157521457,
2-4,C_HumanVertical,1,Q3FrontDown,-65.64568,65.57182,62.33369,-45.87842,-150.7484,146.9271,-36.67691,202408231157521649,
2-4,C_HumanVertical,1,Q3FrontDown,-65.48931,65.57745,62.22044,-45.83878,-150.7494,146.9268,-36.67633,202408231157521930,
2-4,C_HumanVertical,1,Q3FrontDown,-65.48931,65.57745,62.22044,-45.83878,-150.7494,146.9268,-36.67633,202408231157522093,
2-4,C_HumanVertical,1,Q3FrontDown,-65.31001,65.57591,62.09652,-45.77542,-150.7512,146.9274,-36.67645,202408231157522304,
2-4,C_HumanVertical,1,Q3FrontDown,-65.13752,65.574,62.00195,-45.72298,-150.7522,146.9271,-36.67641,202408231157522598,
2-4,C_HumanVertical,1,Q3FrontDown,-65.13752,65.574,62.00195,-45.72298,-150.7522,146.9271,-36.67641,202408231157522786,
2-4,C_HumanVertical,1,Q3FrontDown,-64.96294,65.57606,61.92518,-45.67226,-150.7524,146.927,-36.67631,202408231157522947,
2-4,C_HumanVertical,1,Q3FrontDown,-64.96294,65.57606,61.92518,-45.67226,-150.7524,146.927,-36.67631,202408231157523097,
2-4,C_HumanVertical,1,Q3FrontDown,-64.76845,65.57623,61.84398,-45.62283,-150.7518,146.9271,-36.67654,202408231157523334,
2-4,C_HumanVertical,1,Q3FrontDown,-64.54708,65.5647,61.67298,-45.58442,-150.7524,146.9281,-36.67671,202408231157523612,
2-4,C_HumanVertical,1,Q3FrontDown,-64.54708,65.5647,61.67298,-45.58442,-150.7524,146.9281,-36.67671,202408231157523782,
2-4,C_HumanVertical,1,Q3FrontDown,-64.33569,65.56497,61.55869,-45.5365,-150.7525,146.9276,-36.67685,202408231157523952,
2-4,C_HumanVertical,1,Q3FrontDown,-64.13216,65.57018,61.47234,-45.48626,-150.7527,146.9274,-36.67656,202408231157524297,
2-4,C_HumanVertical,1,Q3FrontDown,-64.13216,65.57018,61.47234,-45.48626,-150.7527,146.9274,-36.67656,202408231157524474,
2-4,C_HumanVertical,1,Q3FrontDown,-63.93704,65.57098,61.39231,-45.44094,-150.7526,146.9275,-36.67673,202408231157524770,
2-4,C_HumanVertical,1,Q3FrontDown,-63.71509,65.57692,61.3269,-45.37371,-150.7527,146.927,-36.67649,202408231157525012,
2-4,C_HumanVertical,1,Q3FrontDown,-63.48883,65.57677,61.29271,-45.30618,-150.7525,146.9277,-36.67653,202408231157525294,
2-4,C_HumanVertical,1,Q3FrontDown,-63.48883,65.57677,61.29271,-45.30618,-150.7525,146.9277,-36.67653,202408231157525440,
2-4,C_HumanVertical,1,Q3FrontDown,-63.26858,65.57255,61.28623,-45.23661,-150.7526,146.9275,-36.67665,202408231157525687,
2-4,C_HumanVertical,1,Q3FrontDown,-63.0236,65.56815,61.25674,-45.14767,-150.7524,146.9274,-36.67662,202408231157525913,
2-4,C_HumanVertical,1,Q3FrontDown,-63.0236,65.56815,61.25674,-45.14767,-150.7524,146.9274,-36.67662,202408231157526120,
2-4,C_HumanVertical,1,Q3FrontDown,-62.77805,65.5685,61.21094,-45.07877,-150.7527,146.928,-36.67705,202408231157526485,
2-4,C_HumanVertical,1,Q3FrontDown,-62.54935,65.57363,61.19915,-44.98574,-150.7524,146.9283,-36.67703,202408231157526646,
2-4,C_HumanVertical,1,Q3FrontDown,-62.32642,65.57046,61.16003,-44.90044,-150.7529,146.9284,-36.67749,202408231157526914,
2-4,C_HumanVertical,1,Q3FrontDown,-62.32642,65.57046,61.16003,-44.90044,-150.7529,146.9284,-36.67749,202408231157527120,
2-4,C_HumanVertical,1,Q3FrontDown,-62.10371,65.56197,61.12381,-44.83585,-150.7527,146.9284,-36.67699,202408231157527457,
2-4,C_HumanVertical,1,Q3FrontDown,-61.89425,65.55955,61.09639,-44.80053,-150.7527,146.9288,-36.67712,202408231157527830,
2-4,C_HumanVertical,1,Q3FrontDown,-61.69734,65.5576,61.082,-44.77538,-150.7526,146.9291,-36.67735,202408231157528041,
2-4,C_HumanVertical,1,Q3FrontDown,-61.49953,65.55628,61.08195,-44.74066,-150.753,146.9291,-36.67706,202408231157528300,
2-4,C_HumanVertical,1,Q3FrontDown,-61.31392,65.55356,61.0827,-44.72002,-150.7529,146.9296,-36.67729,202408231157528657,
2-4,C_HumanVertical,1,Q3FrontDown,-61.31392,65.55356,61.0827,-44.72002,-150.7529,146.9296,-36.67729,202408231157528815,
2-4,C_HumanVertical,1,Q3FrontDown,-61.12793,65.5527,61.08677,-44.69324,-150.7523,146.9498,-36.67712,202408231157529078,
2-4,C_HumanVertical,1,Q3FrontDown,-60.95961,65.5501,61.09474,-44.65187,-150.7522,147.0045,-36.67715,202408231157529293,
2-4,C_HumanVertical,1,Q3FrontDown,-60.80825,65.51482,61.07528,-44.63656,-150.7521,147.0546,-36.67667,202408231157529786,
2-4,C_HumanVertical,1,Q3FrontDown,-60.66013,65.4854,61.0685,-44.61348,-150.7522,147.1079,-36.67687,202408231157530019,
2-4,C_HumanVertical,1,Q3FrontDown,-60.51446,65.4574,61.06871,-44.58388,-150.7522,147.167,-36.67644,202408231157530292,
2-4,C_HumanVertical,1,Q3FrontDown,-60.51446,65.4574,61.06871,-44.58388,-150.7522,147.167,-36.67644,202408231157530596,
2-4,C_HumanVertical,1,Q3FrontDown,-60.38425,65.41911,61.069,-44.5612,-150.7526,147.2243,-36.67689,202408231157530812,
2-4,C_HumanVertical,1,Q3FrontDown,-60.26438,65.373,61.06837,-44.52911,-150.7524,147.2735,-36.67664,202408231157530999,
2-4,C_HumanVertical,1,Q3FrontDown,-60.26438,65.373,61.06837,-44.52911,-150.7524,147.2735,-36.67664,202408231157531168,
2-4,C_HumanVertical,1,Q3FrontDown,-60.13365,65.32501,61.06904,-44.48388,-150.7529,147.3214,-36.67646,202408231157531446,
2-4,C_HumanVertical,1,Q3FrontDown,-60.01136,65.27838,61.0703,-44.44685,-150.7552,147.3329,-36.6763,202408231157531785,
2-4,C_HumanVertical,1,Q3FrontDown,-59.89021,65.23341,61.07175,-44.40382,-150.7567,147.36,-36.67633,202408231157532140,
2-4,C_HumanVertical,1,Q3FrontDown,-59.78248,65.19023,61.07179,-44.36367,-150.7566,147.4018,-36.67559,202408231157532440,
2-4,C_HumanVertical,1,Q3FrontDown,-59.68058,65.1454,61.07184,-44.30537,-150.757,147.4406,-36.67547,202408231157532605,
2-4,C_HumanVertical,1,Q3FrontDown,-59.68058,65.1454,61.07184,-44.30537,-150.757,147.4406,-36.67547,202408231157532857,
2-4,C_HumanVertical,1,Q3FrontDown,-59.59266,65.10553,61.07214,-44.25492,-150.7578,147.4664,-36.67524,202408231157533103,
2-4,C_HumanVertical,1,Q3FrontDown,-59.51237,65.05887,61.0726,-44.21064,-150.7598,147.477,-36.67429,202408231157533350,
2-4,C_HumanVertical,1,Q3FrontDown,-59.44026,65.01133,61.07293,-44.16806,-150.7609,147.4849,-36.67364,202408231157533627,
2-4,C_HumanVertical,1,Q3FrontDown,-59.44026,65.01133,61.07293,-44.16806,-150.7609,147.4849,-36.67364,202408231157533783,
2-4,C_HumanVertical,1,Q3FrontDown,-59.38179,64.94989,61.0727,-44.13296,-150.7623,147.4899,-36.67355,202408231157533973,
2-4,C_HumanVertical,1,Q3FrontDown,-59.33598,64.88153,61.0726,-44.11294,-150.7628,147.491,-36.67368,202408231157534371,
2-4,C_HumanVertical,2,Q1FrontUp,-43.73915,28.10584,39.24781,-21.5906,-139.5424,166.6077,-34.60945,202408231158555550,
2-4,C_HumanVertical,2,Q1FrontUp,-43.73903,28.10571,39.24782,-21.59059,-139.5422,166.6078,-34.60911,202408231158555865,
2-4,C_HumanVertical,2,Q1FrontUp,-43.73925,28.10589,39.24795,-21.59047,-139.5422,166.608,-34.60931,202408231158556215,
2-4,C_HumanVertical,2,Q1FrontUp,-43.73914,28.10628,39.24786,-21.59072,-139.5422,166.6078,-34.609,202408231158556585,
2-4,C_HumanVertical,2,Q1FrontUp,-43.74644,28.10612,39.25801,-21.59761,-139.5422,166.6079,-34.6094,202408231158556810,
2-4,C_HumanVertical,2,Q1FrontUp,-43.75544,28.10622,39.26843,-21.6033,-139.542,166.608,-34.609,202408231158557219,
2-4,C_HumanVertical,2,Q1FrontUp,-43.76261,28.10699,39.27541,-21.60974,-139.5421,166.608,-34.60927,202408231158557485,
2-4,C_HumanVertical,2,Q1FrontUp,-43.76721,28.1081,39.27773,-21.61057,-139.5423,166.608,-34.60941,202408231158557687,
2-4,C_HumanVertical,2,Q1FrontUp,-43.76899,28.11186,39.27859,-21.61082,-139.5422,166.608,-34.60955,202408231158557960,
2-4,C_HumanVertical,2,Q1FrontUp,-43.76899,28.11186,39.27859,-21.61082,-139.5422,166.608,-34.60955,202408231158558136,
2-4,C_HumanVertical,2,Q1FrontUp,-43.76912,28.11632,39.28004,-21.61136,-139.542,166.608,-34.60936,202408231158558460,
2-4,C_HumanVertical,2,Q1FrontUp,-43.76987,28.1204,39.28114,-21.61141,-139.5422,166.6079,-34.60946,202408231158558636,
2-4,C_HumanVertical,2,Q1FrontUp,-43.76987,28.1204,39.28114,-21.61141,-139.5422,166.6079,-34.60946,202408231158558815,
2-4,C_HumanVertical,2,Q1FrontUp,-43.77028,28.12681,39.28151,-21.61132,-139.542,166.6079,-34.60925,202408231158559078,
2-4,C_HumanVertical,2,Q1FrontUp,-43.77032,28.13324,39.28139,-21.61152,-139.5419,166.6079,-34.60952,202408231158559289,
2-4,C_HumanVertical,2,Q1FrontUp,-43.77015,28.14035,39.28291,-21.61182,-139.542,166.6079,-34.6093,202408231158559594,
2-4,C_HumanVertical,2,Q1FrontUp,-43.77015,28.14035,39.28291,-21.61182,-139.542,166.6079,-34.6093,202408231158559756,
2-4,C_HumanVertical,2,Q1FrontUp,-43.77084,28.1485,39.28374,-21.61165,-139.5423,166.608,-34.60937,202408231158560023,
2-4,C_HumanVertical,2,Q1FrontUp,-43.77069,28.15718,39.28442,-21.61173,-139.542,166.6081,-34.60941,202408231158560262,
2-4,C_HumanVertical,2,Q1FrontUp,-43.77069,28.15718,39.28442,-21.61173,-139.542,166.6081,-34.60941,202408231158560414,
2-4,C_HumanVertical,2,Q1FrontUp,-43.771,28.16636,39.28468,-21.61209,-139.542,166.6079,-34.60941,202408231158560613,
2-4,C_HumanVertical,2,Q1FrontUp,-43.771,28.16636,39.28468,-21.61209,-139.542,166.6079,-34.60941,202408231158560817,
2-4,C_HumanVertical,2,Q1FrontUp,-43.77094,28.17383,39.28534,-21.61203,-139.5421,166.6083,-34.6095,202408231158560995,
2-4,C_HumanVertical,2,Q1FrontUp,-43.77084,28.18243,39.28723,-21.61225,-139.5421,166.608,-34.60932,202408231158561298,
2-4,C_HumanVertical,2,Q1FrontUp,-43.7711,28.1916,39.2881,-21.61243,-139.5423,166.608,-34.60937,202408231158561627,
2-4,C_HumanVertical,2,Q1FrontUp,-43.7711,28.1916,39.2881,-21.61243,-139.5423,166.608,-34.60937,202408231158561827,
2-4,C_HumanVertical,2,Q1FrontUp,-43.77101,28.19945,39.29044,-21.61211,-139.5423,166.6079,-34.60946,202408231158562090,
2-4,C_HumanVertical,2,Q1FrontUp,-43.77101,28.19945,39.29044,-21.61211,-139.5423,166.6079,-34.60946,202408231158562248,
2-4,C_HumanVertical,2,Q1FrontUp,-43.7714,28.20683,39.29741,-21.61249,-139.5421,166.608,-34.60929,202408231158562415,
2-4,C_HumanVertical,2,Q1FrontUp,-43.77113,28.21143,39.29758,-21.61259,-139.5422,166.6081,-34.60932,202408231158562594,
2-4,C_HumanVertical,2,Q1FrontUp,-43.77113,28.21143,39.29758,-21.61259,-139.5422,166.6081,-34.60932,202408231158562784,
2-4,C_HumanVertical,2,Q1FrontUp,-43.77114,28.21493,39.29922,-21.61259,-139.5419,166.6081,-34.60927,202408231158562935,
2-4,C_HumanVertical,2,Q1FrontUp,-43.77114,28.21493,39.29922,-21.61259,-139.5419,166.6081,-34.60927,202408231158563173,
2-4,C_HumanVertical,2,Q1FrontUp,-43.77134,28.21679,39.30541,-21.61238,-139.542,166.6081,-34.60933,202408231158563343,
2-4,C_HumanVertical,2,Q1FrontUp,-43.77104,28.21726,39.30629,-21.61235,-139.5411,166.6082,-34.60968,202408231158563629,
2-4,C_HumanVertical,2,Q1FrontUp,-43.77104,28.21726,39.30629,-21.61235,-139.5411,166.6082,-34.60968,202408231158563784,
2-4,C_HumanVertical,2,Q1FrontUp,-43.77135,28.21747,39.31042,-21.61267,-139.5244,166.6083,-34.60934,202408231158563975,
2-4,C_HumanVertical,2,Q1FrontUp,-43.77135,28.21747,39.31042,-21.61267,-139.5244,166.6083,-34.60934,202408231158564129,
2-4,C_HumanVertical,2,Q1FrontUp,-43.77154,28.21755,39.32779,-21.61246,-139.4885,166.6083,-34.60975,202408231158564413,
2-4,C_HumanVertical,2,Q1FrontUp,-43.77154,28.21755,39.32779,-21.61246,-139.4885,166.6083,-34.60975,202408231158564588,
2-4,C_HumanVertical,2,Q1FrontUp,-43.77125,28.2174,39.34736,-21.6123,-139.4557,166.6084,-34.60955,202408231158564754,
2-4,C_HumanVertical,2,Q1FrontUp,-43.77304,28.21965,39.39124,-21.61305,-139.3941,166.6083,-34.6095,202408231158564975,
2-4,C_HumanVertical,2,Q1FrontUp,-43.77273,28.21917,39.47352,-21.61238,-139.2989,166.6093,-34.60972,202408231158565262,
2-4,C_HumanVertical,2,Q1FrontUp,-43.77273,28.21917,39.47352,-21.61238,-139.2989,166.6093,-34.60972,202408231158565413,
2-4,C_HumanVertical,2,Q1FrontUp,-43.77273,28.21917,39.47352,-21.61238,-139.2989,166.6093,-34.60972,202408231158565615,
2-4,C_HumanVertical,2,Q1FrontUp,-43.76785,28.22054,39.58117,-21.59227,-139.0516,166.7036,-34.59889,202408231158565789,
2-4,C_HumanVertical,2,Q1FrontUp,-43.74097,28.20876,39.64178,-21.57215,-138.7673,166.8002,-34.52864,202408231158565970,
2-4,C_HumanVertical,2,Q1FrontUp,-43.74097,28.20876,39.64178,-21.57215,-138.7673,166.8002,-34.52864,202408231158566139,
2-4,C_HumanVertical,2,Q1FrontUp,-43.69269,28.17559,39.64048,-21.56011,-138.4409,166.9,-34.42608,202408231158566331,
2-4,C_HumanVertical,2,Q1FrontUp,-43.69269,28.17559,39.64048,-21.56011,-138.4409,166.9,-34.42608,202408231158566501,
2-4,C_HumanVertical,2,Q1FrontUp,-43.62768,28.12608,39.64906,-21.5491,-138.0043,166.9512,-34.29495,202408231158566748,
2-4,C_HumanVertical,2,Q1FrontUp,-43.57334,28.06369,39.71044,-21.54827,-137.6164,166.9706,-34.17931,202408231158566936,
2-4,C_HumanVertical,2,Q1FrontUp,-43.54195,27.99734,39.85204,-21.54758,-137.2195,166.971,-34.09655,202408231158567256,
2-4,C_HumanVertical,2,Q1FrontUp,-43.54195,27.99734,39.85204,-21.54758,-137.2195,166.971,-34.09655,202408231158567461,
2-4,C_HumanVertical,2,Q1FrontUp,-43.48233,27.91828,39.97702,-21.54729,-136.8475,166.9708,-34.01738,202408231158567768,
2-4,C_HumanVertical,2,Q1FrontUp,-43.45634,27.81769,40.21755,-21.57088,-136.5331,166.9393,-33.96425,202408231158567926,
2-4,C_HumanVertical,2,Q1FrontUp,-43.45634,27.81769,40.21755,-21.57088,-136.5331,166.9393,-33.96425,202408231158568180,
2-4,C_HumanVertical,2,Q1FrontUp,-43.4645,27.74465,40.65104,-21.61859,-136.2477,166.8333,-33.96011,202408231158568501,
2-4,C_HumanVertical,2,Q1FrontUp,-43.46045,27.65218,41.04634,-21.65199,-135.9466,166.7647,-33.9543,202408231158568805,
2-4,C_HumanVertical,2,Q1FrontUp,-43.46111,27.54123,41.48182,-21.70502,-135.7064,166.6893,-33.94437,202408231158569169,
2-4,C_HumanVertical,2,Q1FrontUp,-43.46108,27.42118,41.94265,-21.79234,-135.5432,166.563,-33.93113,202408231158569405,
2-4,C_HumanVertical,2,Q1FrontUp,-43.46458,27.29519,42.31955,-21.88554,-135.4056,166.4469,-33.92056,202408231158569645,
2-4,C_HumanVertical,2,Q1FrontUp,-43.46319,27.15431,42.64135,-21.97252,-135.2792,166.3634,-33.91017,202408231158569910,
2-4,C_HumanVertical,2,Q1FrontUp,-43.46319,27.15431,42.64135,-21.97252,-135.2792,166.3634,-33.91017,202408231158570121,
2-4,C_HumanVertical,2,Q1FrontUp,-43.45904,26.99149,42.87103,-22.04356,-135.165,166.325,-33.89901,202408231158570434,
2-4,C_HumanVertical,2,Q1FrontUp,-43.45802,26.86772,43.05484,-22.09121,-135.0711,166.2849,-33.88874,202408231158570709,
2-4,C_HumanVertical,2,Q1FrontUp,-43.47809,26.75124,43.27566,-22.13682,-134.9799,166.2547,-33.87267,202408231158570966,
2-4,C_HumanVertical,2,Q1FrontUp,-43.52079,26.6662,43.54268,-22.18591,-134.8707,166.2544,-33.85428,202408231158571305,
2-4,C_HumanVertical,2,Q1FrontUp,-43.52079,26.6662,43.54268,-22.18591,-134.8707,166.2544,-33.85428,202408231158571489,
2-4,C_HumanVertical,2,Q1FrontUp,-43.55805,26.5725,43.76143,-22.22261,-134.7711,166.2542,-33.83537,202408231158571673,
2-4,C_HumanVertical,2,Q1FrontUp,-43.59184,26.48454,43.97997,-22.26271,-134.6871,166.2542,-33.8118,202408231158571913,
2-4,C_HumanVertical,2,Q1FrontUp,-43.59184,26.48454,43.97997,-22.26271,-134.6871,166.2542,-33.8118,202408231158572090,
2-4,C_HumanVertical,2,Q1FrontUp,-43.62016,26.42221,44.22786,-22.30248,-134.6099,166.2547,-33.78904,202408231158572314,
2-4,C_HumanVertical,2,Q1FrontUp,-43.62016,26.42221,44.22786,-22.30248,-134.6099,166.2547,-33.78904,202408231158572527,
2-4,C_HumanVertical,2,Q1FrontUp,-43.64268,26.3666,44.43936,-22.33106,-134.5395,166.2549,-33.7661,202408231158572788,
2-4,C_HumanVertical,2,Q1FrontUp,-43.66363,26.31421,44.62562,-22.35365,-134.4675,166.2545,-33.75461,202408231158573031,
2-4,C_HumanVertical,2,Q1FrontUp,-43.67234,26.27235,44.7905,-22.35972,-134.3907,166.2543,-33.75441,202408231158573303,
2-4,C_HumanVertical,2,Q1FrontUp,-43.67234,26.27235,44.7905,-22.35972,-134.3907,166.2543,-33.75441,202408231158573456,
2-4,C_HumanVertical,2,Q1FrontUp,-43.67234,26.27235,44.7905,-22.35972,-134.3907,166.2543,-33.75441,202408231158573618,
2-4,C_HumanVertical,2,Q1FrontUp,-43.67255,26.24099,44.92355,-22.36013,-134.334,166.2548,-33.75438,202408231158573780,
2-4,C_HumanVertical,2,Q1FrontUp,-43.67185,26.21841,45.02498,-22.3606,-134.2912,166.2553,-33.75461,202408231158573963,
2-4,C_HumanVertical,2,Q1FrontUp,-43.67185,26.21841,45.02498,-22.3606,-134.2912,166.2553,-33.75461,202408231158574137,
2-4,C_HumanVertical,2,Q1FrontUp,-43.67292,26.19849,45.11494,-22.36015,-134.2453,166.2553,-33.75462,202408231158574404,
2-4,C_HumanVertical,2,Q1FrontUp,-43.67292,26.19849,45.11494,-22.36015,-134.2453,166.2553,-33.75462,202408231158574583,
2-4,C_HumanVertical,2,Q1FrontUp,-43.67242,26.18897,45.15958,-22.35834,-134.2306,166.2681,-33.7373,202408231158574783,
2-4,C_HumanVertical,2,Q1FrontUp,-43.67225,26.18811,45.17754,-22.35412,-134.2265,166.2972,-33.71859,202408231158575097,
2-4,C_HumanVertical,2,Q1FrontUp,-43.67189,26.18911,45.17755,-22.34803,-134.2267,166.3253,-33.69782,202408231158575337,
2-4,C_HumanVertical,2,Q1FrontUp,-43.67244,26.19278,45.17054,-22.3336,-134.2267,166.343,-33.68326,202408231158575610,
2-4,C_HumanVertical,2,Q1FrontUp,-43.67244,26.19278,45.17054,-22.3336,-134.2267,166.343,-33.68326,202408231158575781,
2-4,C_HumanVertical,2,Q1FrontUp,-43.66864,26.19669,45.15375,-22.32229,-134.227,166.3561,-33.67175,202408231158576127,
2-4,C_HumanVertical,2,Q1FrontUp,-43.66151,26.19739,45.13181,-22.30978,-134.2267,166.3756,-33.65574,202408231158576323,
2-4,C_HumanVertical,2,Q1FrontUp,-43.63218,26.19897,45.11637,-22.28368,-134.2005,166.3792,-33.64402,202408231158576605,
2-4,C_HumanVertical,2,Q1FrontUp,-43.60424,26.19781,45.11404,-22.25859,-134.1438,166.3778,-33.63927,202408231158576935,
2-4,C_HumanVertical,2,Q1FrontUp,-43.58365,26.19528,45.11749,-22.24714,-134.0826,166.3765,-33.63953,202408231158577236,
2-4,C_HumanVertical,2,Q1FrontUp,-43.58365,26.19528,45.11749,-22.24714,-134.0826,166.3765,-33.63953,202408231158577461,
2-4,C_HumanVertical,2,Q1FrontUp,-43.568,26.18074,45.15769,-22.25897,-134.0318,166.3252,-33.64022,202408231158577770,
2-4,C_HumanVertical,2,Q1FrontUp,-43.57851,26.15918,45.22207,-22.30953,-133.9778,166.2696,-33.64064,202408231158578006,
2-4,C_HumanVertical,2,Q1FrontUp,-43.63,26.13857,45.33739,-22.4068,-133.8967,166.206,-33.64128,202408231158578302,
2-4,C_HumanVertical,2,Q1FrontUp,-43.63,26.13857,45.33739,-22.4068,-133.8967,166.206,-33.64128,202408231158578494,
2-4,C_HumanVertical,2,Q1FrontUp,-43.663,26.11997,45.45119,-22.48922,-133.8119,166.1493,-33.64084,202408231158578784,
2-4,C_HumanVertical,2,Q1FrontUp,-43.70298,26.09563,45.58207,-22.58827,-133.7266,166.0606,-33.64095,202408231158579090,
2-4,C_HumanVertical,2,Q1FrontUp,-43.76549,26.04976,45.7245,-22.73304,-133.6528,165.9088,-33.64083,202408231158579282,
2-4,C_HumanVertical,2,Q1FrontUp,-43.76549,26.04976,45.7245,-22.73304,-133.6528,165.9088,-33.64083,202408231158579465,
2-4,C_HumanVertical,2,Q1FrontUp,-43.86055,25.98278,45.86996,-22.95188,-133.5485,165.7133,-33.64319,202408231158579616,
2-4,C_HumanVertical,2,Q1FrontUp,-43.96762,25.89791,45.99163,-23.20593,-133.4549,165.4982,-33.64485,202408231158579916,
2-4,C_HumanVertical,2,Q1FrontUp,-43.96762,25.89791,45.99163,-23.20593,-133.4549,165.4982,-33.64485,202408231158580125,
2-4,C_HumanVertical,2,Q1FrontUp,-44.07339,25.80891,46.11217,-23.45531,-133.3765,165.2769,-33.64484,202408231158580429,
2-4,C_HumanVertical,2,Q1FrontUp,-44.20301,25.7073,46.23454,-23.7769,-133.2257,164.9892,-33.64043,202408231158580610,
2-4,C_HumanVertical,2,Q1FrontUp,-44.20301,25.7073,46.23454,-23.7769,-133.2257,164.9892,-33.64043,202408231158580873,
2-4,C_HumanVertical,2,Q1FrontUp,-44.28737,25.62704,46.32828,-24.09702,-133.1031,164.6488,-33.63602,202408231158581161,
2-4,C_HumanVertical,2,Q1FrontUp,-44.34443,25.54128,46.35558,-24.48178,-133.0119,164.2785,-33.63715,202408231158581452,
2-4,C_HumanVertical,2,Q1FrontUp,-44.39831,25.46122,46.37313,-24.85027,-132.9239,163.965,-33.63803,202408231158581783,
2-4,C_HumanVertical,2,Q1FrontUp,-44.40688,25.41132,46.34361,-25.24059,-132.8327,163.6084,-33.63781,202408231158581974,
2-4,C_HumanVertical,2,Q1FrontUp,-44.37901,25.36388,46.2142,-25.75149,-132.7525,163.1457,-33.63799,202408231158582262,
2-4,C_HumanVertical,2,Q1FrontUp,-44.37901,25.36388,46.2142,-25.75149,-132.7525,163.1457,-33.63799,202408231158582438,
2-4,C_HumanVertical,2,Q1FrontUp,-44.35505,25.33951,46.08942,-26.24988,-132.6699,162.7608,-33.63795,202408231158582680,
2-4,C_HumanVertical,2,Q1FrontUp,-44.3152,25.33216,45.92471,-26.77188,-132.5984,162.3526,-33.63707,202408231158582974,
2-4,C_HumanVertical,2,Q1FrontUp,-44.3152,25.33216,45.92471,-26.77188,-132.5984,162.3526,-33.63707,202408231158583126,
2-4,C_HumanVertical,2,Q1FrontUp,-44.24437,25.34438,45.71038,-27.29901,-132.5613,161.9539,-33.63671,202408231158583413,
2-4,C_HumanVertical,2,Q1FrontUp,-44.12506,25.39048,45.37925,-27.89569,-132.5488,161.5764,-33.6324,202408231158583625,
2-4,C_HumanVertical,2,Q1FrontUp,-44.03121,25.42693,45.10088,-28.47845,-132.5447,161.1835,-33.62582,202408231158583967,
2-4,C_HumanVertical,2,Q1FrontUp,-44.03121,25.42693,45.10088,-28.47845,-132.5447,161.1835,-33.62582,202408231158584150,
2-4,C_HumanVertical,2,Q1FrontUp,-43.94045,25.51693,44.95912,-29.03591,-132.5395,160.7683,-33.61961,202408231158584430,
2-4,C_HumanVertical,2,Q1FrontUp,-43.85134,25.61482,44.84084,-29.57587,-132.5367,160.4134,-33.61374,202408231158584633,
2-4,C_HumanVertical,2,Q1FrontUp,-43.732,25.74326,44.70919,-30.09301,-132.5353,160.0555,-33.603,202408231158584947,
2-4,C_HumanVertical,2,Q1FrontUp,-43.56392,25.86926,44.51902,-30.6363,-132.5355,159.7242,-33.58547,202408231158585326,
2-4,C_HumanVertical,2,Q1FrontUp,-43.41108,25.99474,44.31782,-31.13562,-132.5353,159.4151,-33.56456,202408231158585608,
2-4,C_HumanVertical,2,Q1FrontUp,-43.41108,25.99474,44.31782,-31.13562,-132.5353,159.4151,-33.56456,202408231158585836,
2-4,C_HumanVertical,2,Q1FrontUp,-43.29427,26.1325,44.1712,-31.58636,-132.5356,159.1098,-33.54716,202408231158586132,
2-4,C_HumanVertical,2,Q1FrontUp,-43.16908,26.30123,44.08302,-31.99939,-132.535,158.791,-33.52925,202408231158586345,
2-4,C_HumanVertical,2,Q1FrontUp,-43.08038,26.46247,44.00113,-32.412,-132.535,158.4783,-33.51619,202408231158586590,
2-4,C_HumanVertical,2,Q1FrontUp,-43.08038,26.46247,44.00113,-32.412,-132.535,158.4783,-33.51619,202408231158586758,
2-4,C_HumanVertical,2,Q1FrontUp,-43.01198,26.60382,43.90769,-32.80954,-132.5349,158.1806,-33.49935,202408231158587084,
2-4,C_HumanVertical,2,Q1FrontUp,-42.93354,26.74951,43.81579,-33.16834,-132.5348,157.8968,-33.47978,202408231158587253,
2-4,C_HumanVertical,2,Q1FrontUp,-42.93354,26.74951,43.81579,-33.16834,-132.5348,157.8968,-33.47978,202408231158587517,
2-4,C_HumanVertical,2,Q1FrontUp,-42.87311,26.88103,43.72456,-33.50979,-132.5346,157.6129,-33.46154,202408231158587756,
2-4,C_HumanVertical,2,Q1FrontUp,-42.82938,26.99993,43.59435,-33.83899,-132.5329,157.3656,-33.44316,202408231158587913,
2-4,C_HumanVertical,2,Q1FrontUp,-42.82938,26.99993,43.59435,-33.83899,-132.5329,157.3656,-33.44316,202408231158588113,
2-4,C_HumanVertical,2,Q1FrontUp,-42.8037,27.07811,43.3858,-34.18597,-132.5336,157.1357,-33.42642,202408231158588461,
2-4,C_HumanVertical,2,Q1FrontUp,-42.80525,27.20382,43.35003,-34.49625,-132.5336,156.8926,-33.40771,202408231158588683,
2-4,C_HumanVertical,2,Q1FrontUp,-42.80455,27.32608,43.30447,-34.76532,-132.5327,156.6305,-33.38465,202408231158588982,
2-4,C_HumanVertical,2,Q1FrontUp,-42.80774,27.41136,43.14824,-35.07201,-132.534,156.3781,-33.36515,202408231158589270,
2-4,C_HumanVertical,2,Q1FrontUp,-42.80774,27.41136,43.14824,-35.07201,-132.534,156.3781,-33.36515,202408231158589433,
2-4,C_HumanVertical,2,Q1FrontUp,-42.7975,27.50186,43.00682,-35.33785,-132.5343,156.1597,-33.34693,202408231158589793,
2-4,C_HumanVertical,2,Q1FrontUp,-42.77938,27.61038,42.86177,-35.5927,-132.5341,155.9574,-33.33027,202408231158590093,
2-4,C_HumanVertical,2,Q1FrontUp,-42.77418,27.7262,42.69753,-35.80732,-132.5341,155.7433,-33.31798,202408231158590294,
