mpan31415/robot-x-ar/study2/data/raw_all_participants/Participant_2-1_1.csv
ParticipantID,Condition,Trial,PostureID,J1,J2,J3,J4,J5,J6,J7,Timestamp,
2-1A,C_HumanVertical,1,Q1FrontUp,-77.13058,20.90199,108.8999,-32.60435,-114.247,144.0482,-45.37402,202408221831212302,
2-1A,C_HumanVertical,1,Q1FrontUp,-77.13058,20.90199,108.8999,-32.60435,-114.247,144.0482,-45.37402,202408221831212457,
2-1A,C_HumanVertical,1,Q1FrontUp,-77.1403,20.90218,108.8999,-32.60523,-114.2471,144.0636,-45.37338,202408221831212733,
2-1A,C_HumanVertical,1,Q1FrontUp,-77.15618,20.90162,108.9017,-32.60616,-114.2468,144.0788,-45.37338,202408221831213051,
2-1A,C_HumanVertical,1,Q1FrontUp,-77.1933,20.90888,108.95,-32.61036,-114.2465,144.1021,-45.37368,202408221831213244,
2-1A,C_HumanVertical,1,Q1FrontUp,-77.1933,20.90888,108.95,-32.61036,-114.2465,144.1021,-45.37368,202408221831213409,
2-1A,C_HumanVertical,1,Q1FrontUp,-77.24509,20.92979,109.0484,-32.62138,-114.2466,144.1469,-45.37411,202408221831213600,
2-1A,C_HumanVertical,1,Q1FrontUp,-77.28838,20.95705,109.1568,-32.62872,-114.2464,144.1829,-45.37436,202408221831213862,
2-1A,C_HumanVertical,1,Q1FrontUp,-77.28838,20.95705,109.1568,-32.62872,-114.2464,144.1829,-45.37436,202408221831214054,
2-1A,C_HumanVertical,1,Q1FrontUp,-77.32806,20.98105,109.2639,-32.62864,-114.2465,144.2177,-45.37421,202408221831214285,
2-1A,C_HumanVertical,1,Q1FrontUp,-77.36766,21.00066,109.3759,-32.62705,-114.2465,144.2491,-45.37457,202408221831214547,
2-1A,C_HumanVertical,1,Q1FrontUp,-77.40789,21.01298,109.4816,-32.6258,-114.2465,144.2797,-45.37448,202408221831214854,
2-1A,C_HumanVertical,1,Q1FrontUp,-77.40789,21.01298,109.4816,-32.6258,-114.2465,144.2797,-45.37448,202408221831215032,
2-1A,C_HumanVertical,1,Q1FrontUp,-77.43676,21.0203,109.5732,-32.62605,-114.2466,144.3049,-45.37553,202408221831215208,
2-1A,C_HumanVertical,1,Q1FrontUp,-77.43676,21.0203,109.5732,-32.62605,-114.2466,144.3049,-45.37553,202408221831215400,
2-1A,C_HumanVertical,1,Q1FrontUp,-77.45355,21.02341,109.6536,-32.62698,-114.2466,144.3204,-45.37617,202408221831215684,
2-1A,C_HumanVertical,1,Q1FrontUp,-77.4743,21.02374,109.7209,-32.6356,-114.2469,144.3263,-45.37816,202408221831216017,
2-1A,C_HumanVertical,1,Q1FrontUp,-77.49753,21.02419,109.785,-32.65025,-114.247,144.3344,-45.38124,202408221831216356,
2-1A,C_HumanVertical,1,Q1FrontUp,-77.49753,21.02419,109.785,-32.65025,-114.247,144.3344,-45.38124,202408221831216559,
2-1A,C_HumanVertical,1,Q1FrontUp,-77.55701,21.02455,109.8955,-32.68552,-114.2469,144.3511,-45.38511,202408221831216854,
2-1A,C_HumanVertical,1,Q1FrontUp,-77.55701,21.02455,109.8955,-32.68552,-114.2469,144.3511,-45.38511,202408221831217066,
2-1A,C_HumanVertical,1,Q1FrontUp,-77.59402,21.02488,109.951,-32.70032,-114.247,144.3556,-45.3865,202408221831217379,
2-1A,C_HumanVertical,1,Q1FrontUp,-77.63064,21.02657,110.0098,-32.71615,-114.2469,144.3584,-45.3884,202408221831217574,
2-1A,C_HumanVertical,1,Q1FrontUp,-77.6584,21.02876,110.0594,-32.72784,-114.2469,144.3603,-45.38884,202408221831217846,
2-1A,C_HumanVertical,1,Q1FrontUp,-77.6584,21.02876,110.0594,-32.72784,-114.2469,144.3603,-45.38884,202408221831218020,
2-1A,C_HumanVertical,1,Q1FrontUp,-77.67846,21.03329,110.1082,-32.73661,-114.2472,144.3613,-45.38944,202408221831218202,
2-1A,C_HumanVertical,1,Q1FrontUp,-77.67846,21.03329,110.1082,-32.73661,-114.2472,144.3613,-45.38944,202408221831218367,
2-1A,C_HumanVertical,1,Q1FrontUp,-77.69592,21.03658,110.1586,-32.74119,-114.2472,144.3624,-45.38884,202408221831218574,
2-1A,C_HumanVertical,1,Q1FrontUp,-77.71053,21.04076,110.1979,-32.75046,-114.2473,144.363,-45.3891,202408221831218901,
2-1A,C_HumanVertical,1,Q1FrontUp,-77.71053,21.04076,110.1979,-32.75046,-114.2473,144.363,-45.3891,202408221831219131,
2-1A,C_HumanVertical,1,Q1FrontUp,-77.71053,21.04076,110.1979,-32.75046,-114.2473,144.363,-45.3891,202408221831219411,
2-1A,C_HumanVertical,1,Q1FrontUp,-77.72146,21.05293,110.2718,-32.76159,-114.2476,144.3654,-45.38858,202408221831219612,
2-1A,C_HumanVertical,1,Q1FrontUp,-77.72146,21.05293,110.2718,-32.76159,-114.2476,144.3654,-45.38858,202408221831219917,
2-1A,C_HumanVertical,1,Q1FrontUp,-77.7227,21.05995,110.2996,-32.76452,-114.2477,144.3662,-45.38881,202408221831220080,
2-1A,C_HumanVertical,1,Q1FrontUp,-77.72678,21.06708,110.3274,-32.76815,-114.2477,144.3669,-45.38834,202408221831220368,
2-1A,C_HumanVertical,1,Q1FrontUp,-77.73672,21.07391,110.3554,-32.77717,-114.2474,144.3688,-45.38828,202408221831220541,
2-1A,C_HumanVertical,1,Q1FrontUp,-77.73672,21.07391,110.3554,-32.77717,-114.2474,144.3688,-45.38828,202408221831220761,
2-1A,C_HumanVertical,1,Q1FrontUp,-77.7462,21.08004,110.3767,-32.78242,-114.2476,144.372,-45.38844,202408221831221022,
2-1A,C_HumanVertical,1,Q1FrontUp,-77.7462,21.08004,110.3767,-32.78242,-114.2476,144.372,-45.38844,202408221831221183,
2-1A,C_HumanVertical,1,Q1FrontUp,-77.75553,21.08531,110.3924,-32.78402,-114.2477,144.3976,-45.38855,202408221831221398,
2-1A,C_HumanVertical,1,Q1FrontUp,-77.76299,21.08875,110.4038,-32.78447,-114.2478,144.412,-45.38869,202408221831221560,
2-1A,C_HumanVertical,1,Q1FrontUp,-77.76299,21.08875,110.4038,-32.78447,-114.2478,144.412,-45.38869,202408221831221767,
2-1A,C_HumanVertical,1,Q1FrontUp,-77.7705,21.09198,110.4055,-32.78464,-114.2477,144.432,-45.38826,202408221831222042,
2-1A,C_HumanVertical,1,Q1FrontUp,-77.77747,21.0949,110.4068,-32.78467,-114.2476,144.4482,-45.38816,202408221831222203,
2-1A,C_HumanVertical,1,Q1FrontUp,-77.78455,21.09884,110.4081,-32.78501,-114.2477,144.4643,-45.38826,202408221831222528,
2-1A,C_HumanVertical,1,Q1FrontUp,-77.78455,21.09884,110.4081,-32.78501,-114.2477,144.4643,-45.38826,202408221831222728,
2-1A,C_HumanVertical,1,Q1FrontUp,-77.78663,21.1063,110.4088,-32.78525,-114.2477,144.4772,-45.38815,202408221831222917,
2-1A,C_HumanVertical,1,Q1FrontUp,-77.78717,21.11403,110.4095,-32.78549,-114.2477,144.489,-45.38836,202408221831223213,
2-1A,C_HumanVertical,1,Q1FrontUp,-77.78717,21.11403,110.4095,-32.78549,-114.2477,144.489,-45.38836,202408221831223408,
2-1A,C_HumanVertical,1,Q1FrontUp,-77.78706,21.12324,110.4094,-32.78548,-114.2476,144.4975,-45.38844,202408221831223683,
2-1A,C_HumanVertical,1,Q1FrontUp,-77.78722,21.13596,110.4094,-32.78538,-114.2478,144.5168,-45.38799,202408221831223858,
2-1A,C_HumanVertical,1,Q1FrontUp,-77.78722,21.13596,110.4094,-32.78538,-114.2478,144.5168,-45.38799,202408221831224086,
2-1A,C_HumanVertical,1,Q1FrontUp,-77.78707,21.14875,110.4096,-32.78567,-114.2477,144.5339,-45.38802,202408221831224356,
2-1A,C_HumanVertical,1,Q1FrontUp,-77.78707,21.14875,110.4096,-32.78567,-114.2477,144.5339,-45.38802,202408221831224524,
2-1A,C_HumanVertical,1,Q1FrontUp,-77.78701,21.16446,110.4096,-32.78531,-114.2478,144.5439,-45.38792,202408221831224706,
2-1A,C_HumanVertical,1,Q1FrontUp,-77.78738,21.18096,110.4097,-32.78514,-114.2478,144.5536,-45.38787,202408221831224912,
2-1A,C_HumanVertical,1,Q1FrontUp,-77.78738,21.18096,110.4097,-32.78514,-114.2478,144.5536,-45.38787,202408221831225088,
2-1A,C_HumanVertical,1,Q1FrontUp,-77.78738,21.19629,110.4096,-32.78461,-114.2475,144.5647,-45.38795,202408221831225358,
2-1A,C_HumanVertical,1,Q1FrontUp,-77.7875,21.21095,110.4096,-32.78465,-114.2477,144.5709,-45.38793,202408221831225541,
2-1A,C_HumanVertical,1,Q1FrontUp,-77.7875,21.21095,110.4096,-32.78465,-114.2477,144.5709,-45.38793,202408221831225848,
2-1A,C_HumanVertical,1,Q1FrontUp,-77.78732,21.22423,110.4097,-32.78439,-114.2476,144.5802,-45.38802,202408221831226024,
2-1A,C_HumanVertical,1,Q1FrontUp,-77.78761,21.23414,110.4095,-32.78402,-114.2475,144.5863,-45.3878,202408221831226221,
2-1A,C_HumanVertical,1,Q1FrontUp,-77.78731,21.24102,110.4097,-32.78363,-114.2474,144.5978,-45.38766,202408221831226504,
2-1A,C_HumanVertical,1,Q1FrontUp,-77.78731,21.24102,110.4097,-32.78363,-114.2474,144.5978,-45.38766,202408221831226744,
2-1A,C_HumanVertical,1,Q1FrontUp,-77.78822,21.244,110.4095,-32.78106,-114.2472,144.6195,-45.38744,202408221831227021,
2-1A,C_HumanVertical,1,Q1FrontUp,-77.78811,21.24494,110.4096,-32.77927,-114.2472,144.6413,-45.38719,202408221831227182,
2-1A,C_HumanVertical,1,Q1FrontUp,-77.78811,21.24494,110.4096,-32.77927,-114.2472,144.6413,-45.38719,202408221831227407,
2-1A,C_HumanVertical,1,Q1FrontUp,-77.78843,21.24451,110.4096,-32.77795,-114.2473,144.6675,-45.38788,202408221831227685,
2-1A,C_HumanVertical,1,Q1FrontUp,-77.79428,21.24388,110.4099,-32.77805,-114.2468,144.6958,-45.38754,202408221831227869,
2-1A,C_HumanVertical,1,Q1FrontUp,-77.79428,21.24388,110.4099,-32.77805,-114.2468,144.6958,-45.38754,202408221831228019,
2-1A,C_HumanVertical,1,Q1FrontUp,-77.80379,21.24413,110.41,-32.77768,-114.2468,144.7276,-45.38721,202408221831228241,
2-1A,C_HumanVertical,1,Q1FrontUp,-77.80379,21.24413,110.41,-32.77768,-114.2468,144.7276,-45.38721,202408221831228472,
2-1A,C_HumanVertical,1,Q1FrontUp,-77.81404,21.2448,110.4103,-32.77699,-114.2468,144.7695,-45.38688,202408221831228806,
2-1A,C_HumanVertical,1,Q1FrontUp,-77.83444,21.2447,110.4102,-32.77715,-114.2466,144.8153,-45.38589,202408221831229035,
2-1A,C_HumanVertical,1,Q1FrontUp,-77.85687,21.24472,110.4104,-32.77704,-114.2467,144.8605,-45.3854,202408221831229222,
2-1A,C_HumanVertical,1,Q1FrontUp,-77.85687,21.24472,110.4104,-32.77704,-114.2467,144.8605,-45.3854,202408221831229383,
2-1A,C_HumanVertical,1,Q1FrontUp,-77.87371,21.2446,110.4104,-32.77722,-114.2465,144.8988,-45.38531,202408221831229619,
2-1A,C_HumanVertical,1,Q1FrontUp,-77.87371,21.2446,110.4104,-32.77722,-114.2465,144.8988,-45.38531,202408221831229857,
2-1A,C_HumanVertical,1,Q1FrontUp,-77.89063,21.24482,110.4105,-32.77638,-114.2462,144.9159,-45.38535,202408221831230082,
2-1A,C_HumanVertical,1,Q1FrontUp,-77.90062,21.24513,110.4104,-32.77227,-114.2454,144.9344,-45.38536,202408221831230406,
2-1A,C_HumanVertical,1,Q1FrontUp,-77.90062,21.24513,110.4104,-32.77227,-114.2454,144.9344,-45.38536,202408221831230599,
2-1A,C_HumanVertical,1,Q1FrontUp,-77.90247,21.24509,110.41,-32.75768,-114.2443,144.9729,-45.38541,202408221831230901,
2-1A,C_HumanVertical,1,Q1FrontUp,-77.90233,21.24488,110.4074,-32.75409,-114.2443,144.9928,-45.3854,202408221831231203,
2-1A,C_HumanVertical,1,Q1FrontUp,-77.90233,21.24488,110.4074,-32.75409,-114.2443,144.9928,-45.3854,202408221831231439,
2-1A,C_HumanVertical,1,Q1FrontUp,-77.9021,21.24467,110.4043,-32.74985,-114.2443,145.0121,-45.38566,202408221831231631,
2-1A,C_HumanVertical,1,Q1FrontUp,-77.90221,21.24478,110.4028,-32.7448,-114.244,145.026,-45.38551,202408221831231910,
2-1A,C_HumanVertical,1,Q1FrontUp,-77.90221,21.24478,110.4028,-32.7448,-114.244,145.026,-45.38551,202408221831232097,
2-1A,C_HumanVertical,1,Q1FrontUp,-77.90231,21.24509,110.402,-32.74121,-114.2428,145.0402,-45.38518,202408221831232384,
2-1A,C_HumanVertical,1,Q1FrontUp,-77.9025,21.24524,110.4021,-32.73912,-114.2384,145.0539,-45.38521,202408221831232595,
2-1A,C_HumanVertical,1,Q1FrontUp,-77.9025,21.24524,110.4021,-32.73912,-114.2384,145.0539,-45.38521,202408221831232772,
2-1A,C_HumanVertical,1,Q1FrontUp,-77.90244,21.24488,110.4021,-32.73919,-114.2363,145.0665,-45.38532,202408221831233059,
2-1A,C_HumanVertical,1,Q1FrontUp,-77.90249,21.245,110.4024,-32.73903,-114.2349,145.0858,-45.38511,202408221831233358,
2-1A,C_HumanVertical,1,Q1FrontUp,-77.90228,21.24501,110.4026,-32.73895,-114.2343,145.1001,-45.38452,202408221831233515,
2-1A,C_HumanVertical,1,Q1FrontUp,-77.90228,21.24501,110.4026,-32.73895,-114.2343,145.1001,-45.38452,202408221831233705,
2-1A,C_HumanVertical,1,Q1FrontUp,-77.9034,21.24519,110.4026,-32.73905,-114.2343,145.1161,-45.384,202408221831233900,
2-1A,C_HumanVertical,1,Q1FrontUp,-77.90379,21.24504,110.4028,-32.73917,-114.2341,145.1299,-45.38296,202408221831234192,
2-1A,C_HumanVertical,1,Q1FrontUp,-77.90379,21.24504,110.4028,-32.73917,-114.2341,145.1299,-45.38296,202408221831234378,
2-1A,C_HumanVertical,1,Q1FrontUp,-77.90379,21.24504,110.4028,-32.73917,-114.2341,145.1299,-45.38296,202408221831234585,
2-1A,C_HumanVertical,1,Q1FrontUp,-77.90424,21.24517,110.4034,-32.73931,-114.2341,145.1527,-45.38184,202408221831234927,
2-1A,C_HumanVertical,1,Q1FrontUp,-77.90511,21.24493,110.4036,-32.73941,-114.2338,145.1591,-45.38171,202408221831235202,
2-1A,C_HumanVertical,1,Q1FrontUp,-77.90511,21.24493,110.4036,-32.73941,-114.2338,145.1591,-45.38171,202408221831235388,
2-1A,C_HumanVertical,1,Q1FrontUp,-77.90542,21.24518,110.4035,-32.7394,-114.2336,145.1646,-45.38228,202408221831235698,
2-1A,C_HumanVertical,1,Q1FrontUp,-77.90542,21.24518,110.4035,-32.7394,-114.2336,145.1646,-45.38228,202408221831235868,
2-1A,C_HumanVertical,1,Q1FrontUp,-77.90585,21.24549,110.4034,-32.73927,-114.2335,145.1709,-45.38234,202408221831236068,
2-1A,C_HumanVertical,1,Q1FrontUp,-77.90575,21.24515,110.4034,-32.73948,-114.2333,145.1791,-45.38231,202408221831236259,
2-1A,C_HumanVertical,1,Q1FrontUp,-77.90572,21.24515,110.4034,-32.73966,-114.2331,145.1869,-45.38223,202408221831236556,
2-1A,C_HumanVertical,1,Q1FrontUp,-77.90572,21.24515,110.4034,-32.73966,-114.2331,145.1869,-45.38223,202408221831236725,
2-1A,C_HumanVertical,1,Q1FrontUp,-77.90579,21.24525,110.4035,-32.73976,-114.2332,145.1932,-45.38198,202408221831236934,
2-1A,C_HumanVertical,1,Q1FrontUp,-77.90579,21.24525,110.4035,-32.73976,-114.2332,145.1932,-45.38198,202408221831237097,
2-1A,C_HumanVertical,1,Q1FrontUp,-77.90581,21.24527,110.4036,-32.7396,-114.233,145.1981,-45.38218,202408221831237388,
2-1A,C_HumanVertical,1,Q1FrontUp,-77.90594,21.24543,110.4033,-32.73944,-114.233,145.2083,-45.38194,202408221831237570,
2-1A,C_HumanVertical,1,Q1FrontUp,-77.90594,21.24543,110.4033,-32.73944,-114.233,145.2083,-45.38194,202408221831237725,
2-1A,C_HumanVertical,1,Q1FrontUp,-77.90579,21.24533,110.4035,-32.73928,-114.232,145.218,-45.3816,202408221831237942,
2-1A,C_HumanVertical,1,Q1FrontUp,-77.90574,21.24519,110.4034,-32.73955,-114.2309,145.227,-45.38147,202408221831238221,
2-1A,C_HumanVertical,1,Q1FrontUp,-77.90574,21.24519,110.4034,-32.73955,-114.2309,145.227,-45.38147,202408221831238378,
2-1A,C_HumanVertical,1,Q1FrontUp,-77.90574,21.24519,110.4034,-32.73955,-114.2309,145.227,-45.38147,202408221831238556,
2-1A,C_HumanVertical,1,Q1FrontUp,-77.90578,21.24533,110.4033,-32.73954,-114.2304,145.2332,-45.38163,202408221831238710,
2-1A,C_HumanVertical,1,Q1FrontUp,-77.90607,21.24546,110.4035,-32.73954,-114.2286,145.2411,-45.38176,202408221831238882,
2-1A,C_HumanVertical,1,Q1FrontUp,-77.90607,21.24546,110.4035,-32.73954,-114.2286,145.2411,-45.38176,202408221831239056,
2-1A,C_HumanVertical,1,Q1FrontUp,-77.90969,21.24524,110.4031,-32.7396,-114.2197,145.2482,-45.38171,202408221831239283,
2-1A,C_HumanVertical,1,Q1FrontUp,-77.90969,21.24524,110.4031,-32.7396,-114.2197,145.2482,-45.38171,202408221831239441,
2-1A,C_HumanVertical,1,Q1FrontUp,-77.92184,21.24479,110.4034,-32.73962,-114.2084,145.2617,-45.38186,202408221831239735,
2-1A,C_HumanVertical,1,Q1FrontUp,-77.93317,21.2447,110.4034,-32.7397,-114.2055,145.2688,-45.38206,202408221831240070,
2-1A,C_HumanVertical,1,Q1FrontUp,-77.94699,21.24501,110.4032,-32.73923,-114.2028,145.2794,-45.38186,202408221831240278,
2-1A,C_HumanVertical,1,Q1FrontUp,-77.96768,21.24515,110.4032,-32.73896,-114.1999,145.2916,-45.38163,202408221831240556,
2-1A,C_HumanVertical,1,Q1FrontUp,-77.96768,21.24515,110.4032,-32.73896,-114.1999,145.2916,-45.38163,202408221831240730,
2-1A,C_HumanVertical,1,Q1FrontUp,-77.9833,21.24492,110.4034,-32.73804,-114.1948,145.3004,-45.38173,202408221831241180,
2-1A,C_HumanVertical,1,Q1FrontUp,-77.99551,21.24515,110.4032,-32.73529,-114.187,145.314,-45.38165,202408221831241535,
2-1A,C_HumanVertical,1,Q1FrontUp,-77.99551,21.24515,110.4032,-32.73529,-114.187,145.314,-45.38165,202408221831241708,
2-1A,C_HumanVertical,1,Q1FrontUp,-78.00486,21.24532,110.4033,-32.71764,-114.1742,145.3551,-45.38162,202408221831242044,
2-1A,C_HumanVertical,1,Q1FrontUp,-78.0055,21.24465,110.4032,-32.7061,-114.1723,145.3733,-45.38169,202408221831242231,
2-1A,C_HumanVertical,1,Q1FrontUp,-78.0055,21.24465,110.4032,-32.7061,-114.1723,145.3733,-45.38169,202408221831242445,
2-1A,C_HumanVertical,1,Q1FrontUp,-78.006,21.24512,110.4032,-32.69522,-114.172,145.393,-45.38128,202408221831242765,
2-1A,C_HumanVertical,1,Q1FrontUp,-78.00652,21.24485,110.403,-32.68406,-114.1715,145.4094,-45.38098,202408221831242925,
2-1A,C_HumanVertical,1,Q1FrontUp,-78.00652,21.24485,110.403,-32.68406,-114.1715,145.4094,-45.38098,202408221831243201,
2-1A,C_HumanVertical,1,Q1FrontUp,-78.00652,21.24485,110.403,-32.68406,-114.1715,145.4094,-45.38098,202408221831243398,
2-1A,C_HumanVertical,1,Q1FrontUp,-78.00652,21.24454,110.4029,-32.64289,-114.1542,145.4754,-45.37935,202408221831243626,
2-1A,C_HumanVertical,1,Q1FrontUp,-78.00652,21.24454,110.4029,-32.64289,-114.1542,145.4754,-45.37935,202408221831243889,
2-1A,C_HumanVertical,1,Q1FrontUp,-78.00666,21.24476,110.4026,-32.62086,-114.145,145.5156,-45.37909,202408221831244098,
2-1A,C_HumanVertical,1,Q1FrontUp,-78.0061,21.2431,110.3901,-32.59029,-114.1269,145.5593,-45.37822,202408221831244288,
2-1A,C_HumanVertical,1,Q1FrontUp,-78.0061,21.2431,110.3901,-32.59029,-114.1269,145.5593,-45.37822,202408221831244578,
2-1A,C_HumanVertical,1,Q1FrontUp,-78.00603,21.24106,110.3714,-32.55131,-114.1064,145.6117,-45.37757,202408221831244771,
2-1A,C_HumanVertical,1,Q1FrontUp,-77.99634,21.23485,110.3302,-32.50294,-114.0934,145.6535,-45.3771,202408221831245051,
2-1A,C_HumanVertical,1,Q1FrontUp,-77.99354,21.23372,110.2956,-32.45267,-114.0874,145.6968,-45.37708,202408221831245229,
2-1A,C_HumanVertical,1,Q1FrontUp,-77.99357,21.23476,110.2613,-32.4068,-114.0798,145.7355,-45.37691,202408221831245543,
2-1A,C_HumanVertical,1,Q1FrontUp,-77.99357,21.23476,110.2613,-32.4068,-114.0798,145.7355,-45.37691,202408221831245689,
2-1A,C_HumanVertical,1,Q1FrontUp,-77.99357,21.23476,110.2613,-32.4068,-114.0798,145.7355,-45.37691,202408221831245901,
2-1A,C_HumanVertical,1,Q1FrontUp,-77.98575,21.23464,110.2249,-32.35085,-114.0711,145.7838,-45.37685,202408221831246070,
2-1A,C_HumanVertical,1,Q1FrontUp,-77.96938,21.23443,110.1752,-32.29426,-114.0591,145.8384,-45.37683,202408221831246394,
2-1A,C_HumanVertical,1,Q1FrontUp,-77.94263,21.23449,110.1194,-32.23512,-114.0422,145.8945,-45.3761,202408221831246738,
2-1A,C_HumanVertical,1,Q1FrontUp,-77.92211,21.23354,110.0583,-32.17776,-114.0178,145.9496,-45.37523,202408221831246964,
2-1A,C_HumanVertical,1,Q1FrontUp,-77.92211,21.23354,110.0583,-32.17776,-114.0178,145.9496,-45.37523,202408221831247224,
2-1A,C_HumanVertical,1,Q1FrontUp,-77.90167,21.2329,109.99,-32.12402,-114.0026,146.0025,-45.37262,202408221831247446,
2-1A,C_HumanVertical,1,Q1FrontUp,-77.88143,21.23128,109.9022,-32.07496,-113.9853,146.0527,-45.33686,202408221831247742,
2-1A,C_HumanVertical,1,Q1FrontUp,-77.83768,21.2259,109.7875,-32.01676,-113.9536,146.1019,-45.32324,202408221831247927,
2-1A,C_HumanVertical,1,Q1FrontUp,-77.78839,21.22527,109.6759,-31.96146,-113.9167,146.1516,-45.30106,202408221831248211,
2-1A,C_HumanVertical,1,Q1FrontUp,-77.78839,21.22527,109.6759,-31.96146,-113.9167,146.1516,-45.30106,202408221831248374,
2-1A,C_HumanVertical,1,Q1FrontUp,-77.73126,21.2266,109.5795,-31.90183,-113.8685,146.2038,-45.27419,202408221831248544,
2-1A,C_HumanVertical,1,Q1FrontUp,-77.73126,21.2266,109.5795,-31.90183,-113.8685,146.2038,-45.27419,202408221831248704,
2-1A,C_HumanVertical,1,Q1FrontUp,-77.67673,21.22677,109.4882,-31.85064,-113.8191,146.2556,-45.25195,202408221831248910,
2-1A,C_HumanVertical,1,Q1FrontUp,-77.61048,21.22439,109.3802,-31.78889,-113.748,146.3222,-45.2244,202408221831249144,
2-1A,C_HumanVertical,1,Q1FrontUp,-77.61048,21.22439,109.3802,-31.78889,-113.748,146.3222,-45.2244,202408221831249394,
2-1A,C_HumanVertical,1,Q1FrontUp,-77.51221,21.21936,109.2514,-31.69871,-113.6692,146.3998,-45.19087,202408221831249730,
2-1A,C_HumanVertical,1,Q1FrontUp,-77.37411,21.19974,109.0601,-31.57045,-113.566,146.4802,-45.15874,202408221831250080,
2-1A,C_HumanVertical,1,Q1FrontUp,-77.24619,21.17781,108.8798,-31.42609,-113.4666,146.5639,-45.12124,202408221831250263,
2-1A,C_HumanVertical,1,Q1FrontUp,-77.24619,21.17781,108.8798,-31.42609,-113.4666,146.5639,-45.12124,202408221831250530,
2-1A,C_HumanVertical,1,Q1FrontUp,-77.24619,21.17781,108.8798,-31.42609,-113.4666,146.5639,-45.12124,202408221831250756,
2-1A,C_HumanVertical,1,Q1FrontUp,-77.02901,21.13836,108.5559,-31.18053,-113.3132,146.7362,-45.03981,202408221831251032,
2-1A,C_HumanVertical,1,Q1FrontUp,-77.02901,21.13836,108.5559,-31.18053,-113.3132,146.7362,-45.03981,202408221831251209,
2-1A,C_HumanVertical,1,Q1FrontUp,-76.9174,21.10957,108.3558,-31.05739,-113.2442,146.8243,-44.99771,202408221831251421,
2-1A,C_HumanVertical,1,Q1FrontUp,-76.80956,21.0721,108.1459,-30.92146,-113.1725,146.9216,-44.95217,202408221831251708,
2-1A,C_HumanVertical,1,Q1FrontUp,-76.80956,21.0721,108.1459,-30.92146,-113.1725,146.9216,-44.95217,202408221831251886,
2-1A,C_HumanVertical,1,Q1FrontUp,-76.60889,21.01909,107.8579,-30.65525,-113.0576,147.1031,-44.86484,202408221831252290,
2-1A,C_HumanVertical,1,Q1FrontUp,-76.52296,21.00703,107.7467,-30.55853,-113.0034,147.1886,-44.82156,202408221831252544,
2-1A,C_HumanVertical,1,Q1FrontUp,-76.52296,21.00703,107.7467,-30.55853,-113.0034,147.1886,-44.82156,202408221831252712,
2-1A,C_HumanVertical,1,Q1FrontUp,-76.46733,20.99416,107.6572,-30.48452,-112.9669,147.2686,-44.78606,202408221831252888,
2-1A,C_HumanVertical,1,Q1FrontUp,-76.46733,20.99416,107.6572,-30.48452,-112.9669,147.2686,-44.78606,202408221831253190,
2-1A,C_HumanVertical,1,Q1FrontUp,-76.4369,20.98505,107.5891,-30.42282,-112.9358,147.3404,-44.74812,202408221831253371,
2-1A,C_HumanVertical,1,Q1FrontUp,-76.42403,20.97984,107.5334,-30.37564,-112.9129,147.4062,-44.71846,202408221831253591,
2-1A,C_HumanVertical,1,Q1FrontUp,-76.42403,20.97984,107.5334,-30.37564,-112.9129,147.4062,-44.71846,202408221831253754,
2-1A,C_HumanVertical,1,Q1FrontUp,-76.42423,20.97942,107.4989,-30.33962,-112.8944,147.469,-44.68988,202408221831254029,
2-1A,C_HumanVertical,1,Q1FrontUp,-76.42372,20.97985,107.4567,-30.30947,-112.8769,147.5203,-44.66238,202408221831254227,
2-1A,C_HumanVertical,1,Q1FrontUp,-76.42372,20.97985,107.4567,-30.30947,-112.8769,147.5203,-44.66238,202408221831254389,
2-1A,C_HumanVertical,1,Q1FrontUp,-76.42435,20.98085,107.4149,-30.27854,-112.854,147.5744,-44.63435,202408221831254600,
2-1A,C_HumanVertical,1,Q1FrontUp,-76.42423,20.98056,107.3872,-30.24601,-112.8333,147.6251,-44.60849,202408221831254912,
2-1A,C_HumanVertical,1,Q1FrontUp,-76.42437,20.98079,107.3708,-30.21467,-112.8195,147.6676,-44.58134,202408221831255221,
2-1A,C_HumanVertical,1,Q1FrontUp,-76.42458,20.98037,107.3588,-30.18395,-112.8142,147.7062,-44.55728,202408221831255430,
2-1A,C_HumanVertical,1,Q1FrontUp,-76.42458,20.98037,107.3588,-30.18395,-112.8142,147.7062,-44.55728,202408221831255689,
2-1A,C_HumanVertical,1,Q1FrontUp,-76.42471,20.97956,107.349,-30.15504,-112.8106,147.7525,-44.52685,202408221831255870,
2-1A,C_HumanVertical,1,Q1FrontUp,-76.42471,20.97956,107.349,-30.15504,-112.8106,147.7525,-44.52685,202408221831256038,
2-1A,C_HumanVertical,1,Q1FrontUp,-76.42464,20.97966,107.3409,-30.12592,-112.8093,147.7979,-44.50101,202408221831256200,
2-1A,C_HumanVertical,1,Q1FrontUp,-76.42464,20.97966,107.3409,-30.12592,-112.8093,147.7979,-44.50101,202408221831256532,
2-1A,C_HumanVertical,1,Q1FrontUp,-76.42461,20.97966,107.3321,-30.09781,-112.8085,147.8357,-44.47963,202408221831256767,
2-1A,C_HumanVertical,1,Q1FrontUp,-76.42496,20.97985,107.3266,-30.06913,-112.8037,147.8766,-44.45636,202408221831256923,
2-1A,C_HumanVertical,1,Q1FrontUp,-76.42496,20.97985,107.3266,-30.06913,-112.8037,147.8766,-44.45636,202408221831257219,
2-1A,C_HumanVertical,1,Q1FrontUp,-76.42496,20.97985,107.3266,-30.06913,-112.8037,147.8766,-44.45636,202408221831257365,
2-1A,C_HumanVertical,1,Q1FrontUp,-76.42522,20.98034,107.3188,-30.01587,-112.7902,147.9544,-44.41235,202408221831257572,
2-1A,C_HumanVertical,1,Q1FrontUp,-76.42522,20.98034,107.3188,-30.01587,-112.7902,147.9544,-44.41235,202408221831257735,
2-1A,C_HumanVertical,1,Q1FrontUp,-76.42551,20.97985,107.3164,-29.992,-112.787,147.9976,-44.39075,202408221831258028,
2-1A,C_HumanVertical,1,Q1FrontUp,-76.42551,20.97993,107.3153,-29.971,-112.783,148.0395,-44.37252,202408221831258217,
2-1A,C_HumanVertical,1,Q1FrontUp,-76.42551,20.97993,107.3153,-29.971,-112.783,148.0395,-44.37252,202408221831258592,
2-1A,C_HumanVertical,1,Q1FrontUp,-76.42584,20.97972,107.3153,-29.95338,-112.7788,148.0774,-44.35149,202408221831258855,
2-1A,C_HumanVertical,1,Q1FrontUp,-76.4262,20.98016,107.3156,-29.93634,-112.7664,148.1213,-44.33593,202408221831259193,
2-1A,C_HumanVertical,1,Q1FrontUp,-76.42668,20.98002,107.3155,-29.92382,-112.7548,148.1604,-44.31505,202408221831259390,
2-1A,C_HumanVertical,1,Q1FrontUp,-76.42667,20.97997,107.3156,-29.91445,-112.7467,148.1934,-44.2955,202408221831259534,
2-1A,C_HumanVertical,1,Q1FrontUp,-76.42667,20.97997,107.3156,-29.91445,-112.7467,148.1934,-44.2955,202408221831259746,
2-1A,C_HumanVertical,1,Q1FrontUp,-76.42776,20.97977,107.3156,-29.90751,-112.7465,148.2065,-44.27986,202408221831259909,
2-1A,C_HumanVertical,1,Q1FrontUp,-76.42776,20.97977,107.3156,-29.90751,-112.7465,148.2065,-44.27986,202408221831260101,
2-1A,C_HumanVertical,1,Q1FrontUp,-76.43121,20.97954,107.3159,-29.90298,-112.7465,148.2135,-44.267,202408221831260385,
2-1A,C_HumanVertical,1,Q1FrontUp,-76.43578,20.97952,107.3159,-29.89748,-112.7464,148.2207,-44.25459,202408221831260687,
2-1A,C_HumanVertical,1,Q1FrontUp,-76.43932,20.98006,107.3156,-29.89064,-112.7464,148.2275,-44.24066,202408221831260862,
2-1A,C_HumanVertical,1,Q1FrontUp,-76.43932,20.98006,107.3156,-29.89064,-112.7464,148.2275,-44.24066,202408221831261079,
2-1A,C_HumanVertical,1,Q1FrontUp,-76.4408,20.98024,107.3159,-29.8854,-112.7463,148.232,-44.22675,202408221831261354,
2-1A,C_HumanVertical,1,Q1FrontUp,-76.44285,20.98013,107.3156,-29.8805,-112.7463,148.2421,-44.21106,202408221831261529,
2-1A,C_HumanVertical,1,Q1FrontUp,-76.44285,20.98013,107.3156,-29.8805,-112.7463,148.2421,-44.21106,202408221831261753,
2-1A,C_HumanVertical,1,Q1FrontUp,-76.4443,20.9799,107.3156,-29.87829,-112.7456,148.2605,-44.18135,202408221831262092,
2-1A,C_HumanVertical,1,Q1FrontUp,-76.44539,20.97938,107.3158,-29.87447,-112.7446,148.2758,-44.15514,202408221831262363,
2-1A,C_HumanVertical,1,Q1FrontUp,-76.44539,20.97938,107.3158,-29.87447,-112.7446,148.2758,-44.15514,202408221831262556,
2-1A,C_HumanVertical,1,Q1FrontUp,-76.44617,20.97903,107.316,-29.87134,-112.7442,148.2881,-44.13329,202408221831262855,
2-1A,C_HumanVertical,1,Q1FrontUp,-76.44643,20.96832,107.3139,-29.85427,-112.7304,148.3608,-43.9869,202408221831263057,
2-1A,C_HumanVertical,1,Q1FrontUp,-76.46468,20.94579,107.3158,-29.84359,-112.6252,148.5183,-43.78482,202408221831263264,
2-1A,C_HumanVertical,1,Q1FrontUp,-76.49693,20.91479,107.3298,-29.83369,-112.4586,148.7841,-43.55513,202408221831263526,
2-1A,C_HumanVertical,1,Q1FrontUp,-76.49693,20.91479,107.3298,-29.83369,-112.4586,148.7841,-43.55513,202408221831263690,
2-1A,C_HumanVertical,1,Q1FrontUp,-76.49693,20.91479,107.3298,-29.83369,-112.4586,148.7841,-43.55513,202408221831263865,
2-1A,C_HumanVertical,1,Q1FrontUp,-76.49693,20.91479,107.3298,-29.83369,-112.4586,148.7841,-43.55513,202408221831264030,
2-1A,C_HumanVertical,1,Q1FrontUp,-76.48021,20.7038,107.0359,-29.73422,-112.285,149.2678,-43.07415,202408221831264204,
2-1A,C_HumanVertical,1,Q1FrontUp,-76.48021,20.7038,107.0359,-29.73422,-112.285,149.2678,-43.07415,202408221831264432,
2-1A,C_HumanVertical,1,Q1FrontUp,-76.46207,20.51358,106.695,-29.64898,-112.2016,149.4283,-42.87034,202408221831264696,
2-1A,C_HumanVertical,1,Q1FrontUp,-76.37176,20.32118,106.3956,-29.5169,-112.1929,149.5091,-42.63718,202408221831264926,
2-1A,C_HumanVertical,1,Q1FrontUp,-76.37176,20.32118,106.3956,-29.5169,-112.1929,149.5091,-42.63718,202408221831265208,
2-1A,C_HumanVertical,1,Q1FrontUp,-76.2336,20.12397,106.0501,-29.38999,-112.1738,149.5382,-42.44772,202408221831265410,
2-1A,C_HumanVertical,1,Q1FrontUp,-76.06008,19.93523,105.6775,-29.26215,-112.1531,149.534,-42.28639,202408221831265730,
2-1A,C_HumanVertical,1,Q1FrontUp,-75.82679,19.74351,105.2846,-29.13395,-112.1,149.531,-42.12572,202408221831265922,
2-1A,C_HumanVertical,1,Q1FrontUp,-75.82679,19.74351,105.2846,-29.13395,-112.1,149.531,-42.12572,202408221831266189,
2-1A,C_HumanVertical,1,Q1FrontUp,-75.63719,19.5567,104.9724,-29.044,-112.0595,149.5272,-41.96998,202408221831266356,
2-1A,C_HumanVertical,1,Q1FrontUp,-75.49113,19.37911,104.7324,-28.98272,-112.0197,149.5255,-41.81651,202408221831266571,
2-1A,C_HumanVertical,1,Q1FrontUp,-75.49113,19.37911,104.7324,-28.98272,-112.0197,149.5255,-41.81651,202408221831266845,
2-1A,C_HumanVertical,1,Q1FrontUp,-75.49113,19.37911,104.7324,-28.98272,-112.0197,149.5255,-41.81651,202408221831267013,
2-1A,C_HumanVertical,1,Q1FrontUp,-75.2219,19.05963,104.3172,-28.9388,-111.9632,149.5246,-41.51684,202408221831267332,
2-1A,C_HumanVertical,1,Q1FrontUp,-75.11385,18.92079,104.1891,-28.91982,-111.9363,149.5247,-41.36843,202408221831267533,
2-1A,C_HumanVertical,1,Q1FrontUp,-75.11385,18.92079,104.1891,-28.91982,-111.9363,149.5247,-41.36843,202408221831267759,
2-1A,C_HumanVertical,1,Q1FrontUp,-75.03369,18.79889,104.1297,-28.9085,-111.9354,149.5229,-41.20909,202408221831268067,
2-1A,C_HumanVertical,1,Q1FrontUp,-74.95102,18.68077,104.0831,-28.89504,-111.931,149.5204,-41.06155,202408221831268353,
2-1A,C_HumanVertical,1,Q1FrontUp,-74.87017,18.56339,104.0406,-28.88453,-111.9207,149.5157,-40.92289,202408221831268683,
2-1A,C_HumanVertical,1,Q1FrontUp,-74.79537,18.46105,104.0107,-28.86171,-111.9185,149.505,-40.80288,202408221831268882,
2-1A,C_HumanVertical,1,Q1FrontUp,-74.79537,18.46105,104.0107,-28.86171,-111.9185,149.505,-40.80288,202408221831269172,
2-1A,C_HumanVertical,1,Q1FrontUp,-74.70276,18.37504,103.9723,-28.83262,-111.9177,149.493,-40.69468,202408221831269344,
2-1A,C_HumanVertical,1,Q1FrontUp,-74.60803,18.28486,103.9042,-28.78746,-111.9178,149.4732,-40.58624,202408221831269513,
2-1A,C_HumanVertical,1,Q1FrontUp,-74.60803,18.28486,103.9042,-28.78746,-111.9178,149.4732,-40.58624,202408221831269750,
2-1A,C_HumanVertical,1,Q1FrontUp,-74.51682,18.212,103.8351,-28.74567,-111.9181,149.4588,-40.48147,202408221831270030,
2-1A,C_HumanVertical,1,Q1FrontUp,-74.41335,18.15376,103.7629,-28.70066,-111.9178,149.4508,-40.37537,202408221831270363,
2-1A,C_HumanVertical,1,Q1FrontUp,-74.31386,18.09607,103.6915,-28.64958,-111.918,149.443,-40.2791,202408221831270696,
2-1A,C_HumanVertical,1,Q1FrontUp,-74.23832,18.04956,103.6442,-28.60688,-111.9182,149.4408,-40.18851,202408221831270856,
2-1A,C_HumanVertical,1,Q1FrontUp,-74.23832,18.04956,103.6442,-28.60688,-111.9182,149.4408,-40.18851,202408221831271054,
2-1A,C_HumanVertical,1,Q1FrontUp,-74.18565,18.01117,103.6183,-28.56621,-111.9181,149.4398,-40.10341,202408221831271209,
2-1A,C_HumanVertical,1,Q1FrontUp,-74.14945,17.9785,103.6094,-28.53399,-111.918,149.4397,-40.02528,202408221831271499,
2-1A,C_HumanVertical,1,Q1FrontUp,-74.14945,17.9785,103.6094,-28.53399,-111.918,149.4397,-40.02528,202408221831271680,
2-1A,C_HumanVertical,1,Q1FrontUp,-74.14341,17.95421,103.6103,-28.51435,-111.9177,149.4397,-39.9545,202408221831272019,
2-1A,C_HumanVertical,1,Q1FrontUp,-74.13856,17.93778,103.6107,-28.4841,-111.9179,149.4402,-39.87989,202408221831272233,
2-1A,C_HumanVertical,1,Q1FrontUp,-74.13856,17.93778,103.6107,-28.4841,-111.9179,149.4402,-39.87989,202408221831272506,
2-1A,C_HumanVertical,1,Q1FrontUp,-74.12922,17.92857,103.6104,-28.44995,-111.9177,149.44,-39.80723,202408221831272706,
2-1A,C_HumanVertical,1,Q1FrontUp,-74.12346,17.92507,103.6107,-28.41758,-111.9178,149.44,-39.73724,202408221831272901,
2-1A,C_HumanVertical,1,Q1FrontUp,-74.112,17.92502,103.6092,-28.38954,-111.9182,149.4397,-39.66863,202408221831273255,
2-1A,C_HumanVertical,1,Q1FrontUp,-74.09587,17.92511,103.6071,-28.36813,-111.9188,149.4371,-39.6167,202408221831273544,
2-1A,C_HumanVertical,1,Q1FrontUp,-74.02856,17.92451,103.6062,-28.3561,-111.9183,149.3297,-39.62063,202408221831273834,
2-1A,C_HumanVertical,1,Q1FrontUp,-74.02856,17.92451,103.6062,-28.3561,-111.9183,149.3297,-39.62063,202408221831274000,
2-1A,C_HumanVertical,1,Q1FrontUp,-73.90325,17.91321,103.5569,-28.34436,-111.9336,149.1781,-39.64399,202408221831274183,
2-1A,C_HumanVertical,1,Q1FrontUp,-73.90325,17.91321,103.5569,-28.34436,-111.9336,149.1781,-39.64399,202408221831274403,
2-1A,C_HumanVertical,1,Q1FrontUp,-73.70628,17.88974,103.4542,-28.33622,-111.9649,148.9446,-39.6727,202408221831274691,
2-1A,C_HumanVertical,1,Q1FrontUp,-73.29009,17.83635,103.1669,-28.2997,-111.9953,148.5032,-39.6762,202408221831274841,
2-1A,C_HumanVertical,1,Q1FrontUp,-73.29009,17.83635,103.1669,-28.2997,-111.9953,148.5032,-39.6762,202408221831275055,
2-1A,C_HumanVertical,1,Q1FrontUp,-72.85028,17.76285,102.8294,-28.28633,-112.0025,147.9662,-39.6712,202408221831275376,
2-1A,C_HumanVertical,1,Q1FrontUp,-72.33189,17.67909,102.4423,-28.30888,-112.0011,147.1615,-39.64999,202408221831275555,
2-1A,C_HumanVertical,1,Q1FrontUp,-72.33189,17.67909,102.4423,-28.30888,-112.0011,147.1615,-39.64999,202408221831275854,
2-1A,C_HumanVertical,1,Q1FrontUp,-71.83623,17.57631,102.0751,-28.35892,-112.0016,146.4925,-39.63608,202408221831276019,
2-1A,C_HumanVertical,1,Q1FrontUp,-71.29616,17.47443,101.6361,-28.50271,-111.9333,145.7231,-39.57303,202408221831276227,
2-1A,C_HumanVertical,1,Q1FrontUp,-71.29616,17.47443,101.6361,-28.50271,-111.9333,145.7231,-39.57303,202408221831276532,
2-1A,C_HumanVertical,1,Q1FrontUp,-70.72186,17.35575,101.0581,-28.75691,-111.8447,144.7814,-39.4588,202408221831276741,
2-1A,C_HumanVertical,1,Q1FrontUp,-69.92429,17.20707,100.0974,-29.14314,-111.8654,143.8618,-39.40929,202408221831277013,
2-1A,C_HumanVertical,1,Q1FrontUp,-69.38979,17.07109,99.48006,-29.45966,-111.8833,143.3053,-39.39343,202408221831277234,
2-1A,C_HumanVertical,1,Q1FrontUp,-69.38979,17.07109,99.48006,-29.45966,-111.8833,143.3053,-39.39343,202408221831277524,
2-1A,C_HumanVertical,1,Q1FrontUp,-69.28812,16.98104,99.50687,-29.68997,-111.8966,143.3105,-39.39888,202408221831277757,
2-1A,C_HumanVertical,1,Q1FrontUp,-69.09167,16.98672,99.43823,-30.01298,-111.9078,143.3088,-39.39996,202408221831278018,
2-1A,C_HumanVertical,1,Q1FrontUp,-68.87022,16.99624,99.31454,-30.27066,-111.9121,143.3013,-39.40129,202408221831278204,
2-1A,C_HumanVertical,1,Q1FrontUp,-68.70686,17.04255,99.11313,-30.50147,-111.9188,143.2559,-39.40143,202408221831278495,
2-1A,C_HumanVertical,1,Q1FrontUp,-68.70686,17.04255,99.11313,-30.50147,-111.9188,143.2559,-39.40143,202408221831278669,
2-1A,C_HumanVertical,1,Q1FrontUp,-68.70686,17.04255,99.11313,-30.50147,-111.9188,143.2559,-39.40143,202408221831278845,
2-1A,C_HumanVertical,1,Q1FrontUp,-68.51498,17.0265,98.84093,-30.59272,-111.9226,143.1059,-39.40045,202408221831279056,
2-1A,C_HumanVertical,1,Q1FrontUp,-68.25917,16.9598,98.51591,-30.58316,-111.9222,142.8936,-39.39902,202408221831279234,
2-1A,C_HumanVertical,1,Q1FrontUp,-68.25917,16.9598,98.51591,-30.58316,-111.9222,142.8936,-39.39902,202408221831279500,
2-1A,C_HumanVertical,1,Q1FrontUp,-67.95721,16.91809,98.12218,-30.63575,-111.9229,142.6347,-39.39792,202408221831279683,
2-1A,C_HumanVertical,1,Q1FrontUp,-67.47925,16.88597,97.51795,-30.81453,-111.9261,142.293,-39.38903,202408221831280017,
2-1A,C_HumanVertical,1,Q1FrontUp,-66.95156,16.85406,96.87702,-31.0848,-111.9362,141.875,-39.37528,202408221831280219,
2-1A,C_HumanVertical,1,Q1FrontUp,-66.36233,16.84296,96.13538,-31.40962,-111.9438,141.4075,-39.35727,202408221831280523,
2-1A,C_HumanVertical,1,Q1FrontUp,-66.36233,16.84296,96.13538,-31.40962,-111.9438,141.4075,-39.35727,202408221831280682,
2-1A,C_HumanVertical,1,Q1FrontUp,-65.68796,16.81066,95.32067,-31.7774,-111.9547,140.8973,-39.32439,202408221831280879,
2-1A,C_HumanVertical,1,Q1FrontUp,-65.00361,16.77172,94.4901,-32.18291,-111.9678,140.3487,-39.28849,202408221831281216,
2-1A,C_HumanVertical,1,Q1FrontUp,-64.29595,16.72717,93.65613,-32.61093,-111.9768,139.799,-39.24573,202408221831281497,
2-1A,C_HumanVertical,1,Q1FrontUp,-64.29595,16.72717,93.65613,-32.61093,-111.9768,139.799,-39.24573,202408221831281682,
2-1A,C_HumanVertical,1,Q1FrontUp,-63.58461,16.70455,92.81423,-33.05996,-111.9912,139.2422,-39.20247,202408221831281854,
2-1A,C_HumanVertical,1,Q1FrontUp,-63.58461,16.70455,92.81423,-33.05996,-111.9912,139.2422,-39.20247,202408221831282031,
2-1A,C_HumanVertical,1,Q1FrontUp,-62.88354,16.65562,92.02322,-33.53681,-111.9996,138.7216,-39.16167,202408221831282255,
2-1A,C_HumanVertical,1,Q1FrontUp,-62.88354,16.65562,92.02322,-33.53681,-111.9996,138.7216,-39.16167,202408221831282411,
2-1A,C_HumanVertical,1,Q1FrontUp,-62.22935,16.61686,91.28289,-33.97768,-112.0053,138.2233,-39.12283,202408221831282702,
2-1A,C_HumanVertical,1,Q1FrontUp,-61.67271,16.59178,90.64799,-34.39565,-112.012,137.8201,-39.08763,202408221831283042,
2-1A,C_HumanVertical,1,Q1FrontUp,-61.67271,16.59178,90.64799,-34.39565,-112.012,137.8201,-39.08763,202408221831283246,
2-1A,C_HumanVertical,1,Q1FrontUp,-61.17043,16.60171,90.25652,-35.03266,-112.0156,137.5951,-39.08092,202408221831283509,
2-1A,C_HumanVertical,1,Q1FrontUp,-61.17043,16.60171,90.25652,-35.03266,-112.0156,137.5951,-39.08092,202408221831283682,
2-1A,C_HumanVertical,1,Q1FrontUp,-61.17043,16.60171,90.25652,-35.03266,-112.0156,137.5951,-39.08092,202408221831283854,
2-1A,C_HumanVertical,1,Q1FrontUp,-61.0725,16.6536,90.2268,-35.23764,-112.0157,137.5975,-39.08722,202408221831284065,
2-1A,C_HumanVertical,1,Q1FrontUp,-60.9809,16.70505,90.17183,-35.3465,-112.0156,137.5977,-39.09076,202408221831284250,
2-1A,C_HumanVertical,1,Q1FrontUp,-60.91556,16.74726,90.09422,-35.39661,-112.0154,137.5972,-39.09403,202408221831284522,
2-1A,C_HumanVertical,1,Q1FrontUp,-60.82523,16.74623,89.95971,-35.38128,-112.0165,137.5959,-39.09584,202408221831284872,
2-1A,C_HumanVertical,1,Q1FrontUp,-60.82523,16.74623,89.95971,-35.38128,-112.0165,137.5959,-39.09584,202408221831285029,
2-1A,C_HumanVertical,1,Q1FrontUp,-60.68941,16.74877,89.79376,-35.36768,-112.0188,137.5959,-39.09849,202408221831285199,
2-1A,C_HumanVertical,1,Q1FrontUp,-60.68941,16.74877,89.79376,-35.36768,-112.0188,137.5959,-39.09849,202408221831285421,
2-1A,C_HumanVertical,1,Q1FrontUp,-60.50249,16.75634,89.52149,-35.41075,-112.0312,137.5957,-39.10186,202408221831285691,
2-1A,C_HumanVertical,1,Q1FrontUp,-60.20179,16.77889,89.13546,-35.51817,-112.0681,137.5941,-39.10913,202408221831286005,
2-1A,C_HumanVertical,1,Q1FrontUp,-59.80978,16.79998,88.66245,-35.64364,-112.1075,137.5949,-39.11586,202408221831286188,
2-1A,C_HumanVertical,1,Q1FrontUp,-59.39634,16.84641,88.1652,-35.81107,-112.1569,137.5811,-39.1201,202408221831286545,
2-1A,C_HumanVertical,1,Q1FrontUp,-58.85916,16.90417,87.52061,-35.99152,-112.2177,137.559,-39.12682,202408221831286846,
2-1A,C_HumanVertical,1,Q1FrontUp,-58.85916,16.90417,87.52061,-35.99152,-112.2177,137.559,-39.12682,202408221831287016,
2-1A,C_HumanVertical,1,Q1FrontUp,-58.24584,16.95159,86.83174,-36.20716,-112.2796,137.5384,-39.13544,202408221831287242,
2-1A,C_HumanVertical,1,Q1FrontUp,-57.59158,17.04513,86.05851,-36.49433,-112.3559,137.4808,-39.14123,202408221831287574,
2-1A,C_HumanVertical,1,Q1FrontUp,-57.59158,17.04513,86.05851,-36.49433,-112.3559,137.4808,-39.14123,202408221831287863,
2-1A,C_HumanVertical,1,Q1FrontUp,-56.83446,17.12404,85.16648,-36.81926,-112.4586,137.4154,-39.15056,202408221831288034,
2-1A,C_HumanVertical,1,Q1FrontUp,-56.0115,17.23292,84.19629,-37.18644,-112.58,137.3342,-39.15848,202408221831288343,
2-1A,C_HumanVertical,1,Q1FrontUp,-55.1807,17.31629,83.22305,-37.57484,-112.7164,137.254,-39.17192,202408221831288535,
2-1A,C_HumanVertical,1,Q1FrontUp,-55.1807,17.31629,83.22305,-37.57484,-112.7164,137.254,-39.17192,202408221831288722,
2-1A,C_HumanVertical,1,Q1FrontUp,-54.23386,17.44694,82.1201,-38.0188,-112.8962,137.157,-39.18359,202408221831289001,
2-1A,C_HumanVertical,1,Q1FrontUp,-54.23386,17.44694,82.1201,-38.0188,-112.8962,137.157,-39.18359,202408221831289186,
2-1A,C_HumanVertical,1,Q1FrontUp,-53.2478,17.57292,80.99197,-38.49272,-113.0751,137.0566,-39.19415,202408221831289490,
2-1A,C_HumanVertical,1,Q1FrontUp,-52.22233,17.73068,79.81577,-39.00751,-113.2625,136.9565,-39.20868,202408221831289691,
2-1A,C_HumanVertical,1,Q1FrontUp,-51.14546,17.89202,78.56301,-39.5385,-113.4196,136.8611,-39.22428,202408221831289934,
2-1A,C_HumanVertical,1,Q1FrontUp,-50.01944,18.05901,77.27889,-40.09307,-113.5946,136.7384,-39.2402,202408221831290260,
2-1A,C_HumanVertical,1,Q1FrontUp,-50.01944,18.05901,77.27889,-40.09307,-113.5946,136.7384,-39.2402,202408221831290509,
2-1A,C_HumanVertical,1,Q1FrontUp,-48.93244,18.22991,76.0332,-40.66048,-113.7791,136.6061,-39.25869,202408221831290701,
2-1A,C_HumanVertical,1,Q1FrontUp,-47.77596,18.43533,74.72872,-41.25258,-114.0034,136.4721,-39.27515,202408221831290896,
2-1A,C_HumanVertical,1,Q1FrontUp,-46.64861,18.62424,73.45473,-41.83318,-114.2292,136.3125,-39.29153,202408221831291226,
2-1A,C_HumanVertical,1,Q1FrontUp,-46.64861,18.62424,73.45473,-41.83318,-114.2292,136.3125,-39.29153,202408221831291391,
2-1A,C_HumanVertical,1,Q1FrontUp,-45.49373,18.83827,72.15878,-42.43898,-114.46,136.1501,-39.3152,202408221831291580,
2-1A,C_HumanVertical,1,Q1FrontUp,-44.3821,19.05926,70.87593,-43.03327,-114.6684,136.0087,-39.33778,202408221831291770,
2-1A,C_HumanVertical,1,Q1FrontUp,-44.3821,19.05926,70.87593,-43.03327,-114.6684,136.0087,-39.33778,202408221831291923,
2-1A,C_HumanVertical,1,Q1FrontUp,-43.25774,19.28265,69.61754,-43.63155,-114.9011,135.877,-39.36194,202408221831292167,
2-1A,C_HumanVertical,1,Q1FrontUp,-43.25774,19.28265,69.61754,-43.63155,-114.9011,135.877,-39.36194,202408221831292350,
2-1A,C_HumanVertical,1,Q1FrontUp,-43.25774,19.28265,69.61754,-43.63155,-114.9011,135.877,-39.36194,202408221831292522,
2-1A,C_HumanVertical,1,Q1FrontUp,-41.19516,19.72858,67.27805,-44.77161,-115.3811,135.6392,-39.41528,202408221831292855,
2-1A,C_HumanVertical,1,Q1FrontUp,-41.19516,19.72858,67.27805,-44.77161,-115.3811,135.6392,-39.41528,202408221831293029,
2-1A,C_HumanVertical,1,Q1FrontUp,-41.19516,19.72858,67.27805,-44.77161,-115.3811,135.6392,-39.41528,202408221831293231,
2-1A,C_HumanVertical,1,Q1FrontUp,-40.22111,19.94914,66.20813,-45.30289,-115.5841,135.5243,-39.43998,202408221831293414,
2-1A,C_HumanVertical,1,Q1FrontUp,-39.29517,20.19612,65.16869,-45.84074,-115.7574,135.408,-39.4669,202408221831293682,
2-1A,C_HumanVertical,1,Q1FrontUp,-39.29517,20.19612,65.16869,-45.84074,-115.7574,135.408,-39.4669,202408221831293854,
2-1A,C_HumanVertical,1,Q1FrontUp,-38.45226,20.39412,64.23709,-46.32324,-115.9258,135.2954,-39.49078,202408221831294021,
2-1A,C_HumanVertical,1,Q1FrontUp,-37.66279,20.62424,63.35759,-46.77866,-116.088,135.1769,-39.51686,202408221831294192,
2-1A,C_HumanVertical,1,Q1FrontUp,-37.66279,20.62424,63.35759,-46.77866,-116.088,135.1769,-39.51686,202408221831294407,
2-1A,C_HumanVertical,1,Q1FrontUp,-36.95422,20.82932,62.60123,-47.20866,-116.2626,135.0749,-39.53752,202408221831294685,
2-1A,C_HumanVertical,1,Q1FrontUp,-36.74762,21.02855,62.49855,-47.48494,-116.2552,135.0777,-39.53686,202408221831295068,
2-1A,C_HumanVertical,1,Q1FrontUp,-36.61984,21.30203,62.51189,-47.77333,-116.255,135.0798,-39.53688,202408221831295363,
2-1A,C_HumanVertical,1,Q1FrontUp,-36.57606,21.47707,62.51152,-47.94488,-116.2551,135.0795,-39.53708,202408221831295570,
2-1A,C_HumanVertical,1,Q1FrontUp,-36.54898,21.64014,62.46202,-48.09329,-116.2556,135.0777,-39.53717,202408221831295844,
2-1A,C_HumanVertical,1,Q1FrontUp,-36.54898,21.64014,62.46202,-48.09329,-116.2556,135.0777,-39.53717,202408221831296041,
2-1A,C_HumanVertical,1,Q1FrontUp,-36.55148,21.71943,62.35048,-48.21646,-116.261,135.0763,-39.53734,202408221831296332,
2-1A,C_HumanVertical,1,Q1FrontUp,-36.55148,21.71943,62.35048,-48.21646,-116.261,135.0763,-39.53734,202408221831296505,
2-1A,C_HumanVertical,1,Q1FrontUp,-36.55215,21.73173,62.22829,-48.33195,-116.2703,135.0759,-39.53759,202408221831296742,
2-1A,C_HumanVertical,1,Q1FrontUp,-36.49835,21.74417,62.00824,-48.55343,-116.3105,135.0732,-39.54174,202408221831297023,
2-1A,C_HumanVertical,1,Q1FrontUp,-36.49835,21.74417,62.00824,-48.55343,-116.3105,135.0732,-39.54174,202408221831297203,
2-1A,C_HumanVertical,1,Q1FrontUp,-36.37749,21.74877,61.70155,-48.84885,-116.3725,135.0663,-39.55197,202408221831297353,
2-1A,C_HumanVertical,1,Q1FrontUp,-36.21494,21.75698,61.3823,-49.22211,-116.4529,135.0558,-39.56744,202408221831297546,
2-1A,C_HumanVertical,1,Q1FrontUp,-36.21494,21.75698,61.3823,-49.22211,-116.4529,135.0558,-39.56744,202408221831297764,
2-1A,C_HumanVertical,1,Q1FrontUp,-35.95616,21.77119,60.94717,-49.68053,-116.5804,135.0336,-39.5885,202408221831298030,
2-1A,C_HumanVertical,1,Q1FrontUp,-35.6503,21.79583,60.48218,-50.22236,-116.7333,135.0065,-39.61554,202408221831298251,
2-1A,C_HumanVertical,1,Q1FrontUp,-35.6503,21.79583,60.48218,-50.22236,-116.7333,135.0065,-39.61554,202408221831298510,
2-1A,C_HumanVertical,1,Q1FrontUp,-35.27566,21.83872,59.92438,-50.87517,-116.8996,134.964,-39.64439,202408221831298679,
2-1A,C_HumanVertical,1,Q1FrontUp,-34.82738,21.91923,59.31721,-51.62889,-117.1316,134.9253,-39.67785,202408221831298878,
2-1A,C_HumanVertical,1,Q1FrontUp,-34.82738,21.91923,59.31721,-51.62889,-117.1316,134.9253,-39.67785,202408221831299172,
2-1A,C_HumanVertical,1,Q1FrontUp,-34.32226,22.01867,58.68027,-52.44399,-117.3953,134.8813,-39.71617,202408221831299342,
2-1A,C_HumanVertical,1,Q1FrontUp,-33.77561,22.1431,57.998,-53.35109,-117.6802,134.836,-39.76841,202408221831299509,
2-1A,C_HumanVertical,1,Q1FrontUp,-33.18523,22.341,57.26248,-54.31327,-117.9436,134.7933,-39.82628,202408221831299899,
2-1A,C_HumanVertical,1,Q1FrontUp,-33.18523,22.341,57.26248,-54.31327,-117.9436,134.7933,-39.82628,202408221831300063,
2-1A,C_HumanVertical,1,Q1FrontUp,-32.54209,22.53589,56.51705,-55.33884,-118.2283,134.7503,-39.89053,202408221831300371,
2-1A,C_HumanVertical,1,Q1FrontUp,-31.91807,22.78041,55.76403,-56.37418,-118.5391,134.7063,-39.95293,202408221831300523,
2-1A,C_HumanVertical,1,Q1FrontUp,-31.91807,22.78041,55.76403,-56.37418,-118.5391,134.7063,-39.95293,202408221831300673,
2-1A,C_HumanVertical,1,Q1FrontUp,-31.23939,23.06248,55.01144,-57.45058,-118.8562,134.6725,-40.01604,202408221831301014,
2-1A,C_HumanVertical,1,Q1FrontUp,-30.58152,23.37287,54.23186,-58.53933,-119.1532,134.6272,-40.0746,202408221831301221,
2-1A,C_HumanVertical,1,Q1FrontUp,-29.93538,23.69235,53.51565,-59.60255,-119.4643,134.5822,-40.1342,202408221831301502,
2-1A,C_HumanVertical,1,Q1FrontUp,-29.93538,23.69235,53.51565,-59.60255,-119.4643,134.5822,-40.1342,202408221831301674,
2-1A,C_HumanVertical,1,Q1FrontUp,-29.31894,24.0558,52.79663,-60.65114,-119.7953,134.5453,-40.19206,202408221831301835,
2-1A,C_HumanVertical,1,Q1FrontUp,-29.31894,24.0558,52.79663,-60.65114,-119.7953,134.5453,-40.19206,202408221831302005,
2-1A,C_HumanVertical,1,Q1FrontUp,-28.74111,24.42011,52.13822,-61.64633,-120.0892,134.5068,-40.24741,202408221831302179,
2-1A,C_HumanVertical,1,Q1FrontUp,-28.74111,24.42011,52.13822,-61.64633,-120.0892,134.5068,-40.24741,202408221831302393,
2-1A,C_HumanVertical,1,Q1FrontUp,-28.16227,24.81849,51.50879,-62.61299,-120.3456,134.4694,-40.29747,202408221831302718,
2-1A,C_HumanVertical,1,Q1FrontUp,-27.65563,25.19398,50.93242,-63.48687,-120.5846,134.4404,-40.34137,202408221831303068,
2-1A,C_HumanVertical,1,Q1FrontUp,-27.34901,25.59188,50.6086,-64.22282,-120.71,134.4194,-40.35866,202408221831303379,
2-1A,C_HumanVertical,1,Q1FrontUp,-27.15073,26.06925,50.60315,-64.55303,-120.7069,134.4304,-40.35702,202408221831303679,
2-1A,C_HumanVertical,1,Q1FrontUp,-26.98472,26.49556,50.55541,-64.76181,-120.7069,134.432,-40.35609,202408221831303999,
2-1A,C_HumanVertical,1,Q1FrontUp,-26.86701,26.8032,50.46574,-64.87567,-120.7074,134.4316,-40.35579,202408221831304177,
2-1A,C_HumanVertical,1,Q1FrontUp,-26.86701,26.8032,50.46574,-64.87567,-120.7074,134.4316,-40.35579,202408221831304344,
2-1A,C_HumanVertical,1,Q1FrontUp,-26.80698,27.03696,50.30536,-64.99026,-120.708,134.4309,-40.35552,202408221831304563,
2-1A,C_HumanVertical,1,Q1FrontUp,-26.80698,27.03696,50.30536,-64.99026,-120.708,134.4309,-40.35552,202408221831304831,
2-1A,C_HumanVertical,1,Q1FrontUp,-26.69546,27.14214,50.05888,-65.08463,-120.7117,134.4304,-40.35523,202408221831305007,
2-1A,C_HumanVertical,1,Q1FrontUp,-26.5333,27.18387,49.72812,-65.13326,-120.7292,134.4306,-40.35511,202408221831305200,
2-1A,C_HumanVertical,1,Q1FrontUp,-26.5333,27.18387,49.72812,-65.13326,-120.7292,134.4306,-40.35511,202408221831305361,
2-1A,C_HumanVertical,1,Q1FrontUp,-26.33382,27.22857,49.34979,-65.17029,-120.7547,134.4289,-40.35538,202408221831305569,
2-1A,C_HumanVertical,1,Q1FrontUp,-26.02159,27.31867,48.84931,-65.2356,-120.8112,134.4279,-40.3551,202408221831305841,
2-1A,C_HumanVertical,1,Q1FrontUp,-26.02159,27.31867,48.84931,-65.2356,-120.8112,134.4279,-40.3551,202408221831306048,
2-1A,C_HumanVertical,1,Q1FrontUp,-25.64311,27.39676,48.29961,-65.35473,-120.8866,134.429,-40.35497,202408221831306207,
2-1A,C_HumanVertical,1,Q1FrontUp,-25.21902,27.48686,47.70233,-65.51365,-120.9752,134.4281,-40.35566,202408221831306455,
2-1A,C_HumanVertical,1,Q1FrontUp,-25.21902,27.48686,47.70233,-65.51365,-120.9752,134.4281,-40.35566,202408221831306765,
2-1A,C_HumanVertical,1,Q1FrontUp,-24.69971,27.64304,46.96265,-65.70833,-121.1069,134.4252,-40.35577,202408221831307078,
2-1A,C_HumanVertical,1,Q1FrontUp,-24.08336,27.83606,46.17382,-65.97567,-121.2566,134.4254,-40.35585,202408221831307368,
2-1A,C_HumanVertical,1,Q1FrontUp,-23.44864,28.08038,45.35398,-66.28137,-121.4087,134.4244,-40.35608,202408221831307754,
2-1A,C_HumanVertical,1,Q1FrontUp,-23.44864,28.08038,45.35398,-66.28137,-121.4087,134.4244,-40.35608,202408221831307899,
2-1A,C_HumanVertical,1,Q1FrontUp,-21.98094,28.7219,43.53098,-67.03772,-121.8374,134.412,-40.3568,202408221831308204,
2-1A,C_HumanVertical,1,Q1FrontUp,-21.98094,28.7219,43.53098,-67.03772,-121.8374,134.412,-40.3568,202408221831308376,
2-1A,C_HumanVertical,1,Q1FrontUp,-21.21486,29.13937,42.56199,-67.49722,-122.0893,134.404,-40.35706,202408221831308722,
2-1A,C_HumanVertical,1,Q1FrontUp,-20.40162,29.58681,41.58926,-67.96098,-122.328,134.3972,-40.35718,202408221831309017,
2-1A,C_HumanVertical,1,Q1FrontUp,-20.40162,29.58681,41.58926,-67.96098,-122.328,134.3972,-40.35718,202408221831309181,
2-1A,C_HumanVertical,1,Q1FrontUp,-19.61849,30.07554,40.62412,-68.45534,-122.5344,134.3952,-40.35752,202408221831309346,
2-1A,C_HumanVertical,1,Q1FrontUp,-18.81368,30.60632,39.65815,-68.98576,-122.7576,134.3917,-40.35814,202408221831309592,
2-1A,C_HumanVertical,1,Q1FrontUp,-18.05311,31.16684,38.74353,-69.48739,-122.9962,134.3875,-40.35856,202408221831309835,
2-1A,C_HumanVertical,1,Q1FrontUp,-18.05311,31.16684,38.74353,-69.48739,-122.9962,134.3875,-40.35856,202408221831310019,
2-1A,C_HumanVertical,1,Q1FrontUp,-17.34007,31.74074,37.88441,-70.01267,-123.2188,134.3854,-40.35862,202408221831310201,
2-1A,C_HumanVertical,1,Q1FrontUp,-16.65331,32.31869,37.05836,-70.52735,-123.4422,134.3866,-40.359,202408221831310523,
2-1A,C_HumanVertical,1,Q1FrontUp,-16.65331,32.31869,37.05836,-70.52735,-123.4422,134.3866,-40.359,202408221831310687,
2-1A,C_HumanVertical,1,Q1FrontUp,-16.04194,32.89561,36.34351,-71.00072,-123.6191,134.3852,-40.35896,202408221831310899,
2-1A,C_HumanVertical,1,Q1FrontUp,-15.64605,33.4234,35.88113,-71.43996,-123.7006,134.3873,-40.35907,202408221831311184,
2-1A,C_HumanVertical,1,Q1FrontUp,-15.52895,33.9575,35.89778,-71.71974,-123.6894,134.3932,-40.35652,202408221831311497,
2-1A,C_HumanVertical,1,Q1FrontUp,-15.52895,33.9575,35.89778,-71.71974,-123.6894,134.3932,-40.35652,202408221831311675,
2-1A,C_HumanVertical,1,Q1FrontUp,-15.44797,34.41381,35.86246,-71.97651,-123.6881,134.3953,-40.3558,202408221831311856,
2-1A,C_HumanVertical,1,Q1FrontUp,-15.44797,34.41381,35.86246,-71.97651,-123.6881,134.3953,-40.3558,202408221831312073,
2-1A,C_HumanVertical,1,Q1FrontUp,-15.37755,34.72665,35.80013,-72.12933,-123.6878,134.3948,-40.35568,202408221831312379,
2-1A,C_HumanVertical,1,Q1FrontUp,-15.33234,34.94629,35.66558,-72.30952,-123.6879,134.3944,-40.35579,202408221831312754,
2-1A,C_HumanVertical,1,Q1FrontUp,-15.22112,34.99637,35.43766,-72.51225,-123.6883,134.3931,-40.35543,202408221831313015,
2-1A,C_HumanVertical,1,Q1FrontUp,-15.22112,34.99637,35.43766,-72.51225,-123.6883,134.3931,-40.35543,202408221831313244,
2-1A,C_HumanVertical,1,Q1FrontUp,-14.87633,35.00566,34.80809,-72.91505,-123.6895,134.3939,-40.35507,202408221831313516,
2-1A,C_HumanVertical,1,Q1FrontUp,-14.87633,35.00566,34.80809,-72.91505,-123.6895,134.3939,-40.35507,202408221831313686,
2-1A,C_HumanVertical,1,Q1FrontUp,-14.87633,35.00566,34.80809,-72.91505,-123.6895,134.3939,-40.35507,202408221831313864,
2-1A,C_HumanVertical,1,Q1FrontUp,-14.59177,34.99786,34.3568,-73.20233,-123.6958,134.3934,-40.35529,202408221831314028,
2-1A,C_HumanVertical,1,Q1FrontUp,-14.27255,34.98652,33.84733,-73.54118,-123.7115,134.3971,-40.35552,202408221831314243,
2-1A,C_HumanVertical,1,Q1FrontUp,-14.27255,34.98652,33.84733,-73.54118,-123.7115,134.3971,-40.35552,202408221831314495,
2-1A,C_HumanVertical,1,Q1FrontUp,-14.27255,34.98652,33.84733,-73.54118,-123.7115,134.3971,-40.35552,202408221831314665,
2-1A,C_HumanVertical,1,Q1FrontUp,-13.88544,34.99395,33.26899,-73.9621,-123.7341,134.4003,-40.35539,202408221831314845,
2-1A,C_HumanVertical,1,Q1FrontUp,-13.40325,34.9997,32.59727,-74.4635,-123.7761,134.4071,-40.35588,202408221831315072,
2-1A,C_HumanVertical,1,Q1FrontUp,-12.88751,35.0405,31.89549,-75.02808,-123.8299,134.4153,-40.35611,202408221831315249,
2-1A,C_HumanVertical,1,Q1FrontUp,-12.30405,35.12977,31.12591,-75.68569,-123.8989,134.4371,-40.35616,202408221831315529,
2-1A,C_HumanVertical,1,Q1FrontUp,-12.30405,35.12977,31.12591,-75.68569,-123.8989,134.4371,-40.35616,202408221831315743,
2-1A,C_HumanVertical,1,Q1FrontUp,-11.66948,35.22882,30.30749,-76.40221,-123.9895,134.4668,-40.35698,202408221831316040,
2-1A,C_HumanVertical,1,Q1FrontUp,-11.012,35.36701,29.49387,-77.14533,-124.0958,134.497,-40.35715,202408221831316211,
2-1A,C_HumanVertical,1,Q1FrontUp,-11.012,35.36701,29.49387,-77.14533,-124.0958,134.497,-40.35715,202408221831316423,
2-1A,C_HumanVertical,1,Q1FrontUp,-10.30471,35.54524,28.65913,-77.94778,-124.2088,134.5341,-40.3573,202408221831316680,
2-1A,C_HumanVertical,1,Q1FrontUp,-9.611378,35.78185,27.827,-78.7484,-124.3253,134.5765,-40.35801,202408221831316868,
2-1A,C_HumanVertical,1,Q1FrontUp,-8.922762,36.04198,27.05003,-79.5509,-124.4348,134.621,-40.358,202408221831317233,
2-1A,C_HumanVertical,1,Q1FrontUp,-8.922762,36.04198,27.05003,-79.5509,-124.4348,134.621,-40.358,202408221831317508,
2-1A,C_HumanVertical,1,Q1FrontUp,-7.595384,36.6812,25.58185,-81.12526,-124.6188,134.7164,-40.35849,202408221831317867,
2-1A,C_HumanVertical,1,Q1FrontUp,-7.595384,36.6812,25.58185,-81.12526,-124.6188,134.7164,-40.35849,202408221831318031,
2-1A,C_HumanVertical,1,Q1FrontUp,-6.997743,37.01825,24.96606,-81.84998,-124.6875,134.7567,-40.35871,202408221831318404,
2-1A,C_HumanVertical,1,Q1FrontUp,-6.447937,37.39878,24.37562,-82.54696,-124.7559,134.7921,-40.36131,202408221831318732,
2-1A,C_HumanVertical,1,Q1FrontUp,-5.832529,37.97075,23.85183,-83.0698,-124.7096,134.7829,-40.48093,202408221831318903,
2-1A,C_HumanVertical,1,Q1FrontUp,-5.227684,38.53791,23.37277,-83.5497,-124.6775,134.7759,-40.60486,202408221831319171,
2-1A,C_HumanVertical,1,Q1FrontUp,-5.227684,38.53791,23.37277,-83.5497,-124.6775,134.7759,-40.60486,202408221831319326,
2-1A,C_HumanVertical,1,Q1FrontUp,-4.630545,39.19069,22.97431,-84.02386,-124.6519,134.7775,-40.72261,202408221831319496,
2-1A,C_HumanVertical,1,Q1FrontUp,-4.630545,39.19069,22.97431,-84.02386,-124.6519,134.7775,-40.72261,202408221831319671,
2-1A,C_HumanVertical,1,Q1FrontUp,-3.98542,39.85928,22.61854,-84.44263,-124.6113,134.7758,-40.83228,202408221831319919,
2-1A,C_HumanVertical,1,Q1FrontUp,-3.357636,40.59939,22.30083,-84.8381,-124.5824,134.7752,-40.94822,202408221831320229,
2-1A,C_HumanVertical,1,Q1FrontUp,-3.357636,40.59939,22.30083,-84.8381,-124.5824,134.7752,-40.94822,202408221831320384,
2-1A,C_HumanVertical,1,Q1FrontUp,-3.357636,40.59939,22.30083,-84.8381,-124.5824,134.7752,-40.94822,202408221831320568,
2-1A,C_HumanVertical,1,Q1FrontUp,-2.140425,42.0178,21.74978,-85.62295,-124.5503,134.776,-41.15465,202408221831320902,
2-1A,C_HumanVertical,1,Q1FrontUp,-1.606199,42.62627,21.55937,-85.96116,-124.5515,134.7769,-41.20731,202408221831321181,
2-1A,C_HumanVertical,1,Q1FrontUp,-1.606199,42.62627,21.55937,-85.96116,-124.5515,134.7769,-41.20731,202408221831321348,
2-1A,C_HumanVertical,1,Q1FrontUp,-1.057966,43.2195,21.37738,-86.2822,-124.5548,134.7778,-41.2338,202408221831321558,
2-1A,C_HumanVertical,1,Q1FrontUp,-1.057966,43.2195,21.37738,-86.2822,-124.5548,134.7778,-41.2338,202408221831321846,
2-1A,C_HumanVertical,1,Q1FrontUp,-0.5742053,43.75911,21.20959,-86.53806,-124.5557,134.7774,-41.25432,202408221831322091,
2-1A,C_HumanVertical,1,Q1FrontUp,-0.09436366,44.28254,21.0749,-86.82607,-124.5553,134.7782,-41.30016,202408221831322362,
2-1A,C_HumanVertical,1,Q1FrontUp,0.3281741,44.70748,20.9815,-87.0908,-124.5551,134.7779,-41.36138,202408221831322514,
2-1A,C_HumanVertical,1,Q1FrontUp,0.3281741,44.70748,20.9815,-87.0908,-124.5551,134.7779,-41.36138,202408221831322726,
2-1A,C_HumanVertical,1,Q1FrontUp,0.7224339,45.07035,20.88257,-87.3329,-124.5549,134.7777,-41.41761,202408221831322877,
2-1A,C_HumanVertical,1,Q1FrontUp,0.7224339,45.07035,20.88257,-87.3329,-124.5549,134.7777,-41.41761,202408221831323065,
2-1A,C_HumanVertical,1,Q1FrontUp,1.080707,45.38261,20.81885,-87.55904,-124.556,134.7773,-41.4518,202408221831323356,
2-1A,C_HumanVertical,1,Q1FrontUp,1.410087,45.65878,20.78373,-87.73313,-124.5569,134.7777,-41.4609,202408221831323699,
2-1A,C_HumanVertical,1,Q1FrontUp,1.735972,45.87753,20.75381,-87.87683,-124.5566,134.778,-41.50022,202408221831323916,
2-1A,C_HumanVertical,1,Q1FrontUp,2.024941,46.04378,20.72862,-88.01213,-124.5555,134.777,-41.54022,202408221831324217,
2-1A,C_HumanVertical,1,Q1FrontUp,2.024941,46.04378,20.72862,-88.01213,-124.5555,134.777,-41.54022,202408221831324372,
2-1A,C_HumanVertical,1,Q1FrontUp,2.295268,46.16286,20.70174,-88.10567,-124.5553,134.7766,-41.58624,202408221831324705,
2-1A,C_HumanVertical,1,Q1FrontUp,2.537711,46.25691,20.69465,-88.17466,-124.5553,134.7767,-41.63089,202408221831325015,
2-1A,C_HumanVertical,1,Q1FrontUp,2.537711,46.25691,20.69465,-88.17466,-124.5553,134.7767,-41.63089,202408221831325230,
2-1A,C_HumanVertical,1,Q1FrontUp,2.788485,46.32346,20.66298,-88.2409,-124.5552,134.7775,-41.66034,202408221831325407,
2-1A,C_HumanVertical,1,Q1FrontUp,3.050561,46.34483,20.59273,-88.29691,-124.5555,134.7772,-41.6796,202408221831325691,
2-1A,C_HumanVertical,1,Q1FrontUp,3.277708,46.35655,20.54119,-88.32213,-124.5717,134.7812,-41.68075,202408221831326017,
2-1A,C_HumanVertical,1,Q1FrontUp,3.487456,46.35666,20.48669,-88.32287,-124.5812,134.7869,-41.68094,202408221831326227,
2-1A,C_HumanVertical,1,Q1FrontUp,3.487456,46.35666,20.48669,-88.32287,-124.5812,134.7869,-41.68094,202408221831326497,
2-1A,C_HumanVertical,1,Q1FrontUp,3.674159,46.35445,20.42476,-88.32248,-124.5858,134.7894,-41.68142,202408221831326663,
2-1A,C_HumanVertical,1,Q1FrontUp,3.851092,46.35133,20.35538,-88.32233,-124.5857,134.7896,-41.68122,202408221831326842,
2-1A,C_HumanVertical,1,Q1FrontUp,3.851092,46.35133,20.35538,-88.32233,-124.5857,134.7896,-41.68122,202408221831327081,
2-1A,C_HumanVertical,1,Q1FrontUp,4.02264,46.34714,20.28469,-88.32296,-124.5853,134.7898,-41.68683,202408221831327226,
2-1A,C_HumanVertical,1,Q1FrontUp,4.204418,46.34409,20.19204,-88.32376,-124.5853,134.7901,-41.70543,202408221831327529,
2-1A,C_HumanVertical,1,Q1FrontUp,4.204418,46.34409,20.19204,-88.32376,-124.5853,134.7901,-41.70543,202408221831327706,
2-1A,C_HumanVertical,1,Q1FrontUp,4.405795,46.33268,20.05665,-88.32946,-124.5848,134.7895,-41.7281,202408221831328048,
2-1A,C_HumanVertical,1,Q1FrontUp,4.614613,46.33059,19.9082,-88.33708,-124.5853,134.7941,-41.74504,202408221831328405,
2-1A,C_HumanVertical,1,Q1FrontUp,4.823364,46.32744,19.75702,-88.33884,-124.5853,134.8119,-41.76059,202408221831328561,
2-1A,C_HumanVertical,1,Q1FrontUp,5.003791,46.32127,19.62111,-88.3407,-124.5857,134.8222,-41.7772,202408221831328852,
2-1A,C_HumanVertical,1,Q1FrontUp,5.003791,46.32127,19.62111,-88.3407,-124.5857,134.8222,-41.7772,202408221831329015,
2-1A,C_HumanVertical,1,Q1FrontUp,5.166919,46.30969,19.50891,-88.34232,-124.587,134.8256,-41.7839,202408221831329177,
2-1A,C_HumanVertical,1,Q1FrontUp,5.166919,46.30969,19.50891,-88.34232,-124.587,134.8256,-41.7839,202408221831329362,
2-1A,C_HumanVertical,1,Q1FrontUp,5.312713,46.30425,19.42953,-88.34196,-124.588,134.8256,-41.78587,202408221831329587,
2-1A,C_HumanVertical,1,Q1FrontUp,5.452043,46.29646,19.36071,-88.34158,-124.5879,134.826,-41.80053,202408221831329888,
2-1A,C_HumanVertical,1,Q1FrontUp,5.452043,46.29646,19.36071,-88.34158,-124.5879,134.826,-41.80053,202408221831330052,
2-1A,C_HumanVertical,1,Q1FrontUp,5.593926,46.26994,19.28633,-88.34518,-124.5886,134.8273,-41.80507,202408221831330252,
2-1A,C_HumanVertical,1,Q1FrontUp,5.593926,46.26994,19.28633,-88.34518,-124.5886,134.8273,-41.80507,202408221831330416,
2-1A,C_HumanVertical,1,Q1FrontUp,5.772936,46.22128,19.16922,-88.3512,-124.5909,134.8295,-41.8072,202408221831330582,
2-1A,C_HumanVertical,1,Q1FrontUp,5.950432,46.15749,19.05927,-88.35286,-124.5936,134.8307,-41.80998,202408221831330886,
2-1A,C_HumanVertical,1,Q1FrontUp,6.147657,46.08426,18.94063,-88.35403,-124.5956,134.8368,-41.81406,202408221831331173,
2-1A,C_HumanVertical,1,Q1FrontUp,6.147657,46.08426,18.94063,-88.35403,-124.5956,134.8368,-41.81406,202408221831331343,
2-1A,C_HumanVertical,1,Q1FrontUp,6.147657,46.08426,18.94063,-88.35403,-124.5956,134.8368,-41.81406,202408221831331516,
2-1A,C_HumanVertical,1,Q1FrontUp,6.337127,45.99521,18.81635,-88.35992,-124.5986,134.8634,-41.82421,202408221831331727,
2-1A,C_HumanVertical,1,Q1FrontUp,6.483296,45.90382,18.7606,-88.35849,-124.6025,134.8705,-41.83351,202408221831331904,
2-1A,C_HumanVertical,1,Q1FrontUp,6.663004,45.78839,18.70449,-88.36942,-124.6032,134.8716,-41.83859,202408221831332193,
2-1A,C_HumanVertical,1,Q1FrontUp,6.663004,45.78839,18.70449,-88.36942,-124.6032,134.8716,-41.83859,202408221831332353,
2-1A,C_HumanVertical,1,Q1FrontUp,6.884577,45.6538,18.64487,-88.39236,-124.6028,134.8718,-41.83877,202408221831332687,
2-1A,C_HumanVertical,1,Q1FrontUp,7.085599,45.55172,18.64881,-88.40538,-124.6027,134.8719,-41.84224,202408221831332901,
2-1A,C_HumanVertical,1,Q1FrontUp,7.085599,45.55172,18.64881,-88.40538,-124.6027,134.8719,-41.84224,202408221831333065,
2-1A,C_HumanVertical,1,Q1FrontUp,7.349827,45.40043,18.64929,-88.4211,-124.6031,134.8726,-41.84644,202408221831333351,
2-1A,C_HumanVertical,1,Q1FrontUp,7.632151,45.25909,18.652,-88.45267,-124.603,134.8772,-41.85009,202408221831333593,
2-1A,C_HumanVertical,1,Q1FrontUp,7.909883,45.0979,18.6538,-88.46956,-124.6041,134.8941,-41.85017,202408221831333851,
2-1A,C_HumanVertical,1,Q1FrontUp,7.909883,45.0979,18.6538,-88.46956,-124.6041,134.8941,-41.85017,202408221831334076,
2-1A,C_HumanVertical,1,Q1FrontUp,8.190496,44.94625,18.65451,-88.47384,-124.605,134.8986,-41.84998,202408221831334343,
2-1A,C_HumanVertical,1,Q1FrontUp,8.190496,44.94625,18.65451,-88.47384,-124.605,134.8986,-41.84998,202408221831334487,
2-1A,C_HumanVertical,1,Q1FrontUp,8.481595,44.8058,18.676,-88.47571,-124.6064,134.908,-41.85057,202408221831334671,
2-1A,C_HumanVertical,1,Q1FrontUp,8.734106,44.64634,18.7212,-88.49435,-124.6267,134.9216,-41.85054,202408221831334854,
2-1A,C_HumanVertical,1,Q1FrontUp,8.734106,44.64634,18.7212,-88.49435,-124.6267,134.9216,-41.85054,202408221831335081,
2-1A,C_HumanVertical,1,Q1FrontUp,8.999912,44.50217,18.76327,-88.50482,-124.6442,134.9379,-41.8506,202408221831335245,
2-1A,C_HumanVertical,1,Q1FrontUp,9.263532,44.34978,18.818,-88.52387,-124.6626,134.9624,-41.8499,202408221831335504,
2-1A,C_HumanVertical,1,Q1FrontUp,9.263532,44.34978,18.818,-88.52387,-124.6626,134.9624,-41.8499,202408221831335682,
2-1A,C_HumanVertical,1,Q1FrontUp,9.522944,44.2071,18.82203,-88.53172,-124.6727,134.9996,-41.85021,202408221831336011,
2-1A,C_HumanVertical,1,Q1FrontUp,9.796327,44.08044,18.81994,-88.53315,-124.6769,135.0296,-41.84981,202408221831336174,
2-1A,C_HumanVertical,1,Q1FrontUp,9.796327,44.08044,18.81994,-88.53315,-124.6769,135.0296,-41.84981,202408221831336385,
2-1A,C_HumanVertical,1,Q1FrontUp,10.04767,43.9641,18.81589,-88.53272,-124.6797,135.0553,-41.85008,202408221831336601,
2-1A,C_HumanVertical,1,Q1FrontUp,10.29854,43.85212,18.81374,-88.53112,-124.6826,135.0828,-41.84974,202408221831336852,
2-1A,C_HumanVertical,1,Q1FrontUp,10.29854,43.85212,18.81374,-88.53112,-124.6826,135.0828,-41.84974,202408221831337041,
2-1A,C_HumanVertical,1,Q1FrontUp,10.55106,43.74798,18.82538,-88.53349,-124.6872,135.0963,-41.84964,202408221831337196,
2-1A,C_HumanVertical,1,Q1FrontUp,10.55106,43.74798,18.82538,-88.53349,-124.6872,135.0963,-41.84964,202408221831337406,
2-1A,C_HumanVertical,1,Q1FrontUp,10.7577,43.65055,18.87833,-88.5328,-124.6895,135.1084,-41.85005,202408221831337695,
2-1A,C_HumanVertical,1,Q1FrontUp,10.7577,43.65055,18.87833,-88.5328,-124.6895,135.1084,-41.85005,202408221831337873,
2-1A,C_HumanVertical,1,Q1FrontUp,10.98555,43.55943,18.86543,-88.53225,-124.7052,135.1387,-41.84948,202408221831338045,
2-1A,C_HumanVertical,1,Q1FrontUp,11.22205,43.44565,18.83024,-88.52708,-124.7132,135.1584,-41.84984,202408221831338245,
2-1A,C_HumanVertical,1,Q1FrontUp,11.22205,43.44565,18.83024,-88.52708,-124.7132,135.1584,-41.84984,202408221831338455,
2-1A,C_HumanVertical,1,Q1FrontUp,11.45481,43.3581,18.7887,-88.51601,-124.7162,135.1711,-41.84945,202408221831338684,
2-1A,C_HumanVertical,1,Q1FrontUp,11.63419,43.25856,18.8295,-88.51433,-124.7541,135.1844,-41.84805,202408221831339011,
2-1A,C_HumanVertical,1,Q1FrontUp,11.63419,43.25856,18.8295,-88.51433,-124.7541,135.1844,-41.84805,202408221831339176,
2-1A,C_HumanVertical,1,Q1FrontUp,11.63419,43.25856,18.8295,-88.51433,-124.7541,135.1844,-41.84805,202408221831339368,
2-1A,C_HumanVertical,1,Q1FrontUp,12.09087,43.07859,18.7759,-88.49104,-124.7937,135.2304,-41.84623,202408221831339617,
2-1A,C_HumanVertical,1,Q1FrontUp,12.09087,43.07859,18.7759,-88.49104,-124.7937,135.2304,-41.84623,202408221831339941,
2-1A,C_HumanVertical,1,Q1FrontUp,12.55982,42.895,18.66211,-88.45795,-124.8318,135.2627,-41.84348,202408221831340182,
2-1A,C_HumanVertical,1,Q1FrontUp,12.55982,42.895,18.66211,-88.45795,-124.8318,135.2627,-41.84348,202408221831340396,
2-1A,C_HumanVertical,1,Q1FrontUp,12.76388,42.81852,18.64829,-88.41827,-124.8661,135.2658,-41.83519,202408221831340569,
2-1A,C_HumanVertical,1,Q1FrontUp,12.97771,42.7529,18.60228,-88.37104,-124.8767,135.2734,-41.83506,202408221831340863,
2-1A,C_HumanVertical,1,Q1FrontUp,12.97771,42.7529,18.60228,-88.37104,-124.8767,135.2734,-41.83506,202408221831341023,
2-1A,C_HumanVertical,1,Q1FrontUp,12.97771,42.7529,18.60228,-88.37104,-124.8767,135.2734,-41.83506,202408221831341198,
2-1A,C_HumanVertical,1,Q1FrontUp,13.20137,42.68281,18.56518,-88.3333,-124.8812,135.2796,-41.8324,202408221831341403,
2-1A,C_HumanVertical,1,Q1FrontUp,13.44031,42.6214,18.55354,-88.28576,-124.8812,135.2804,-41.82174,202408221831341581,
2-1A,C_HumanVertical,1,Q1FrontUp,13.71071,42.60838,18.49319,-88.17027,-124.8814,135.2836,-41.81377,202408221831341849,
2-1A,C_HumanVertical,1,Q1FrontUp,13.71071,42.60838,18.49319,-88.17027,-124.8814,135.2836,-41.81377,202408221831342061,
2-1A,C_HumanVertical,1,Q1FrontUp,13.98271,42.60021,18.42904,-88.02835,-124.8814,135.2837,-41.80283,202408221831342364,
2-1A,C_HumanVertical,1,Q1FrontUp,13.98271,42.60021,18.42904,-88.02835,-124.8814,135.2837,-41.80283,202408221831342541,
2-1A,C_HumanVertical,1,Q1FrontUp,14.53012,42.60276,18.3037,-87.73289,-124.8808,135.2872,-41.79636,202408221831342763,
2-1A,C_HumanVertical,1,Q1FrontUp,14.53012,42.60276,18.3037,-87.73289,-124.8808,135.2872,-41.79636,202408221831342916,
2-1A,C_HumanVertical,1,Q1FrontUp,14.80988,42.61147,18.19747,-87.56506,-124.8797,135.3052,-41.79683,202408221831343255,
2-1A,C_HumanVertical,1,Q1FrontUp,14.80988,42.61147,18.19747,-87.56506,-124.8797,135.3052,-41.79683,202408221831343430,
2-1A,C_HumanVertical,1,Q1FrontUp,15.13643,42.61017,18.05456,-87.36625,-124.8792,135.3432,-41.79707,202408221831343688,
2-1A,C_HumanVertical,1,Q1FrontUp,15.44233,42.61425,17.90833,-87.11246,-124.8507,135.3734,-41.80071,202408221831343895,
2-1A,C_HumanVertical,1,Q1FrontUp,15.72276,42.6385,17.77631,-86.80663,-124.8437,135.4125,-41.80131,202408221831344191,
2-1A,C_HumanVertical,1,Q1FrontUp,15.99926,42.66552,17.68864,-86.45982,-124.8437,135.4875,-41.80109,202408221831344567,
2-1A,C_HumanVertical,1,Q1FrontUp,16.255,42.68624,17.62494,-86.11454,-124.8436,135.5539,-41.80049,202408221831344884,
2-1A,C_HumanVertical,1,Q1FrontUp,16.255,42.68624,17.62494,-86.11454,-124.8436,135.5539,-41.80049,202408221831345086,
2-1A,C_HumanVertical,1,Q1FrontUp,16.5379,42.69784,17.52304,-85.74824,-124.8362,135.6672,-41.80077,202408221831345372,
2-1A,C_HumanVertical,1,Q1FrontUp,16.82966,42.70581,17.39376,-85.3343,-124.8266,135.8185,-41.80068,202408221831345536,
2-1A,C_HumanVertical,1,Q1FrontUp,17.07695,42.72682,17.33064,-84.8996,-124.8105,136.0049,-41.79897,202408221831345839,
2-1A,C_HumanVertical,1,Q1FrontUp,17.07695,42.72682,17.33064,-84.8996,-124.8105,136.0049,-41.79897,202408221831346042,
2-1A,C_HumanVertical,1,Q1FrontUp,17.3431,42.73816,17.2694,-84.41992,-124.7862,136.2086,-41.79693,202408221831346221,
2-1A,C_HumanVertical,1,Q1FrontUp,17.3431,42.73816,17.2694,-84.41992,-124.7862,136.2086,-41.79693,202408221831346494,
2-1A,C_HumanVertical,1,Q1FrontUp,17.62671,42.74628,17.19893,-83.88518,-124.7611,136.4362,-41.79423,202408221831346671,
2-1A,C_HumanVertical,1,Q1FrontUp,17.93103,42.75494,17.12519,-83.37798,-124.7541,136.6757,-41.75934,202408221831346844,
2-1A,C_HumanVertical,1,Q1FrontUp,17.93103,42.75494,17.12519,-83.37798,-124.7541,136.6757,-41.75934,202408221831347007,
2-1A,C_HumanVertical,1,Q1FrontUp,17.93103,42.75494,17.12519,-83.37798,-124.7541,136.6757,-41.75934,202408221831347190,
2-1A,C_HumanVertical,1,Q1FrontUp,18.22821,42.75367,17.08003,-82.86625,-124.7416,136.9099,-41.7485,202408221831347398,
2-1A,C_HumanVertical,1,Q1FrontUp,18.51549,42.74911,17.03774,-82.31192,-124.7167,137.1072,-41.74819,202408221831347662,
2-1A,C_HumanVertical,1,Q1FrontUp,18.79475,42.74994,16.98171,-81.80581,-124.6978,137.2452,-41.74815,202408221831347902,
2-1A,C_HumanVertical,1,Q1FrontUp,19.06912,42.75112,16.9359,-81.29424,-124.675,137.3834,-41.74784,202408221831348212,
2-1A,C_HumanVertical,1,Q1FrontUp,19.06912,42.75112,16.9359,-81.29424,-124.675,137.3834,-41.74784,202408221831348397,
2-1A,C_HumanVertical,1,Q1FrontUp,19.32548,42.74862,16.88857,-80.80807,-124.6584,137.5052,-41.74807,202408221831348678,
2-1A,C_HumanVertical,1,Q1FrontUp,19.55104,42.74181,16.85468,-80.4325,-124.5861,137.6401,-41.74874,202408221831349009,
2-1A,C_HumanVertical,1,Q1FrontUp,19.76346,42.73517,16.83677,-80.05835,-124.5539,137.7939,-41.7435,202408221831349167,
2-1A,C_HumanVertical,1,Q1FrontUp,19.76346,42.73517,16.83677,-80.05835,-124.5539,137.7939,-41.7435,202408221831349418,
2-1A,C_HumanVertical,1,Q1FrontUp,19.93596,42.73263,16.82689,-79.74313,-124.5507,137.9365,-41.71698,202408221831349565,
2-1A,C_HumanVertical,1,Q1FrontUp,19.93596,42.73263,16.82689,-79.74313,-124.5507,137.9365,-41.71698,202408221831349832,
2-1A,C_HumanVertical,1,Q1FrontUp,20.10512,42.73524,16.80847,-79.44249,-124.5496,138.0754,-41.69249,202408221831350007,
2-1A,C_HumanVertical,1,Q1FrontUp,20.25721,42.73503,16.78958,-79.21143,-124.5425,138.1797,-41.67708,202408221831350185,
2-1A,C_HumanVertical,1,Q1FrontUp,20.25721,42.73503,16.78958,-79.21143,-124.5425,138.1797,-41.67708,202408221831350359,
2-1A,C_HumanVertical,1,Q1FrontUp,20.40097,42.73545,16.77216,-79.02518,-124.5312,138.2678,-41.67387,202408221831350544,
2-1A,C_HumanVertical,1,Q1FrontUp,20.40097,42.73545,16.77216,-79.02518,-124.5312,138.2678,-41.67387,202408221831350734,
2-1A,C_HumanVertical,1,Q1FrontUp,20.52995,42.73637,16.74197,-78.87585,-124.5206,138.3449,-41.67428,202408221831350999,
2-1A,C_HumanVertical,1,Q1FrontUp,20.65393,42.74265,16.69282,-78.73569,-124.4949,138.436,-41.67546,202408221831351177,
2-1A,C_HumanVertical,1,Q1FrontUp,20.77459,42.75438,16.63104,-78.59848,-124.4673,138.5209,-41.67703,202408221831351485,
2-1A,C_HumanVertical,1,Q1FrontUp,20.77459,42.75438,16.63104,-78.59848,-124.4673,138.5209,-41.67703,202408221831351672,
2-1A,C_HumanVertical,1,Q1FrontUp,20.90463,42.78087,16.55007,-78.47458,-124.4326,138.591,-41.67743,202408221831351893,
2-1A,C_HumanVertical,1,Q1FrontUp,21.06406,42.84761,16.42602,-78.31084,-124.4263,138.6687,-41.67239,202408221831352179,
2-1A,C_HumanVertical,1,Q1FrontUp,21.06406,42.84761,16.42602,-78.31084,-124.4263,138.6687,-41.67239,202408221831352353,
2-1A,C_HumanVertical,1,Q1FrontUp,21.06406,42.84761,16.42602,-78.31084,-124.4263,138.6687,-41.67239,202408221831352586,
2-1A,C_HumanVertical,1,Q1FrontUp,21.40619,43.04211,16.03802,-77.86101,-124.4297,138.8381,-41.64531,202408221831352903,
2-1A,C_HumanVertical,1,Q1FrontUp,21.40619,43.04211,16.03802,-77.86101,-124.4297,138.8381,-41.64531,202408221831353184,
2-1A,C_HumanVertical,1,Q1FrontUp,21.56408,43.16392,15.81744,-77.62354,-124.4428,138.9327,-41.60982,202408221831353344,
2-1A,C_HumanVertical,1,Q1FrontUp,21.70391,43.31328,15.61961,-77.35777,-124.4576,139.0217,-41.54548,202408221831353523,
2-1A,C_HumanVertical,1,Q1FrontUp,21.88009,43.49597,15.36516,-77.06755,-124.4577,139.1436,-41.48105,202408221831353857,
2-1A,C_HumanVertical,1,Q1FrontUp,21.88009,43.49597,15.36516,-77.06755,-124.4577,139.1436,-41.48105,202408221831354052,
2-1A,C_HumanVertical,1,Q1FrontUp,22.05956,43.67128,15.12634,-76.80042,-124.4576,139.2495,-41.42232,202408221831354347,
2-1A,C_HumanVertical,1,Q1FrontUp,22.22088,43.83237,14.93051,-76.54764,-124.4573,139.3328,-41.37413,202408221831354668,
2-1A,C_HumanVertical,1,Q1FrontUp,22.38965,44.0344,14.7624,-76.26145,-124.4531,139.3751,-41.34825,202408221831354844,
2-1A,C_HumanVertical,1,Q1FrontUp,22.38965,44.0344,14.7624,-76.26145,-124.4531,139.3751,-41.34825,202408221831355001,
2-1A,C_HumanVertical,1,Q1FrontUp,22.60657,44.24572,14.5653,-75.99712,-124.4293,139.3895,-41.33399,202408221831355219,
2-1A,C_HumanVertical,1,Q1FrontUp,22.86077,44.45023,14.35974,-75.7508,-124.4099,139.374,-41.33421,202408221831355523,
2-1A,C_HumanVertical,1,Q1FrontUp,22.86077,44.45023,14.35974,-75.7508,-124.4099,139.374,-41.33421,202408221831355708,
2-1A,C_HumanVertical,1,Q1FrontUp,23.11832,44.6414,14.18967,-75.54325,-124.3954,139.3545,-41.33464,202408221831356042,
2-1A,C_HumanVertical,1,Q1FrontUp,23.38403,44.8583,14.03747,-75.33322,-124.3748,139.3522,-41.33456,202408221831356220,
2-1A,C_HumanVertical,1,Q1FrontUp,23.6625,45.06891,13.90984,-75.09368,-124.3544,139.3525,-41.33472,202408221831356498,
2-1A,C_HumanVertical,1,Q1FrontUp,23.6625,45.06891,13.90984,-75.09368,-124.3544,139.3525,-41.33472,202408221831356676,
2-1A,C_HumanVertical,1,Q1FrontUp,23.6625,45.06891,13.90984,-75.09368,-124.3544,139.3525,-41.33472,202408221831356846,
2-1A,C_HumanVertical,1,Q1FrontUp,23.98498,45.31801,13.76278,-74.80066,-124.354,139.3513,-41.33407,202408221831357006,
2-1A,C_HumanVertical,1,Q1FrontUp,24.30897,45.55515,13.64551,-74.53235,-124.3361,139.3509,-41.33629,202408221831357187,
2-1A,C_HumanVertical,1,Q1FrontUp,24.30897,45.55515,13.64551,-74.53235,-124.3361,139.3509,-41.33629,202408221831357404,
2-1A,C_HumanVertical,1,Q1FrontUp,24.633,45.81194,13.52076,-74.24996,-124.3074,139.3402,-41.34701,202408221831357698,
2-1A,C_HumanVertical,1,Q1FrontUp,24.92198,46.06293,13.43324,-74.0077,-124.2869,139.3104,-41.36045,202408221831358042,
2-1A,C_HumanVertical,1,Q1FrontUp,25.24081,46.32026,13.35647,-73.77088,-124.2516,139.2993,-41.36836,202408221831358186,
2-1A,C_HumanVertical,1,Q1FrontUp,25.24081,46.32026,13.35647,-73.77088,-124.2516,139.2993,-41.36836,202408221831358402,
2-1A,C_HumanVertical,1,Q1FrontUp,25.58047,46.55292,13.26681,-73.55775,-124.212,139.2993,-41.37061,202408221831358671,
2-1A,C_HumanVertical,1,Q1FrontUp,25.58047,46.55292,13.26681,-73.55775,-124.212,139.2993,-41.37061,202408221831358843,
2-1A,C_HumanVertical,1,Q1FrontUp,25.8599,46.78879,13.24523,-73.36436,-124.2045,139.2996,-41.38021,202408221831359046,
2-1A,C_HumanVertical,1,Q1FrontUp,25.8599,46.78879,13.24523,-73.36436,-124.2045,139.2996,-41.38021,202408221831359342,
2-1A,C_HumanVertical,1,Q1FrontUp,26.37866,47.2135,13.19654,-73.05612,-124.195,139.3002,-41.38874,202408221831359564,
2-1A,C_HumanVertical,1,Q1FrontUp,26.61806,47.39187,13.19318,-72.94154,-124.1901,139.3006,-41.38759,202408221831359872,
2-1A,C_HumanVertical,1,Q1FrontUp,26.86967,47.5713,13.17809,-72.81725,-124.1874,139.3013,-41.38639,202408221831360212,
2-1A,C_HumanVertical,1,Q1FrontUp,27.11664,47.73748,13.17165,-72.67734,-124.1871,139.3012,-41.38561,202408221831360571,
2-1A,C_HumanVertical,1,Q1FrontUp,27.36267,47.86761,13.14573,-72.57744,-124.1857,139.3005,-41.38562,202408221831360847,
2-1A,C_HumanVertical,1,Q1FrontUp,27.36267,47.86761,13.14573,-72.57744,-124.1857,139.3005,-41.38562,202408221831361015,
2-1A,C_HumanVertical,1,Q1FrontUp,27.61233,47.96201,13.10497,-72.49719,-124.1852,139.3013,-41.38544,202408221831361337,
2-1A,C_HumanVertical,1,Q1FrontUp,27.8501,48.04272,13.06726,-72.40573,-124.1853,139.3014,-41.38437,202408221831361507,
2-1A,C_HumanVertical,1,Q1FrontUp,27.8501,48.04272,13.06726,-72.40573,-124.1853,139.3014,-41.38437,202408221831361713,
2-1A,C_HumanVertical,1,Q1FrontUp,28.09917,48.0873,12.99129,-72.3175,-124.1852,139.3049,-41.37968,202408221831362013,
2-1A,C_HumanVertical,1,Q1FrontUp,28.36226,48.10987,12.89181,-72.21234,-124.1856,139.3124,-41.36102,202408221831362244,
2-1A,C_HumanVertical,1,Q1FrontUp,28.61273,48.11562,12.79418,-72.08878,-124.1858,139.3205,-41.35167,202408221831362534,
2-1A,C_HumanVertical,1,Q1FrontUp,28.61273,48.11562,12.79418,-72.08878,-124.1858,139.3205,-41.35167,202408221831362730,
2-1A,C_HumanVertical,1,Q1FrontUp,28.86382,48.10808,12.65178,-71.95397,-124.1726,139.3194,-41.35221,202408221831363012,
2-1A,C_HumanVertical,1,Q1FrontUp,29.10583,48.08553,12.49789,-71.82659,-124.1562,139.3192,-41.35215,202408221831363188,
2-1A,C_HumanVertical,1,Q1FrontUp,29.32647,48.06432,12.35137,-71.72567,-124.1487,139.3196,-41.35151,202408221831363511,
2-1A,C_HumanVertical,1,Q1FrontUp,29.32647,48.06432,12.35137,-71.72567,-124.1487,139.3196,-41.35151,202408221831363766,
2-1A,C_HumanVertical,1,Q1FrontUp,29.52465,48.02769,12.22879,-71.62136,-124.149,139.3215,-41.34434,202408221831364023,
2-1A,C_HumanVertical,1,Q1FrontUp,29.52465,48.02769,12.22879,-71.62136,-124.149,139.3215,-41.34434,202408221831364177,
2-1A,C_HumanVertical,1,Q1FrontUp,29.69432,47.99453,12.1318,-71.49706,-124.1504,139.3327,-41.33155,202408221831364351,
2-1A,C_HumanVertical,1,Q1FrontUp,29.83215,47.94968,12.0653,-71.35406,-124.1508,139.3454,-41.32369,202408221831364541,
2-1A,C_HumanVertical,1,Q1FrontUp,29.94418,47.89991,12.0183,-71.18462,-124.1506,139.3436,-41.32395,202408221831364875,
2-1A,C_HumanVertical,1,Q1FrontUp,29.94418,47.89991,12.0183,-71.18462,-124.1506,139.3436,-41.32395,202408221831365071,
2-1A,C_HumanVertical,1,Q1FrontUp,30.03071,47.83503,11.98867,-71.01885,-124.1571,139.3425,-41.32058,202408221831365363,
2-1A,C_HumanVertical,1,Q1FrontUp,30.09661,47.74635,11.9743,-70.82936,-124.1623,139.3426,-41.31203,202408221831365543,
2-1A,C_HumanVertical,1,Q1FrontUp,30.13784,47.64903,11.96239,-70.61185,-124.1641,139.3447,-41.28564,202408221831365852,
2-1A,C_HumanVertical,1,Q1FrontUp,30.13784,47.64903,11.96239,-70.61185,-124.1641,139.3447,-41.28564,202408221831366028,
2-1A,C_HumanVertical,1,Q1FrontUp,30.15697,47.52679,11.95724,-70.3776,-124.165,139.3564,-41.26128,202408221831366240,
2-1A,C_HumanVertical,1,Q1FrontUp,30.15716,47.37439,11.9566,-70.17673,-124.1649,139.3811,-41.23623,202408221831366514,
2-1A,C_HumanVertical,1,Q1FrontUp,30.15716,47.37439,11.9566,-70.17673,-124.1649,139.3811,-41.23623,202408221831366686,
2-1A,C_HumanVertical,1,Q1FrontUp,30.15623,47.21367,11.94846,-69.97109,-124.1651,139.3948,-41.21575,202408221831366920,
2-1A,C_HumanVertical,1,Q1FrontUp,30.15349,47.0498,11.94578,-69.74012,-124.1641,139.3975,-41.20379,202408221831367196,
2-1A,C_HumanVertical,1,Q1FrontUp,30.15349,47.0498,11.94578,-69.74012,-124.1641,139.3975,-41.20379,202408221831367415,
2-1A,C_HumanVertical,1,Q1FrontUp,30.15375,46.86181,11.94205,-69.54746,-124.1634,139.3975,-41.20242,202408221831367703,
2-1A,C_HumanVertical,1,Q1FrontUp,30.15375,46.86181,11.94205,-69.54746,-124.1634,139.3975,-41.20242,202408221831367872,
2-1A,C_HumanVertical,1,Q1FrontUp,30.14959,46.42591,11.93467,-69.18523,-124.1658,139.3961,-41.19419,202408221831368198,
2-1A,C_HumanVertical,1,Q1FrontUp,30.14959,46.42591,11.93467,-69.18523,-124.1658,139.3961,-41.19419,202408221831368395,
2-1A,C_HumanVertical,1,Q1FrontUp,30.14959,46.42591,11.93467,-69.18523,-124.1658,139.3961,-41.19419,202408221831368677,
2-1A,C_HumanVertical,1,Q1FrontUp,30.14389,45.98128,11.93413,-68.79607,-124.1784,139.396,-41.17342,202408221831368842,
2-1A,C_HumanVertical,1,Q1FrontUp,30.14389,45.98128,11.93413,-68.79607,-124.1784,139.396,-41.17342,202408221831369008,
2-1A,C_HumanVertical,1,Q1FrontUp,30.14389,45.98128,11.93413,-68.79607,-124.1784,139.396,-41.17342,202408221831369186,
2-1A,C_HumanVertical,1,Q1FrontUp,30.15163,45.75051,11.91823,-68.63098,-124.1801,139.3965,-41.15768,202408221831369350,
2-1A,C_HumanVertical,1,Q1FrontUp,30.16364,45.51917,11.88549,-68.46038,-124.1802,139.3964,-41.14338,202408221831369573,
2-1A,C_HumanVertical,1,Q1FrontUp,30.19067,45.30303,11.82459,-68.28974,-124.1828,139.3958,-41.12879,202408221831369880,
2-1A,C_HumanVertical,1,Q1FrontUp,30.19067,45.30303,11.82459,-68.28974,-124.1828,139.3958,-41.12879,202408221831370081,
2-1A,C_HumanVertical,1,Q1FrontUp,30.22535,45.0738,11.75477,-68.13231,-124.1856,139.3958,-41.11356,202408221831370406,
2-1A,C_HumanVertical,1,Q1FrontUp,30.2588,44.84505,11.68312,-68.00278,-124.1878,139.3955,-41.09864,202408221831370595,
2-1A,C_HumanVertical,1,Q1FrontUp,30.2588,44.84505,11.68312,-68.00278,-124.1878,139.3955,-41.09864,202408221831370762,
2-1A,C_HumanVertical,1,Q1FrontUp,30.3199,44.65745,11.5702,-67.82114,-124.2023,139.3956,-41.07135,202408221831371007,
2-1A,C_HumanVertical,1,Q1FrontUp,30.38435,44.48855,11.45488,-67.65405,-124.2145,139.396,-41.04306,202408221831371177,
2-1A,C_HumanVertical,1,Q1FrontUp,30.38435,44.48855,11.45488,-67.65405,-124.2145,139.396,-41.04306,202408221831371348,
2-1A,C_HumanVertical,1,Q1FrontUp,30.46202,44.31578,11.33376,-67.4777,-124.2264,139.3958,-41.01207,202408221831371525,
2-1A,C_HumanVertical,1,Q1FrontUp,30.46202,44.31578,11.33376,-67.4777,-124.2264,139.3958,-41.01207,202408221831371732,
2-1A,C_HumanVertical,1,Q1FrontUp,30.58002,44.16156,11.16291,-67.28554,-124.2576,139.3959,-40.97677,202408221831372013,
2-1A,C_HumanVertical,1,Q1FrontUp,30.69889,44.0424,10.99273,-67.10336,-124.2798,139.3957,-40.93407,202408221831372209,
2-1A,C_HumanVertical,1,Q1FrontUp,30.69889,44.0424,10.99273,-67.10336,-124.2798,139.3957,-40.93407,202408221831372382,
2-1A,C_HumanVertical,1,Q1FrontUp,30.84703,43.90848,10.80643,-66.92972,-124.3024,139.3962,-40.88322,202408221831372697,
2-1A,C_HumanVertical,1,Q1FrontUp,30.99286,43.79923,10.64694,-66.73569,-124.353,139.3963,-40.82393,202408221831372923,
2-1A,C_HumanVertical,1,Q1FrontUp,30.99286,43.79923,10.64694,-66.73569,-124.353,139.3963,-40.82393,202408221831373226,
2-1A,C_HumanVertical,1,Q1FrontUp,31.2602,43.54878,10.40635,-66.40035,-124.4222,139.3961,-40.71507,202408221831373501,
2-1A,C_HumanVertical,1,Q1FrontUp,31.2602,43.54878,10.40635,-66.40035,-124.4222,139.3961,-40.71507,202408221831373700,
2-1A,C_HumanVertical,1,Q1FrontUp,31.45547,43.42783,10.21805,-66.19255,-124.4293,139.3965,-40.6553,202408221831373887,
2-1A,C_HumanVertical,1,Q1FrontUp,31.65557,43.33776,10.02312,-65.95415,-124.4327,139.3964,-40.59483,202408221831374177,
2-1A,C_HumanVertical,1,Q1FrontUp,31.65557,43.33776,10.02312,-65.95415,-124.4327,139.3964,-40.59483,202408221831374343,
2-1A,C_HumanVertical,1,Q1FrontUp,31.65557,43.33776,10.02312,-65.95415,-124.4327,139.3964,-40.59483,202408221831374492,
2-1A,C_HumanVertical,1,Q1FrontUp,31.8455,43.22287,9.863976,-65.7543,-124.435,139.3959,-40.53558,202408221831374706,
2-1A,C_HumanVertical,1,Q1FrontUp,32.00873,43.13251,9.75791,-65.55653,-124.4519,139.3968,-40.45768,202408221831374947,
2-1A,C_HumanVertical,1,Q1FrontUp,32.17286,43.04812,9.665275,-65.35333,-124.4558,139.3967,-40.40185,202408221831375194,
2-1A,C_HumanVertical,1,Q1FrontUp,32.17286,43.04812,9.665275,-65.35333,-124.4558,139.3967,-40.40185,202408221831375357,
2-1A,C_HumanVertical,1,Q1FrontUp,32.33553,42.96175,9.598063,-65.15599,-124.4557,139.3964,-40.36841,202408221831375517,
2-1A,C_HumanVertical,1,Q1FrontUp,32.51035,42.87895,9.533988,-65.00012,-124.456,139.3967,-40.33005,202408221831375843,
2-1A,C_HumanVertical,1,Q1FrontUp,32.51035,42.87895,9.533988,-65.00012,-124.456,139.3967,-40.33005,202408221831376029,
2-1A,C_HumanVertical,1,Q1FrontUp,32.70824,42.80195,9.465481,-64.83296,-124.456,139.397,-40.2988,202408221831376225,
2-1A,C_HumanVertical,1,Q1FrontUp,32.70824,42.80195,9.465481,-64.83296,-124.456,139.397,-40.2988,202408221831376397,
2-1A,C_HumanVertical,1,Q1FrontUp,32.92128,42.74405,9.378716,-64.66748,-124.4556,139.3971,-40.27686,202408221831376679,
2-1A,C_HumanVertical,1,Q1FrontUp,33.15131,42.70047,9.279542,-64.50697,-124.4584,139.3978,-40.25505,202408221831376860,
2-1A,C_HumanVertical,1,Q1FrontUp,33.15131,42.70047,9.279542,-64.50697,-124.4584,139.3978,-40.25505,202408221831377044,
2-1A,C_HumanVertical,1,Q1FrontUp,33.37038,42.66538,9.196538,-64.35819,-124.4609,139.3976,-40.23564,202408221831377255,
2-1A,C_HumanVertical,1,Q1FrontUp,33.57034,42.64521,9.121697,-64.24336,-124.4628,139.3979,-40.21903,202408221831377541,
2-1A,C_HumanVertical,1,Q1FrontUp,33.75148,42.62776,9.087543,-64.15895,-124.4622,139.3969,-40.20185,202408221831377869,
2-1A,C_HumanVertical,1,Q1FrontUp,33.75148,42.62776,9.087543,-64.15895,-124.4622,139.3969,-40.20185,202408221831378079,
2-1A,C_HumanVertical,1,Q1FrontUp,33.96337,42.61813,9.024248,-64.09332,-124.46,139.3975,-40.18563,202408221831378245,
2-1A,C_HumanVertical,1,Q1FrontUp,33.96337,42.61813,9.024248,-64.09332,-124.46,139.3975,-40.18563,202408221831378504,
2-1A,C_HumanVertical,1,Q1FrontUp,33.96337,42.61813,9.024248,-64.09332,-124.46,139.3975,-40.18563,202408221831378683,
2-1A,C_HumanVertical,1,Q1FrontUp,34.45551,42.60961,8.823386,-64.03616,-124.453,139.3963,-40.1597,202408221831379008,
2-1A,C_HumanVertical,1,Q1FrontUp,34.45551,42.60961,8.823386,-64.03616,-124.453,139.3963,-40.1597,202408221831379186,
2-1A,C_HumanVertical,1,Q1FrontUp,34.7254,42.61074,8.723443,-64.0275,-124.4483,139.3969,-40.1528,202408221831379388,
2-1A,C_HumanVertical,1,Q1FrontUp,34.98606,42.61061,8.619864,-64.01096,-124.4449,139.3967,-40.15285,202408221831379568,
2-1A,C_HumanVertical,1,Q1FrontUp,35.29182,42.61162,8.467401,-63.97516,-124.405,139.3961,-40.1521,202408221831379848,
2-1A,C_HumanVertical,1,Q1FrontUp,35.29182,42.61162,8.467401,-63.97516,-124.405,139.3961,-40.1521,202408221831380029,
2-1A,C_HumanVertical,1,Q1FrontUp,35.58045,42.61259,8.355616,-63.94976,-124.3814,139.3964,-40.15229,202408221831380365,
2-1A,C_HumanVertical,1,Q1FrontUp,35.8848,42.61197,8.261422,-63.91886,-124.3674,139.3963,-40.15184,202408221831380581,
2-1A,C_HumanVertical,1,Q1FrontUp,36.24273,42.6138,8.096759,-63.86423,-124.3498,139.3977,-40.15059,202408221831380843,
2-1A,C_HumanVertical,1,Q1FrontUp,36.24273,42.6138,8.096759,-63.86423,-124.3498,139.3977,-40.15059,202408221831381020,
2-1A,C_HumanVertical,1,Q1FrontUp,36.57573,42.60971,7.948741,-63.80471,-124.3232,139.3968,-40.15017,202408221831381216,
2-1A,C_HumanVertical,1,Q1FrontUp,36.90932,42.6106,7.833033,-63.73356,-124.2893,139.3971,-40.14948,202408221831381507,
2-1A,C_HumanVertical,1,Q1FrontUp,36.90932,42.6106,7.833033,-63.73356,-124.2893,139.3971,-40.14948,202408221831381722,
2-1A,C_HumanVertical,1,Q1FrontUp,37.24064,42.61466,7.700138,-63.65498,-124.2875,139.3985,-40.14952,202408221831382006,
2-1A,C_HumanVertical,1,Q1FrontUp,37.55456,42.613,7.564467,-63.57538,-124.3039,139.402,-40.1498,202408221831382180,
2-1A,C_HumanVertical,1,Q1FrontUp,37.83875,42.60745,7.4171,-63.49899,-124.3293,139.4052,-40.14935,202408221831382552,
2-1A,C_HumanVertical,1,Q1FrontUp,37.83875,42.60745,7.4171,-63.49899,-124.3293,139.4052,-40.14935,202408221831382745,
2-1A,C_HumanVertical,1,Q1FrontUp,38.05171,42.60548,7.267056,-63.39767,-124.3395,139.4095,-40.14949,202408221831383026,
2-1A,C_HumanVertical,1,Q1FrontUp,38.23931,42.60559,7.099694,-63.29541,-124.3583,139.4108,-40.14795,202408221831383190,
2-1A,C_HumanVertical,1,Q1FrontUp,38.3726,42.60622,6.940416,-63.20188,-124.3764,139.411,-40.14064,202408221831383509,
2-1A,C_HumanVertical,1,Q1FrontUp,38.3726,42.60622,6.940416,-63.20188,-124.3764,139.411,-40.14064,202408221831383684,
2-1A,C_HumanVertical,1,Q1FrontUp,38.43742,42.60553,6.846055,-63.12751,-124.3925,139.411,-40.14069,202408221831383891,
2-1A,C_HumanVertical,1,Q1FrontUp,38.46315,42.60466,6.764718,-63.05638,-124.414,139.4106,-40.13942,202408221831384173,
2-1A,C_HumanVertical,1,Q1FrontUp,38.46315,42.60466,6.764718,-63.05638,-124.414,139.4106,-40.13942,202408221831384392,
2-1A,C_HumanVertical,1,Q1FrontUp,38.46524,42.59589,6.685665,-62.97589,-124.4335,139.4103,-40.13586,202408221831384671,
2-1A,C_HumanVertical,1,Q1FrontUp,38.46328,42.5895,6.595586,-62.89927,-124.4468,139.4101,-40.13239,202408221831384862,
2-1A,C_HumanVertical,1,Q1FrontUp,38.46328,42.5895,6.595586,-62.89927,-124.4468,139.4101,-40.13239,202408221831385074,
2-1A,C_HumanVertical,1,Q1FrontUp,38.46098,42.58188,6.495361,-62.83924,-124.4517,139.4094,-40.13306,202408221831385355,
2-1A,C_HumanVertical,1,Q1FrontUp,38.45663,42.57363,6.385044,-62.79517,-124.4514,139.4087,-40.14295,202408221831385528,
2-1A,C_HumanVertical,1,Q1FrontUp,38.45663,42.57363,6.385044,-62.79517,-124.4514,139.4087,-40.14295,202408221831385900,
2-1A,C_HumanVertical,1,Q1FrontUp,38.4566,42.56753,6.303848,-62.74046,-124.4503,139.4091,-40.14228,202408221831386066,
2-1A,C_HumanVertical,1,Q1FrontUp,38.47082,42.56649,6.224026,-62.6734,-124.4486,139.4101,-40.14188,202408221831386351,
2-1A,C_HumanVertical,1,Q1FrontUp,38.49619,42.56667,6.144975,-62.59776,-124.4475,139.4103,-40.14191,202408221831386507,
2-1A,C_HumanVertical,1,Q1FrontUp,38.49619,42.56667,6.144975,-62.59776,-124.4475,139.4103,-40.14191,202408221831386682,
2-1A,C_HumanVertical,1,Q1FrontUp,38.52711,42.56766,6.074844,-62.51908,-124.4478,139.4124,-40.14088,202408221831386851,
2-1A,C_HumanVertical,1,Q1FrontUp,38.52711,42.56766,6.074844,-62.51908,-124.4478,139.4124,-40.14088,202408221831387022,
2-1A,C_HumanVertical,1,Q1FrontUp,38.54532,42.56871,6.041699,-62.43124,-124.4577,139.4138,-40.14088,202408221831387264,
2-1A,C_HumanVertical,1,Q1FrontUp,38.54758,42.5674,6.042647,-62.32531,-124.4766,139.4164,-40.14043,202408221831387545,
2-1A,C_HumanVertical,1,Q1FrontUp,38.54758,42.5674,6.042647,-62.32531,-124.4766,139.4164,-40.14043,202408221831387708,
2-1A,C_HumanVertical,1,Q1FrontUp,38.57738,42.56632,6.003845,-62.19212,-124.477,139.4173,-40.1404,202408221831388036,
2-1A,C_HumanVertical,1,Q1FrontUp,38.64233,42.56345,5.925381,-62.06501,-124.471,139.4176,-40.13787,202408221831388211,
2-1A,C_HumanVertical,1,Q1FrontUp,38.74843,42.56372,5.805352,-61.93642,-124.4559,139.4179,-40.13256,202408221831388503,
2-1A,C_HumanVertical,1,Q1FrontUp,38.74843,42.56372,5.805352,-61.93642,-124.4559,139.4179,-40.13256,202408221831388696,
2-1A,C_HumanVertical,1,Q1FrontUp,38.87869,42.56415,5.688236,-61.81441,-124.4503,139.4182,-40.12336,202408221831389057,
2-1A,C_HumanVertical,1,Q1FrontUp,38.99347,42.56725,5.632634,-61.68351,-124.453,139.4185,-40.12174,202408221831389222,
2-1A,C_HumanVertical,1,Q1FrontUp,38.99347,42.56725,5.632634,-61.68351,-124.453,139.4185,-40.12174,202408221831389499,
2-1A,C_HumanVertical,1,Q1FrontUp,39.08533,42.56552,5.634438,-61.55184,-124.4565,139.4188,-40.12155,202408221831389691,
2-1A,C_HumanVertical,1,Q1FrontUp,39.08533,42.56552,5.634438,-61.55184,-124.4565,139.4188,-40.12155,202408221831389877,
2-1A,C_HumanVertical,1,Q1FrontUp,39.25248,42.55656,5.599081,-61.29136,-124.4873,139.4197,-40.11699,202408221831390204,
2-1A,C_HumanVertical,1,Q1FrontUp,39.25248,42.55656,5.599081,-61.29136,-124.4873,139.4197,-40.11699,202408221831390390,
2-1A,C_HumanVertical,1,Q1FrontUp,39.3643,42.54964,5.526117,-61.20275,-124.4778,139.4178,-40.11745,202408221831390572,
2-1A,C_HumanVertical,1,Q1FrontUp,39.3643,42.54964,5.526117,-61.20275,-124.4778,139.4178,-40.11745,202408221831390844,
2-1A,C_HumanVertical,1,Q1FrontUp,39.49517,42.55177,5.430845,-61.1134,-124.4799,139.4183,-40.11624,202408221831391011,
2-1A,C_HumanVertical,1,Q1FrontUp,39.62627,42.5517,5.35438,-61.03405,-124.4803,139.4184,-40.11568,202408221831391197,
2-1A,C_HumanVertical,1,Q1FrontUp,39.62627,42.5517,5.35438,-61.03405,-124.4803,139.4184,-40.11568,202408221831391420,
2-1A,C_HumanVertical,1,Q1FrontUp,39.75205,42.55128,5.307863,-60.96874,-124.4801,139.4186,-40.11597,202408221831391687,
2-1A,C_HumanVertical,1,Q1FrontUp,39.94744,42.55561,5.146713,-60.87423,-124.4804,139.4192,-40.1104,202408221831391871,
2-1A,C_HumanVertical,1,Q1FrontUp,39.94744,42.55561,5.146713,-60.87423,-124.4804,139.4192,-40.1104,202408221831392021,
2-1A,C_HumanVertical,1,Q1FrontUp,40.12893,42.55736,5.011652,-60.78995,-124.4814,139.4189,-40.10769,202408221831392247,
2-1A,C_HumanVertical,1,Q1FrontUp,40.30719,42.55639,4.90471,-60.70331,-124.4827,139.419,-40.10737,202408221831392503,
2-1A,C_HumanVertical,1,Q1FrontUp,40.30719,42.55639,4.90471,-60.70331,-124.4827,139.419,-40.10737,202408221831392684,
2-1A,C_HumanVertical,1,Q1FrontUp,40.48576,42.5565,4.811846,-60.62949,-124.4838,139.4192,-40.10735,202408221831392879,
2-1A,C_HumanVertical,1,Q1FrontUp,40.68459,42.556,4.680867,-60.56741,-124.4839,139.4183,-40.10712,202408221831393212,
2-1A,C_HumanVertical,1,Q1FrontUp,40.88861,42.55586,4.517269,-60.50616,-124.4839,139.4148,-40.10675,202408221831393552,
2-1A,C_HumanVertical,1,Q1FrontUp,40.88861,42.55586,4.517269,-60.50616,-124.4839,139.4148,-40.10675,202408221831393746,
2-1A,C_HumanVertical,1,Q1FrontUp,41.11364,42.56064,4.345361,-60.43282,-124.4836,139.413,-40.10611,202408221831394000,
2-1A,C_HumanVertical,1,Q1FrontUp,41.11364,42.56064,4.345361,-60.43282,-124.4836,139.413,-40.10611,202408221831394169,
2-1A,C_HumanVertical,1,Q1FrontUp,41.31509,42.57558,4.207092,-60.35558,-124.4936,139.4138,-40.10089,202408221831394342,
2-1A,C_HumanVertical,1,Q1FrontUp,41.48742,42.59495,4.10815,-60.26922,-124.509,139.4142,-40.08826,202408221831394570,
2-1A,C_HumanVertical,1,Q1FrontUp,41.71015,42.619,3.934519,-60.15863,-124.5084,139.414,-40.08667,202408221831394873,
2-1A,C_HumanVertical,1,Q1FrontUp,41.71015,42.619,3.934519,-60.15863,-124.5084,139.414,-40.08667,202408221831395026,
2-1A,C_HumanVertical,1,Q1FrontUp,41.92222,42.6385,3.802614,-60.03354,-124.509,139.414,-40.07626,202408221831395444,
2-1A,C_HumanVertical,1,Q1FrontUp,42.10518,42.65673,3.717321,-59.90515,-124.5086,139.4139,-40.06147,202408221831395687,
2-1A,C_HumanVertical,1,Q1FrontUp,42.30178,42.66875,3.617362,-59.8015,-124.5086,139.414,-40.03721,202408221831396013,
2-1A,C_HumanVertical,1,Q1FrontUp,42.49017,42.67218,3.523214,-59.713,-124.5088,139.4147,-40.02114,202408221831396187,
2-1A,C_HumanVertical,1,Q1FrontUp,42.66902,42.6719,3.430349,-59.62512,-124.509,139.4154,-40.01183,202408221831396508,
2-1A,C_HumanVertical,1,Q1FrontUp,42.66902,42.6719,3.430349,-59.62512,-124.509,139.4154,-40.01183,202408221831396772,
2-1A,C_HumanVertical,1,Q1FrontUp,42.84269,42.67159,3.353422,-59.53207,-124.509,139.4156,-40.00331,202408221831397028,
2-1A,C_HumanVertical,1,Q1FrontUp,42.98942,42.67476,3.317362,-59.4343,-124.5222,139.4176,-40.00008,202408221831397200,
2-1A,C_HumanVertical,1,Q1FrontUp,42.98942,42.67476,3.317362,-59.4343,-124.5222,139.4176,-40.00008,202408221831397389,
2-1A,C_HumanVertical,1,Q1FrontUp,43.09671,42.67662,3.310084,-59.33894,-124.5431,139.42,-39.99702,202408221831397765,
2-1A,C_HumanVertical,1,Q1FrontUp,43.2494,42.67445,3.235543,-59.24942,-124.5418,139.4187,-39.99514,202408221831398091,
2-1A,C_HumanVertical,1,Q1FrontUp,43.39829,42.67469,3.159809,-59.16925,-124.5418,139.4195,-39.99327,202408221831398291,
2-1A,C_HumanVertical,1,Q1FrontUp,43.54455,42.67604,3.089105,-59.10162,-124.5416,139.4196,-39.98746,202408221831398519,
2-1A,C_HumanVertical,1,Q1FrontUp,43.54455,42.67604,3.089105,-59.10162,-124.5416,139.4196,-39.98746,202408221831398745,
2-1A,C_HumanVertical,1,Q1FrontUp,43.72028,42.67664,2.982113,-59.04671,-124.5418,139.4199,-39.97339,202408221831398889,
2-1A,C_HumanVertical,1,Q1FrontUp,43.72028,42.67664,2.982113,-59.04671,-124.5418,139.4199,-39.97339,202408221831399177,
2-1A,C_HumanVertical,1,Q1FrontUp,43.72028,42.67664,2.982113,-59.04671,-124.5418,139.4199,-39.97339,202408221831399349,
2-1A,C_HumanVertical,1,Q1FrontUp,43.95613,42.67713,2.893532,-58.95746,-124.5503,139.4204,-39.94915,202408221831399510,
2-1A,C_HumanVertical,1,Q1FrontUp,43.95613,42.67713,2.893532,-58.95746,-124.5503,139.4204,-39.94915,202408221831399667,
2-1A,C_HumanVertical,1,Q1FrontUp,43.95613,42.67713,2.893532,-58.95746,-124.5503,139.4204,-39.94915,202408221831399853,
2-1A,C_HumanVertical,1,Q1FrontUp,44.05772,42.67811,2.861061,-58.91008,-124.5533,139.4208,-39.9445,202408221831400087,
2-1A,C_HumanVertical,1,Q1FrontUp,44.18491,42.67607,2.792462,-58.86712,-124.5528,139.4211,-39.93007,202408221831400358,
2-1A,C_HumanVertical,1,Q1FrontUp,44.32837,42.67846,2.668127,-58.82985,-124.5516,139.4208,-39.91376,202408221831400698,
2-1A,C_HumanVertical,1,Q1FrontUp,44.47542,42.67896,2.563955,-58.8004,-124.5458,139.4202,-39.9138,202408221831400859,
2-1A,C_HumanVertical,1,Q1FrontUp,44.47542,42.67896,2.563955,-58.8004,-124.5458,139.4202,-39.9138,202408221831401047,
2-1A,C_HumanVertical,1,Q1FrontUp,44.60729,42.6813,2.497617,-58.76516,-124.547,139.4215,-39.91236,202408221831401348,
2-1A,C_HumanVertical,1,Q1FrontUp,44.71503,42.68012,2.458021,-58.71782,-124.5481,139.4576,-39.90806,202408221831401506,
2-1A,C_HumanVertical,1,Q1FrontUp,44.71503,42.68012,2.458021,-58.71782,-124.5481,139.4576,-39.90806,202408221831401682,
2-1A,C_HumanVertical,1,Q1FrontUp,44.88256,42.68219,2.333991,-58.6444,-124.5459,139.4731,-39.90754,202408221831401923,
2-1A,C_HumanVertical,1,Q1FrontUp,44.88256,42.68219,2.333991,-58.6444,-124.5459,139.4731,-39.90754,202408221831402080,
2-1A,C_HumanVertical,1,Q1FrontUp,45.05068,42.69542,2.236922,-58.56321,-124.5374,139.4948,-39.90786,202408221831402375,
2-1A,C_HumanVertical,1,Q1FrontUp,45.2043,42.70776,2.180174,-58.47303,-124.5291,139.5393,-39.90821,202408221831402543,
2-1A,C_HumanVertical,1,Q1FrontUp,45.36267,42.71749,2.137949,-58.39925,-124.5246,139.5811,-39.90792,202408221831402878,
2-1A,C_HumanVertical,1,Q1FrontUp,45.53348,42.71894,2.081524,-58.34092,-124.5223,139.6087,-39.90773,202408221831403262,
2-1A,C_HumanVertical,1,Q1FrontUp,45.71307,42.72108,1.997835,-58.29829,-124.5218,139.6171,-39.90788,202408221831403499,
2-1A,C_HumanVertical,1,Q1FrontUp,45.71307,42.72108,1.997835,-58.29829,-124.5218,139.6171,-39.90788,202408221831403668,
2-1A,C_HumanVertical,1,Q1FrontUp,45.71307,42.72108,1.997835,-58.29829,-124.5218,139.6171,-39.90788,202408221831403833,
2-1A,C_HumanVertical,1,Q1FrontUp,45.88729,42.73426,1.929192,-58.25584,-124.5218,139.622,-39.90149,202408221831404003,
2-1A,C_HumanVertical,1,Q1FrontUp,46.05088,42.74601,1.885708,-58.22871,-124.5215,139.6351,-39.89555,202408221831404181,
2-1A,C_HumanVertical,1,Q1FrontUp,46.05088,42.74601,1.885708,-58.22871,-124.5215,139.6351,-39.89555,202408221831404383,
2-1A,C_HumanVertical,1,Q1FrontUp,46.195,42.75852,1.850535,-58.22007,-124.5213,139.6627,-39.89438,202408221831404667,
2-1A,C_HumanVertical,1,Q1FrontUp,46.30088,42.77566,1.845241,-58.22454,-124.5227,139.6641,-39.88536,202408221831404861,
2-1A,C_HumanVertical,1,Q1FrontUp,46.30088,42.77566,1.845241,-58.22454,-124.5227,139.6641,-39.88536,202408221831405054,
2-1A,C_HumanVertical,1,Q1FrontUp,46.39796,42.78504,1.811427,-58.24321,-124.523,139.6649,-39.87489,202408221831405378,
2-1A,C_HumanVertical,1,Q1FrontUp,46.48245,42.78699,1.743064,-58.29154,-124.5239,139.6654,-39.86885,202408221831405585,
2-1A,C_HumanVertical,1,Q1FrontUp,46.50571,42.78687,1.710642,-58.35452,-124.5236,139.6652,-39.86662,202408221831405844,
2-1A,C_HumanVertical,1,Q1FrontUp,46.50571,42.78687,1.710642,-58.35452,-124.5236,139.6652,-39.86662,202408221831406024,
2-1A,C_HumanVertical,1,Q1FrontUp,46.51308,42.78537,1.66349,-58.42728,-124.5211,139.6636,-39.86579,202408221831406186,
2-1A,C_HumanVertical,1,Q1FrontUp,46.50981,42.78693,1.586134,-58.50783,-124.5192,139.6603,-39.86602,202408221831406581,
2-1A,C_HumanVertical,1,Q1FrontUp,46.50981,42.78693,1.586134,-58.50783,-124.5192,139.6603,-39.86602,202408221831406732,
