mpan31415/robot-x-ar/study2/data/raw_all_participants/Participant_2-3_1.csv
ParticipantID,Condition,Trial,PostureID,J1,J2,J3,J4,J5,J6,J7,Timestamp
2-Mar,C_HumanVertical,1,Q3FrontUp,-38.23799,13.16521,105.8949,-40.18642,-103.8241,151.7198,-57.96587,202408221425402251
2-Mar,C_HumanVertical,1,Q3FrontUp,-38.23819,13.16531,105.895,-40.18632,-103.8242,151.72,-57.96582,202408221425402628
2-Mar,C_HumanVertical,1,Q3FrontUp,-38.20236,13.1651,105.8513,-40.17854,-103.8244,151.7201,-57.96553,202408221425402908
2-Mar,C_HumanVertical,1,Q3FrontUp,-38.1228,13.16422,105.7484,-40.15157,-103.8242,151.7197,-57.96471,202408221425403128
2-Mar,C_HumanVertical,1,Q3FrontUp,-37.95445,13.19546,105.6395,-40.06654,-103.8268,151.7507,-57.92069,202408221425403452
2-Mar,C_HumanVertical,1,Q3FrontUp,-37.95445,13.19546,105.6395,-40.06654,-103.8268,151.7507,-57.92069,202408221425403704
2-Mar,C_HumanVertical,1,Q3FrontUp,-37.59439,13.27035,105.4028,-39.84574,-103.8264,151.8473,-57.83414,202408221425404014
2-Mar,C_HumanVertical,1,Q3FrontUp,-37.59439,13.27035,105.4028,-39.84574,-103.8264,151.8473,-57.83414,202408221425404178
2-Mar,C_HumanVertical,1,Q3FrontUp,-37.59439,13.27035,105.4028,-39.84574,-103.8264,151.8473,-57.83414,202408221425404335
2-Mar,C_HumanVertical,1,Q3FrontUp,-37.29713,13.3536,105.1373,-39.59621,-103.8257,151.916,-57.74898,202408221425404739
2-Mar,C_HumanVertical,1,Q3FrontUp,-37.29713,13.3536,105.1373,-39.59621,-103.8257,151.916,-57.74898,202408221425404954
2-Mar,C_HumanVertical,1,Q3FrontUp,-37.16699,13.38284,104.9919,-39.48155,-103.8256,151.9413,-57.70883,202408221425405190
2-Mar,C_HumanVertical,1,Q3FrontUp,-37.16699,13.38284,104.9919,-39.48155,-103.8256,151.9413,-57.70883,202408221425405403
2-Mar,C_HumanVertical,1,Q3FrontUp,-37.16699,13.38284,104.9919,-39.48155,-103.8256,151.9413,-57.70883,202408221425405582
2-Mar,C_HumanVertical,1,Q3FrontUp,-36.9178,13.46657,104.7289,-39.30546,-103.8258,151.9727,-57.6415,202408221425405760
2-Mar,C_HumanVertical,1,Q3FrontUp,-36.9178,13.46657,104.7289,-39.30546,-103.8258,151.9727,-57.6415,202408221425406112
2-Mar,C_HumanVertical,1,Q3FrontUp,-36.79176,13.50161,104.5775,-39.22598,-103.8259,151.9855,-57.61458,202408221425406293
2-Mar,C_HumanVertical,1,Q3FrontUp,-36.68394,13.53202,104.4312,-39.16428,-103.826,151.9933,-57.59639,202408221425406498
2-Mar,C_HumanVertical,1,Q3FrontUp,-36.60236,13.55933,104.3248,-39.10359,-103.8259,151.9968,-57.57645,202408221425406820
2-Mar,C_HumanVertical,1,Q3FrontUp,-36.54533,13.58047,104.2421,-39.04207,-103.826,152.0031,-57.55794,202408221425407102
2-Mar,C_HumanVertical,1,Q3FrontUp,-36.54533,13.58047,104.2421,-39.04207,-103.826,152.0031,-57.55794,202408221425407272
2-Mar,C_HumanVertical,1,Q3FrontUp,-36.51026,13.60658,104.2084,-38.98679,-103.826,152.0249,-57.54787,202408221425407438
2-Mar,C_HumanVertical,1,Q3FrontUp,-36.51026,13.60658,104.2084,-38.98679,-103.826,152.0249,-57.54787,202408221425407636
2-Mar,C_HumanVertical,1,Q3FrontUp,-36.48164,13.62967,104.1912,-38.93613,-103.8234,152.0508,-57.53918,202408221425407914
2-Mar,C_HumanVertical,1,Q3FrontUp,-36.45925,13.64565,104.1895,-38.88749,-103.8106,152.0821,-57.53551,202408221425408090
2-Mar,C_HumanVertical,1,Q3FrontUp,-36.45925,13.64565,104.1895,-38.88749,-103.8106,152.0821,-57.53551,202408221425408254
2-Mar,C_HumanVertical,1,Q3FrontUp,-36.43767,13.6592,104.1887,-38.85253,-103.7983,152.1145,-57.53254,202408221425408491
2-Mar,C_HumanVertical,1,Q3FrontUp,-36.43767,13.6592,104.1887,-38.85253,-103.7983,152.1145,-57.53254,202408221425408647
2-Mar,C_HumanVertical,1,Q3FrontUp,-36.40796,13.66397,104.1782,-38.82182,-103.7805,152.1542,-57.53149,202408221425408919
2-Mar,C_HumanVertical,1,Q3FrontUp,-36.36897,13.66344,104.1635,-38.80159,-103.7621,152.209,-57.53139,202408221425409102
2-Mar,C_HumanVertical,1,Q3FrontUp,-36.36897,13.66344,104.1635,-38.80159,-103.7621,152.209,-57.53139,202408221425409288
2-Mar,C_HumanVertical,1,Q3FrontUp,-36.33413,13.66347,104.1626,-38.79169,-103.7592,152.2679,-57.53051,202408221425409615
2-Mar,C_HumanVertical,1,Q3FrontUp,-36.28016,13.66587,104.1613,-38.78481,-103.759,152.3211,-57.53003,202408221425409806
2-Mar,C_HumanVertical,1,Q3FrontUp,-36.28016,13.66587,104.1613,-38.78481,-103.759,152.3211,-57.53003,202408221425410094
2-Mar,C_HumanVertical,1,Q3FrontUp,-36.09615,13.66732,104.1343,-38.778,-103.7592,152.4123,-57.53017,202408221425410415
2-Mar,C_HumanVertical,1,Q3FrontUp,-36.09615,13.66732,104.1343,-38.778,-103.7592,152.4123,-57.53017,202408221425410605
2-Mar,C_HumanVertical,1,Q3FrontUp,-36.09615,13.66732,104.1343,-38.778,-103.7592,152.4123,-57.53017,202408221425410812
2-Mar,C_HumanVertical,1,Q3FrontUp,-35.99548,13.66636,104.1187,-38.78206,-103.7594,152.4501,-57.52853,202408221425410994
2-Mar,C_HumanVertical,1,Q3FrontUp,-35.88491,13.66167,104.1189,-38.7889,-103.7593,152.4983,-57.51611,202408221425411285
2-Mar,C_HumanVertical,1,Q3FrontUp,-35.88491,13.66167,104.1189,-38.7889,-103.7593,152.4983,-57.51611,202408221425411481
2-Mar,C_HumanVertical,1,Q3FrontUp,-35.78929,13.65538,104.1187,-38.80048,-103.7595,152.5485,-57.50522,202408221425411646
2-Mar,C_HumanVertical,1,Q3FrontUp,-35.67194,13.65304,104.0949,-38.81359,-103.7592,152.5931,-57.48994,202408221425411960
2-Mar,C_HumanVertical,1,Q3FrontUp,-35.53926,13.64343,104.0405,-38.83051,-103.7594,152.624,-57.47732,202408221425412158
2-Mar,C_HumanVertical,1,Q3FrontUp,-35.2519,13.63865,103.82,-38.86131,-103.7587,152.6491,-57.42187,202408221425412416
2-Mar,C_HumanVertical,1,Q3FrontUp,-35.2519,13.63865,103.82,-38.86131,-103.7587,152.6491,-57.42187,202408221425412600
2-Mar,C_HumanVertical,1,Q3FrontUp,-34.84246,13.6111,103.4504,-38.90417,-103.7583,152.6678,-57.36436,202408221425412894
2-Mar,C_HumanVertical,1,Q3FrontUp,-34.241,13.58201,102.8441,-38.94016,-103.761,152.6792,-57.30833,202408221425413090
2-Mar,C_HumanVertical,1,Q3FrontUp,-34.241,13.58201,102.8441,-38.94016,-103.761,152.6792,-57.30833,202408221425413314
2-Mar,C_HumanVertical,1,Q3FrontUp,-33.30056,13.54669,101.8483,-39.01496,-103.7627,152.7022,-57.24456,202408221425413587
2-Mar,C_HumanVertical,1,Q3FrontUp,-32.22366,13.51432,100.7188,-39.1302,-103.762,152.7124,-57.18557,202408221425413769
2-Mar,C_HumanVertical,1,Q3FrontUp,-32.22366,13.51432,100.7188,-39.1302,-103.762,152.7124,-57.18557,202408221425413956
2-Mar,C_HumanVertical,1,Q3FrontUp,-30.99502,13.50382,99.40657,-39.30456,-103.7666,152.7343,-57.12662,202408221425414114
2-Mar,C_HumanVertical,1,Q3FrontUp,-30.99502,13.50382,99.40657,-39.30456,-103.7666,152.7343,-57.12662,202408221425414304
2-Mar,C_HumanVertical,1,Q3FrontUp,-29.8661,13.49729,98.23438,-39.57421,-103.7705,152.7456,-57.07449,202408221425414608
2-Mar,C_HumanVertical,1,Q3FrontUp,-28.70755,13.51714,96.98677,-39.86448,-103.7781,152.7506,-57.00904,202408221425414784
2-Mar,C_HumanVertical,1,Q3FrontUp,-27.4045,13.55185,95.55484,-40.14338,-103.786,152.7574,-56.93845,202408221425415084
2-Mar,C_HumanVertical,1,Q3FrontUp,-27.4045,13.55185,95.55484,-40.14338,-103.786,152.7574,-56.93845,202408221425415254
2-Mar,C_HumanVertical,1,Q3FrontUp,-26.00964,13.59234,94.02867,-40.39323,-103.7915,152.7678,-56.88298,202408221425415480
2-Mar,C_HumanVertical,1,Q3FrontUp,-24.88917,13.61988,92.84696,-40.59179,-103.8036,152.765,-56.85891,202408221425415750
2-Mar,C_HumanVertical,1,Q3FrontUp,-24.88917,13.61988,92.84696,-40.59179,-103.8036,152.765,-56.85891,202408221425415915
2-Mar,C_HumanVertical,1,Q3FrontUp,-24.80662,13.67739,92.93325,-40.96661,-103.8164,152.7582,-56.86429,202408221425416095
2-Mar,C_HumanVertical,1,Q3FrontUp,-24.80662,13.67739,92.93325,-40.96661,-103.8164,152.7582,-56.86429,202408221425416249
2-Mar,C_HumanVertical,1,Q3FrontUp,-24.74389,13.81294,92.86494,-41.24104,-103.8241,152.7537,-56.86541,202408221425416486
2-Mar,C_HumanVertical,1,Q3FrontUp,-24.74389,13.81294,92.86494,-41.24104,-103.8241,152.7537,-56.86541,202408221425416643
2-Mar,C_HumanVertical,1,Q3FrontUp,-24.66701,13.91114,92.76951,-41.36907,-103.8237,152.7518,-56.86542,202408221425416915
2-Mar,C_HumanVertical,1,Q3FrontUp,-24.60349,13.9902,92.60079,-41.37548,-103.823,152.7503,-56.86491,202408221425417242
2-Mar,C_HumanVertical,1,Q3FrontUp,-24.43075,13.99282,92.33764,-41.27069,-103.8213,152.7515,-56.86441,202408221425417408
2-Mar,C_HumanVertical,1,Q3FrontUp,-24.43075,13.99282,92.33764,-41.27069,-103.8213,152.7515,-56.86441,202408221425417588
2-Mar,C_HumanVertical,1,Q3FrontUp,-24.15786,14.00078,91.98206,-41.19149,-103.8211,152.7523,-56.86331,202408221425417805
2-Mar,C_HumanVertical,1,Q3FrontUp,-24.15786,14.00078,91.98206,-41.19149,-103.8211,152.7523,-56.86331,202408221425417959
2-Mar,C_HumanVertical,1,Q3FrontUp,-23.73908,14.0351,91.46847,-41.18886,-103.8222,152.7508,-56.86257,202408221425418245
2-Mar,C_HumanVertical,1,Q3FrontUp,-23.17073,14.07849,90.80961,-41.22004,-103.8222,152.7524,-56.85394,202408221425418426
2-Mar,C_HumanVertical,1,Q3FrontUp,-23.17073,14.07849,90.80961,-41.22004,-103.8222,152.7524,-56.85394,202408221425418758
2-Mar,C_HumanVertical,1,Q3FrontUp,-22.54969,14.13609,90.08405,-41.25525,-103.8217,152.7546,-56.83843,202408221425418979
2-Mar,C_HumanVertical,1,Q3FrontUp,-21.88131,14.1867,89.31201,-41.27592,-103.8222,152.7528,-56.81507,202408221425419255
2-Mar,C_HumanVertical,1,Q3FrontUp,-21.096,14.23429,88.42581,-41.3279,-103.8224,152.7569,-56.78263,202408221425419423
2-Mar,C_HumanVertical,1,Q3FrontUp,-21.096,14.23429,88.42581,-41.3279,-103.8224,152.7569,-56.78263,202408221425419633
2-Mar,C_HumanVertical,1,Q3FrontUp,-20.27671,14.29206,87.49842,-41.42197,-103.8225,152.7649,-56.7467,202408221425419904
2-Mar,C_HumanVertical,1,Q3FrontUp,-20.27671,14.29206,87.49842,-41.42197,-103.8225,152.7649,-56.7467,202408221425420112
2-Mar,C_HumanVertical,1,Q3FrontUp,-18.64607,14.42015,85.66964,-41.63457,-103.8222,152.7854,-56.66281,202408221425420404
2-Mar,C_HumanVertical,1,Q3FrontUp,-18.64607,14.42015,85.66964,-41.63457,-103.8222,152.7854,-56.66281,202408221425420581
2-Mar,C_HumanVertical,1,Q3FrontUp,-17.86083,14.48659,84.81468,-41.76323,-103.823,152.7931,-56.61694,202408221425420748
2-Mar,C_HumanVertical,1,Q3FrontUp,-17.86083,14.48659,84.81468,-41.76323,-103.823,152.7931,-56.61694,202408221425420915
2-Mar,C_HumanVertical,1,Q3FrontUp,-17.09257,14.55809,83.97889,-41.89481,-103.8231,152.7963,-56.56505,202408221425421168
2-Mar,C_HumanVertical,1,Q3FrontUp,-16.45658,14.63348,83.29821,-42.0157,-103.8239,152.7975,-56.52298,202408221425421429
2-Mar,C_HumanVertical,1,Q3FrontUp,-15.85303,14.71589,82.64413,-42.14768,-103.8233,152.7966,-56.47867,202408221425421753
2-Mar,C_HumanVertical,1,Q3FrontUp,-15.85303,14.71589,82.64413,-42.14768,-103.8233,152.7966,-56.47867,202408221425421911
2-Mar,C_HumanVertical,1,Q3FrontUp,-15.41156,14.76381,82.13918,-42.30418,-103.823,152.7973,-56.4353,202408221425422110
2-Mar,C_HumanVertical,1,Q3FrontUp,-15.41156,14.76381,82.13918,-42.30418,-103.823,152.7973,-56.4353,202408221425422284
2-Mar,C_HumanVertical,1,Q3FrontUp,-15.01258,14.79736,81.65759,-42.46472,-103.8233,152.7967,-56.39081,202408221425422583
2-Mar,C_HumanVertical,1,Q3FrontUp,-14.64145,14.81202,81.20193,-42.60133,-103.8234,152.7968,-56.34766,202408221425422789
2-Mar,C_HumanVertical,1,Q3FrontUp,-14.25761,14.81965,80.77676,-42.71918,-103.8234,152.7963,-56.30109,202408221425423081
2-Mar,C_HumanVertical,1,Q3FrontUp,-14.25761,14.81965,80.77676,-42.71918,-103.8234,152.7963,-56.30109,202408221425423266
2-Mar,C_HumanVertical,1,Q3FrontUp,-13.86465,14.82206,80.32339,-42.81139,-103.8229,152.7963,-56.25577,202408221425423495
2-Mar,C_HumanVertical,1,Q3FrontUp,-13.47971,14.82092,79.90321,-42.89858,-103.8214,152.7974,-56.21305,202408221425423749
2-Mar,C_HumanVertical,1,Q3FrontUp,-13.47971,14.82092,79.90321,-42.89858,-103.8214,152.7974,-56.21305,202408221425423906
2-Mar,C_HumanVertical,1,Q3FrontUp,-13.11508,14.81858,79.49747,-42.97236,-103.8205,152.7964,-56.16787,202408221425424085
2-Mar,C_HumanVertical,1,Q3FrontUp,-13.11508,14.81858,79.49747,-42.97236,-103.8205,152.7964,-56.16787,202408221425424233
2-Mar,C_HumanVertical,1,Q3FrontUp,-12.76066,14.81668,79.13922,-43.04392,-103.8203,152.7977,-56.12738,202408221425424448
2-Mar,C_HumanVertical,1,Q3FrontUp,-12.76066,14.81668,79.13922,-43.04392,-103.8203,152.7977,-56.12738,202408221425424637
2-Mar,C_HumanVertical,1,Q3FrontUp,-12.46815,14.81675,78.82333,-43.11506,-103.8206,152.797,-56.09157,202408221425424916
2-Mar,C_HumanVertical,1,Q3FrontUp,-12.21559,14.82035,78.55367,-43.19608,-103.8203,152.7967,-56.05549,202408221425425249
2-Mar,C_HumanVertical,1,Q3FrontUp,-11.95926,14.81865,78.29352,-43.27267,-103.8177,152.7968,-56.03019,202408221425425584
2-Mar,C_HumanVertical,1,Q3FrontUp,-11.73465,14.81264,78.08197,-43.34592,-103.8122,152.7966,-56.00755,202408221425425801
2-Mar,C_HumanVertical,1,Q3FrontUp,-11.73465,14.81264,78.08197,-43.34592,-103.8122,152.7966,-56.00755,202408221425425975
2-Mar,C_HumanVertical,1,Q3FrontUp,-11.56271,14.81267,77.92485,-43.39692,-103.8092,152.7966,-55.98554,202408221425426251
2-Mar,C_HumanVertical,1,Q3FrontUp,-11.40655,14.81223,77.80889,-43.43428,-103.8062,152.7967,-55.96343,202408221425426423
2-Mar,C_HumanVertical,1,Q3FrontUp,-11.40655,14.81223,77.80889,-43.43428,-103.8062,152.7967,-55.96343,202408221425426606
2-Mar,C_HumanVertical,1,Q3FrontUp,-11.26644,14.81179,77.7077,-43.46335,-103.8016,152.7968,-55.94815,202408221425426803
2-Mar,C_HumanVertical,1,Q3FrontUp,-11.16062,14.80233,77.62056,-43.4905,-103.7959,152.7968,-55.93076,202408221425427089
2-Mar,C_HumanVertical,1,Q3FrontUp,-11.16062,14.80233,77.62056,-43.4905,-103.7959,152.7968,-55.93076,202408221425427252
2-Mar,C_HumanVertical,1,Q3FrontUp,-11.10189,14.77873,77.56355,-43.50551,-103.7917,152.7969,-55.91576,202408221425427413
2-Mar,C_HumanVertical,1,Q3FrontUp,-11.10189,14.77873,77.56355,-43.50551,-103.7917,152.7969,-55.91576,202408221425427628
2-Mar,C_HumanVertical,1,Q3FrontUp,-11.04955,14.75065,77.50909,-43.5143,-103.7871,152.7971,-55.89859,202408221425427788
2-Mar,C_HumanVertical,1,Q3FrontUp,-11.00391,14.72747,77.44214,-43.51766,-103.7812,152.7969,-55.88207,202408221425428086
2-Mar,C_HumanVertical,1,Q3FrontUp,-11.00391,14.72747,77.44214,-43.51766,-103.7812,152.7969,-55.88207,202408221425428249
2-Mar,C_HumanVertical,1,Q3FrontUp,-11.00002,14.70163,77.39941,-43.52461,-103.7762,152.7971,-55.87013,202408221425428410
2-Mar,C_HumanVertical,1,Q3FrontUp,-11.00002,14.70163,77.39941,-43.52461,-103.7762,152.7971,-55.87013,202408221425428582
2-Mar,C_HumanVertical,1,Q3FrontUp,-10.99993,14.68105,77.36651,-43.52723,-103.7729,152.7968,-55.85373,202408221425428771
2-Mar,C_HumanVertical,1,Q3FrontUp,-10.99993,14.68105,77.36651,-43.52723,-103.7729,152.7968,-55.85373,202408221425428979
2-Mar,C_HumanVertical,1,Q3FrontUp,-11.00019,14.66607,77.33771,-43.53023,-103.7708,152.7968,-55.84014,202408221425429260
2-Mar,C_HumanVertical,1,Q3FrontUp,-11.08071,14.65639,77.36765,-43.5532,-103.7719,152.7965,-55.82841,202408221425429416
2-Mar,C_HumanVertical,1,Q3FrontUp,-11.19621,14.64269,77.4259,-43.58287,-103.7721,152.7964,-55.81433,202408221425429757
2-Mar,C_HumanVertical,1,Q3FrontUp,-11.19621,14.64269,77.4259,-43.58287,-103.7721,152.7964,-55.81433,202408221425429906
2-Mar,C_HumanVertical,1,Q3FrontUp,-11.19621,14.64269,77.4259,-43.58287,-103.7721,152.7964,-55.81433,202408221425430113
2-Mar,C_HumanVertical,1,Q3FrontUp,-11.53961,14.60874,77.65865,-43.66789,-103.7721,152.7962,-55.78657,202408221425430402
2-Mar,C_HumanVertical,1,Q3FrontUp,-11.53961,14.60874,77.65865,-43.66789,-103.7721,152.7962,-55.78657,202408221425430567
2-Mar,C_HumanVertical,1,Q3FrontUp,-11.79501,14.5881,77.82916,-43.72632,-103.7721,152.7954,-55.77401,202408221425430789
2-Mar,C_HumanVertical,1,Q3FrontUp,-12.07691,14.56017,78.01919,-43.79378,-103.7719,152.7952,-55.76452,202408221425431144
2-Mar,C_HumanVertical,1,Q3FrontUp,-12.07691,14.56017,78.01919,-43.79378,-103.7719,152.7952,-55.76452,202408221425431398
2-Mar,C_HumanVertical,1,Q3FrontUp,-12.32781,14.52858,78.16976,-43.85198,-103.7719,152.7955,-55.75364,202408221425431584
2-Mar,C_HumanVertical,1,Q3FrontUp,-12.62746,14.47966,78.31273,-43.92928,-103.7719,152.7957,-55.74656,202408221425431902
2-Mar,C_HumanVertical,1,Q3FrontUp,-12.92549,14.42071,78.4494,-44.02592,-103.7717,152.7954,-55.74244,202408221425432097
2-Mar,C_HumanVertical,1,Q3FrontUp,-12.92549,14.42071,78.4494,-44.02592,-103.7717,152.7954,-55.74244,202408221425432289
2-Mar,C_HumanVertical,1,Q3FrontUp,-13.28844,14.35312,78.68739,-44.13794,-103.7718,152.7953,-55.72902,202408221425432577
2-Mar,C_HumanVertical,1,Q3FrontUp,-13.66897,14.30972,78.9441,-44.24055,-103.7713,152.795,-55.72025,202408221425432746
2-Mar,C_HumanVertical,1,Q3FrontUp,-13.66897,14.30972,78.9441,-44.24055,-103.7713,152.795,-55.72025,202408221425432904
2-Mar,C_HumanVertical,1,Q3FrontUp,-14.0584,14.26125,79.21369,-44.33803,-103.7716,152.7954,-55.70855,202408221425433075
2-Mar,C_HumanVertical,1,Q3FrontUp,-14.0584,14.26125,79.21369,-44.33803,-103.7716,152.7954,-55.70855,202408221425433253
2-Mar,C_HumanVertical,1,Q3FrontUp,-14.49752,14.2225,79.61926,-44.47021,-103.771,152.795,-55.70065,202408221425433466
2-Mar,C_HumanVertical,1,Q3FrontUp,-14.94084,14.18139,80.01137,-44.59417,-103.7708,152.7941,-55.68731,202408221425433768
2-Mar,C_HumanVertical,1,Q3FrontUp,-14.94084,14.18139,80.01137,-44.59417,-103.7708,152.7941,-55.68731,202408221425434015
2-Mar,C_HumanVertical,1,Q3FrontUp,-15.38854,14.13564,80.4436,-44.71745,-103.7695,152.795,-55.68328,202408221425434329
2-Mar,C_HumanVertical,1,Q3FrontUp,-15.79796,14.07527,80.81144,-44.83398,-103.7697,152.7946,-55.67813,202408221425434525
2-Mar,C_HumanVertical,1,Q3FrontUp,-16.22408,14.02562,81.24274,-44.93456,-103.771,152.7961,-55.66978,202408221425434790
2-Mar,C_HumanVertical,1,Q3FrontUp,-16.74492,13.98273,81.74045,-45.07313,-103.7738,152.7955,-55.66132,202408221425435104
2-Mar,C_HumanVertical,1,Q3FrontUp,-16.74492,13.98273,81.74045,-45.07313,-103.7738,152.7955,-55.66132,202408221425435317
2-Mar,C_HumanVertical,1,Q3FrontUp,-17.23944,13.93912,82.18578,-45.16718,-103.7741,152.7949,-55.65564,202408221425435640
2-Mar,C_HumanVertical,1,Q3FrontUp,-17.74986,13.89184,82.65208,-45.27172,-103.7745,152.7957,-55.64425,202408221425435912
2-Mar,C_HumanVertical,1,Q3FrontUp,-17.74986,13.89184,82.65208,-45.27172,-103.7745,152.7957,-55.64425,202408221425436088
2-Mar,C_HumanVertical,1,Q3FrontUp,-18.8907,13.77374,83.54294,-45.56854,-103.7757,152.7951,-55.62919,202408221425436424
2-Mar,C_HumanVertical,1,Q3FrontUp,-18.8907,13.77374,83.54294,-45.56854,-103.7757,152.7951,-55.62919,202408221425436620
2-Mar,C_HumanVertical,1,Q3FrontUp,-18.8907,13.77374,83.54294,-45.56854,-103.7757,152.7951,-55.62919,202408221425436785
2-Mar,C_HumanVertical,1,Q3FrontUp,-20.09832,13.68176,84.46191,-45.96615,-103.7816,152.7954,-55.60397,202408221425437094
2-Mar,C_HumanVertical,1,Q3FrontUp,-20.09832,13.68176,84.46191,-45.96615,-103.7816,152.7954,-55.60397,202408221425437284
2-Mar,C_HumanVertical,1,Q3FrontUp,-20.69531,13.64159,84.9565,-46.18323,-103.7811,152.7956,-55.59596,202408221425437559
2-Mar,C_HumanVertical,1,Q3FrontUp,-21.27984,13.61499,85.39948,-46.38072,-103.7817,152.7946,-55.58299,202408221425437741
2-Mar,C_HumanVertical,1,Q3FrontUp,-21.27984,13.61499,85.39948,-46.38072,-103.7817,152.7946,-55.58299,202408221425437947
2-Mar,C_HumanVertical,1,Q3FrontUp,-21.79728,13.58615,85.79815,-46.55727,-103.7815,152.7952,-55.57407,202408221425438244
2-Mar,C_HumanVertical,1,Q3FrontUp,-22.27601,13.56626,86.17347,-46.71748,-103.7819,152.7946,-55.55814,202408221425438416
2-Mar,C_HumanVertical,1,Q3FrontUp,-22.27601,13.56626,86.17347,-46.71748,-103.7819,152.7946,-55.55814,202408221425438590
2-Mar,C_HumanVertical,1,Q3FrontUp,-22.7558,13.55145,86.53575,-46.87137,-103.7815,152.7951,-55.54285,202408221425438775
2-Mar,C_HumanVertical,1,Q3FrontUp,-22.7558,13.55145,86.53575,-46.87137,-103.7815,152.7951,-55.54285,202408221425438976
2-Mar,C_HumanVertical,1,Q3FrontUp,-23.23284,13.52282,86.88999,-47.03556,-103.7819,152.7939,-55.53331,202408221425439265
2-Mar,C_HumanVertical,1,Q3FrontUp,-23.67519,13.50495,87.23275,-47.17808,-103.781,152.7944,-55.51973,202408221425439404
2-Mar,C_HumanVertical,1,Q3FrontUp,-23.67519,13.50495,87.23275,-47.17808,-103.781,152.7944,-55.51973,202408221425439570
2-Mar,C_HumanVertical,1,Q3FrontUp,-24.08783,13.48953,87.5197,-47.32626,-103.7812,152.7943,-55.50126,202408221425439746
2-Mar,C_HumanVertical,1,Q3FrontUp,-24.08783,13.48953,87.5197,-47.32626,-103.7812,152.7943,-55.50126,202408221425439905
2-Mar,C_HumanVertical,1,Q3FrontUp,-24.4967,13.47675,87.80609,-47.49032,-103.7812,152.7942,-55.47751,202408221425440109
2-Mar,C_HumanVertical,1,Q3FrontUp,-24.89609,13.4598,88.04971,-47.69546,-103.7816,152.7941,-55.45708,202408221425440415
2-Mar,C_HumanVertical,1,Q3FrontUp,-24.89609,13.4598,88.04971,-47.69546,-103.7816,152.7941,-55.45708,202408221425440636
2-Mar,C_HumanVertical,1,Q3FrontUp,-25.28467,13.44643,88.28461,-47.891,-103.7819,152.794,-55.43589,202408221425440954
2-Mar,C_HumanVertical,1,Q3FrontUp,-25.61248,13.44724,88.49069,-48.06246,-103.782,152.7939,-55.41644,202408221425441157
2-Mar,C_HumanVertical,1,Q3FrontUp,-25.61248,13.44724,88.49069,-48.06246,-103.782,152.7939,-55.41644,202408221425441438
2-Mar,C_HumanVertical,1,Q3FrontUp,-25.94116,13.44763,88.65754,-48.29395,-103.7816,152.7933,-55.39709,202408221425441592
2-Mar,C_HumanVertical,1,Q3FrontUp,-26.26589,13.44624,88.77876,-48.5776,-103.781,152.7926,-55.37861,202408221425441776
2-Mar,C_HumanVertical,1,Q3FrontUp,-26.26589,13.44624,88.77876,-48.5776,-103.781,152.7926,-55.37861,202408221425441914
2-Mar,C_HumanVertical,1,Q3FrontUp,-26.26589,13.44624,88.77876,-48.5776,-103.781,152.7926,-55.37861,202408221425442148
2-Mar,C_HumanVertical,1,Q3FrontUp,-26.75384,13.43797,88.88602,-49.22779,-103.7805,152.7902,-55.3446,202408221425442416
2-Mar,C_HumanVertical,1,Q3FrontUp,-26.75384,13.43797,88.88602,-49.22779,-103.7805,152.7902,-55.3446,202408221425442599
2-Mar,C_HumanVertical,1,Q3FrontUp,-26.9266,13.43796,88.88077,-49.61431,-103.7805,152.7758,-55.32434,202408221425442766
2-Mar,C_HumanVertical,1,Q3FrontUp,-26.9266,13.43796,88.88077,-49.61431,-103.7805,152.7758,-55.32434,202408221425442925
2-Mar,C_HumanVertical,1,Q3FrontUp,-27.05947,13.45257,88.82962,-50.11786,-103.7817,152.7573,-55.30587,202408221425443099
2-Mar,C_HumanVertical,1,Q3FrontUp,-27.05947,13.45257,88.82962,-50.11786,-103.7817,152.7573,-55.30587,202408221425443269
2-Mar,C_HumanVertical,1,Q3FrontUp,-27.1684,13.45648,88.77845,-50.59245,-103.7817,152.7361,-55.28872,202408221425443496
2-Mar,C_HumanVertical,1,Q3FrontUp,-27.1684,13.45648,88.77845,-50.59245,-103.7817,152.7361,-55.28872,202408221425443653
2-Mar,C_HumanVertical,1,Q3FrontUp,-27.22324,13.48237,88.67587,-51.13132,-103.7809,152.722,-55.27224,202408221425443928
2-Mar,C_HumanVertical,1,Q3FrontUp,-27.2437,13.49712,88.49998,-51.78335,-103.7832,152.6785,-55.24881,202408221425444270
2-Mar,C_HumanVertical,1,Q3FrontUp,-27.24663,13.50163,88.36536,-52.39975,-103.784,152.6522,-55.22776,202408221425444426
2-Mar,C_HumanVertical,1,Q3FrontUp,-27.24663,13.50163,88.36536,-52.39975,-103.784,152.6522,-55.22776,202408221425444668
2-Mar,C_HumanVertical,1,Q3FrontUp,-27.20294,13.50491,88.17432,-53.05706,-103.783,152.6342,-55.20708,202408221425444907
2-Mar,C_HumanVertical,1,Q3FrontUp,-27.11847,13.50967,87.8663,-53.73194,-103.7845,152.608,-55.17778,202408221425445069
2-Mar,C_HumanVertical,1,Q3FrontUp,-27.11847,13.50967,87.8663,-53.73194,-103.7845,152.608,-55.17778,202408221425445296
2-Mar,C_HumanVertical,1,Q3FrontUp,-26.9851,13.52944,87.55054,-54.47373,-103.7842,152.574,-55.15893,202408221425445591
2-Mar,C_HumanVertical,1,Q3FrontUp,-26.84216,13.54504,87.19675,-55.232,-103.7834,152.5488,-55.13437,202408221425445823
2-Mar,C_HumanVertical,1,Q3FrontUp,-26.68728,13.56094,86.87136,-55.92688,-103.7841,152.5223,-55.10899,202408221425446067
2-Mar,C_HumanVertical,1,Q3FrontUp,-26.68728,13.56094,86.87136,-55.92688,-103.7841,152.5223,-55.10899,202408221425446232
2-Mar,C_HumanVertical,1,Q3FrontUp,-26.53089,13.61828,86.55286,-56.628,-103.7844,152.4809,-55.08489,202408221425446424
2-Mar,C_HumanVertical,1,Q3FrontUp,-26.32697,13.68112,86.22482,-57.32443,-103.7836,152.443,-55.06553,202408221425446769
2-Mar,C_HumanVertical,1,Q3FrontUp,-26.32697,13.68112,86.22482,-57.32443,-103.7836,152.443,-55.06553,202408221425446969
2-Mar,C_HumanVertical,1,Q3FrontUp,-26.12221,13.77357,85.91734,-57.96907,-103.7823,152.4137,-55.05074,202408221425447247
2-Mar,C_HumanVertical,1,Q3FrontUp,-26.12221,13.77357,85.91734,-57.96907,-103.7823,152.4137,-55.05074,202408221425447567
2-Mar,C_HumanVertical,1,Q3FrontUp,-25.69619,13.88198,85.28059,-59.18999,-103.7775,152.3899,-55.01619,202408221425447738
2-Mar,C_HumanVertical,1,Q3FrontUp,-25.69619,13.88198,85.28059,-59.18999,-103.7775,152.3899,-55.01619,202408221425447905
2-Mar,C_HumanVertical,1,Q3FrontUp,-25.45121,13.9517,84.97179,-59.75213,-103.7723,152.3788,-55.01254,202408221425448151
2-Mar,C_HumanVertical,1,Q3FrontUp,-25.18472,14.01166,84.62228,-60.28059,-103.7716,152.3734,-55.00176,202408221425448415
2-Mar,C_HumanVertical,1,Q3FrontUp,-25.18472,14.01166,84.62228,-60.28059,-103.7716,152.3734,-55.00176,202408221425448643
2-Mar,C_HumanVertical,1,Q3FrontUp,-24.92422,14.07291,84.23394,-60.79594,-103.7683,152.3689,-54.9885,202408221425448940
2-Mar,C_HumanVertical,1,Q3FrontUp,-24.68992,14.10536,83.88726,-61.23519,-103.7572,152.3449,-54.97631,202408221425449123
2-Mar,C_HumanVertical,1,Q3FrontUp,-24.48652,14.16023,83.53645,-61.66115,-103.7549,152.3271,-54.96405,202408221425449414
2-Mar,C_HumanVertical,1,Q3FrontUp,-24.48652,14.16023,83.53645,-61.66115,-103.7549,152.3271,-54.96405,202408221425449713
2-Mar,C_HumanVertical,1,Q3FrontUp,-24.29772,14.20962,83.18351,-62.07416,-103.7526,152.2893,-54.94862,202408221425449911
2-Mar,C_HumanVertical,1,Q3FrontUp,-24.10416,14.25485,82.79425,-62.42834,-103.7509,152.2385,-54.92808,202408221425450274
2-Mar,C_HumanVertical,1,Q3FrontUp,-23.93937,14.2963,82.44543,-62.78091,-103.7508,152.1859,-54.91109,202408221425450554
2-Mar,C_HumanVertical,1,Q3FrontUp,-23.82056,14.34086,82.13704,-63.09306,-103.7404,152.1217,-54.89895,202408221425450723
2-Mar,C_HumanVertical,1,Q3FrontUp,-23.82056,14.34086,82.13704,-63.09306,-103.7404,152.1217,-54.89895,202408221425450889
2-Mar,C_HumanVertical,1,Q3FrontUp,-23.70823,14.40449,81.84328,-63.41135,-103.7147,152.037,-54.89324,202408221425451069
2-Mar,C_HumanVertical,1,Q3FrontUp,-23.70823,14.40449,81.84328,-63.41135,-103.7147,152.037,-54.89324,202408221425451245
2-Mar,C_HumanVertical,1,Q3FrontUp,-23.6053,14.47442,81.55426,-63.71189,-103.6781,151.9554,-54.88486,202408221425451448
2-Mar,C_HumanVertical,1,Q3FrontUp,-23.48012,14.53029,81.2222,-63.9878,-103.6325,151.8904,-54.88007,202408221425451913
2-Mar,C_HumanVertical,1,Q3FrontUp,-23.48012,14.53029,81.2222,-63.9878,-103.6325,151.8904,-54.88007,202408221425452078
2-Mar,C_HumanVertical,1,Q3FrontUp,-23.36145,14.57306,80.90376,-64.24718,-103.584,151.8202,-54.88017,202408221425452255
2-Mar,C_HumanVertical,1,Q3FrontUp,-23.21812,14.61561,80.61856,-64.50317,-103.4847,151.7574,-54.87999,202408221425452458
2-Mar,C_HumanVertical,1,Q3FrontUp,-23.21812,14.61561,80.61856,-64.50317,-103.4847,151.7574,-54.87999,202408221425452748
2-Mar,C_HumanVertical,1,Q3FrontUp,-23.05175,14.69003,80.32169,-64.77937,-103.3709,151.7238,-54.8797,202408221425452910
2-Mar,C_HumanVertical,1,Q3FrontUp,-23.05175,14.69003,80.32169,-64.77937,-103.3709,151.7238,-54.8797,202408221425453088
2-Mar,C_HumanVertical,1,Q3FrontUp,-22.89044,14.7629,80.01939,-65.06508,-103.2426,151.7193,-54.87978,202408221425453255
2-Mar,C_HumanVertical,1,Q3FrontUp,-22.89044,14.7629,80.01939,-65.06508,-103.2426,151.7193,-54.87978,202408221425453488
2-Mar,C_HumanVertical,1,Q3FrontUp,-22.52651,14.8274,79.41734,-65.55703,-103.0809,151.7163,-54.88011,202408221425453759
2-Mar,C_HumanVertical,1,Q3FrontUp,-22.52651,14.8274,79.41734,-65.55703,-103.0809,151.7163,-54.88011,202408221425453924
2-Mar,C_HumanVertical,1,Q3FrontUp,-22.31229,14.8635,79.0777,-65.7598,-103.019,151.6969,-54.87988,202408221425454080
2-Mar,C_HumanVertical,1,Q3FrontUp,-22.31229,14.8635,79.0777,-65.7598,-103.019,151.6969,-54.87988,202408221425454246
2-Mar,C_HumanVertical,1,Q3FrontUp,-22.10383,14.90852,78.75275,-65.91715,-103.0007,151.5914,-54.88039,202408221425454609
2-Mar,C_HumanVertical,1,Q3FrontUp,-21.89207,14.97164,78.4528,-66.01649,-102.9932,151.4701,-54.88073,202408221425454798
2-Mar,C_HumanVertical,1,Q3FrontUp,-21.69057,15.02645,78.15206,-66.06113,-102.9929,151.3372,-54.88068,202408221425455066
2-Mar,C_HumanVertical,1,Q3FrontUp,-21.69057,15.02645,78.15206,-66.06113,-102.9929,151.3372,-54.88068,202408221425455234
2-Mar,C_HumanVertical,1,Q3FrontUp,-21.54766,15.06765,77.89649,-66.10059,-102.9929,151.2063,-54.8811,202408221425455413
2-Mar,C_HumanVertical,1,Q3FrontUp,-21.54766,15.06765,77.89649,-66.10059,-102.9929,151.2063,-54.8811,202408221425455594
2-Mar,C_HumanVertical,1,Q3FrontUp,-21.43972,15.10333,77.67677,-66.13065,-102.9927,151.079,-54.88053,202408221425455815
2-Mar,C_HumanVertical,1,Q3FrontUp,-21.35322,15.13337,77.46528,-66.14948,-102.9926,150.9463,-54.88075,202408221425456096
2-Mar,C_HumanVertical,1,Q3FrontUp,-21.35322,15.13337,77.46528,-66.14948,-102.9926,150.9463,-54.88075,202408221425456244
2-Mar,C_HumanVertical,1,Q3FrontUp,-21.27921,15.17043,77.27845,-66.15675,-102.9928,150.8279,-54.88095,202408221425456429
2-Mar,C_HumanVertical,1,Q3FrontUp,-21.27921,15.17043,77.27845,-66.15675,-102.9928,150.8279,-54.88095,202408221425456638
2-Mar,C_HumanVertical,1,Q3FrontUp,-21.20538,15.21392,77.11742,-66.16067,-102.993,150.7367,-54.88074,202408221425456802
2-Mar,C_HumanVertical,1,Q3FrontUp,-21.13358,15.2563,76.96557,-66.16783,-102.9929,150.6728,-54.87983,202408221425457082
2-Mar,C_HumanVertical,1,Q3FrontUp,-21.13358,15.2563,76.96557,-66.16783,-102.9929,150.6728,-54.87983,202408221425457232
2-Mar,C_HumanVertical,1,Q3FrontUp,-21.07545,15.28656,76.81425,-66.18369,-102.9929,150.6197,-54.87965,202408221425457403
2-Mar,C_HumanVertical,1,Q3FrontUp,-21.07545,15.28656,76.81425,-66.18369,-102.9929,150.6197,-54.87965,202408221425457578
2-Mar,C_HumanVertical,1,Q3FrontUp,-21.02274,15.31078,76.66756,-66.21,-102.993,150.5687,-54.87945,202408221425457740
2-Mar,C_HumanVertical,1,Q3FrontUp,-21.02274,15.31078,76.66756,-66.21,-102.993,150.5687,-54.87945,202408221425457949
2-Mar,C_HumanVertical,1,Q3FrontUp,-20.98853,15.33477,76.55594,-66.24514,-102.993,150.5233,-54.8794,202408221425458114
2-Mar,C_HumanVertical,1,Q3FrontUp,-20.96039,15.36332,76.44701,-66.30164,-102.9931,150.4964,-54.87889,202408221425458404
2-Mar,C_HumanVertical,1,Q3FrontUp,-20.96039,15.36332,76.44701,-66.30164,-102.9931,150.4964,-54.87889,202408221425458576
2-Mar,C_HumanVertical,1,Q3FrontUp,-20.96039,15.36332,76.44701,-66.30164,-102.9931,150.4964,-54.87889,202408221425458748
2-Mar,C_HumanVertical,1,Q3FrontUp,-20.9347,15.38891,76.34478,-66.37109,-102.9929,150.4701,-54.878,202408221425458978
2-Mar,C_HumanVertical,1,Q3FrontUp,-20.89908,15.42461,76.23223,-66.46298,-102.993,150.4487,-54.87724,202408221425459270
2-Mar,C_HumanVertical,1,Q3FrontUp,-20.86205,15.45676,76.11503,-66.58098,-102.9937,150.4432,-54.86887,202408221425459580
2-Mar,C_HumanVertical,1,Q3FrontUp,-20.83648,15.49234,76.00459,-66.71384,-102.9948,150.4402,-54.85913,202408221425459798
2-Mar,C_HumanVertical,1,Q3FrontUp,-20.82555,15.5298,75.91111,-66.85879,-102.9965,150.4383,-54.85505,202408221425460077
2-Mar,C_HumanVertical,1,Q3FrontUp,-20.82555,15.5298,75.91111,-66.85879,-102.9965,150.4383,-54.85505,202408221425460238
2-Mar,C_HumanVertical,1,Q3FrontUp,-20.82203,15.56861,75.83619,-67.0056,-102.9969,150.4355,-54.84777,202408221425460408
2-Mar,C_HumanVertical,1,Q3FrontUp,-20.82203,15.56861,75.83619,-67.0056,-102.9969,150.4355,-54.84777,202408221425460576
2-Mar,C_HumanVertical,1,Q3FrontUp,-20.82047,15.61568,75.75655,-67.16791,-102.9975,150.4238,-54.84436,202408221425460730
2-Mar,C_HumanVertical,1,Q3FrontUp,-20.82047,15.61568,75.75655,-67.16791,-102.9975,150.4238,-54.84436,202408221425460915
2-Mar,C_HumanVertical,1,Q3FrontUp,-20.82009,15.65183,75.67208,-67.33864,-102.9976,150.4016,-54.84438,202408221425461149
2-Mar,C_HumanVertical,1,Q3FrontUp,-20.82009,15.65183,75.67208,-67.33864,-102.9976,150.4016,-54.84438,202408221425461311
2-Mar,C_HumanVertical,1,Q3FrontUp,-20.81395,15.68512,75.5821,-67.51134,-103.0167,150.3913,-54.84073,202408221425461602
2-Mar,C_HumanVertical,1,Q3FrontUp,-20.79676,15.71636,75.48211,-67.68281,-103.0254,150.3807,-54.83136,202408221425461903
2-Mar,C_HumanVertical,1,Q3FrontUp,-20.79676,15.71636,75.48211,-67.68281,-103.0254,150.3807,-54.83136,202408221425462100
2-Mar,C_HumanVertical,1,Q3FrontUp,-20.77841,15.74274,75.36223,-67.87563,-103.0292,150.3604,-54.80865,202408221425462280
2-Mar,C_HumanVertical,1,Q3FrontUp,-20.74948,15.75965,75.21671,-68.08871,-103.0443,150.3172,-54.79241,202408221425462568
2-Mar,C_HumanVertical,1,Q3FrontUp,-20.74948,15.75965,75.21671,-68.08871,-103.0443,150.3172,-54.79241,202408221425462730
2-Mar,C_HumanVertical,1,Q3FrontUp,-20.72873,15.76533,75.08125,-68.28994,-103.0638,150.2688,-54.77715,202408221425462958
2-Mar,C_HumanVertical,1,Q3FrontUp,-20.71253,15.78134,74.96429,-68.50768,-103.0891,150.2234,-54.76488,202408221425463251
2-Mar,C_HumanVertical,1,Q3FrontUp,-20.71253,15.78134,74.96429,-68.50768,-103.0891,150.2234,-54.76488,202408221425463469
2-Mar,C_HumanVertical,1,Q3FrontUp,-20.6812,15.83205,74.76579,-68.9285,-103.1194,150.1091,-54.74364,202408221425463753
2-Mar,C_HumanVertical,1,Q3FrontUp,-20.6812,15.83205,74.76579,-68.9285,-103.1194,150.1091,-54.74364,202408221425463921
2-Mar,C_HumanVertical,1,Q3FrontUp,-20.64158,15.85681,74.64766,-69.1117,-103.1368,150.0007,-54.72866,202408221425464094
2-Mar,C_HumanVertical,1,Q3FrontUp,-20.55013,15.87157,74.47006,-69.2563,-103.1406,149.8724,-54.72795,202408221425464470
2-Mar,C_HumanVertical,1,Q3FrontUp,-20.55013,15.87157,74.47006,-69.2563,-103.1406,149.8724,-54.72795,202408221425464622
2-Mar,C_HumanVertical,1,Q3FrontUp,-20.44326,15.88774,74.28306,-69.38987,-103.1456,149.737,-54.72803,202408221425464891
2-Mar,C_HumanVertical,1,Q3FrontUp,-20.32326,15.91473,74.08621,-69.52118,-103.158,149.6216,-54.72749,202408221425465069
2-Mar,C_HumanVertical,1,Q3FrontUp,-20.32326,15.91473,74.08621,-69.52118,-103.158,149.6216,-54.72749,202408221425465233
2-Mar,C_HumanVertical,1,Q3FrontUp,-20.17928,15.93437,73.86219,-69.63874,-103.1599,149.5139,-54.72775,202408221425465405
2-Mar,C_HumanVertical,1,Q3FrontUp,-20.17928,15.93437,73.86219,-69.63874,-103.1599,149.5139,-54.72775,202408221425465576
2-Mar,C_HumanVertical,1,Q3FrontUp,-20.02656,15.94938,73.62949,-69.74416,-103.161,149.4009,-54.72764,202408221425465813
2-Mar,C_HumanVertical,1,Q3FrontUp,-20.02656,15.94938,73.62949,-69.74416,-103.161,149.4009,-54.72764,202408221425465966
2-Mar,C_HumanVertical,1,Q3FrontUp,-19.8806,15.98338,73.41891,-69.82875,-103.161,149.2643,-54.72836,202408221425466258
2-Mar,C_HumanVertical,1,Q3FrontUp,-19.75334,16.02261,73.22744,-69.90223,-103.1609,149.129,-54.72855,202408221425466406
2-Mar,C_HumanVertical,1,Q3FrontUp,-19.63657,16.06595,73.02947,-69.9642,-103.1614,148.9933,-54.72889,202408221425466771
2-Mar,C_HumanVertical,1,Q3FrontUp,-19.63657,16.06595,73.02947,-69.9642,-103.1614,148.9933,-54.72889,202408221425466951
2-Mar,C_HumanVertical,1,Q3FrontUp,-19.53927,16.11046,72.86137,-70.01797,-103.1619,148.8662,-54.72886,202408221425467232
2-Mar,C_HumanVertical,1,Q3FrontUp,-19.53927,16.11046,72.86137,-70.01797,-103.1619,148.8662,-54.72886,202408221425467396
2-Mar,C_HumanVertical,1,Q3FrontUp,-19.42911,16.15234,72.68564,-70.06299,-103.1615,148.7401,-54.72858,202408221425467614
2-Mar,C_HumanVertical,1,Q3FrontUp,-19.32795,16.20063,72.51541,-70.10607,-103.1617,148.6075,-54.72881,202408221425467914
2-Mar,C_HumanVertical,1,Q3FrontUp,-19.2372,16.24729,72.34061,-70.1385,-103.1617,148.4845,-54.72881,202408221425468128
2-Mar,C_HumanVertical,1,Q3FrontUp,-19.15519,16.27872,72.16393,-70.161,-103.1626,148.3891,-54.72788,202408221425468400
2-Mar,C_HumanVertical,1,Q3FrontUp,-19.15519,16.27872,72.16393,-70.161,-103.1626,148.3891,-54.72788,202408221425468566
2-Mar,C_HumanVertical,1,Q3FrontUp,-19.15519,16.27872,72.16393,-70.161,-103.1626,148.3891,-54.72788,202408221425468718
2-Mar,C_HumanVertical,1,Q3FrontUp,-19.10112,16.31305,72.02278,-70.18005,-103.1639,148.2962,-54.72808,202408221425468904
2-Mar,C_HumanVertical,1,Q3FrontUp,-19.06654,16.35246,71.89873,-70.19263,-103.1651,148.1966,-54.72789,202408221425469271
2-Mar,C_HumanVertical,1,Q3FrontUp,-19.0622,16.39813,71.81967,-70.19891,-103.1678,148.0695,-54.72783,202408221425469476
2-Mar,C_HumanVertical,1,Q3FrontUp,-19.06164,16.43941,71.75006,-70.20021,-103.1748,147.9439,-54.72766,202408221425469760
2-Mar,C_HumanVertical,1,Q3FrontUp,-19.06164,16.43941,71.75006,-70.20021,-103.1748,147.9439,-54.72766,202408221425470066
2-Mar,C_HumanVertical,1,Q3FrontUp,-19.06151,16.47374,71.68026,-70.2002,-103.1809,147.8172,-54.72772,202408221425470236
2-Mar,C_HumanVertical,1,Q3FrontUp,-19.06168,16.50555,71.61745,-70.19998,-103.1919,147.6652,-54.72791,202408221425470451
2-Mar,C_HumanVertical,1,Q3FrontUp,-19.06168,16.50555,71.61745,-70.19998,-103.1919,147.6652,-54.72791,202408221425470635
2-Mar,C_HumanVertical,1,Q3FrontUp,-19.05867,16.52633,71.54951,-70.20001,-103.2021,147.4906,-54.72758,202408221425470913
2-Mar,C_HumanVertical,1,Q3FrontUp,-19.05477,16.53954,71.47713,-70.19968,-103.2083,147.3222,-54.72754,202408221425471098
2-Mar,C_HumanVertical,1,Q3FrontUp,-19.05477,16.53954,71.47713,-70.19968,-103.2083,147.3222,-54.72754,202408221425471260
2-Mar,C_HumanVertical,1,Q3FrontUp,-19.02401,16.55065,71.36482,-70.19395,-103.2297,147.1852,-54.72805,202408221425471486
2-Mar,C_HumanVertical,1,Q3FrontUp,-18.94441,16.55488,71.19812,-70.18083,-103.2497,147.0766,-54.72929,202408221425471767
2-Mar,C_HumanVertical,1,Q3FrontUp,-18.80145,16.5549,70.94978,-70.14531,-103.2647,146.9954,-54.72987,202408221425472079
2-Mar,C_HumanVertical,1,Q3FrontUp,-18.80145,16.5549,70.94978,-70.14531,-103.2647,146.9954,-54.72987,202408221425472286
2-Mar,C_HumanVertical,1,Q3FrontUp,-18.64753,16.5554,70.70653,-70.12105,-103.2778,146.9249,-54.73033,202408221425472456
2-Mar,C_HumanVertical,1,Q3FrontUp,-18.64753,16.5554,70.70653,-70.12105,-103.2778,146.9249,-54.73033,202408221425472723
2-Mar,C_HumanVertical,1,Q3FrontUp,-18.48705,16.55566,70.46676,-70.10789,-103.2957,146.8517,-54.73093,202408221425472912
2-Mar,C_HumanVertical,1,Q3FrontUp,-18.29825,16.55891,70.18093,-70.08506,-103.318,146.7833,-54.73219,202408221425473077
2-Mar,C_HumanVertical,1,Q3FrontUp,-18.29825,16.55891,70.18093,-70.08506,-103.318,146.7833,-54.73219,202408221425473251
2-Mar,C_HumanVertical,1,Q3FrontUp,-18.0239,16.56124,69.79834,-70.05315,-103.3183,146.7106,-54.74529,202408221425473426
2-Mar,C_HumanVertical,1,Q3FrontUp,-18.0239,16.56124,69.79834,-70.05315,-103.3183,146.7106,-54.74529,202408221425473644
2-Mar,C_HumanVertical,1,Q3FrontUp,-17.69759,16.56089,69.37742,-70.01659,-103.318,146.6354,-54.76139,202408221425473911
2-Mar,C_HumanVertical,1,Q3FrontUp,-17.69759,16.56089,69.37742,-70.01659,-103.318,146.6354,-54.76139,202408221425474069
2-Mar,C_HumanVertical,1,Q3FrontUp,-17.69759,16.56089,69.37742,-70.01659,-103.318,146.6354,-54.76139,202408221425474257
2-Mar,C_HumanVertical,1,Q3FrontUp,-16.7801,16.56473,68.26277,-69.88084,-103.3183,146.4821,-54.79605,202408221425474398
2-Mar,C_HumanVertical,1,Q3FrontUp,-16.7801,16.56473,68.26277,-69.88084,-103.3183,146.4821,-54.79605,202408221425474587
2-Mar,C_HumanVertical,1,Q3FrontUp,-16.26632,16.56347,67.68115,-69.81761,-103.3179,146.4361,-54.80758,202408221425474790
2-Mar,C_HumanVertical,1,Q3FrontUp,-15.70278,16.56852,67.01487,-69.72123,-103.3183,146.401,-54.82813,202408221425475085
2-Mar,C_HumanVertical,1,Q3FrontUp,-15.70278,16.56852,67.01487,-69.72123,-103.3183,146.401,-54.82813,202408221425475242
2-Mar,C_HumanVertical,1,Q3FrontUp,-15.70278,16.56852,67.01487,-69.72123,-103.3183,146.401,-54.82813,202408221425475454
2-Mar,C_HumanVertical,1,Q3FrontUp,-14.71086,16.57828,65.87019,-69.59316,-103.3189,146.3716,-54.85512,202408221425475756
2-Mar,C_HumanVertical,1,Q3FrontUp,-14.71086,16.57828,65.87019,-69.59316,-103.3189,146.3716,-54.85512,202408221425475978
2-Mar,C_HumanVertical,1,Q3FrontUp,-14.22813,16.59816,65.30221,-69.50579,-103.3192,146.3636,-54.86598,202408221425476267
2-Mar,C_HumanVertical,1,Q3FrontUp,-13.67608,16.62584,64.66762,-69.36457,-103.3219,146.363,-54.88111,202408221425476596
2-Mar,C_HumanVertical,1,Q3FrontUp,-13.09001,16.65261,64.01498,-69.17345,-103.3307,146.364,-54.89459,202408221425476776
2-Mar,C_HumanVertical,1,Q3FrontUp,-13.09001,16.65261,64.01498,-69.17345,-103.3307,146.364,-54.89459,202408221425476959
2-Mar,C_HumanVertical,1,Q3FrontUp,-12.46612,16.70363,63.26694,-68.90397,-103.3467,146.364,-54.90226,202408221425477243
2-Mar,C_HumanVertical,1,Q3FrontUp,-11.80298,16.7646,62.50851,-68.61845,-103.3674,146.3643,-54.90575,202408221425477402
2-Mar,C_HumanVertical,1,Q3FrontUp,-11.80298,16.7646,62.50851,-68.61845,-103.3674,146.3643,-54.90575,202408221425477575
2-Mar,C_HumanVertical,1,Q3FrontUp,-11.15062,16.84133,61.70599,-68.27401,-103.3853,146.3665,-54.91061,202408221425477744
2-Mar,C_HumanVertical,1,Q3FrontUp,-11.15062,16.84133,61.70599,-68.27401,-103.3853,146.3665,-54.91061,202408221425477918
2-Mar,C_HumanVertical,1,Q3FrontUp,-10.54342,16.92331,60.9621,-67.90529,-103.3928,146.365,-54.92136,202408221425478141
2-Mar,C_HumanVertical,1,Q3FrontUp,-10.01087,17.02325,60.27146,-67.51331,-103.4019,146.3645,-54.92999,202408221425478410
2-Mar,C_HumanVertical,1,Q3FrontUp,-10.01087,17.02325,60.27146,-67.51331,-103.4019,146.3645,-54.92999,202408221425478643
2-Mar,C_HumanVertical,1,Q3FrontUp,-9.504181,17.11373,59.59446,-67.1488,-103.4052,146.3658,-54.93438,202408221425478928
2-Mar,C_HumanVertical,1,Q3FrontUp,-9.019576,17.21193,58.91581,-66.77409,-103.4067,146.3667,-54.9341,202408221425479122
2-Mar,C_HumanVertical,1,Q3FrontUp,-8.502794,17.31459,58.2087,-66.33606,-103.4075,146.3863,-54.93369,202408221425479413
2-Mar,C_HumanVertical,1,Q3FrontUp,-8.502794,17.31459,58.2087,-66.33606,-103.4075,146.3863,-54.93369,202408221425479566
2-Mar,C_HumanVertical,1,Q3FrontUp,-8.502794,17.31459,58.2087,-66.33606,-103.4075,146.3863,-54.93369,202408221425479744
2-Mar,C_HumanVertical,1,Q3FrontUp,-8.012608,17.42342,57.49076,-65.84996,-103.4098,146.3887,-54.93324,202408221425479905
2-Mar,C_HumanVertical,1,Q3FrontUp,-7.524611,17.53454,56.81342,-65.40083,-103.4138,146.388,-54.93327,202408221425480090
2-Mar,C_HumanVertical,1,Q3FrontUp,-7.524611,17.53454,56.81342,-65.40083,-103.4138,146.388,-54.93327,202408221425480296
2-Mar,C_HumanVertical,1,Q3FrontUp,-7.11585,17.62781,56.1836,-64.95281,-103.419,146.3867,-54.93245,202408221425480580
2-Mar,C_HumanVertical,1,Q3FrontUp,-6.714567,17.73393,55.55452,-64.49518,-103.4334,146.3891,-54.93282,202408221425480737
2-Mar,C_HumanVertical,1,Q3FrontUp,-6.714567,17.73393,55.55452,-64.49518,-103.4334,146.3891,-54.93282,202408221425480907
2-Mar,C_HumanVertical,1,Q3FrontUp,-6.321171,17.84926,54.94059,-64.013,-103.4595,146.3897,-54.93246,202408221425481078
2-Mar,C_HumanVertical,1,Q3FrontUp,-6.321171,17.84926,54.94059,-64.013,-103.4595,146.3897,-54.93246,202408221425481236
2-Mar,C_HumanVertical,1,Q3FrontUp,-6.321171,17.84926,54.94059,-64.013,-103.4595,146.3897,-54.93246,202408221425481453
2-Mar,C_HumanVertical,1,Q3FrontUp,-5.682381,18.07344,53.84545,-63.06312,-103.5437,146.3881,-54.93307,202408221425481750
2-Mar,C_HumanVertical,1,Q3FrontUp,-5.682381,18.07344,53.84545,-63.06312,-103.5437,146.3881,-54.93307,202408221425481958
2-Mar,C_HumanVertical,1,Q3FrontUp,-5.409561,18.18933,53.31692,-62.58535,-103.6118,146.3885,-54.93235,202408221425482244
2-Mar,C_HumanVertical,1,Q3FrontUp,-5.125956,18.30709,52.75718,-62.10916,-103.647,146.3882,-54.93269,202408221425482447
2-Mar,C_HumanVertical,1,Q3FrontUp,-4.87594,18.39403,52.2325,-61.64253,-103.6949,146.3881,-54.93303,202408221425482741
2-Mar,C_HumanVertical,1,Q3FrontUp,-4.87594,18.39403,52.2325,-61.64253,-103.6949,146.3881,-54.93303,202408221425482896
2-Mar,C_HumanVertical,1,Q3FrontUp,-4.87594,18.39403,52.2325,-61.64253,-103.6949,146.3881,-54.93303,202408221425483076
2-Mar,C_HumanVertical,1,Q3FrontUp,-4.639468,18.51617,51.73827,-61.18259,-103.7494,146.3879,-54.93314,202408221425483249
2-Mar,C_HumanVertical,1,Q3FrontUp,-4.369882,18.62488,51.22364,-60.73832,-103.8064,146.3898,-54.93203,202408221425483485
2-Mar,C_HumanVertical,1,Q3FrontUp,-4.369882,18.62488,51.22364,-60.73832,-103.8064,146.3898,-54.93203,202408221425483640
2-Mar,C_HumanVertical,1,Q3FrontUp,-4.125182,18.73146,50.7132,-60.32862,-103.8668,146.3901,-54.93242,202408221425483927
2-Mar,C_HumanVertical,1,Q3FrontUp,-3.906115,18.82423,50.1914,-59.91764,-103.9183,146.3884,-54.93324,202408221425484248
2-Mar,C_HumanVertical,1,Q3FrontUp,-3.693666,18.90747,49.71209,-59.58646,-103.9591,146.3892,-54.93362,202408221425484396
2-Mar,C_HumanVertical,1,Q3FrontUp,-3.693666,18.90747,49.71209,-59.58646,-103.9591,146.3892,-54.93362,202408221425484584
2-Mar,C_HumanVertical,1,Q3FrontUp,-3.507306,18.99103,49.27472,-59.27781,-104.0098,146.3896,-54.93407,202408221425484786
2-Mar,C_HumanVertical,1,Q3FrontUp,-3.507306,18.99103,49.27472,-59.27781,-104.0098,146.3896,-54.93407,202408221425484954
2-Mar,C_HumanVertical,1,Q3FrontUp,-3.336828,19.07776,48.83263,-58.9739,-104.0674,146.3886,-54.93425,202408221425485230
2-Mar,C_HumanVertical,1,Q3FrontUp,-3.122833,19.15086,48.34162,-58.67215,-104.1245,146.3895,-54.93578,202408221425485404
2-Mar,C_HumanVertical,1,Q3FrontUp,-3.122833,19.15086,48.34162,-58.67215,-104.1245,146.3895,-54.93578,202408221425485592
2-Mar,C_HumanVertical,1,Q3FrontUp,-2.887809,19.23092,47.86429,-58.36989,-104.1708,146.3896,-54.93796,202408221425485814
2-Mar,C_HumanVertical,1,Q3FrontUp,-2.669032,19.30998,47.35297,-58.10229,-104.2042,146.3891,-54.93948,202408221425486077
2-Mar,C_HumanVertical,1,Q3FrontUp,-2.669032,19.30998,47.35297,-58.10229,-104.2042,146.3891,-54.93948,202408221425486243
2-Mar,C_HumanVertical,1,Q3FrontUp,-2.431485,19.38451,46.84979,-57.83649,-104.2432,146.3895,-54.94398,202408221425486419
2-Mar,C_HumanVertical,1,Q3FrontUp,-2.431485,19.38451,46.84979,-57.83649,-104.2432,146.3895,-54.94398,202408221425486643
2-Mar,C_HumanVertical,1,Q3FrontUp,-2.193699,19.46558,46.36169,-57.57391,-104.2759,146.3892,-54.95651,202408221425486796
2-Mar,C_HumanVertical,1,Q3FrontUp,-2.193699,19.46558,46.36169,-57.57391,-104.2759,146.3892,-54.95651,202408221425487082
2-Mar,C_HumanVertical,1,Q3FrontUp,-2.021931,19.54084,45.9346,-57.35633,-104.2953,146.389,-54.9634,202408221425487309
2-Mar,C_HumanVertical,1,Q3FrontUp,-1.81464,19.60866,45.4785,-57.12743,-104.3157,146.3903,-54.9693,202408221425487583
2-Mar,C_HumanVertical,1,Q3FrontUp,-1.586254,19.67132,45.01514,-56.8769,-104.3378,146.3928,-54.9795,202408221425487751
2-Mar,C_HumanVertical,1,Q3FrontUp,-1.586254,19.67132,45.01514,-56.8769,-104.3378,146.3928,-54.9795,202408221425487974
2-Mar,C_HumanVertical,1,Q3FrontUp,-1.3766,19.74004,44.57163,-56.63144,-104.3602,146.3952,-54.98748,202408221425488133
2-Mar,C_HumanVertical,1,Q3FrontUp,-1.203794,19.81849,44.15699,-56.39377,-104.3785,146.3975,-54.99628,202408221425488406
2-Mar,C_HumanVertical,1,Q3FrontUp,-1.203794,19.81849,44.15699,-56.39377,-104.3785,146.3975,-54.99628,202408221425488575
2-Mar,C_HumanVertical,1,Q3FrontUp,-1.029239,19.88305,43.74568,-56.15237,-104.3885,146.4044,-55.00615,202408221425488779
2-Mar,C_HumanVertical,1,Q3FrontUp,-1.029239,19.88305,43.74568,-56.15237,-104.3885,146.4044,-55.00615,202408221425488975
2-Mar,C_HumanVertical,1,Q3FrontUp,-0.8256345,19.95552,43.29593,-55.89208,-104.3939,146.4069,-55.01841,202408221425489257
2-Mar,C_HumanVertical,1,Q3FrontUp,-0.6216234,20.05237,42.836,-55.5625,-104.4112,146.424,-55.01861,202408221425489580
2-Mar,C_HumanVertical,1,Q3FrontUp,-0.4299894,20.14156,42.41807,-55.24742,-104.4252,146.442,-55.02697,202408221425489779
2-Mar,C_HumanVertical,1,Q3FrontUp,-0.2266209,20.23173,41.97953,-54.92908,-104.4329,146.4557,-55.05054,202408221425490067
2-Mar,C_HumanVertical,1,Q3FrontUp,-0.03987563,20.34849,41.56497,-54.5477,-104.4423,146.466,-55.07845,202408221425490403
2-Mar,C_HumanVertical,1,Q3FrontUp,-0.03987563,20.34849,41.56497,-54.5477,-104.4423,146.466,-55.07845,202408221425490566
2-Mar,C_HumanVertical,1,Q3FrontUp,-0.03987563,20.34849,41.56497,-54.5477,-104.4423,146.466,-55.07845,202408221425490724
2-Mar,C_HumanVertical,1,Q3FrontUp,0.1260297,20.44486,41.15629,-54.17749,-104.4502,146.4783,-55.10254,202408221425490913
2-Mar,C_HumanVertical,1,Q3FrontUp,0.2962303,20.54802,40.74299,-53.73708,-104.4574,146.4992,-55.12119,202408221425491137
2-Mar,C_HumanVertical,1,Q3FrontUp,0.2962303,20.54802,40.74299,-53.73708,-104.4574,146.4992,-55.12119,202408221425491312
2-Mar,C_HumanVertical,1,Q3FrontUp,0.4544161,20.65011,40.3362,-53.3102,-104.4596,146.5079,-55.14289,202408221425491596
2-Mar,C_HumanVertical,1,Q3FrontUp,0.6137773,20.7589,39.91794,-52.8528,-104.46,146.5096,-55.15496,202408221425491765
2-Mar,C_HumanVertical,1,Q3FrontUp,0.6137773,20.7589,39.91794,-52.8528,-104.46,146.5096,-55.15496,202408221425491915
2-Mar,C_HumanVertical,1,Q3FrontUp,0.7605686,20.85321,39.52538,-52.38115,-104.4601,146.5097,-55.16507,202408221425492127
2-Mar,C_HumanVertical,1,Q3FrontUp,0.7605686,20.85321,39.52538,-52.38115,-104.4601,146.5097,-55.16507,202408221425492395
2-Mar,C_HumanVertical,1,Q3FrontUp,0.8920776,20.92597,39.1479,-51.98202,-104.4602,146.5092,-55.17734,202408221425492567
2-Mar,C_HumanVertical,1,Q3FrontUp,1.01269,21.00147,38.82201,-51.58001,-104.46,146.5099,-55.18813,202408221425492720
2-Mar,C_HumanVertical,1,Q3FrontUp,1.01269,21.00147,38.82201,-51.58001,-104.46,146.5099,-55.18813,202408221425492971
2-Mar,C_HumanVertical,1,Q3FrontUp,1.134665,21.07675,38.48017,-51.15017,-104.4596,146.5099,-55.2084,202408221425493113
2-Mar,C_HumanVertical,1,Q3FrontUp,1.240271,21.1306,38.18088,-50.74284,-104.4597,146.5101,-55.23203,202408221425493402
2-Mar,C_HumanVertical,1,Q3FrontUp,1.240271,21.1306,38.18088,-50.74284,-104.4597,146.5101,-55.23203,202408221425493600
2-Mar,C_HumanVertical,1,Q3FrontUp,1.362082,21.18776,37.83445,-50.31082,-104.4595,146.5108,-55.26133,202408221425493744
2-Mar,C_HumanVertical,1,Q3FrontUp,1.362082,21.18776,37.83445,-50.31082,-104.4595,146.5108,-55.26133,202408221425493923
2-Mar,C_HumanVertical,1,Q3FrontUp,1.487321,21.22658,37.53418,-49.93785,-104.459,146.5105,-55.2873,202408221425494108
2-Mar,C_HumanVertical,1,Q3FrontUp,1.487321,21.22658,37.53418,-49.93785,-104.459,146.5105,-55.2873,202408221425494307
2-Mar,C_HumanVertical,1,Q3FrontUp,1.573791,21.26376,37.27597,-49.57899,-104.4591,146.5107,-55.31347,202408221425494613
2-Mar,C_HumanVertical,1,Q3FrontUp,1.659064,21.28918,37.01771,-49.24061,-104.4586,146.513,-55.34286,202408221425494906
2-Mar,C_HumanVertical,1,Q3FrontUp,1.737276,21.30881,36.7549,-48.94915,-104.4592,146.5138,-55.37658,202408221425495243
2-Mar,C_HumanVertical,1,Q3FrontUp,1.737276,21.30881,36.7549,-48.94915,-104.4592,146.5138,-55.37658,202408221425495459
2-Mar,C_HumanVertical,1,Q3FrontUp,1.864264,21.34525,36.26169,-48.4114,-104.4589,146.5185,-55.419,202408221425495739
2-Mar,C_HumanVertical,1,Q3FrontUp,1.864264,21.34525,36.26169,-48.4114,-104.4589,146.5185,-55.419,202408221425495914
2-Mar,C_HumanVertical,1,Q3FrontUp,1.910099,21.3569,36.01411,-48.15221,-104.4593,146.5422,-55.42951,202408221425496167
2-Mar,C_HumanVertical,1,Q3FrontUp,1.93005,21.38273,35.84182,-47.90806,-104.4593,146.5538,-55.43035,202408221425496460
2-Mar,C_HumanVertical,1,Q3FrontUp,1.93005,21.38273,35.84182,-47.90806,-104.4593,146.5538,-55.43035,202408221425496627
2-Mar,C_HumanVertical,1,Q3FrontUp,1.941073,21.4031,35.68719,-47.70287,-104.4592,146.5656,-55.43844,202408221425496908
2-Mar,C_HumanVertical,1,Q3FrontUp,1.940782,21.43856,35.55703,-47.51969,-104.4593,146.5804,-55.46127,202408221425497068
2-Mar,C_HumanVertical,1,Q3FrontUp,1.933354,21.48841,35.46506,-47.33126,-104.4685,146.6123,-55.46113,202408221425497404
2-Mar,C_HumanVertical,1,Q3FrontUp,1.933354,21.48841,35.46506,-47.33126,-104.4685,146.6123,-55.46113,202408221425497591
2-Mar,C_HumanVertical,1,Q3FrontUp,1.930678,21.53961,35.39317,-47.13362,-104.4788,146.6506,-55.46028,202408221425497798
2-Mar,C_HumanVertical,1,Q3FrontUp,1.918652,21.58127,35.33413,-46.98741,-104.4881,146.6875,-55.45988,202408221425498069
2-Mar,C_HumanVertical,1,Q3FrontUp,1.918652,21.58127,35.33413,-46.98741,-104.4881,146.6875,-55.45988,202408221425498243
2-Mar,C_HumanVertical,1,Q3FrontUp,1.891101,21.62216,35.28913,-46.87373,-104.488,146.7054,-55.47881,202408221425498407
2-Mar,C_HumanVertical,1,Q3FrontUp,1.891101,21.62216,35.28913,-46.87373,-104.488,146.7054,-55.47881,202408221425498585
2-Mar,C_HumanVertical,1,Q3FrontUp,1.867977,21.65608,35.2529,-46.77449,-104.4879,146.7196,-55.50189,202408221425498805
2-Mar,C_HumanVertical,1,Q3FrontUp,1.848665,21.68924,35.22238,-46.6791,-104.4881,146.7413,-55.51552,202408221425499094
2-Mar,C_HumanVertical,1,Q3FrontUp,1.848665,21.68924,35.22238,-46.6791,-104.4881,146.7413,-55.51552,202408221425499270
2-Mar,C_HumanVertical,1,Q3FrontUp,1.848665,21.68924,35.22238,-46.6791,-104.4881,146.7413,-55.51552,202408221425499478
2-Mar,C_HumanVertical,1,Q3FrontUp,1.81927,21.77299,35.16299,-46.48558,-104.4879,146.7959,-55.54337,202408221425499737
2-Mar,C_HumanVertical,1,Q3FrontUp,1.81927,21.77299,35.16299,-46.48558,-104.4879,146.7959,-55.54337,202408221425499954
2-Mar,C_HumanVertical,1,Q3FrontUp,1.798769,21.80512,35.14121,-46.41976,-104.488,146.8181,-55.57378,202408221425500239
2-Mar,C_HumanVertical,1,Q3FrontUp,1.759699,21.83525,35.12911,-46.36425,-104.4917,146.8643,-55.575,202408221425500407
2-Mar,C_HumanVertical,1,Q3FrontUp,1.759699,21.83525,35.12911,-46.36425,-104.4917,146.8643,-55.575,202408221425500592
2-Mar,C_HumanVertical,1,Q3FrontUp,1.708445,21.85412,35.11065,-46.33326,-104.4936,146.9218,-55.57948,202408221425500743
2-Mar,C_HumanVertical,1,Q3FrontUp,1.708445,21.85412,35.11065,-46.33326,-104.4936,146.9218,-55.57948,202408221425500907
2-Mar,C_HumanVertical,1,Q3FrontUp,1.648815,21.86534,35.08656,-46.33195,-104.4932,146.9881,-55.59953,202408221425501145
2-Mar,C_HumanVertical,1,Q3FrontUp,1.583886,21.87523,35.04627,-46.333,-104.4936,147.0929,-55.60262,202408221425501413
2-Mar,C_HumanVertical,1,Q3FrontUp,1.508338,21.88314,35.01018,-46.33297,-104.4972,147.182,-55.60276,202408221425501762
2-Mar,C_HumanVertical,1,Q3FrontUp,1.508338,21.88314,35.01018,-46.33297,-104.4972,147.182,-55.60276,202408221425501894
2-Mar,C_HumanVertical,1,Q3FrontUp,1.426262,21.89427,34.98844,-46.3325,-104.514,147.2528,-55.60272,202408221425502089
2-Mar,C_HumanVertical,1,Q3FrontUp,1.426262,21.89427,34.98844,-46.3325,-104.514,147.2528,-55.60272,202408221425502288
2-Mar,C_HumanVertical,1,Q3FrontUp,1.337665,21.90834,34.95712,-46.33265,-104.5303,147.3087,-55.6027,202408221425502575
2-Mar,C_HumanVertical,1,Q3FrontUp,1.337665,21.90834,34.95712,-46.33265,-104.5303,147.3087,-55.6027,202408221425502777
2-Mar,C_HumanVertical,1,Q3FrontUp,1.070218,21.92919,34.9389,-46.35292,-104.5539,147.4648,-55.60212,202408221425503087
2-Mar,C_HumanVertical,1,Q3FrontUp,1.070218,21.92919,34.9389,-46.35292,-104.5539,147.4648,-55.60212,202408221425503307
2-Mar,C_HumanVertical,1,Q3FrontUp,0.9101992,21.93858,34.9385,-46.35658,-104.5658,147.5327,-55.60221,202408221425503600
2-Mar,C_HumanVertical,1,Q3FrontUp,0.7422132,21.94918,34.93746,-46.36416,-104.5723,147.5984,-55.60213,202408221425503893
2-Mar,C_HumanVertical,1,Q3FrontUp,0.7422132,21.94918,34.93746,-46.36416,-104.5723,147.5984,-55.60213,202408221425504088
2-Mar,C_HumanVertical,1,Q3FrontUp,0.5563076,21.96245,34.93444,-46.3805,-104.5726,147.651,-55.60236,202408221425504304
2-Mar,C_HumanVertical,1,Q3FrontUp,0.3531778,21.97146,34.93555,-46.40604,-104.581,147.7309,-55.60013,202408221425504596
2-Mar,C_HumanVertical,1,Q3FrontUp,0.1513584,21.98236,34.93423,-46.4306,-104.5909,147.8167,-55.59709,202408221425504898
2-Mar,C_HumanVertical,1,Q3FrontUp,-0.05495793,21.99756,34.92197,-46.45861,-104.5981,147.8985,-55.59375,202408221425505076
2-Mar,C_HumanVertical,1,Q3FrontUp,-0.05495793,21.99756,34.92197,-46.45861,-104.5981,147.8985,-55.59375,202408221425505240
2-Mar,C_HumanVertical,1,Q3FrontUp,-0.2743045,22.02073,34.91861,-46.48912,-104.612,147.9885,-55.59346,202408221425505423
2-Mar,C_HumanVertical,1,Q3FrontUp,-0.2743045,22.02073,34.91861,-46.48912,-104.612,147.9885,-55.59346,202408221425505635
2-Mar,C_HumanVertical,1,Q3FrontUp,-0.5062046,22.03065,34.92056,-46.55198,-104.6203,148.052,-55.61724,202408221425505809
2-Mar,C_HumanVertical,1,Q3FrontUp,-0.7437422,22.03486,34.9187,-46.68004,-104.6203,148.0519,-55.68761,202408221425506135
2-Mar,C_HumanVertical,1,Q3FrontUp,-0.7437422,22.03486,34.9187,-46.68004,-104.6203,148.0519,-55.68761,202408221425506290
2-Mar,C_HumanVertical,1,Q3FrontUp,-0.981468,22.04173,34.91785,-46.80442,-104.6206,148.0528,-55.74903,202408221425506514
2-Mar,C_HumanVertical,1,Q3FrontUp,-1.240415,22.05176,34.91713,-46.94157,-104.6207,148.053,-55.80475,202408221425506741
2-Mar,C_HumanVertical,1,Q3FrontUp,-1.240415,22.05176,34.91713,-46.94157,-104.6207,148.053,-55.80475,202408221425506916
2-Mar,C_HumanVertical,1,Q3FrontUp,-1.475166,22.06704,34.91521,-47.06593,-104.6208,148.0528,-55.85308,202408221425507086
2-Mar,C_HumanVertical,1,Q3FrontUp,-1.700389,22.09962,34.91539,-47.19658,-104.6209,148.0533,-55.89779,202408221425507457
2-Mar,C_HumanVertical,1,Q3FrontUp,-1.700389,22.09962,34.91539,-47.19658,-104.6209,148.0533,-55.89779,202408221425507624
2-Mar,C_HumanVertical,1,Q3FrontUp,-1.920683,22.13138,34.91918,-47.32144,-104.621,148.0561,-55.94375,202408221425507898
2-Mar,C_HumanVertical,1,Q3FrontUp,-1.920683,22.13138,34.91918,-47.32144,-104.621,148.0561,-55.94375,202408221425508089
2-Mar,C_HumanVertical,1,Q3FrontUp,-2.15089,22.1595,34.91982,-47.46378,-104.6213,148.0577,-55.99464,202408221425508251
2-Mar,C_HumanVertical,1,Q3FrontUp,-2.351838,22.18956,34.91994,-47.59087,-104.6213,148.0596,-56.03278,202408221425508422
2-Mar,C_HumanVertical,1,Q3FrontUp,-2.351838,22.18956,34.91994,-47.59087,-104.6213,148.0596,-56.03278,202408221425508616
2-Mar,C_HumanVertical,1,Q3FrontUp,-2.351838,22.18956,34.91994,-47.59087,-104.6213,148.0596,-56.03278,202408221425508841
2-Mar,C_HumanVertical,1,Q3FrontUp,-2.809862,22.28518,34.98284,-47.84627,-104.6226,148.0777,-56.09734,202408221425509075
2-Mar,C_HumanVertical,1,Q3FrontUp,-2.809862,22.28518,34.98284,-47.84627,-104.6226,148.0777,-56.09734,202408221425509287
2-Mar,C_HumanVertical,1,Q3FrontUp,-3.023937,22.33753,35.01387,-47.9423,-104.623,148.082,-56.12694,202408221425509585
2-Mar,C_HumanVertical,1,Q3FrontUp,-3.215565,22.39323,35.04333,-48.02494,-104.6234,148.0867,-56.15484,202408221425509750
2-Mar,C_HumanVertical,1,Q3FrontUp,-3.215565,22.39323,35.04333,-48.02494,-104.6234,148.0867,-56.15484,202408221425509957
2-Mar,C_HumanVertical,1,Q3FrontUp,-3.427807,22.45593,35.07705,-48.10301,-104.6234,148.0974,-56.18598,202408221425510235
2-Mar,C_HumanVertical,1,Q3FrontUp,-3.634763,22.52724,35.13603,-48.13076,-104.6485,148.2318,-56.14563,202408221425510406
2-Mar,C_HumanVertical,1,Q3FrontUp,-3.634763,22.52724,35.13603,-48.13076,-104.6485,148.2318,-56.14563,202408221425510613
2-Mar,C_HumanVertical,1,Q3FrontUp,-3.826731,22.58788,35.19889,-48.13947,-104.6813,148.362,-56.10572,202408221425510899
2-Mar,C_HumanVertical,1,Q3FrontUp,-4.015689,22.63239,35.26579,-48.14498,-104.7184,148.4635,-56.07423,202408221425511135
2-Mar,C_HumanVertical,1,Q3FrontUp,-4.223535,22.66297,35.32653,-48.17064,-104.7332,148.5595,-56.06142,202408221425511446
2-Mar,C_HumanVertical,1,Q3FrontUp,-4.223535,22.66297,35.32653,-48.17064,-104.7332,148.5595,-56.06142,202408221425511598
2-Mar,C_HumanVertical,1,Q3FrontUp,-4.427558,22.67542,35.39585,-48.20642,-104.7443,148.6353,-56.0546,202408221425511936
2-Mar,C_HumanVertical,1,Q3FrontUp,-4.609216,22.6782,35.46038,-48.25404,-104.7464,148.6935,-56.04781,202408221425512121
2-Mar,C_HumanVertical,1,Q3FrontUp,-4.833248,22.67734,35.60056,-48.33821,-104.7469,148.7478,-56.03854,202408221425512404
2-Mar,C_HumanVertical,1,Q3FrontUp,-4.833248,22.67734,35.60056,-48.33821,-104.7469,148.7478,-56.03854,202408221425512569
2-Mar,C_HumanVertical,1,Q3FrontUp,-5.04966,22.67611,35.75602,-48.43467,-104.7466,148.8051,-56.03463,202408221425512749
2-Mar,C_HumanVertical,1,Q3FrontUp,-5.04966,22.67611,35.75602,-48.43467,-104.7466,148.8051,-56.03463,202408221425512913
2-Mar,C_HumanVertical,1,Q3FrontUp,-5.242814,22.67693,35.92584,-48.53798,-104.7465,148.8619,-56.03224,202408221425513098
2-Mar,C_HumanVertical,1,Q3FrontUp,-5.242814,22.67693,35.92584,-48.53798,-104.7465,148.8619,-56.03224,202408221425513316
2-Mar,C_HumanVertical,1,Q3FrontUp,-5.430282,22.67775,36.09052,-48.64226,-104.7466,148.9343,-56.02553,202408221425513578
2-Mar,C_HumanVertical,1,Q3FrontUp,-5.615218,22.68086,36.24395,-48.74528,-104.7466,149.0189,-56.00434,202408221425513808
2-Mar,C_HumanVertical,1,Q3FrontUp,-5.786367,22.68643,36.40549,-48.84733,-104.7467,149.1079,-55.97819,202408221425514101
2-Mar,C_HumanVertical,1,Q3FrontUp,-5.786367,22.68643,36.40549,-48.84733,-104.7467,149.1079,-55.97819,202408221425514316
2-Mar,C_HumanVertical,1,Q3FrontUp,-5.943737,22.68856,36.55658,-48.96148,-104.7408,149.1639,-55.98759,202408221425514596
2-Mar,C_HumanVertical,1,Q3FrontUp,-6.096315,22.68813,36.69944,-49.07629,-104.7393,149.2084,-55.99149,202408221425514900
2-Mar,C_HumanVertical,1,Q3FrontUp,-6.229339,22.68809,36.83524,-49.18656,-104.7393,149.2549,-55.98999,202408221425515077
2-Mar,C_HumanVertical,1,Q3FrontUp,-6.229339,22.68809,36.83524,-49.18656,-104.7393,149.2549,-55.98999,202408221425515251
2-Mar,C_HumanVertical,1,Q3FrontUp,-6.35805,22.69064,36.96608,-49.3004,-104.7398,149.3123,-55.98216,202408221425515468
2-Mar,C_HumanVertical,1,Q3FrontUp,-6.49186,22.70506,37.09568,-49.40479,-104.74,149.3761,-55.96999,202408221425515745
2-Mar,C_HumanVertical,1,Q3FrontUp,-6.49186,22.70506,37.09568,-49.40479,-104.74,149.3761,-55.96999,202408221425515917
2-Mar,C_HumanVertical,1,Q3FrontUp,-6.643295,22.7294,37.23336,-49.50471,-104.7398,149.4477,-55.95604,202408221425516266
2-Mar,C_HumanVertical,1,Q3FrontUp,-6.779819,22.758,37.36326,-49.58035,-104.7399,149.5033,-55.94486,202408221425516439
2-Mar,C_HumanVertical,1,Q3FrontUp,-6.779819,22.758,37.36326,-49.58035,-104.7399,149.5033,-55.94486,202408221425516646
2-Mar,C_HumanVertical,1,Q3FrontUp,-6.9286,22.79608,37.50275,-49.64888,-104.7399,149.5513,-55.92982,202408221425516952
2-Mar,C_HumanVertical,1,Q3FrontUp,-7.083909,22.83478,37.65178,-49.7199,-104.7397,149.5973,-55.91544,202408221425517239
2-Mar,C_HumanVertical,1,Q3FrontUp,-7.083909,22.83478,37.65178,-49.7199,-104.7397,149.5973,-55.91544,202408221425517411
2-Mar,C_HumanVertical,1,Q3FrontUp,-7.083909,22.83478,37.65178,-49.7199,-104.7397,149.5973,-55.91544,202408221425517588
2-Mar,C_HumanVertical,1,Q3FrontUp,-7.447317,22.88339,37.96663,-49.94373,-104.6851,149.6437,-55.93258,202408221425517777
2-Mar,C_HumanVertical,1,Q3FrontUp,-7.447317,22.88339,37.96663,-49.94373,-104.6851,149.6437,-55.93258,202408221425518079
2-Mar,C_HumanVertical,1,Q3FrontUp,-7.655333,22.91631,38.17537,-50.0553,-104.6859,149.6858,-55.91929,202408221425518234
2-Mar,C_HumanVertical,1,Q3FrontUp,-7.897644,22.95336,38.44207,-50.1618,-104.676,149.7227,-55.92854,202408221425518415
2-Mar,C_HumanVertical,1,Q3FrontUp,-7.897644,22.95336,38.44207,-50.1618,-104.676,149.7227,-55.92854,202408221425518653
2-Mar,C_HumanVertical,1,Q3FrontUp,-8.150444,23.00139,38.7183,-50.258,-104.6725,149.7588,-55.93285,202408221425518924
2-Mar,C_HumanVertical,1,Q3FrontUp,-8.397602,23.05463,39.0058,-50.34721,-104.6727,149.7868,-55.93182,202408221425519110
2-Mar,C_HumanVertical,1,Q3FrontUp,-8.397602,23.05463,39.0058,-50.34721,-104.6727,149.7868,-55.93182,202408221425519267
2-Mar,C_HumanVertical,1,Q3FrontUp,-8.397602,23.05463,39.0058,-50.34721,-104.6727,149.7868,-55.93182,202408221425519440
2-Mar,C_HumanVertical,1,Q3FrontUp,-8.633795,23.09654,39.23585,-50.434,-104.6728,149.8193,-55.93097,202408221425519747
2-Mar,C_HumanVertical,1,Q3FrontUp,-8.633795,23.09654,39.23585,-50.434,-104.6728,149.8193,-55.93097,202408221425519955
2-Mar,C_HumanVertical,1,Q3FrontUp,-9.128986,23.15224,39.68668,-50.6339,-104.6547,149.8557,-55.9326,202408221425520120
2-Mar,C_HumanVertical,1,Q3FrontUp,-9.374579,23.17046,39.9436,-50.75662,-104.6196,149.8653,-55.93388,202408221425520425
2-Mar,C_HumanVertical,1,Q3FrontUp,-9.374579,23.17046,39.9436,-50.75662,-104.6196,149.8653,-55.93388,202408221425520589
2-Mar,C_HumanVertical,1,Q3FrontUp,-9.625913,23.18001,40.18987,-50.88934,-104.5839,149.8766,-55.94205,202408221425520767
2-Mar,C_HumanVertical,1,Q3FrontUp,-9.625913,23.18001,40.18987,-50.88934,-104.5839,149.8766,-55.94205,202408221425520983
2-Mar,C_HumanVertical,1,Q3FrontUp,-9.837358,23.19191,40.42894,-50.9938,-104.5522,149.8796,-55.95797,202408221425521249
2-Mar,C_HumanVertical,1,Q3FrontUp,-10.05043,23.20138,40.6818,-51.11154,-104.5132,149.8879,-55.95905,202408221425521437
2-Mar,C_HumanVertical,1,Q3FrontUp,-10.25663,23.20805,40.89335,-51.22991,-104.4887,149.9179,-55.9579,202408221425521799
2-Mar,C_HumanVertical,1,Q3FrontUp,-10.25663,23.20805,40.89335,-51.22991,-104.4887,149.9179,-55.9579,202408221425521972
2-Mar,C_HumanVertical,1,Q3FrontUp,-10.45765,23.21193,41.11466,-51.35907,-104.4794,149.9617,-55.95567,202408221425522227
2-Mar,C_HumanVertical,1,Q3FrontUp,-10.64108,23.21312,41.34453,-51.50166,-104.4645,150.0134,-55.95507,202408221425522388
2-Mar,C_HumanVertical,1,Q3FrontUp,-10.64108,23.21312,41.34453,-51.50166,-104.4645,150.0134,-55.95507,202408221425522552
2-Mar,C_HumanVertical,1,Q3FrontUp,-10.81298,23.21643,41.54765,-51.64919,-104.45,150.0744,-55.95445,202408221425522722
2-Mar,C_HumanVertical,1,Q3FrontUp,-10.81298,23.21643,41.54765,-51.64919,-104.45,150.0744,-55.95445,202408221425522910
2-Mar,C_HumanVertical,1,Q3FrontUp,-10.96702,23.23284,41.74899,-51.77681,-104.4427,150.1304,-55.95417,202408221425523137
2-Mar,C_HumanVertical,1,Q3FrontUp,-10.96702,23.23284,41.74899,-51.77681,-104.4427,150.1304,-55.95417,202408221425523296
2-Mar,C_HumanVertical,1,Q3FrontUp,-11.11936,23.25492,41.97115,-51.92464,-104.4309,150.1775,-55.95421,202408221425523591
2-Mar,C_HumanVertical,1,Q3FrontUp,-11.11936,23.25492,41.97115,-51.92464,-104.4309,150.1775,-55.95421,202408221425523790
2-Mar,C_HumanVertical,1,Q3FrontUp,-11.11936,23.25492,41.97115,-51.92464,-104.4309,150.1775,-55.95421,202408221425523917
2-Mar,C_HumanVertical,1,Q3FrontUp,-11.41437,23.29841,42.34234,-52.29834,-104.3584,150.2548,-55.96694,202408221425524169
2-Mar,C_HumanVertical,1,Q3FrontUp,-11.54527,23.3268,42.5277,-52.48599,-104.3417,150.3337,-55.96665,202408221425524405
2-Mar,C_HumanVertical,1,Q3FrontUp,-11.54527,23.3268,42.5277,-52.48599,-104.3417,150.3337,-55.96665,202408221425524600
2-Mar,C_HumanVertical,1,Q3FrontUp,-11.6734,23.36497,42.72776,-52.67691,-104.3312,150.4272,-55.9654,202408221425524965
2-Mar,C_HumanVertical,1,Q3FrontUp,-11.8019,23.40377,42.89526,-52.88273,-104.3259,150.51,-55.96315,202408221425525196
2-Mar,C_HumanVertical,1,Q3FrontUp,-11.93106,23.42733,43.03025,-53.13952,-104.3274,150.563,-55.95839,202408221425525478
2-Mar,C_HumanVertical,1,Q3FrontUp,-12.03771,23.44825,43.15275,-53.38273,-104.3279,150.6089,-55.95764,202408221425525728
2-Mar,C_HumanVertical,1,Q3FrontUp,-12.03771,23.44825,43.15275,-53.38273,-104.3279,150.6089,-55.95764,202408221425525904
2-Mar,C_HumanVertical,1,Q3FrontUp,-12.13376,23.47332,43.26072,-53.64668,-104.3283,150.6572,-55.95776,202408221425526134
2-Mar,C_HumanVertical,1,Q3FrontUp,-12.13376,23.47332,43.26072,-53.64668,-104.3283,150.6572,-55.95776,202408221425526300
2-Mar,C_HumanVertical,1,Q3FrontUp,-12.21308,23.51398,43.36833,-53.88812,-104.3292,150.7001,-55.95747,202408221425526495
2-Mar,C_HumanVertical,1,Q3FrontUp,-12.27488,23.60203,43.483,-54.10256,-104.3306,150.7437,-55.95783,202408221425526768
2-Mar,C_HumanVertical,1,Q3FrontUp,-12.34358,23.69099,43.59917,-54.30498,-104.3321,150.7897,-55.95724,202408221425527088
2-Mar,C_HumanVertical,1,Q3FrontUp,-12.34358,23.69099,43.59917,-54.30498,-104.3321,150.7897,-55.95724,202408221425527248
2-Mar,C_HumanVertical,1,Q3FrontUp,-12.34358,23.69099,43.59917,-54.30498,-104.3321,150.7897,-55.95724,202408221425527451
2-Mar,C_HumanVertical,1,Q3FrontUp,-12.49562,23.88604,43.78181,-54.70731,-104.3328,150.8682,-55.95769,202408221425527747
2-Mar,C_HumanVertical,1,Q3FrontUp,-12.49562,23.88604,43.78181,-54.70731,-104.3328,150.8682,-55.95769,202408221425527908
2-Mar,C_HumanVertical,1,Q3FrontUp,-12.57932,24.01032,43.87674,-54.88332,-104.3327,150.8991,-55.95855,202408221425528145
2-Mar,C_HumanVertical,1,Q3FrontUp,-12.65955,24.13198,43.96004,-55.03856,-104.3347,150.9193,-55.95769,202408221425528501
2-Mar,C_HumanVertical,1,Q3FrontUp,-12.65955,24.13198,43.96004,-55.03856,-104.3347,150.9193,-55.95769,202408221425528768
2-Mar,C_HumanVertical,1,Q3FrontUp,-12.82794,24.39648,44.12134,-55.34229,-104.3371,150.9283,-55.95495,202408221425529095
2-Mar,C_HumanVertical,1,Q3FrontUp,-12.89476,24.55129,44.2025,-55.44461,-104.346,150.93,-55.93192,202408221425529439
2-Mar,C_HumanVertical,1,Q3FrontUp,-12.89476,24.55129,44.2025,-55.44461,-104.346,150.93,-55.93192,202408221425529633
2-Mar,C_HumanVertical,1,Q3FrontUp,-12.95507,24.69226,44.27289,-55.52802,-104.351,150.9313,-55.91946,202408221425529913
2-Mar,C_HumanVertical,1,Q3FrontUp,-12.95507,24.69226,44.27289,-55.52802,-104.351,150.9313,-55.91946,202408221425530089
2-Mar,C_HumanVertical,1,Q3FrontUp,-13.01264,24.85022,44.33269,-55.60434,-104.3551,150.9316,-55.90574,202408221425530249
2-Mar,C_HumanVertical,1,Q3FrontUp,-13.09156,24.99016,44.39144,-55.67485,-104.3552,150.9527,-55.90695,202408221425530417
2-Mar,C_HumanVertical,1,Q3FrontUp,-13.09156,24.99016,44.39144,-55.67485,-104.3552,150.9527,-55.90695,202408221425530601
2-Mar,C_HumanVertical,1,Q3FrontUp,-13.17857,25.12841,44.44393,-55.73978,-104.3548,150.9693,-55.91089,202408221425530809
2-Mar,C_HumanVertical,1,Q3FrontUp,-13.28356,25.25096,44.50815,-55.79201,-104.3542,150.9691,-55.91719,202408221425531088
2-Mar,C_HumanVertical,1,Q3FrontUp,-13.28356,25.25096,44.50815,-55.79201,-104.3542,150.9691,-55.91719,202408221425531310
2-Mar,C_HumanVertical,1,Q3FrontUp,-13.39845,25.36956,44.5691,-55.83942,-104.3553,150.9741,-55.91732,202408221425531597
2-Mar,C_HumanVertical,1,Q3FrontUp,-13.51358,25.46823,44.62302,-55.88805,-104.356,150.9807,-55.91746,202408221425531768
2-Mar,C_HumanVertical,1,Q3FrontUp,-13.51358,25.46823,44.62302,-55.88805,-104.356,150.9807,-55.91746,202408221425531948
2-Mar,C_HumanVertical,1,Q3FrontUp,-13.62519,25.57507,44.69244,-55.93725,-104.3562,150.9847,-55.91704,202408221425532242
2-Mar,C_HumanVertical,1,Q3FrontUp,-13.72948,25.65352,44.76049,-55.98819,-104.3567,150.9889,-55.9174,202408221425532558
2-Mar,C_HumanVertical,1,Q3FrontUp,-13.83621,25.7274,44.8381,-56.04614,-104.3569,150.9928,-55.91728,202408221425532729
2-Mar,C_HumanVertical,1,Q3FrontUp,-13.83621,25.7274,44.8381,-56.04614,-104.3569,150.9928,-55.91728,202408221425532949
2-Mar,C_HumanVertical,1,Q3FrontUp,-13.94712,25.79982,44.93195,-56.09089,-104.3567,150.9961,-55.91714,202408221425533123
2-Mar,C_HumanVertical,1,Q3FrontUp,-14.04026,25.86323,45.00103,-56.12917,-104.3569,151.0001,-55.91748,202408221425533415
2-Mar,C_HumanVertical,1,Q3FrontUp,-14.04026,25.86323,45.00103,-56.12917,-104.3569,151.0001,-55.91748,202408221425533582
2-Mar,C_HumanVertical,1,Q3FrontUp,-14.12292,25.91369,45.0505,-56.1606,-104.357,151.0043,-55.91704,202408221425533755
2-Mar,C_HumanVertical,1,Q3FrontUp,-14.12292,25.91369,45.0505,-56.1606,-104.357,151.0043,-55.91704,202408221425533930
2-Mar,C_HumanVertical,1,Q3FrontUp,-14.18878,25.9692,45.08113,-56.17715,-104.3571,151.0042,-55.91621,202408221425534101
2-Mar,C_HumanVertical,1,Q3FrontUp,-14.18878,25.9692,45.08113,-56.17715,-104.3571,151.0042,-55.91621,202408221425534299
2-Mar,C_HumanVertical,1,Q3FrontUp,-14.24215,26.02915,45.10599,-56.18357,-104.3571,151.0043,-55.91549,202408221425534589
2-Mar,C_HumanVertical,1,Q3FrontUp,-14.24215,26.02915,45.10599,-56.18357,-104.3571,151.0043,-55.91549,202408221425534754
2-Mar,C_HumanVertical,1,Q3FrontUp,-14.2899,26.08871,45.12714,-56.18786,-104.357,151.0045,-55.9152,202408221425534908
2-Mar,C_HumanVertical,1,Q3FrontUp,-14.33353,26.13739,45.13773,-56.19409,-104.3573,151.0046,-55.91522,202408221425535109
2-Mar,C_HumanVertical,1,Q3FrontUp,-14.33353,26.13739,45.13773,-56.19409,-104.3573,151.0046,-55.91522,202408221425535301
2-Mar,C_HumanVertical,1,Q3FrontUp,-14.37531,26.18921,45.14107,-56.20305,-104.3577,151.0045,-55.91537,202408221425535581
2-Mar,C_HumanVertical,1,Q3FrontUp,-14.41581,26.23519,45.14671,-56.21694,-104.3588,151.0044,-55.9146,202408221425535754
2-Mar,C_HumanVertical,1,Q3FrontUp,-14.41581,26.23519,45.14671,-56.21694,-104.3588,151.0044,-55.9146,202408221425535912
2-Mar,C_HumanVertical,1,Q3FrontUp,-14.41581,26.23519,45.14671,-56.21694,-104.3588,151.0044,-55.9146,202408221425536162
2-Mar,C_HumanVertical,1,Q3FrontUp,-14.46574,26.28402,45.15435,-56.24152,-104.3605,151.005,-55.91473,202408221425536313
2-Mar,C_HumanVertical,1,Q3FrontUp,-14.51472,26.32476,45.1575,-56.26165,-104.3662,151.0052,-55.9146,202408221425536618
2-Mar,C_HumanVertical,1,Q3FrontUp,-14.51472,26.32476,45.1575,-56.26165,-104.3662,151.0052,-55.9146,202408221425536757
2-Mar,C_HumanVertical,1,Q3FrontUp,-14.5669,26.35455,45.15865,-56.2888,-104.4134,151.0069,-55.88173,202408221425536934
2-Mar,C_HumanVertical,1,Q3FrontUp,-14.63099,26.38091,45.15821,-56.33481,-104.4871,151.008,-55.81226,202408221425537256
2-Mar,C_HumanVertical,1,Q3FrontUp,-14.68828,26.41586,45.15718,-56.37184,-104.4916,151.0127,-55.79929,202408221425537450
2-Mar,C_HumanVertical,1,Q3FrontUp,-14.68828,26.41586,45.15718,-56.37184,-104.4916,151.0127,-55.79929,202408221425537622
2-Mar,C_HumanVertical,1,Q3FrontUp,-14.74592,26.44973,45.15799,-56.40719,-104.4913,151.0353,-55.79451,202408221425537888
2-Mar,C_HumanVertical,1,Q3FrontUp,-14.80428,26.48141,45.1576,-56.4461,-104.4912,151.0412,-55.79445,202408221425538066
2-Mar,C_HumanVertical,1,Q3FrontUp,-14.80428,26.48141,45.1576,-56.4461,-104.4912,151.0412,-55.79445,202408221425538231
2-Mar,C_HumanVertical,1,Q3FrontUp,-14.85991,26.52365,45.15752,-56.48365,-104.4914,151.0443,-55.79441,202408221425538414
2-Mar,C_HumanVertical,1,Q3FrontUp,-14.85991,26.52365,45.15752,-56.48365,-104.4914,151.0443,-55.79441,202408221425538631
2-Mar,C_HumanVertical,1,Q3FrontUp,-14.91088,26.56232,45.15747,-56.53325,-104.5234,151.0504,-55.76527,202408221425538902
2-Mar,C_HumanVertical,1,Q3FrontUp,-14.96844,26.59468,45.15615,-56.60571,-104.5908,151.0753,-55.70028,202408221425539107
2-Mar,C_HumanVertical,1,Q3FrontUp,-14.96844,26.59468,45.15615,-56.60571,-104.5908,151.0753,-55.70028,202408221425539304
2-Mar,C_HumanVertical,1,Q3FrontUp,-15.00832,26.64291,45.15023,-56.66063,-104.5932,151.1056,-55.69608,202408221425539622
2-Mar,C_HumanVertical,1,Q3FrontUp,-15.04104,26.70061,45.14705,-56.71136,-104.5933,151.1257,-55.69581,202408221425539905
2-Mar,C_HumanVertical,1,Q3FrontUp,-15.0696,26.76644,45.14298,-56.76243,-104.5931,151.1267,-55.69878,202408221425540078
2-Mar,C_HumanVertical,1,Q3FrontUp,-15.0696,26.76644,45.14298,-56.76243,-104.5931,151.1267,-55.69878,202408221425540242
2-Mar,C_HumanVertical,1,Q3FrontUp,-15.10416,26.837,45.14272,-56.8247,-104.6412,151.1526,-55.66159,202408221425540410
2-Mar,C_HumanVertical,1,Q3FrontUp,-15.10416,26.837,45.14272,-56.8247,-104.6412,151.1526,-55.66159,202408221425540578
2-Mar,C_HumanVertical,1,Q3FrontUp,-15.13414,26.89963,45.13713,-56.88828,-104.71,151.1991,-55.59143,202408221425540801
2-Mar,C_HumanVertical,1,Q3FrontUp,-15.13414,26.89963,45.13713,-56.88828,-104.71,151.1991,-55.59143,202408221425540968
2-Mar,C_HumanVertical,1,Q3FrontUp,-15.1542,26.97244,45.12469,-56.93769,-104.7967,151.2481,-55.49582,202408221425541242
2-Mar,C_HumanVertical,1,Q3FrontUp,-15.16324,27.06238,45.11602,-56.97012,-104.7983,151.2614,-55.49265,202408221425541425
2-Mar,C_HumanVertical,1,Q3FrontUp,-15.16658,27.13582,45.10428,-57.00718,-104.8261,151.271,-55.4723,202408221425541769
2-Mar,C_HumanVertical,1,Q3FrontUp,-15.16658,27.13582,45.10428,-57.00718,-104.8261,151.271,-55.4723,202408221425541956
2-Mar,C_HumanVertical,1,Q3FrontUp,-15.16723,27.20271,45.08107,-57.05272,-104.8997,151.2938,-55.40856,202408221425542266
2-Mar,C_HumanVertical,1,Q3FrontUp,-15.16813,27.275,45.06519,-57.08666,-104.9896,151.3141,-55.35719,202408221425542613
2-Mar,C_HumanVertical,1,Q3FrontUp,-15.16446,27.3562,45.04634,-57.11615,-105.0333,151.3348,-55.33149,202408221425542899
2-Mar,C_HumanVertical,1,Q3FrontUp,-15.1647,27.42483,45.02368,-57.13076,-105.0334,151.3443,-55.3356,202408221425543125
2-Mar,C_HumanVertical,1,Q3FrontUp,-15.1647,27.42483,45.02368,-57.13076,-105.0334,151.3443,-55.3356,202408221425543421
2-Mar,C_HumanVertical,1,Q3FrontUp,-15.167,27.50348,44.99335,-57.1584,-105.0866,151.3494,-55.3208,202408221425543606
2-Mar,C_HumanVertical,1,Q3FrontUp,-15.16691,27.58797,44.96442,-57.18371,-105.1288,151.3603,-55.30079,202408221425543760
2-Mar,C_HumanVertical,1,Q3FrontUp,-15.16691,27.58797,44.96442,-57.18371,-105.1288,151.3603,-55.30079,202408221425543927
2-Mar,C_HumanVertical,1,Q3FrontUp,-15.16781,27.66805,44.92479,-57.2259,-105.1566,151.386,-55.28555,202408221425544159
2-Mar,C_HumanVertical,1,Q3FrontUp,-15.16781,27.66805,44.92479,-57.2259,-105.1566,151.386,-55.28555,202408221425544407
2-Mar,C_HumanVertical,1,Q3FrontUp,-15.16741,27.7403,44.88624,-57.28187,-105.222,151.39,-55.24698,202408221425544603
2-Mar,C_HumanVertical,1,Q3FrontUp,-15.16676,27.82973,44.86054,-57.33991,-105.2577,151.392,-55.22557,202408221425544794
2-Mar,C_HumanVertical,1,Q3FrontUp,-15.16676,27.82973,44.86054,-57.33991,-105.2577,151.392,-55.22557,202408221425544928
2-Mar,C_HumanVertical,1,Q3FrontUp,-15.16677,27.91094,44.83834,-57.40713,-105.2581,151.392,-55.22588,202408221425545177
2-Mar,C_HumanVertical,1,Q3FrontUp,-15.16772,27.98155,44.81298,-57.49915,-105.2977,151.3939,-55.20485,202408221425545400
2-Mar,C_HumanVertical,1,Q3FrontUp,-15.16772,27.98155,44.81298,-57.49915,-105.2977,151.3939,-55.20485,202408221425545568
2-Mar,C_HumanVertical,1,Q3FrontUp,-15.16637,28.05472,44.79572,-57.57177,-105.355,151.3955,-55.16965,202408221425545807
2-Mar,C_HumanVertical,1,Q3FrontUp,-15.16568,28.145,44.79161,-57.63346,-105.4239,151.3973,-55.13,202408221425546115
2-Mar,C_HumanVertical,1,Q3FrontUp,-15.16568,28.145,44.79161,-57.63346,-105.4239,151.3973,-55.13,202408221425546310
2-Mar,C_HumanVertical,1,Q3FrontUp,-15.1654,28.22977,44.78988,-57.67968,-105.482,151.3995,-55.09373,202408221425546603
2-Mar,C_HumanVertical,1,Q3FrontUp,-15.1654,28.22977,44.78988,-57.67968,-105.482,151.3995,-55.09373,202408221425546921
2-Mar,C_HumanVertical,1,Q3FrontUp,-15.16769,28.42541,44.78744,-57.72663,-105.505,151.4006,-55.08344,202408221425547088
2-Mar,C_HumanVertical,1,Q3FrontUp,-15.16769,28.42541,44.78744,-57.72663,-105.505,151.4006,-55.08344,202408221425547291
2-Mar,C_HumanVertical,1,Q3FrontUp,-15.16705,28.51696,44.78825,-57.74725,-105.5048,151.4007,-55.08859,202408221425547569
2-Mar,C_HumanVertical,1,Q3FrontUp,-15.16859,28.59896,44.78942,-57.76526,-105.5224,151.4007,-55.07633,202408221425547737
2-Mar,C_HumanVertical,1,Q3FrontUp,-15.16859,28.59896,44.78942,-57.76526,-105.5224,151.4007,-55.07633,202408221425547903
2-Mar,C_HumanVertical,1,Q3FrontUp,-15.17569,28.66739,44.7896,-57.80718,-105.5776,151.4014,-55.02398,202408221425548077
2-Mar,C_HumanVertical,1,Q3FrontUp,-15.17569,28.66739,44.7896,-57.80718,-105.5776,151.4014,-55.02398,202408221425548246
2-Mar,C_HumanVertical,1,Q3FrontUp,-15.17611,28.7324,44.79652,-57.83525,-105.5778,151.402,-55.02505,202408221425548431
2-Mar,C_HumanVertical,1,Q3FrontUp,-15.17611,28.7324,44.79652,-57.83525,-105.5778,151.402,-55.02505,202408221425548668
2-Mar,C_HumanVertical,1,Q3FrontUp,-15.17688,28.79756,44.80442,-57.85236,-105.5771,151.4019,-55.02821,202408221425548915
2-Mar,C_HumanVertical,1,Q3FrontUp,-15.17675,28.85744,44.81474,-57.87625,-105.577,151.4022,-55.03227,202408221425549068
2-Mar,C_HumanVertical,1,Q3FrontUp,-15.17675,28.85744,44.81474,-57.87625,-105.577,151.4022,-55.03227,202408221425549256
2-Mar,C_HumanVertical,1,Q3FrontUp,-15.17736,28.90157,44.82243,-57.93145,-105.5947,151.4022,-55.00859,202408221425549593
2-Mar,C_HumanVertical,1,Q3FrontUp,-15.17649,28.94033,44.82616,-57.99145,-105.6161,151.4039,-54.98146,202408221425549788
2-Mar,C_HumanVertical,1,Q3FrontUp,-15.17483,28.98319,44.83179,-58.053,-105.6289,151.4259,-54.96005,202408221425550069
2-Mar,C_HumanVertical,1,Q3FrontUp,-15.17483,28.98319,44.83179,-58.053,-105.6289,151.4259,-54.96005,202408221425550234
2-Mar,C_HumanVertical,1,Q3FrontUp,-15.17302,29.03083,44.84589,-58.11305,-105.6437,151.4401,-54.93823,202408221425550447
2-Mar,C_HumanVertical,1,Q3FrontUp,-15.16769,29.0811,44.85648,-58.15897,-105.649,151.4599,-54.93106,202408221425550754
2-Mar,C_HumanVertical,1,Q3FrontUp,-15.16769,29.0811,44.85648,-58.15897,-105.649,151.4599,-54.93106,202408221425550966
2-Mar,C_HumanVertical,1,Q3FrontUp,-15.15999,29.13478,44.85651,-58.20073,-105.6482,151.4672,-54.93827,202408221425551250
2-Mar,C_HumanVertical,1,Q3FrontUp,-15.15999,29.13478,44.85651,-58.20073,-105.6482,151.4672,-54.93827,202408221425551432
2-Mar,C_HumanVertical,1,Q3FrontUp,-15.1536,29.18431,44.85607,-58.24184,-105.6475,151.4675,-54.95231,202408221425551613
2-Mar,C_HumanVertical,1,Q3FrontUp,-15.14921,29.2347,44.8583,-58.28233,-105.6469,151.4681,-54.96307,202408221425551788
2-Mar,C_HumanVertical,1,Q3FrontUp,-15.14921,29.2347,44.8583,-58.28233,-105.6469,151.4681,-54.96307,202408221425551999
2-Mar,C_HumanVertical,1,Q3FrontUp,-15.14803,29.28909,44.86181,-58.31863,-105.6468,151.4699,-54.96592,202408221425552247
2-Mar,C_HumanVertical,1,Q3FrontUp,-15.15027,29.32937,44.87912,-58.37188,-105.6466,151.47,-54.96601,202408221425552556
2-Mar,C_HumanVertical,1,Q3FrontUp,-15.15027,29.32937,44.87912,-58.37188,-105.6466,151.47,-54.96601,202408221425552730
2-Mar,C_HumanVertical,1,Q3FrontUp,-15.15059,29.36427,44.90173,-58.4305,-105.649,151.4693,-54.96438,202408221425552900
2-Mar,C_HumanVertical,1,Q3FrontUp,-15.14918,29.40191,44.92847,-58.48963,-105.6542,151.4693,-54.96167,202408221425553158
2-Mar,C_HumanVertical,1,Q3FrontUp,-15.14918,29.40191,44.92847,-58.48963,-105.6542,151.4693,-54.96167,202408221425553428
2-Mar,C_HumanVertical,1,Q3FrontUp,-15.14742,29.43163,44.95873,-58.55408,-105.6618,151.4697,-54.95921,202408221425553668
2-Mar,C_HumanVertical,1,Q3FrontUp,-15.14394,29.46072,44.98661,-58.60339,-105.6644,151.4713,-54.96033,202408221425553976
2-Mar,C_HumanVertical,1,Q3FrontUp,-15.13505,29.49133,45.00505,-58.62062,-105.6636,151.4848,-54.96395,202408221425554157
2-Mar,C_HumanVertical,1,Q3FrontUp,-15.13576,29.51518,45.02314,-58.64975,-105.6638,151.5008,-54.96365,202408221425554435
2-Mar,C_HumanVertical,1,Q3FrontUp,-15.13576,29.51518,45.02314,-58.64975,-105.6638,151.5008,-54.96365,202408221425554648
2-Mar,C_HumanVertical,1,Q3FrontUp,-15.13547,29.53439,45.03723,-58.6765,-105.6664,151.5104,-54.96074,202408221425554916
2-Mar,C_HumanVertical,1,Q3FrontUp,-15.13581,29.56211,45.04909,-58.69733,-105.6755,151.5339,-54.94617,202408221425555087
2-Mar,C_HumanVertical,1,Q3FrontUp,-15.13581,29.56211,45.04909,-58.69733,-105.6755,151.5339,-54.94617,202408221425555305
2-Mar,C_HumanVertical,1,Q3FrontUp,-15.13469,29.57895,45.05454,-58.72861,-105.6774,151.5388,-54.94525,202408221425555601
2-Mar,C_HumanVertical,1,Q3FrontUp,-15.13041,29.59714,45.05511,-58.76501,-105.6781,151.5399,-54.94602,202408221425555768
2-Mar,C_HumanVertical,1,Q3FrontUp,-15.13041,29.59714,45.05511,-58.76501,-105.6781,151.5399,-54.94602,202408221425555945
2-Mar,C_HumanVertical,1,Q3FrontUp,-15.12545,29.62153,45.05408,-58.80881,-105.6782,151.5414,-54.94701,202408221425556111
2-Mar,C_HumanVertical,1,Q3FrontUp,-15.12545,29.62153,45.05408,-58.80881,-105.6782,151.5414,-54.94701,202408221425556334
2-Mar,C_HumanVertical,1,Q3FrontUp,-15.11947,29.64336,45.05407,-58.85445,-105.678,151.5421,-54.94818,202408221425556607
2-Mar,C_HumanVertical,1,Q3FrontUp,-15.11228,29.67123,45.05363,-58.89948,-105.6785,151.5426,-54.94841,202408221425556814
2-Mar,C_HumanVertical,1,Q3FrontUp,-15.10195,29.70912,45.05277,-58.93863,-105.6795,151.5428,-54.94823,202408221425557114
2-Mar,C_HumanVertical,1,Q3FrontUp,-15.10195,29.70912,45.05277,-58.93863,-105.6795,151.5428,-54.94823,202408221425557290
2-Mar,C_HumanVertical,1,Q3FrontUp,-15.0983,29.78107,45.05333,-58.94514,-105.6809,151.5436,-54.95464,202408221425557579
2-Mar,C_HumanVertical,1,Q3FrontUp,-15.10215,29.85207,45.04848,-58.94498,-105.6825,151.544,-54.96325,202408221425557743
2-Mar,C_HumanVertical,1,Q3FrontUp,-15.10215,29.85207,45.04848,-58.94498,-105.6825,151.544,-54.96325,202408221425557907
2-Mar,C_HumanVertical,1,Q3FrontUp,-15.10652,29.9262,45.02699,-58.94645,-105.6894,151.5447,-54.96336,202408221425558087
2-Mar,C_HumanVertical,1,Q3FrontUp,-15.10652,29.9262,45.02699,-58.94645,-105.6894,151.5447,-54.96336,202408221425558322
2-Mar,C_HumanVertical,1,Q3FrontUp,-15.11577,30.01908,45.00649,-58.94667,-105.7002,151.5449,-54.96322,202408221425558481
2-Mar,C_HumanVertical,1,Q3FrontUp,-15.13606,30.13109,44.99857,-58.94698,-105.7124,151.5453,-54.96408,202408221425558754
2-Mar,C_HumanVertical,1,Q3FrontUp,-15.15807,30.24526,44.99799,-58.94715,-105.7292,151.5453,-54.96554,202408221425559080
2-Mar,C_HumanVertical,1,Q3FrontUp,-15.15807,30.24526,44.99799,-58.94715,-105.7292,151.5453,-54.96554,202408221425559256
2-Mar,C_HumanVertical,1,Q3FrontUp,-15.15807,30.24526,44.99799,-58.94715,-105.7292,151.5453,-54.96554,202408221425559425
2-Mar,C_HumanVertical,1,Q3FrontUp,-15.18007,30.3702,44.99724,-58.94719,-105.7411,151.5453,-54.96645,202408221425559619
2-Mar,C_HumanVertical,1,Q3FrontUp,-15.20934,30.5063,44.99663,-58.94646,-105.7618,151.5454,-54.96659,202408221425559790
2-Mar,C_HumanVertical,1,Q3FrontUp,-15.23531,30.65415,44.99511,-58.94794,-105.7853,151.5459,-54.96659,202408221425560080
2-Mar,C_HumanVertical,1,Q3FrontUp,-15.24995,30.80191,44.98324,-58.9482,-105.8038,151.5464,-54.96672,202408221425560421
2-Mar,C_HumanVertical,1,Q3FrontUp,-15.24995,30.80191,44.98324,-58.9482,-105.8038,151.5464,-54.96672,202408221425560623
2-Mar,C_HumanVertical,1,Q3FrontUp,-15.27327,30.95306,44.96949,-58.94757,-105.8212,151.5467,-54.96991,202408221425560890
2-Mar,C_HumanVertical,1,Q3FrontUp,-15.29985,31.11345,44.95264,-58.94855,-105.8392,151.5465,-54.98306,202408221425561066
2-Mar,C_HumanVertical,1,Q3FrontUp,-15.29985,31.11345,44.95264,-58.94855,-105.8392,151.5465,-54.98306,202408221425561254
2-Mar,C_HumanVertical,1,Q3FrontUp,-15.32225,31.26658,44.93622,-58.94817,-105.8405,151.5464,-55.01704,202408221425561542
2-Mar,C_HumanVertical,1,Q3FrontUp,-15.35249,31.42147,44.92004,-58.94815,-105.8454,151.5467,-55.03132,202408221425561850
2-Mar,C_HumanVertical,1,Q3FrontUp,-15.39274,31.57918,44.89972,-58.94846,-105.8589,151.547,-55.03279,202408221425562095
2-Mar,C_HumanVertical,1,Q3FrontUp,-15.39274,31.57918,44.89972,-58.94846,-105.8589,151.547,-55.03279,202408221425562268
2-Mar,C_HumanVertical,1,Q3FrontUp,-15.43226,31.72106,44.87906,-58.94802,-105.8696,151.5475,-55.03445,202408221425562437
2-Mar,C_HumanVertical,1,Q3FrontUp,-15.43226,31.72106,44.87906,-58.94802,-105.8696,151.5475,-55.03445,202408221425562608
2-Mar,C_HumanVertical,1,Q3FrontUp,-15.47177,31.87372,44.86702,-58.94858,-105.8761,151.5477,-55.04729,202408221425562837
2-Mar,C_HumanVertical,1,Q3FrontUp,-15.51917,32.01947,44.85922,-58.94748,-105.8762,151.5477,-55.08286,202408221425563090
2-Mar,C_HumanVertical,1,Q3FrontUp,-15.51917,32.01947,44.85922,-58.94748,-105.8762,151.5477,-55.08286,202408221425563275
2-Mar,C_HumanVertical,1,Q3FrontUp,-15.56076,32.15825,44.84148,-58.94899,-105.8805,151.5475,-55.09222,202408221425563454
2-Mar,C_HumanVertical,1,Q3FrontUp,-15.56076,32.15825,44.84148,-58.94899,-105.8805,151.5475,-55.09222,202408221425563668
2-Mar,C_HumanVertical,1,Q3FrontUp,-15.59549,32.28512,44.81886,-58.94868,-105.8889,151.5474,-55.10278,202408221425563865
2-Mar,C_HumanVertical,1,Q3FrontUp,-15.62797,32.41164,44.79093,-58.94925,-105.8988,151.5475,-55.11203,202408221425564143
2-Mar,C_HumanVertical,1,Q3FrontUp,-15.65922,32.53209,44.75458,-58.94917,-105.91,151.5472,-55.11729,202408221425564448
2-Mar,C_HumanVertical,1,Q3FrontUp,-15.65922,32.53209,44.75458,-58.94917,-105.91,151.5472,-55.11729,202408221425564735
2-Mar,C_HumanVertical,1,Q3FrontUp,-15.68126,32.63676,44.72292,-58.94889,-105.9286,151.5469,-55.11926,202408221425565040
2-Mar,C_HumanVertical,1,Q3FrontUp,-15.70435,32.81734,44.65914,-58.94823,-105.9856,151.5471,-55.11921,202408221425565336
2-Mar,C_HumanVertical,1,Q3FrontUp,-15.70435,32.81734,44.65914,-58.94823,-105.9856,151.5471,-55.11921,202408221425565609
2-Mar,C_HumanVertical,1,Q3FrontUp,-15.70568,32.8853,44.63134,-58.9501,-106.0168,151.5471,-55.11898,202408221425565810
2-Mar,C_HumanVertical,1,Q3FrontUp,-15.70568,32.8853,44.63134,-58.9501,-106.0168,151.5471,-55.11898,202408221425565982
2-Mar,C_HumanVertical,1,Q3FrontUp,-15.70568,32.8853,44.63134,-58.9501,-106.0168,151.5471,-55.11898,202408221425566204
2-Mar,C_HumanVertical,1,Q3FrontUp,-15.70545,32.97987,44.58366,-58.96042,-106.066,151.547,-55.11927,202408221425566457
2-Mar,C_HumanVertical,1,Q3FrontUp,-15.70545,32.97987,44.58366,-58.96042,-106.066,151.547,-55.11927,202408221425566641
2-Mar,C_HumanVertical,1,Q3FrontUp,-15.70455,33.01219,44.56491,-58.97017,-106.0862,151.5473,-55.12073,202408221425566938
2-Mar,C_HumanVertical,1,Q3FrontUp,-15.70411,33.03216,44.55576,-58.98011,-106.1026,151.5473,-55.12352,202408221425567166
2-Mar,C_HumanVertical,1,Q3FrontUp,-15.70411,33.03216,44.55576,-58.98011,-106.1026,151.5473,-55.12352,202408221425567445
2-Mar,C_HumanVertical,1,Q3FrontUp,-15.70286,33.03976,44.54812,-58.98463,-106.1179,151.5472,-55.12699,202408221425567612
2-Mar,C_HumanVertical,1,Q3FrontUp,-15.69907,33.04547,44.53397,-58.98618,-106.1322,151.5476,-55.13397,202408221425567851
2-Mar,C_HumanVertical,1,Q3FrontUp,-15.69253,33.04971,44.50911,-58.98645,-106.1465,151.548,-55.13474,202408221425568150
2-Mar,C_HumanVertical,1,Q3FrontUp,-15.69083,33.05091,44.48211,-58.98663,-106.1599,151.5489,-55.1368,202408221425568459
2-Mar,C_HumanVertical,1,Q3FrontUp,-15.69052,33.05065,44.45068,-58.98592,-106.1705,151.5491,-55.13734,202408221425568769
2-Mar,C_HumanVertical,1,Q3FrontUp,-15.69052,33.05065,44.45068,-58.98592,-106.1705,151.5491,-55.13734,202408221425568936
2-Mar,C_HumanVertical,1,Q3FrontUp,-15.69011,33.0508,44.4109,-58.98604,-106.1792,151.5494,-55.13772,202408221425569123
2-Mar,C_HumanVertical,1,Q3FrontUp,-15.69011,33.0508,44.4109,-58.98604,-106.1792,151.5494,-55.13772,202408221425569323
2-Mar,C_HumanVertical,1,Q3FrontUp,-15.69028,33.05295,44.37752,-58.98624,-106.1885,151.5494,-55.13795,202408221425569629
2-Mar,C_HumanVertical,1,Q3FrontUp,-15.69016,33.05515,44.35157,-58.98615,-106.1979,151.5496,-55.1382,202408221425569950
2-Mar,C_HumanVertical,1,Q3FrontUp,-15.69016,33.05515,44.35157,-58.98615,-106.1979,151.5496,-55.1382,202408221425570123
2-Mar,C_HumanVertical,1,Q3FrontUp,-15.68808,33.05582,44.32398,-58.98633,-106.2053,151.5493,-55.13891,202408221425570358
2-Mar,C_HumanVertical,1,Q3FrontUp,-15.68384,33.05615,44.31049,-58.98631,-106.2264,151.5497,-55.13845,202408221425570611
2-Mar,C_HumanVertical,1,Q3FrontUp,-15.67802,33.05535,44.30457,-58.98618,-106.2463,151.5496,-55.13859,202408221425570793
2-Mar,C_HumanVertical,1,Q3FrontUp,-15.6722,33.05496,44.30419,-58.98622,-106.2611,151.5496,-55.13841,202408221425571018
2-Mar,C_HumanVertical,1,Q3FrontUp,-15.6722,33.05496,44.30419,-58.98622,-106.2611,151.5496,-55.13841,202408221425571343
2-Mar,C_HumanVertical,1,Q3FrontUp,-15.6642,33.05459,44.30462,-58.98621,-106.2801,151.5497,-55.13863,202408221425571615
2-Mar,C_HumanVertical,1,Q3FrontUp,-15.65282,33.05435,44.30484,-58.98614,-106.2958,151.5497,-55.13895,202408221425571825
2-Mar,C_HumanVertical,1,Q3FrontUp,-15.64257,33.05438,44.30518,-58.98614,-106.3064,151.5497,-55.13864,202408221425572114
2-Mar,C_HumanVertical,1,Q3FrontUp,-15.64257,33.05438,44.30518,-58.98614,-106.3064,151.5497,-55.13864,202408221425572293
2-Mar,C_HumanVertical,1,Q3FrontUp,-15.63761,33.05433,44.30538,-58.98647,-106.3144,151.5502,-55.13893,202408221425572492
2-Mar,C_HumanVertical,1,Q3FrontUp,-15.63325,33.05413,44.30512,-58.9847,-106.3407,151.5502,-55.13841,202408221425572765
2-Mar,C_HumanVertical,1,Q3FrontUp,-15.63325,33.05413,44.30512,-58.9847,-106.3407,151.5502,-55.13841,202408221425572927
2-Mar,C_HumanVertical,1,Q3FrontUp,-15.63065,33.05273,44.30512,-58.98226,-106.3793,151.5504,-55.13837,202408221425573105
2-Mar,C_HumanVertical,1,Q3FrontUp,-15.63065,33.05273,44.30512,-58.98226,-106.3793,151.5504,-55.13837,202408221425573325
2-Mar,C_HumanVertical,1,Q3FrontUp,-15.628,33.04747,44.30403,-58.98174,-106.3898,151.5559,-55.13863,202408221425573513
2-Mar,C_HumanVertical,1,Q3FrontUp,-15.61435,33.03329,44.30075,-58.98183,-106.4047,151.6039,-55.13853,202408221425573770
2-Mar,C_HumanVertical,1,Q3FrontUp,-15.61435,33.03329,44.30075,-58.98183,-106.4047,151.6039,-55.13853,202408221425573951
2-Mar,C_HumanVertical,1,Q3FrontUp,-15.58441,33.00877,44.30165,-58.98238,-106.4181,151.6189,-55.13762,202408221425574181
2-Mar,C_HumanVertical,1,Q3FrontUp,-15.53999,32.97824,44.3028,-58.98193,-106.4315,151.6392,-55.13719,202408221425574448
2-Mar,C_HumanVertical,1,Q3FrontUp,-15.53999,32.97824,44.3028,-58.98193,-106.4315,151.6392,-55.13719,202408221425574690
2-Mar,C_HumanVertical,1,Q3FrontUp,-15.48615,32.94166,44.30365,-58.97306,-106.4383,151.6535,-55.13832,202408221425574938
2-Mar,C_HumanVertical,1,Q3FrontUp,-15.413,32.89455,44.30491,-58.93223,-106.4382,151.6747,-55.14029,202408221425575265
2-Mar,C_HumanVertical,1,Q3FrontUp,-15.413,32.89455,44.30491,-58.93223,-106.4382,151.6747,-55.14029,202408221425575438
2-Mar,C_HumanVertical,1,Q3FrontUp,-15.34902,32.84786,44.30539,-58.87783,-106.4386,151.6911,-55.14577,202408221425575635
2-Mar,C_HumanVertical,1,Q3FrontUp,-15.287,32.79919,44.30535,-58.82179,-106.4402,151.7016,-55.15049,202408221425575846
2-Mar,C_HumanVertical,1,Q3FrontUp,-15.23286,32.74023,44.30566,-58.79653,-106.442,151.7116,-55.15108,202408221425576123
2-Mar,C_HumanVertical,1,Q3FrontUp,-15.23286,32.74023,44.30566,-58.79653,-106.442,151.7116,-55.15108,202408221425576288
2-Mar,C_HumanVertical,1,Q3FrontUp,-15.17171,32.69008,44.29924,-58.71609,-106.4882,151.7756,-55.13411,202408221425576455
2-Mar,C_HumanVertical,1,Q3FrontUp,-15.10458,32.64712,44.29065,-58.60403,-106.5231,151.8389,-55.12204,202408221425576826
2-Mar,C_HumanVertical,1,Q3FrontUp,-15.04494,32.60492,44.28155,-58.49799,-106.5343,151.879,-55.12281,202408221425577020
2-Mar,C_HumanVertical,1,Q3FrontUp,-15.04494,32.60492,44.28155,-58.49799,-106.5343,151.879,-55.12281,202408221425577253
2-Mar,C_HumanVertical,1,Q3FrontUp,-14.98908,32.56806,44.26432,-58.38118,-106.5546,151.9269,-55.12228,202408221425577453
2-Mar,C_HumanVertical,1,Q3FrontUp,-14.94815,32.51734,44.24252,-58.27407,-106.5751,151.9802,-55.11658,202408221425577746
2-Mar,C_HumanVertical,1,Q3FrontUp,-14.94815,32.51734,44.24252,-58.27407,-106.5751,151.9802,-55.11658,202408221425577913
2-Mar,C_HumanVertical,1,Q3FrontUp,-14.94815,32.51734,44.24252,-58.27407,-106.5751,151.9802,-55.11658,202408221425578145
2-Mar,C_HumanVertical,1,Q3FrontUp,-14.88018,32.4091,44.18657,-58.03309,-106.61,152.1062,-55.10553,202408221425578413
2-Mar,C_HumanVertical,1,Q3FrontUp,-14.88018,32.4091,44.18657,-58.03309,-106.61,152.1062,-55.10553,202408221425578603
2-Mar,C_HumanVertical,1,Q3FrontUp,-14.85886,32.37125,44.15961,-57.89374,-106.6257,152.178,-55.10062,202408221425578783
2-Mar,C_HumanVertical,1,Q3FrontUp,-14.85886,32.37125,44.15961,-57.89374,-106.6257,152.178,-55.10062,202408221425579034
2-Mar,C_HumanVertical,1,Q3FrontUp,-14.84262,32.33501,44.13498,-57.72817,-106.6425,152.2577,-55.08469,202408221425579298
2-Mar,C_HumanVertical,1,Q3FrontUp,-14.83857,32.29551,44.11238,-57.57763,-106.6552,152.3307,-55.07605,202408221425579605
2-Mar,C_HumanVertical,1,Q3FrontUp,-14.83849,32.25209,44.08178,-57.43526,-106.6664,152.3925,-55.07032,202408221425579777
2-Mar,C_HumanVertical,1,Q3FrontUp,-14.83712,32.21704,44.04546,-57.27784,-106.6736,152.4557,-55.06954,202408221425580102
2-Mar,C_HumanVertical,1,Q3FrontUp,-14.83673,32.18479,44.01379,-57.11544,-106.6802,152.5233,-55.06903,202408221425580367
2-Mar,C_HumanVertical,1,Q3FrontUp,-14.83673,32.18479,44.01379,-57.11544,-106.6802,152.5233,-55.06903,202408221425580623
2-Mar,C_HumanVertical,1,Q3FrontUp,-14.83611,32.1604,43.98573,-56.93716,-106.6943,152.6011,-55.06353,202408221425580953
2-Mar,C_HumanVertical,1,Q3FrontUp,-14.83781,32.13971,43.95367,-56.76624,-106.7098,152.6792,-55.05025,202408221425581269
2-Mar,C_HumanVertical,1,Q3FrontUp,-14.83736,32.11433,43.91451,-56.606,-106.7173,152.7305,-55.04944,202408221425581493
2-Mar,C_HumanVertical,1,Q3FrontUp,-14.83937,32.09417,43.88713,-56.4586,-106.7235,152.77,-55.04869,202408221425581739
2-Mar,C_HumanVertical,1,Q3FrontUp,-14.83937,32.09417,43.88713,-56.4586,-106.7235,152.77,-55.04869,202408221425581912
2-Mar,C_HumanVertical,1,Q3FrontUp,-14.83937,32.09417,43.88713,-56.4586,-106.7235,152.77,-55.04869,202408221425582126
2-Mar,C_HumanVertical,1,Q3FrontUp,-14.8391,32.07805,43.8605,-56.31135,-106.7246,152.8018,-55.04942,202408221425582422
2-Mar,C_HumanVertical,1,Q3FrontUp,-14.8379,32.06777,43.83855,-56.1786,-106.7248,152.836,-55.049,202408221425582622
2-Mar,C_HumanVertical,1,Q3FrontUp,-14.83807,32.05894,43.81349,-56.07165,-106.7259,152.8647,-55.04813,202408221425582894
2-Mar,C_HumanVertical,1,Q3FrontUp,-14.8379,32.05421,43.79305,-55.9876,-106.7276,152.886,-55.04332,202408221425583075
2-Mar,C_HumanVertical,1,Q3FrontUp,-14.8379,32.05421,43.79305,-55.9876,-106.7276,152.886,-55.04332,202408221425583230
2-Mar,C_HumanVertical,1,Q3FrontUp,-14.8379,32.05421,43.79305,-55.9876,-106.7276,152.886,-55.04332,202408221425583407
2-Mar,C_HumanVertical,1,Q3FrontUp,-14.83761,32.0537,43.77231,-55.90812,-106.7289,152.906,-55.03424,202408221425583622
2-Mar,C_HumanVertical,1,Q3FrontUp,-14.83892,32.05345,43.75909,-55.84532,-106.7295,152.9224,-55.032,202408221425583798
2-Mar,C_HumanVertical,1,Q3FrontUp,-14.83844,32.05508,43.75524,-55.80603,-106.7295,152.9309,-55.0322,202408221425584079
2-Mar,C_HumanVertical,1,Q3FrontUp,-14.83844,32.05508,43.75524,-55.80603,-106.7295,152.9309,-55.0322,202408221425584246
2-Mar,C_HumanVertical,1,Q3FrontUp,-14.83742,32.05611,43.75467,-55.77232,-106.7308,152.9427,-55.0322,202408221425584410
2-Mar,C_HumanVertical,1,Q3FrontUp,-14.83642,32.05508,43.75411,-55.75184,-106.7316,152.957,-55.03398,202408221425584774
2-Mar,C_HumanVertical,1,Q3FrontUp,-14.83642,32.05508,43.75411,-55.75184,-106.7316,152.957,-55.03398,202408221425584948
2-Mar,C_HumanVertical,1,Q3FrontUp,-14.82822,32.05408,43.75493,-55.74824,-106.7315,152.9604,-55.03749,202408221425585237
2-Mar,C_HumanVertical,1,Q3FrontUp,-14.81411,32.05564,43.75422,-55.74094,-106.7438,152.9787,-55.03348,202408221425585456
2-Mar,C_HumanVertical,1,Q3FrontUp,-14.79226,32.05596,43.75354,-55.73883,-106.7557,152.9911,-55.03218,202408221425585746
2-Mar,C_HumanVertical,1,Q3FrontUp,-14.79226,32.05596,43.75354,-55.73883,-106.7557,152.9911,-55.03218,202408221425585940
2-Mar,C_HumanVertical,1,Q3FrontUp,-14.75934,32.05646,43.75372,-55.7394,-106.7582,152.9923,-55.0325,202408221425586142
2-Mar,C_HumanVertical,1,Q3FrontUp,-14.71789,32.05987,43.75349,-55.74083,-106.7601,152.9929,-55.03285,202408221425586402
2-Mar,C_HumanVertical,1,Q3FrontUp,-14.71789,32.05987,43.75349,-55.74083,-106.7601,152.9929,-55.03285,202408221425586586
2-Mar,C_HumanVertical,1,Q3FrontUp,-14.67175,32.06203,43.75419,-55.74006,-106.7685,152.9986,-55.03064,202408221425586771
2-Mar,C_HumanVertical,1,Q3FrontUp,-14.67175,32.06203,43.75419,-55.74006,-106.7685,152.9986,-55.03064,202408221425587032
2-Mar,C_HumanVertical,1,Q3FrontUp,-14.6234,32.06102,43.75479,-55.7398,-106.7914,153.0334,-55.01365,202408221425587380
2-Mar,C_HumanVertical,1,Q3FrontUp,-14.6234,32.06102,43.75479,-55.7398,-106.7914,153.0334,-55.01365,202408221425587580
2-Mar,C_HumanVertical,1,Q3FrontUp,-14.56894,32.06111,43.75414,-55.74685,-106.7914,153.0338,-55.03786,202408221425587730
2-Mar,C_HumanVertical,1,Q3FrontUp,-14.5113,32.0607,43.75436,-55.76196,-106.7909,153.0336,-55.07537,202408221425587901
2-Mar,C_HumanVertical,1,Q3FrontUp,-14.44559,32.06092,43.75436,-55.77842,-106.7907,153.0336,-55.11423,202408221425588092
2-Mar,C_HumanVertical,1,Q3FrontUp,-14.44559,32.06092,43.75436,-55.77842,-106.7907,153.0336,-55.11423,202408221425588302
2-Mar,C_HumanVertical,1,Q3FrontUp,-14.37531,32.06072,43.75389,-55.8182,-106.7904,153.0334,-55.13896,202408221425588585
2-Mar,C_HumanVertical,1,Q3FrontUp,-14.37531,32.06072,43.75389,-55.8182,-106.7904,153.0334,-55.13896,202408221425588767
2-Mar,C_HumanVertical,1,Q3FrontUp,-14.29886,32.06113,43.75272,-55.87206,-106.7905,153.0334,-55.16079,202408221425588927
2-Mar,C_HumanVertical,1,Q3FrontUp,-14.21714,32.06183,43.74768,-55.93296,-106.7907,153.0334,-55.18556,202408221425589088
2-Mar,C_HumanVertical,1,Q3FrontUp,-14.21714,32.06183,43.74768,-55.93296,-106.7907,153.0334,-55.18556,202408221425589278
