mpan31415/robot-x-ar/study2/data/raw_all_participants/Participant_2-19_1.csv
ParticipantID,Condition,Trial,PostureID,J1,J2,J3,J4,J5,J6,J7,Timestamp
Feb-19,A_Baseline,1,Q3FrontUp,-53.39962,25.04448,97.01546,-15.53709,-95.61599,158.8616,-56.20936,202408271427032793
Feb-19,A_Baseline,1,Q3FrontUp,-53.39984,25.04446,97.01573,-15.53699,-95.61603,158.8616,-56.20952,202408271427033240
Feb-19,A_Baseline,1,Q3FrontUp,-53.39992,25.04443,97.01528,-15.53701,-95.61597,158.8615,-56.20923,202408271427033537
Feb-19,A_Baseline,1,Q3FrontUp,-53.39994,25.04437,97.01568,-15.53705,-95.61611,158.8615,-56.2093,202408271427033873
Feb-19,A_Baseline,1,Q3FrontUp,-53.39991,25.04455,97.01417,-15.53699,-95.61618,158.8617,-56.20936,202408271427034036
Feb-19,A_Baseline,1,Q3FrontUp,-53.39991,25.04455,97.01417,-15.53699,-95.61618,158.8617,-56.20936,202408271427034218
Feb-19,A_Baseline,1,Q3FrontUp,-53.3995,25.04429,97.01132,-15.53687,-95.61622,158.862,-56.20946,202408271427034569
Feb-19,A_Baseline,1,Q3FrontUp,-53.3995,25.04429,97.01132,-15.53687,-95.61622,158.862,-56.20946,202408271427034865
Feb-19,A_Baseline,1,Q3FrontUp,-53.39982,25.04442,97.01021,-15.53715,-95.61629,158.8623,-56.20949,202408271427035049
Feb-19,A_Baseline,1,Q3FrontUp,-53.40006,25.04444,97.0101,-15.53709,-95.61346,158.8624,-56.20931,202408271427035352
Feb-19,A_Baseline,1,Q3FrontUp,-53.39974,25.0444,97.01019,-15.53704,-95.60586,158.8626,-56.20955,202408271427035653
Feb-19,A_Baseline,1,Q3FrontUp,-53.39949,25.04434,97.01028,-15.53682,-95.58712,158.8629,-56.20962,202408271427035912
Feb-19,A_Baseline,1,Q3FrontUp,-53.39949,25.04434,97.01028,-15.53682,-95.58712,158.8629,-56.20962,202408271427036176
Feb-19,A_Baseline,1,Q3FrontUp,-53.39922,25.04445,97.0101,-15.53682,-95.57833,158.863,-56.2093,202408271427036488
Feb-19,A_Baseline,1,Q3FrontUp,-53.39922,25.04437,97.00993,-15.53693,-95.57831,158.8631,-56.20961,202408271427036824
Feb-19,A_Baseline,1,Q3FrontUp,-53.39928,25.04433,97.01006,-15.53677,-95.57954,158.8632,-56.20936,202408271427037200
Feb-19,A_Baseline,1,Q3FrontUp,-53.39956,25.04435,97.01064,-15.537,-95.57968,158.8633,-56.20945,202408271427037469
Feb-19,A_Baseline,1,Q3FrontUp,-53.39956,25.04435,97.01064,-15.537,-95.57968,158.8633,-56.20945,202408271427037641
Feb-19,A_Baseline,1,Q3FrontUp,-53.39923,25.04423,97.01097,-15.53665,-95.57968,158.8634,-56.20949,202408271427037805
Feb-19,A_Baseline,1,Q3FrontUp,-53.39941,25.04441,97.01104,-15.53699,-95.57986,158.8634,-56.20956,202408271427038002
Feb-19,A_Baseline,1,Q3FrontUp,-53.39941,25.04441,97.01104,-15.53699,-95.57986,158.8634,-56.20956,202408271427038195
Feb-19,A_Baseline,1,Q3FrontUp,-53.39935,25.04423,97.01094,-15.53687,-95.57971,158.8636,-56.20927,202408271427038484
Feb-19,A_Baseline,1,Q3FrontUp,-53.39935,25.04423,97.01094,-15.53687,-95.57971,158.8636,-56.20927,202408271427038670
Feb-19,A_Baseline,1,Q3FrontUp,-53.39936,25.04411,97.01077,-15.53677,-95.57981,158.8636,-56.20974,202408271427039042
Feb-19,A_Baseline,1,Q3FrontUp,-53.39948,25.04438,97.011,-15.53661,-95.5799,158.8637,-56.20934,202408271427039320
Feb-19,A_Baseline,1,Q3FrontUp,-53.39948,25.04438,97.011,-15.53661,-95.5799,158.8637,-56.20934,202408271427039479
Feb-19,A_Baseline,1,Q3FrontUp,-53.39933,25.04412,97.01138,-15.53695,-95.58009,158.8637,-56.20915,202408271427039663
Feb-19,A_Baseline,1,Q3FrontUp,-53.39924,25.04462,97.01151,-15.53695,-95.57987,158.8634,-56.20925,202408271427040057
Feb-19,A_Baseline,1,Q3FrontUp,-53.39928,25.04464,97.01151,-15.53667,-95.58002,158.8637,-56.20935,202408271427040383
Feb-19,A_Baseline,1,Q3FrontUp,-53.39954,25.04432,97.01151,-15.53691,-95.58012,158.8637,-56.20952,202408271427040655
Feb-19,A_Baseline,1,Q3FrontUp,-53.39954,25.04432,97.01151,-15.53691,-95.58012,158.8637,-56.20952,202408271427040820
Feb-19,A_Baseline,1,Q3FrontUp,-53.39936,25.0444,97.0116,-15.53713,-95.58007,158.8638,-56.20937,202408271427040987
Feb-19,A_Baseline,1,Q3FrontUp,-53.39936,25.0444,97.0116,-15.53713,-95.58007,158.8638,-56.20937,202408271427041176
Feb-19,A_Baseline,1,Q3FrontUp,-53.39947,25.04423,97.01138,-15.53688,-95.57994,158.8637,-56.20967,202408271427041366
Feb-19,A_Baseline,1,Q3FrontUp,-53.39948,25.04431,97.01161,-15.53689,-95.5801,158.8638,-56.2094,202408271427041651
Feb-19,A_Baseline,1,Q3FrontUp,-53.39948,25.04431,97.01161,-15.53689,-95.5801,158.8638,-56.2094,202408271427041969
Feb-19,A_Baseline,1,Q3FrontUp,-53.39941,25.04418,97.01143,-15.53677,-95.5801,158.8639,-56.20965,202408271427042178
Feb-19,A_Baseline,1,Q3FrontUp,-53.39944,25.04434,97.01138,-15.53678,-95.57986,158.8638,-56.20976,202408271427042462
Feb-19,A_Baseline,1,Q3FrontUp,-53.39944,25.04434,97.01138,-15.53678,-95.57986,158.8638,-56.20976,202408271427042624
Feb-19,A_Baseline,1,Q3FrontUp,-53.39936,25.04445,97.0116,-15.53682,-95.5799,158.8639,-56.20945,202408271427042804
Feb-19,A_Baseline,1,Q3FrontUp,-53.39935,25.04423,97.01147,-15.53665,-95.58012,158.8642,-56.20934,202408271427042983
Feb-19,A_Baseline,1,Q3FrontUp,-53.39935,25.04423,97.01147,-15.53665,-95.58012,158.8642,-56.20934,202408271427043165
Feb-19,A_Baseline,1,Q3FrontUp,-53.39956,25.04444,97.01116,-15.53689,-95.58016,158.864,-56.20952,202408271427043544
Feb-19,A_Baseline,1,Q3FrontUp,-53.39928,25.04412,97.01097,-15.53675,-95.58009,158.8642,-56.20969,202408271427043700
Feb-19,A_Baseline,1,Q3FrontUp,-53.39928,25.0445,97.01064,-15.53677,-95.5801,158.8641,-56.20944,202408271427043990
Feb-19,A_Baseline,1,Q3FrontUp,-53.39928,25.0445,97.01064,-15.53677,-95.5801,158.8641,-56.20944,202408271427044152
Feb-19,A_Baseline,1,Q3FrontUp,-53.39949,25.04437,97.01047,-15.53687,-95.58016,158.8642,-56.20948,202408271427044481
Feb-19,A_Baseline,1,Q3FrontUp,-53.39949,25.04437,97.01047,-15.53687,-95.58016,158.8642,-56.20948,202408271427044677
Feb-19,A_Baseline,1,Q3FrontUp,-53.39928,25.04441,97.01019,-15.53687,-95.58004,158.8643,-56.20942,202408271427044959
Feb-19,A_Baseline,1,Q3FrontUp,-53.39928,25.04441,97.01019,-15.53687,-95.58004,158.8643,-56.20942,202408271427045122
Feb-19,A_Baseline,1,Q3FrontUp,-53.39943,25.04423,97.00993,-15.5369,-95.58002,158.8645,-56.20959,202408271427045366
Feb-19,A_Baseline,1,Q3FrontUp,-53.39915,25.04411,97.00977,-15.53673,-95.58008,158.8642,-56.20963,202408271427045676
Feb-19,A_Baseline,1,Q3FrontUp,-53.39915,25.04411,97.00977,-15.53673,-95.58008,158.8642,-56.20963,202408271427045889
Feb-19,A_Baseline,1,Q3FrontUp,-53.39919,25.04423,97.00959,-15.53662,-95.58003,158.8645,-56.20964,202408271427046172
Feb-19,A_Baseline,1,Q3FrontUp,-53.39934,25.04423,97.00932,-15.5368,-95.58004,158.8643,-56.20961,202408271427046475
Feb-19,A_Baseline,1,Q3FrontUp,-53.39941,25.04423,97.0095,-15.53691,-95.57999,158.8643,-56.20942,202408271427046652
Feb-19,A_Baseline,1,Q3FrontUp,-53.39941,25.04423,97.0095,-15.53691,-95.57999,158.8643,-56.20942,202408271427046865
Feb-19,A_Baseline,1,Q3FrontUp,-53.39941,25.04433,97.00962,-15.53665,-95.57999,158.8644,-56.2097,202408271427047139
Feb-19,A_Baseline,1,Q3FrontUp,-53.39936,25.04445,97.0096,-15.53703,-95.57997,158.8646,-56.2097,202408271427047318
Feb-19,A_Baseline,1,Q3FrontUp,-53.39926,25.04433,97.00949,-15.53669,-95.5799,158.8644,-56.20964,202408271427047639
Feb-19,A_Baseline,1,Q3FrontUp,-53.39926,25.04433,97.00949,-15.53669,-95.5799,158.8644,-56.20964,202408271427047812
Feb-19,A_Baseline,1,Q3FrontUp,-53.39928,25.04428,97.00977,-15.53681,-95.58013,158.8646,-56.20988,202408271427048023
Feb-19,A_Baseline,1,Q3FrontUp,-53.39928,25.04428,97.00977,-15.53681,-95.58013,158.8646,-56.20988,202408271427048187
Feb-19,A_Baseline,1,Q3FrontUp,-53.39949,25.04441,97.0096,-15.53669,-95.58002,158.8644,-56.20979,202408271427048377
Feb-19,A_Baseline,1,Q3FrontUp,-53.39906,25.04399,97.0097,-15.53648,-95.57993,158.8645,-56.20971,202408271427048650
Feb-19,A_Baseline,1,Q3FrontUp,-53.39906,25.04399,97.0097,-15.53648,-95.57993,158.8645,-56.20971,202408271427048838
Feb-19,A_Baseline,1,Q3FrontUp,-53.39937,25.04428,97.00987,-15.53659,-95.5805,158.8646,-56.20974,202408271427049155
Feb-19,A_Baseline,1,Q3FrontUp,-53.39937,25.04428,97.00987,-15.53659,-95.5805,158.8646,-56.20974,202408271427049367
Feb-19,A_Baseline,1,Q3FrontUp,-53.39914,25.04459,97.01006,-15.53673,-95.58086,158.8645,-56.20992,202408271427049633
Feb-19,A_Baseline,1,Q3FrontUp,-53.39914,25.04459,97.01006,-15.53673,-95.58086,158.8645,-56.20992,202408271427049805
Feb-19,A_Baseline,1,Q3FrontUp,-53.39934,25.04441,97.01019,-15.53677,-95.58086,158.8643,-56.2097,202408271427050020
Feb-19,A_Baseline,1,Q3FrontUp,-53.39922,25.04441,97.01003,-15.53669,-95.58084,158.8645,-56.20972,202408271427050322
Feb-19,A_Baseline,1,Q3FrontUp,-53.39922,25.04441,97.01003,-15.53669,-95.58084,158.8645,-56.20972,202408271427050563
Feb-19,A_Baseline,1,Q3FrontUp,-53.39922,25.0445,97.00993,-15.53664,-95.58099,158.8645,-56.20961,202408271427050832
Feb-19,A_Baseline,1,Q3FrontUp,-53.39965,25.04425,97.01015,-15.5367,-95.58089,158.8645,-56.20967,202408271427050994
Feb-19,A_Baseline,1,Q3FrontUp,-53.39929,25.04411,97.01022,-15.53682,-95.58085,158.8646,-56.20991,202408271427051340
Feb-19,A_Baseline,1,Q3FrontUp,-53.39929,25.04411,97.01022,-15.53682,-95.58085,158.8646,-56.20991,202408271427051515
Feb-19,A_Baseline,1,Q3FrontUp,-53.39943,25.04424,97.0106,-15.53659,-95.58087,158.8645,-56.20955,202408271427051687
Feb-19,A_Baseline,1,Q3FrontUp,-53.39921,25.04449,97.01077,-15.53665,-95.58054,158.8648,-56.21021,202408271427051976
Feb-19,A_Baseline,1,Q3FrontUp,-53.39926,25.04427,97.01082,-15.53659,-95.58067,158.8647,-56.21011,202408271427052293
Feb-19,A_Baseline,1,Q3FrontUp,-53.39926,25.04427,97.01082,-15.53659,-95.58067,158.8647,-56.21011,202408271427052474
Feb-19,A_Baseline,1,Q3FrontUp,-53.39915,25.04425,97.01084,-15.53674,-95.58065,158.8648,-56.20979,202408271427052631
Feb-19,A_Baseline,1,Q3FrontUp,-53.39915,25.04425,97.01084,-15.53674,-95.58065,158.8648,-56.20979,202408271427052870
Feb-19,A_Baseline,1,Q3FrontUp,-53.39921,25.04417,97.01102,-15.53686,-95.58051,158.8648,-56.2102,202408271427053152
Feb-19,A_Baseline,1,Q3FrontUp,-53.39925,25.04423,97.01151,-15.53665,-95.57552,158.8648,-56.21003,202408271427053281
Feb-19,A_Baseline,1,Q3FrontUp,-53.39925,25.04423,97.01151,-15.53665,-95.57552,158.8648,-56.21003,202408271427053463
Feb-19,A_Baseline,1,Q3FrontUp,-53.39919,25.04427,97.01153,-15.53678,-95.55946,158.865,-56.21027,202408271427053667
Feb-19,A_Baseline,1,Q3FrontUp,-53.39919,25.04427,97.01153,-15.53678,-95.55946,158.865,-56.21027,202408271427053848
Feb-19,A_Baseline,1,Q3FrontUp,-53.39934,25.04432,97.01162,-15.53665,-95.54829,158.865,-56.20998,202408271427054149
Feb-19,A_Baseline,1,Q3FrontUp,-53.39487,25.04438,97.01099,-15.53615,-95.53455,158.865,-56.21033,202408271427054322
Feb-19,A_Baseline,1,Q3FrontUp,-53.39487,25.04438,97.01099,-15.53615,-95.53455,158.865,-56.21033,202408271427054476
Feb-19,A_Baseline,1,Q3FrontUp,-53.38683,25.04426,97.00986,-15.53437,-95.51926,158.8649,-56.21034,202408271427054707
Feb-19,A_Baseline,1,Q3FrontUp,-53.38085,25.04426,97.00941,-15.53429,-95.50589,158.865,-56.21049,202408271427054984
Feb-19,A_Baseline,1,Q3FrontUp,-53.38085,25.04426,97.00941,-15.53429,-95.50589,158.865,-56.21049,202408271427055149
Feb-19,A_Baseline,1,Q3FrontUp,-53.38085,25.04426,97.00941,-15.53429,-95.50589,158.865,-56.21049,202408271427055310
Feb-19,A_Baseline,1,Q3FrontUp,-53.35303,25.04438,97.00402,-15.53366,-95.45306,158.865,-56.21021,202408271427055630
Feb-19,A_Baseline,1,Q3FrontUp,-53.35303,25.04438,97.00402,-15.53366,-95.45306,158.865,-56.21021,202408271427055811
Feb-19,A_Baseline,1,Q3FrontUp,-53.32949,25.04458,97.00352,-15.53224,-95.43445,158.865,-56.21057,202408271427056040
Feb-19,A_Baseline,1,Q3FrontUp,-53.32949,25.04458,97.00352,-15.53224,-95.43445,158.865,-56.21057,202408271427056207
Feb-19,A_Baseline,1,Q3FrontUp,-53.30633,25.04389,97.00321,-15.53109,-95.42238,158.8651,-56.21043,202408271427056492
Feb-19,A_Baseline,1,Q3FrontUp,-53.28016,25.04321,97.00322,-15.53109,-95.41478,158.8652,-56.21066,202408271427056823
Feb-19,A_Baseline,1,Q3FrontUp,-53.25634,25.04274,97.0044,-15.53132,-95.37908,158.8653,-56.20995,202408271427057031
Feb-19,A_Baseline,1,Q3FrontUp,-53.25634,25.04274,97.0044,-15.53132,-95.37908,158.8653,-56.20995,202408271427057306
Feb-19,A_Baseline,1,Q3FrontUp,-53.22903,25.04241,97.00473,-15.53116,-95.30656,158.8649,-56.20993,202408271427057479
Feb-19,A_Baseline,1,Q3FrontUp,-53.19484,25.04126,97.00429,-15.52933,-95.19645,158.865,-56.21033,202408271427057650
Feb-19,A_Baseline,1,Q3FrontUp,-53.19484,25.04126,97.00429,-15.52933,-95.19645,158.865,-56.21033,202408271427057884
Feb-19,A_Baseline,1,Q3FrontUp,-53.16606,25.03604,97.00465,-15.52914,-95.11316,158.8651,-56.21008,202408271427058046
Feb-19,A_Baseline,1,Q3FrontUp,-53.15377,25.01548,97.04606,-15.54246,-94.83221,158.9057,-56.18216,202408271427058336
Feb-19,A_Baseline,1,Q3FrontUp,-53.15377,25.01548,97.04606,-15.54246,-94.83221,158.9057,-56.18216,202408271427058496
Feb-19,A_Baseline,1,Q3FrontUp,-53.14417,24.99317,97.20247,-15.55316,-94.17107,159.0623,-56.08611,202408271427058832
Feb-19,A_Baseline,1,Q3FrontUp,-53.13306,24.96487,97.36852,-15.57003,-93.57278,159.195,-56.00039,202408271427059020
Feb-19,A_Baseline,1,Q3FrontUp,-53.13306,24.96487,97.36852,-15.57003,-93.57278,159.195,-56.00039,202408271427059213
Feb-19,A_Baseline,1,Q3FrontUp,-53.12623,24.90543,97.55531,-15.58582,-92.8556,159.3521,-55.88971,202408271427059467
Feb-19,A_Baseline,1,Q3FrontUp,-53.12826,24.82266,97.78933,-15.60567,-92.02003,159.5787,-55.73914,202408271427059788
Feb-19,A_Baseline,1,Q3FrontUp,-53.13014,24.70752,98.01328,-15.59897,-91.15816,159.7992,-55.57211,202408271427059969
Feb-19,A_Baseline,1,Q3FrontUp,-53.13014,24.70752,98.01328,-15.59897,-91.15816,159.7992,-55.57211,202408271427060155
Feb-19,A_Baseline,1,Q3FrontUp,-53.12546,24.57988,98.2746,-15.60608,-90.25798,160.0436,-55.41331,202408271427060376
Feb-19,A_Baseline,1,Q3FrontUp,-53.12546,24.57988,98.2746,-15.60608,-90.25798,160.0436,-55.41331,202408271427060678
Feb-19,A_Baseline,1,Q3FrontUp,-53.12539,24.42254,98.5461,-15.61615,-89.30088,160.3214,-55.23589,202408271427060843
Feb-19,A_Baseline,1,Q3FrontUp,-53.10873,24.23793,98.82095,-15.61867,-88.32984,160.655,-54.96238,202408271427061038
Feb-19,A_Baseline,1,Q3FrontUp,-53.09536,24.04984,99.06239,-15.62216,-87.45518,161.0099,-54.69003,202408271427061376
Feb-19,A_Baseline,1,Q3FrontUp,-53.08651,23.83343,99.23588,-15.62185,-86.60172,161.4192,-54.43219,202408271427061703
Feb-19,A_Baseline,1,Q3FrontUp,-53.09258,23.6149,99.45926,-15.62211,-85.89253,161.8554,-54.10476,202408271427061967
Feb-19,A_Baseline,1,Q3FrontUp,-53.09258,23.6149,99.45926,-15.62211,-85.89253,161.8554,-54.10476,202408271427062128
Feb-19,A_Baseline,1,Q3FrontUp,-53.09724,23.39766,99.68921,-15.6224,-85.23259,162.2744,-53.77829,202408271427062300
Feb-19,A_Baseline,1,Q3FrontUp,-53.09724,23.39766,99.68921,-15.6224,-85.23259,162.2744,-53.77829,202408271427062539
Feb-19,A_Baseline,1,Q3FrontUp,-53.09672,23.18413,99.90144,-15.62519,-84.61309,162.6731,-53.46342,202408271427062697
Feb-19,A_Baseline,1,Q3FrontUp,-53.09554,22.97378,100.0774,-15.63803,-84.02679,163.0402,-53.17768,202408271427063000
Feb-19,A_Baseline,1,Q3FrontUp,-53.09554,22.97378,100.0774,-15.63803,-84.02679,163.0402,-53.17768,202408271427063153
Feb-19,A_Baseline,1,Q3FrontUp,-53.09554,22.97378,100.0774,-15.63803,-84.02679,163.0402,-53.17768,202408271427063333
Feb-19,A_Baseline,1,Q3FrontUp,-53.09726,22.77449,100.2752,-15.65379,-83.56612,163.3883,-52.88159,202408271427063541
Feb-19,A_Baseline,1,Q3FrontUp,-53.10518,22.58627,100.5016,-15.68442,-83.15476,163.7399,-52.56003,202408271427063815
Feb-19,A_Baseline,1,Q3FrontUp,-53.12641,22.39839,100.7133,-15.74842,-82.76905,164.0658,-52.27292,202408271427064021
Feb-19,A_Baseline,1,Q3FrontUp,-53.14116,22.21748,100.8955,-15.81851,-82.40926,164.3617,-51.99494,202408271427064364
Feb-19,A_Baseline,1,Q3FrontUp,-53.14116,22.21748,100.8955,-15.81851,-82.40926,164.3617,-51.99494,202408271427064530
Feb-19,A_Baseline,1,Q3FrontUp,-53.15255,22.04571,101.0852,-15.8847,-82.04206,164.6375,-51.71241,202408271427064812
Feb-19,A_Baseline,1,Q3FrontUp,-53.16479,21.89766,101.2406,-16.02707,-81.8375,164.9019,-51.40112,202408271427064973
Feb-19,A_Baseline,1,Q3FrontUp,-53.16479,21.89766,101.2406,-16.02707,-81.8375,164.9019,-51.40112,202408271427065150
Feb-19,A_Baseline,1,Q3FrontUp,-53.17431,21.74347,101.3471,-16.22762,-81.74203,165.1713,-51.09474,202408271427065316
Feb-19,A_Baseline,1,Q3FrontUp,-53.17431,21.74347,101.3471,-16.22762,-81.74203,165.1713,-51.09474,202408271427065474
Feb-19,A_Baseline,1,Q3FrontUp,-53.17001,21.61093,101.3831,-16.46683,-81.7374,165.4382,-50.8121,202408271427065705
Feb-19,A_Baseline,1,Q3FrontUp,-53.17001,21.61093,101.3831,-16.46683,-81.7374,165.4382,-50.8121,202408271427065868
Feb-19,A_Baseline,1,Q3FrontUp,-53.15855,21.49703,101.3828,-16.87008,-81.79105,165.7033,-50.51191,202408271427066157
Feb-19,A_Baseline,1,Q3FrontUp,-53.12904,21.38766,101.3617,-17.35571,-81.87009,165.9359,-50.21788,202408271427066330
Feb-19,A_Baseline,1,Q3FrontUp,-53.12904,21.38766,101.3617,-17.35571,-81.87009,165.9359,-50.21788,202408271427066488
Feb-19,A_Baseline,1,Q3FrontUp,-53.07905,21.31197,101.305,-17.97058,-81.96436,166.1733,-49.92122,202408271427066701
Feb-19,A_Baseline,1,Q3FrontUp,-52.99708,21.21377,101.2465,-18.59825,-82.05566,166.385,-49.65097,202408271427066976
Feb-19,A_Baseline,1,Q3FrontUp,-52.99708,21.21377,101.2465,-18.59825,-82.05566,166.385,-49.65097,202408271427067147
Feb-19,A_Baseline,1,Q3FrontUp,-52.86167,21.14612,101.1405,-19.27137,-82.17731,166.5587,-49.37572,202408271427067296
Feb-19,A_Baseline,1,Q3FrontUp,-52.86167,21.14612,101.1405,-19.27137,-82.17731,166.5587,-49.37572,202408271427067540
Feb-19,A_Baseline,1,Q3FrontUp,-52.67625,21.10677,100.9566,-20.06402,-82.33681,166.7059,-49.10833,202408271427067810
Feb-19,A_Baseline,1,Q3FrontUp,-52.67625,21.10677,100.9566,-20.06402,-82.33681,166.7059,-49.10833,202408271427067991
Feb-19,A_Baseline,1,Q3FrontUp,-52.67625,21.10677,100.9566,-20.06402,-82.33681,166.7059,-49.10833,202408271427068145
Feb-19,A_Baseline,1,Q3FrontUp,-52.32398,21.00854,100.516,-21.72567,-82.76637,166.9857,-48.62194,202408271427068325
Feb-19,A_Baseline,1,Q3FrontUp,-52.15013,20.9658,100.3321,-22.61166,-82.98212,167.1342,-48.36772,202408271427068699
Feb-19,A_Baseline,1,Q3FrontUp,-52.15013,20.9658,100.3321,-22.61166,-82.98212,167.1342,-48.36772,202408271427068865
Feb-19,A_Baseline,1,Q3FrontUp,-51.97538,20.95112,100.1857,-23.57922,-83.1652,167.2856,-48.12687,202408271427069132
Feb-19,A_Baseline,1,Q3FrontUp,-51.97538,20.95112,100.1857,-23.57922,-83.1652,167.2856,-48.12687,202408271427069322
Feb-19,A_Baseline,1,Q3FrontUp,-51.8016,20.93866,100.0221,-24.57994,-83.38188,167.4169,-47.89175,202408271427069631
Feb-19,A_Baseline,1,Q3FrontUp,-51.65067,20.92781,99.86797,-25.61827,-83.65288,167.5686,-47.65701,202408271427069803
Feb-19,A_Baseline,1,Q3FrontUp,-51.52277,20.91574,99.72613,-26.68098,-83.95649,167.7468,-47.43909,202408271427070019
Feb-19,A_Baseline,1,Q3FrontUp,-51.40337,20.89065,99.57271,-27.73367,-84.22473,167.9056,-47.22598,202408271427070326
Feb-19,A_Baseline,1,Q3FrontUp,-51.40337,20.89065,99.57271,-27.73367,-84.22473,167.9056,-47.22598,202408271427070507
Feb-19,A_Baseline,1,Q3FrontUp,-51.40337,20.89065,99.57271,-27.73367,-84.22473,167.9056,-47.22598,202408271427070697
Feb-19,A_Baseline,1,Q3FrontUp,-51.25361,20.87932,99.41857,-28.72899,-84.48253,168.0529,-47.03354,202408271427070852
Feb-19,A_Baseline,1,Q3FrontUp,-51.05849,20.87941,99.20007,-29.79767,-84.81111,168.2443,-46.83666,202408271427071022
Feb-19,A_Baseline,1,Q3FrontUp,-50.85415,20.86746,98.96474,-30.88386,-85.15413,168.4276,-46.66082,202408271427071340
Feb-19,A_Baseline,1,Q3FrontUp,-50.66746,20.87447,98.70515,-31.95075,-85.47749,168.6324,-46.4975,202408271427071640
Feb-19,A_Baseline,1,Q3FrontUp,-50.66746,20.87447,98.70515,-31.95075,-85.47749,168.6324,-46.4975,202408271427071984
Feb-19,A_Baseline,1,Q3FrontUp,-50.44949,20.86642,98.46516,-32.96859,-85.81081,168.8082,-46.35086,202408271427072174
Feb-19,A_Baseline,1,Q3FrontUp,-50.18069,20.86658,98.19041,-33.98106,-86.1755,168.9553,-46.20007,202408271427072461
Feb-19,A_Baseline,1,Q3FrontUp,-49.93298,20.87043,97.82745,-35.06234,-86.53072,169.1031,-46.05962,202408271427072639
Feb-19,A_Baseline,1,Q3FrontUp,-49.93298,20.87043,97.82745,-35.06234,-86.53072,169.1031,-46.05962,202408271427072801
Feb-19,A_Baseline,1,Q3FrontUp,-49.65155,20.87923,97.40604,-36.16195,-86.87254,169.2414,-45.92197,202408271427072972
Feb-19,A_Baseline,1,Q3FrontUp,-49.65155,20.87923,97.40604,-36.16195,-86.87254,169.2414,-45.92197,202408271427073146
Feb-19,A_Baseline,1,Q3FrontUp,-49.37986,20.86762,97.00778,-37.19923,-87.20445,169.3398,-45.78297,202408271427073346
Feb-19,A_Baseline,1,Q3FrontUp,-49.09893,20.86564,96.56188,-38.37559,-87.5407,169.4236,-45.64494,202408271427073648
Feb-19,A_Baseline,1,Q3FrontUp,-49.09893,20.86564,96.56188,-38.37559,-87.5407,169.4236,-45.64494,202408271427073790
Feb-19,A_Baseline,1,Q3FrontUp,-48.81037,20.87391,96.18184,-39.51705,-87.80219,169.4673,-45.50916,202408271427074040
Feb-19,A_Baseline,1,Q3FrontUp,-48.81037,20.87391,96.18184,-39.51705,-87.80219,169.4673,-45.50916,202408271427074301
Feb-19,A_Baseline,1,Q3FrontUp,-48.50827,20.87617,95.78417,-40.72483,-88.09035,169.4763,-45.39229,202408271427074521
Feb-19,A_Baseline,1,Q3FrontUp,-48.20257,20.87908,95.35818,-41.9021,-88.36342,169.4744,-45.31086,202408271427074786
Feb-19,A_Baseline,1,Q3FrontUp,-47.86619,20.87857,94.99234,-43.03779,-88.62062,169.4742,-45.23446,202408271427074966
Feb-19,A_Baseline,1,Q3FrontUp,-47.53596,20.86943,94.59266,-44.1338,-88.83216,169.4746,-45.15739,202408271427075286
Feb-19,A_Baseline,1,Q3FrontUp,-47.53596,20.86943,94.59266,-44.1338,-88.83216,169.4746,-45.15739,202408271427075464
Feb-19,A_Baseline,1,Q3FrontUp,-47.20497,20.86726,94.21177,-45.21338,-89.03748,169.4738,-45.07591,202408271427075700
Feb-19,A_Baseline,1,Q3FrontUp,-46.8954,20.87453,93.83463,-46.27964,-89.22706,169.4709,-44.9911,202408271427075953
Feb-19,A_Baseline,1,Q3FrontUp,-46.8954,20.87453,93.83463,-46.27964,-89.22706,169.4709,-44.9911,202408271427076138
Feb-19,A_Baseline,1,Q3FrontUp,-46.59304,20.86056,93.43098,-47.30951,-89.4285,169.4672,-44.91058,202408271427076470
Feb-19,A_Baseline,1,Q3FrontUp,-46.26994,20.84444,92.95603,-48.30931,-89.62442,169.455,-44.82552,202408271427076689
Feb-19,A_Baseline,1,Q3FrontUp,-45.96222,20.82368,92.51003,-49.34878,-89.77007,169.3825,-44.74823,202408271427076967
Feb-19,A_Baseline,1,Q3FrontUp,-45.96222,20.82368,92.51003,-49.34878,-89.77007,169.3825,-44.74823,202408271427077176
Feb-19,A_Baseline,1,Q3FrontUp,-45.64997,20.81388,92.03046,-50.3537,-89.93102,169.3039,-44.67644,202408271427077469
Feb-19,A_Baseline,1,Q3FrontUp,-45.34859,20.80223,91.46445,-51.36277,-90.16451,169.2385,-44.6091,202408271427077647
Feb-19,A_Baseline,1,Q3FrontUp,-45.34859,20.80223,91.46445,-51.36277,-90.16451,169.2385,-44.6091,202408271427077874
Feb-19,A_Baseline,1,Q3FrontUp,-45.05302,20.78883,90.98557,-52.35369,-90.38414,169.1037,-44.52785,202408271427078157
Feb-19,A_Baseline,1,Q3FrontUp,-44.76538,20.78815,90.51291,-53.33641,-90.60546,168.9624,-44.4463,202408271427078478
Feb-19,A_Baseline,1,Q3FrontUp,-44.49734,20.79735,90.02087,-54.28086,-90.80498,168.8452,-44.35185,202408271427078696
Feb-19,A_Baseline,1,Q3FrontUp,-44.49734,20.79735,90.02087,-54.28086,-90.80498,168.8452,-44.35185,202408271427078857
Feb-19,A_Baseline,1,Q3FrontUp,-44.22415,20.80817,89.60058,-55.16133,-90.95437,168.7103,-44.26772,202408271427079122
Feb-19,A_Baseline,1,Q3FrontUp,-44.22415,20.80817,89.60058,-55.16133,-90.95437,168.7103,-44.26772,202408271427079292
Feb-19,A_Baseline,1,Q3FrontUp,-43.69305,20.82837,88.69051,-56.83466,-91.22058,168.4236,-44.09097,202408271427079631
Feb-19,A_Baseline,1,Q3FrontUp,-43.69305,20.82837,88.69051,-56.83466,-91.22058,168.4236,-44.09097,202408271427079800
Feb-19,A_Baseline,1,Q3FrontUp,-43.40293,20.83528,88.26937,-57.62062,-91.28473,168.2024,-43.99745,202408271427080031
Feb-19,A_Baseline,1,Q3FrontUp,-43.40293,20.83528,88.26937,-57.62062,-91.28473,168.2024,-43.99745,202408271427080173
Feb-19,A_Baseline,1,Q3FrontUp,-43.13195,20.83791,87.83005,-58.37983,-91.32555,167.9454,-43.88985,202408271427080459
Feb-19,A_Baseline,1,Q3FrontUp,-43.13195,20.83791,87.83005,-58.37983,-91.32555,167.9454,-43.88985,202408271427080638
Feb-19,A_Baseline,1,Q3FrontUp,-43.13195,20.83791,87.83005,-58.37983,-91.32555,167.9454,-43.88985,202408271427080795
Feb-19,A_Baseline,1,Q3FrontUp,-42.47252,20.86486,86.85487,-59.87371,-91.3755,167.353,-43.66564,202408271427081001
Feb-19,A_Baseline,1,Q3FrontUp,-42.47252,20.86486,86.85487,-59.87371,-91.3755,167.353,-43.66564,202408271427081204
Feb-19,A_Baseline,1,Q3FrontUp,-42.05908,20.87577,86.31454,-60.64683,-91.39342,167.0444,-43.53679,202408271427081467
Feb-19,A_Baseline,1,Q3FrontUp,-41.65732,20.89828,85.74834,-61.35459,-91.39575,166.7561,-43.41051,202408271427081660
Feb-19,A_Baseline,1,Q3FrontUp,-41.65732,20.89828,85.74834,-61.35459,-91.39575,166.7561,-43.41051,202408271427081848
Feb-19,A_Baseline,1,Q3FrontUp,-41.17213,20.92316,85.08531,-62.10031,-91.39874,166.3916,-43.27585,202408271427082142
Feb-19,A_Baseline,1,Q3FrontUp,-40.77327,20.96283,84.47401,-62.83345,-91.45226,166.022,-43.1401,202408271427082359
Feb-19,A_Baseline,1,Q3FrontUp,-40.38509,21.03554,83.93499,-63.58431,-91.58617,165.6134,-43.01603,202408271427082630
Feb-19,A_Baseline,1,Q3FrontUp,-40.38509,21.03554,83.93499,-63.58431,-91.58617,165.6134,-43.01603,202408271427082840
Feb-19,A_Baseline,1,Q3FrontUp,-39.99093,21.15245,83.29475,-64.32455,-91.69695,165.2121,-42.88456,202408271427083146
Feb-19,A_Baseline,1,Q3FrontUp,-39.63445,21.25595,82.66502,-65.01015,-91.81185,164.8473,-42.76194,202408271427083335
Feb-19,A_Baseline,1,Q3FrontUp,-39.33599,21.39817,82.07157,-65.67489,-91.9242,164.4679,-42.65216,202408271427083652
Feb-19,A_Baseline,1,Q3FrontUp,-38.96627,21.53044,81.3726,-66.28406,-92.01904,164.2214,-42.53169,202408271427084001
Feb-19,A_Baseline,1,Q3FrontUp,-38.96627,21.53044,81.3726,-66.28406,-92.01904,164.2214,-42.53169,202408271427084290
Feb-19,A_Baseline,1,Q3FrontUp,-38.58993,21.69131,80.65181,-66.90292,-92.08835,164.01,-42.41473,202408271427084474
Feb-19,A_Baseline,1,Q3FrontUp,-38.26958,21.84937,79.92339,-67.46284,-92.1446,163.7942,-42.31648,202408271427084664
Feb-19,A_Baseline,1,Q3FrontUp,-37.95819,21.99087,79.25878,-67.99609,-92.2016,163.5785,-42.22451,202408271427084951
Feb-19,A_Baseline,1,Q3FrontUp,-37.95819,21.99087,79.25878,-67.99609,-92.2016,163.5785,-42.22451,202408271427085169
Feb-19,A_Baseline,1,Q3FrontUp,-37.65012,22.1539,78.57323,-68.50803,-92.24461,163.3158,-42.13206,202408271427085444
Feb-19,A_Baseline,1,Q3FrontUp,-37.28854,22.30791,77.81313,-69.02612,-92.26741,163.0307,-42.03958,202408271427085641
Feb-19,A_Baseline,1,Q3FrontUp,-37.28854,22.30791,77.81313,-69.02612,-92.26741,163.0307,-42.03958,202408271427085853
Feb-19,A_Baseline,1,Q3FrontUp,-36.98258,22.48078,77.12248,-69.51279,-92.30109,162.7692,-41.96468,202408271427086143
Feb-19,A_Baseline,1,Q3FrontUp,-36.68954,22.61869,76.43957,-69.97572,-92.31601,162.5161,-41.89711,202408271427086312
Feb-19,A_Baseline,1,Q3FrontUp,-36.42556,22.73089,75.78761,-70.44462,-92.31657,162.2495,-41.84403,202408271427086685
Feb-19,A_Baseline,1,Q3FrontUp,-36.09097,22.87351,75.06754,-70.91996,-92.31892,162.0059,-41.78305,202408271427086965
Feb-19,A_Baseline,1,Q3FrontUp,-36.09097,22.87351,75.06754,-70.91996,-92.31892,162.0059,-41.78305,202408271427087133
Feb-19,A_Baseline,1,Q3FrontUp,-35.79071,22.992,74.41026,-71.37465,-92.32543,161.8154,-41.71971,202408271427087283
Feb-19,A_Baseline,1,Q3FrontUp,-35.79071,22.992,74.41026,-71.37465,-92.32543,161.8154,-41.71971,202408271427087463
Feb-19,A_Baseline,1,Q3FrontUp,-35.49907,23.10808,73.75072,-71.80398,-92.33845,161.6429,-41.65034,202408271427087642
Feb-19,A_Baseline,1,Q3FrontUp,-35.49907,23.10808,73.75072,-71.80398,-92.33845,161.6429,-41.65034,202408271427087804
Feb-19,A_Baseline,1,Q3FrontUp,-35.16911,23.23276,73.0665,-72.17284,-92.38033,161.4328,-41.56938,202408271427088036
Feb-19,A_Baseline,1,Q3FrontUp,-34.84823,23.33046,72.36884,-72.55954,-92.40298,161.2021,-41.5106,202408271427088300
Feb-19,A_Baseline,1,Q3FrontUp,-34.84823,23.33046,72.36884,-72.55954,-92.40298,161.2021,-41.5106,202408271427088490
Feb-19,A_Baseline,1,Q3FrontUp,-34.51598,23.42288,71.6917,-72.93031,-92.40383,161.0094,-41.47869,202408271427088808
Feb-19,A_Baseline,1,Q3FrontUp,-34.17259,23.5125,70.98047,-73.27682,-92.40394,160.8027,-41.4478,202408271427088999
Feb-19,A_Baseline,1,Q3FrontUp,-34.17259,23.5125,70.98047,-73.27682,-92.40394,160.8027,-41.4478,202408271427089177
Feb-19,A_Baseline,1,Q3FrontUp,-33.7844,23.58432,70.20862,-73.60815,-92.40379,160.6238,-41.40445,202408271427089468
Feb-19,A_Baseline,1,Q3FrontUp,-33.3545,23.63222,69.34834,-73.91885,-92.40443,160.4691,-41.34089,202408271427089631
Feb-19,A_Baseline,1,Q3FrontUp,-33.3545,23.63222,69.34834,-73.91885,-92.40443,160.4691,-41.34089,202408271427089851
Feb-19,A_Baseline,1,Q3FrontUp,-32.88184,23.70311,68.49279,-74.20797,-92.42435,160.2919,-41.28584,202408271427090142
Feb-19,A_Baseline,1,Q3FrontUp,-32.4171,23.75872,67.61739,-74.47874,-92.46394,160.0731,-41.22335,202408271427090339
Feb-19,A_Baseline,1,Q3FrontUp,-31.95205,23.81263,66.6892,-74.77321,-92.53885,159.8372,-41.13391,202408271427090630
Feb-19,A_Baseline,1,Q3FrontUp,-31.95205,23.81263,66.6892,-74.77321,-92.53885,159.8372,-41.13391,202408271427090799
Feb-19,A_Baseline,1,Q3FrontUp,-31.52056,23.88911,65.86859,-75.0411,-92.61744,159.6433,-41.05287,202408271427090954
Feb-19,A_Baseline,1,Q3FrontUp,-31.52056,23.88911,65.86859,-75.0411,-92.61744,159.6433,-41.05287,202408271427091171
Feb-19,A_Baseline,1,Q3FrontUp,-31.09267,23.98347,65.05388,-75.30379,-92.67937,159.4692,-40.97742,202408271427091336
Feb-19,A_Baseline,1,Q3FrontUp,-30.64682,24.04985,64.16043,-75.57682,-92.70387,159.3053,-40.89977,202408271427091634
Feb-19,A_Baseline,1,Q3FrontUp,-30.64682,24.04985,64.16043,-75.57682,-92.70387,159.3053,-40.89977,202408271427091788
Feb-19,A_Baseline,1,Q3FrontUp,-30.24081,24.12043,63.34053,-75.8315,-92.73943,159.1164,-40.79565,202408271427091982
Feb-19,A_Baseline,1,Q3FrontUp,-29.80312,24.19606,62.53859,-76.08868,-92.78295,158.8961,-40.67825,202408271427092291
Feb-19,A_Baseline,1,Q3FrontUp,-29.80312,24.19606,62.53859,-76.08868,-92.78295,158.8961,-40.67825,202408271427092510
Feb-19,A_Baseline,1,Q3FrontUp,-29.4158,24.25665,61.792,-76.32815,-92.83088,158.7058,-40.5589,202408271427092805
Feb-19,A_Baseline,1,Q3FrontUp,-29.04589,24.34204,61.1067,-76.53832,-92.8881,158.5406,-40.44674,202408271427093020
Feb-19,A_Baseline,1,Q3FrontUp,-29.04589,24.34204,61.1067,-76.53832,-92.8881,158.5406,-40.44674,202408271427093298
Feb-19,A_Baseline,1,Q3FrontUp,-28.69601,24.47089,60.46166,-76.73495,-92.94431,158.3757,-40.34718,202408271427093519
Feb-19,A_Baseline,1,Q3FrontUp,-28.34498,24.58616,59.89823,-76.89072,-92.99363,158.1901,-40.2527,202408271427093806
Feb-19,A_Baseline,1,Q3FrontUp,-28.06214,24.72395,59.39378,-77.03828,-93.03575,158.0154,-40.16052,202408271427093992
Feb-19,A_Baseline,1,Q3FrontUp,-28.06214,24.72395,59.39378,-77.03828,-93.03575,158.0154,-40.16052,202408271427094157
Feb-19,A_Baseline,1,Q3FrontUp,-27.79177,24.83756,58.88095,-77.18163,-93.06589,157.8204,-40.07776,202408271427094310
Feb-19,A_Baseline,1,Q3FrontUp,-27.79177,24.83756,58.88095,-77.18163,-93.06589,157.8204,-40.07776,202408271427094520
Feb-19,A_Baseline,1,Q3FrontUp,-27.79177,24.83756,58.88095,-77.18163,-93.06589,157.8204,-40.07776,202408271427094798
Feb-19,A_Baseline,1,Q3FrontUp,-27.24711,25.03094,57.95078,-77.45789,-93.09418,157.4519,-39.92143,202408271427094960
Feb-19,A_Baseline,1,Q3FrontUp,-27.24711,25.03094,57.95078,-77.45789,-93.09418,157.4519,-39.92143,202408271427095129
Feb-19,A_Baseline,1,Q3FrontUp,-26.95861,25.11664,57.49302,-77.60416,-93.1044,157.2672,-39.84402,202408271427095294
Feb-19,A_Baseline,1,Q3FrontUp,-26.95861,25.11664,57.49302,-77.60416,-93.1044,157.2672,-39.84402,202408271427095465
Feb-19,A_Baseline,1,Q3FrontUp,-26.64037,25.19778,57.02373,-77.73476,-93.10985,157.0533,-39.77471,202408271427095690
Feb-19,A_Baseline,1,Q3FrontUp,-26.64037,25.19778,57.02373,-77.73476,-93.10985,157.0533,-39.77471,202408271427095983
Feb-19,A_Baseline,1,Q3FrontUp,-26.35584,25.26507,56.62444,-77.85763,-93.11825,156.8335,-39.72042,202408271427096204
Feb-19,A_Baseline,1,Q3FrontUp,-26.05514,25.35336,56.23624,-77.95558,-93.14669,156.6005,-39.66186,202408271427096497
Feb-19,A_Baseline,1,Q3FrontUp,-25.75161,25.46413,55.87769,-78.02295,-93.18984,156.3519,-39.60158,202408271427096683
Feb-19,A_Baseline,1,Q3FrontUp,-25.39438,25.55012,55.47523,-78.09589,-93.25781,156.1118,-39.53695,202408271427096960
Feb-19,A_Baseline,1,Q3FrontUp,-25.39438,25.55012,55.47523,-78.09589,-93.25781,156.1118,-39.53695,202408271427097128
Feb-19,A_Baseline,1,Q3FrontUp,-25.07958,25.62688,55.11457,-78.18213,-93.32159,155.8418,-39.48436,202408271427097289
Feb-19,A_Baseline,1,Q3FrontUp,-25.07958,25.62688,55.11457,-78.18213,-93.32159,155.8418,-39.48436,202408271427097462
Feb-19,A_Baseline,1,Q3FrontUp,-24.75064,25.70054,54.72495,-78.24605,-93.37384,155.5198,-39.44469,202408271427097629
Feb-19,A_Baseline,1,Q3FrontUp,-24.75064,25.70054,54.72495,-78.24605,-93.37384,155.5198,-39.44469,202408271427097868
Feb-19,A_Baseline,1,Q3FrontUp,-24.3792,25.77669,54.31652,-78.3093,-93.46353,155.2053,-39.40808,202408271427098124
Feb-19,A_Baseline,1,Q3FrontUp,-23.96884,25.83469,53.90686,-78.3738,-93.56838,154.9484,-39.37328,202408271427098320
Feb-19,A_Baseline,1,Q3FrontUp,-23.57298,25.90085,53.51196,-78.42752,-93.69677,154.6993,-39.32835,202408271427098658
Feb-19,A_Baseline,1,Q3FrontUp,-23.57298,25.90085,53.51196,-78.42752,-93.69677,154.6993,-39.32835,202408271427098865
Feb-19,A_Baseline,1,Q3FrontUp,-23.18815,25.98407,53.1302,-78.48483,-93.83749,154.4445,-39.2889,202408271427099140
Feb-19,A_Baseline,1,Q3FrontUp,-22.80408,26.0423,52.7575,-78.55353,-93.94984,154.2357,-39.23825,202408271427099366
Feb-19,A_Baseline,1,Q3FrontUp,-22.34954,26.08548,52.31891,-78.61362,-94.05495,154.0771,-39.1586,202408271427099631
Feb-19,A_Baseline,1,Q3FrontUp,-22.34954,26.08548,52.31891,-78.61362,-94.05495,154.0771,-39.1586,202408271427099805
Feb-19,A_Baseline,1,Q3FrontUp,-22.34954,26.08548,52.31891,-78.61362,-94.05495,154.0771,-39.1586,202408271427100041
Feb-19,A_Baseline,1,Q3FrontUp,-21.59566,26.21986,51.58699,-78.7079,-94.21397,153.8403,-39.00394,202408271427100301
Feb-19,A_Baseline,1,Q3FrontUp,-21.59566,26.21986,51.58699,-78.7079,-94.21397,153.8403,-39.00394,202408271427100472
Feb-19,A_Baseline,1,Q3FrontUp,-21.26633,26.28006,51.30267,-78.75154,-94.26353,153.7981,-38.91702,202408271427100663
Feb-19,A_Baseline,1,Q3FrontUp,-21.26633,26.28006,51.30267,-78.75154,-94.26353,153.7981,-38.91702,202408271427100854
Feb-19,A_Baseline,1,Q3FrontUp,-20.92898,26.34814,51.04302,-78.78816,-94.32821,153.7601,-38.81204,202408271427101065
Feb-19,A_Baseline,1,Q3FrontUp,-20.60798,26.42995,50.81949,-78.81164,-94.38924,153.7209,-38.68876,202408271427101299
Feb-19,A_Baseline,1,Q3FrontUp,-20.3019,26.5069,50.5983,-78.81253,-94.43899,153.6817,-38.56569,202408271427101668
Feb-19,A_Baseline,1,Q3FrontUp,-19.98375,26.58124,50.39708,-78.81254,-94.47375,153.6489,-38.44173,202408271427101979
Feb-19,A_Baseline,1,Q3FrontUp,-19.98375,26.58124,50.39708,-78.81254,-94.47375,153.6489,-38.44173,202408271427102187
Feb-19,A_Baseline,1,Q3FrontUp,-19.64507,26.65993,50.20424,-78.81075,-94.49339,153.6246,-38.32511,202408271427102453
Feb-19,A_Baseline,1,Q3FrontUp,-19.28352,26.73513,50.00165,-78.81569,-94.49921,153.6045,-38.22357,202408271427102621
Feb-19,A_Baseline,1,Q3FrontUp,-19.28352,26.73513,50.00165,-78.81569,-94.49921,153.6045,-38.22357,202408271427102800
Feb-19,A_Baseline,1,Q3FrontUp,-18.88757,26.79623,49.74345,-78.81946,-94.49962,153.581,-38.14149,202408271427102967
Feb-19,A_Baseline,1,Q3FrontUp,-18.88757,26.79623,49.74345,-78.81946,-94.49962,153.581,-38.14149,202408271427103144
Feb-19,A_Baseline,1,Q3FrontUp,-18.88757,26.79623,49.74345,-78.81946,-94.49962,153.581,-38.14149,202408271427103390
Feb-19,A_Baseline,1,Q3FrontUp,-18.07514,26.91633,49.32309,-78.82341,-94.49981,153.5196,-38.01402,202408271427103654
Feb-19,A_Baseline,1,Q3FrontUp,-17.65622,26.99789,49.16414,-78.82345,-94.49977,153.4832,-37.93364,202408271427104020
Feb-19,A_Baseline,1,Q3FrontUp,-17.23879,27.06117,48.98874,-78.82422,-94.49985,153.4458,-37.8581,202408271427104348
Feb-19,A_Baseline,1,Q3FrontUp,-17.23879,27.06117,48.98874,-78.82422,-94.49985,153.4458,-37.8581,202408271427104631
Feb-19,A_Baseline,1,Q3FrontUp,-16.84135,27.11892,48.85532,-78.82664,-94.49992,153.4078,-37.79005,202408271427104796
Feb-19,A_Baseline,1,Q3FrontUp,-16.39991,27.16325,48.71766,-78.82314,-94.49986,153.3621,-37.74208,202408271427104971
Feb-19,A_Baseline,1,Q3FrontUp,-16.39991,27.16325,48.71766,-78.82314,-94.49986,153.3621,-37.74208,202408271427105141
Feb-19,A_Baseline,1,Q3FrontUp,-16.39991,27.16325,48.71766,-78.82314,-94.49986,153.3621,-37.74208,202408271427105306
Feb-19,A_Baseline,1,Q3FrontUp,-15.96735,27.20316,48.5737,-78.82201,-94.50007,153.3084,-37.69859,202408271427105543
Feb-19,A_Baseline,1,Q3FrontUp,-15.53949,27.22209,48.41195,-78.81973,-94.50006,153.2605,-37.65307,202408271427105806
Feb-19,A_Baseline,1,Q3FrontUp,-15.03604,27.23002,48.22441,-78.81287,-94.49995,153.2009,-37.61731,202408271427106020
Feb-19,A_Baseline,1,Q3FrontUp,-15.03604,27.23002,48.22441,-78.81287,-94.49995,153.2009,-37.61731,202408271427106225
Feb-19,A_Baseline,1,Q3FrontUp,-14.54558,27.23766,48.04704,-78.79599,-94.49998,153.1411,-37.56932,202408271427106518
Feb-19,A_Baseline,1,Q3FrontUp,-14.06213,27.25317,47.87379,-78.75652,-94.49998,153.0899,-37.50758,202408271427106803
Feb-19,A_Baseline,1,Q3FrontUp,-13.60796,27.27923,47.75719,-78.71181,-94.49989,153.0311,-37.44244,202408271427106969
Feb-19,A_Baseline,1,Q3FrontUp,-13.60796,27.27923,47.75719,-78.71181,-94.49989,153.0311,-37.44244,202408271427107165
Feb-19,A_Baseline,1,Q3FrontUp,-13.60796,27.27923,47.75719,-78.71181,-94.49989,153.0311,-37.44244,202408271427107466
Feb-19,A_Baseline,1,Q3FrontUp,-12.71581,27.29467,47.53949,-78.60412,-94.50012,152.9727,-37.31668,202408271427107695
Feb-19,A_Baseline,1,Q3FrontUp,-12.71581,27.29467,47.53949,-78.60412,-94.50012,152.9727,-37.31668,202408271427107973
Feb-19,A_Baseline,1,Q3FrontUp,-12.32077,27.2946,47.45618,-78.57064,-94.50012,152.9597,-37.2593,202408271427108152
Feb-19,A_Baseline,1,Q3FrontUp,-11.90344,27.29294,47.38241,-78.53322,-94.50063,152.9502,-37.18787,202408271427108296
Feb-19,A_Baseline,1,Q3FrontUp,-11.90344,27.29294,47.38241,-78.53322,-94.50063,152.9502,-37.18787,202408271427108501
Feb-19,A_Baseline,1,Q3FrontUp,-11.5272,27.2927,47.32905,-78.48595,-94.50426,152.9415,-37.10406,202408271427108698
Feb-19,A_Baseline,1,Q3FrontUp,-11.17169,27.29203,47.2687,-78.42433,-94.50432,152.9359,-37.06625,202408271427108969
Feb-19,A_Baseline,1,Q3FrontUp,-11.17169,27.29203,47.2687,-78.42433,-94.50432,152.9359,-37.06625,202408271427109149
Feb-19,A_Baseline,1,Q3FrontUp,-10.83205,27.29209,47.22799,-78.36948,-94.50462,152.9276,-37.02262,202408271427109479
Feb-19,A_Baseline,1,Q3FrontUp,-10.48074,27.2911,47.18353,-78.29819,-94.50471,152.9128,-36.97399,202408271427109677
Feb-19,A_Baseline,1,Q3FrontUp,-10.19804,27.27765,47.17917,-78.23075,-94.50489,152.8795,-36.95164,202408271427109958
Feb-19,A_Baseline,1,Q3FrontUp,-10.19804,27.27765,47.17917,-78.23075,-94.50489,152.8795,-36.95164,202408271427110135
Feb-19,A_Baseline,1,Q3FrontUp,-9.954988,27.25868,47.17876,-78.13365,-94.5051,152.8372,-36.92353,202408271427110366
Feb-19,A_Baseline,1,Q3FrontUp,-9.718047,27.23384,47.18057,-78.00308,-94.50498,152.7813,-36.88324,202408271427110659
Feb-19,A_Baseline,1,Q3FrontUp,-9.718047,27.23384,47.18057,-78.00308,-94.50498,152.7813,-36.88324,202408271427110866
Feb-19,A_Baseline,1,Q3FrontUp,-9.526623,27.19827,47.18286,-77.88052,-94.50504,152.7324,-36.84731,202408271427111154
Feb-19,A_Baseline,1,Q3FrontUp,-9.526623,27.19827,47.18286,-77.88052,-94.50504,152.7324,-36.84731,202408271427111304
Feb-19,A_Baseline,1,Q3FrontUp,-9.526623,27.19827,47.18286,-77.88052,-94.50504,152.7324,-36.84731,202408271427111466
Feb-19,A_Baseline,1,Q3FrontUp,-9.293528,27.09544,47.3223,-77.63351,-94.50397,152.6907,-36.81261,202408271427111641
Feb-19,A_Baseline,1,Q3FrontUp,-9.293528,27.09544,47.3223,-77.63351,-94.50397,152.6907,-36.81261,202408271427111854
Feb-19,A_Baseline,1,Q3FrontUp,-9.293528,27.09544,47.3223,-77.63351,-94.50397,152.6907,-36.81261,202408271427112089
Feb-19,A_Baseline,1,Q3FrontUp,-9.151362,26.96206,47.47099,-77.29026,-94.50171,152.6823,-36.79433,202408271427112287
Feb-19,A_Baseline,1,Q3FrontUp,-9.151362,26.96206,47.47099,-77.29026,-94.50171,152.6823,-36.79433,202408271427112448
Feb-19,A_Baseline,1,Q3FrontUp,-9.133975,26.89471,47.58842,-77.1064,-94.49706,152.6824,-36.7853,202408271427112623
Feb-19,A_Baseline,1,Q3FrontUp,-9.133975,26.89471,47.58842,-77.1064,-94.49706,152.6824,-36.7853,202408271427112798
Feb-19,A_Baseline,1,Q3FrontUp,-9.137459,26.7924,47.7066,-76.93226,-94.49641,152.6822,-36.77453,202408271427112964
Feb-19,A_Baseline,1,Q3FrontUp,-9.137459,26.7924,47.7066,-76.93226,-94.49641,152.6822,-36.77453,202408271427113186
Feb-19,A_Baseline,1,Q3FrontUp,-9.177212,26.70393,47.85329,-76.73476,-94.49618,152.6812,-36.76455,202408271427113450
Feb-19,A_Baseline,1,Q3FrontUp,-9.250914,26.60903,48.02771,-76.54539,-94.49593,152.6806,-36.7603,202408271427113667
Feb-19,A_Baseline,1,Q3FrontUp,-9.346558,26.48425,48.20902,-76.39825,-94.49582,152.6808,-36.74876,202408271427114013
Feb-19,A_Baseline,1,Q3FrontUp,-9.346558,26.48425,48.20902,-76.39825,-94.49582,152.6808,-36.74876,202408271427114177
Feb-19,A_Baseline,1,Q3FrontUp,-9.49111,26.34141,48.42653,-76.27337,-94.49573,152.6783,-36.73346,202408271427114456
Feb-19,A_Baseline,1,Q3FrontUp,-9.645308,26.19221,48.66311,-76.1638,-94.49561,152.6669,-36.71938,202408271427114619
Feb-19,A_Baseline,1,Q3FrontUp,-9.645308,26.19221,48.66311,-76.1638,-94.49561,152.6669,-36.71938,202408271427114791
Feb-19,A_Baseline,1,Q3FrontUp,-9.775923,26.04322,48.87482,-76.04733,-94.49543,152.6551,-36.70404,202408271427115005
Feb-19,A_Baseline,1,Q3FrontUp,-9.926879,25.88406,49.09735,-75.93107,-94.49532,152.6509,-36.69289,202408271427115356
Feb-19,A_Baseline,1,Q3FrontUp,-10.13745,25.71915,49.39371,-75.84303,-94.49518,152.6508,-36.69055,202408271427115641
Feb-19,A_Baseline,1,Q3FrontUp,-10.13745,25.71915,49.39371,-75.84303,-94.49518,152.6508,-36.69055,202408271427115793
Feb-19,A_Baseline,1,Q3FrontUp,-10.38322,25.55003,49.69091,-75.74848,-94.49518,152.6519,-36.6884,202408271427115984
Feb-19,A_Baseline,1,Q3FrontUp,-10.38322,25.55003,49.69091,-75.74848,-94.49518,152.6519,-36.6884,202408271427116141
Feb-19,A_Baseline,1,Q3FrontUp,-10.62568,25.39427,49.95567,-75.65003,-94.49518,152.6501,-36.68614,202408271427116374
Feb-19,A_Baseline,1,Q3FrontUp,-10.62568,25.39427,49.95567,-75.65003,-94.49518,152.6501,-36.68614,202408271427116652
Feb-19,A_Baseline,1,Q3FrontUp,-11.1642,25.01836,50.52528,-75.49937,-94.495,152.6293,-36.67394,202408271427116966
Feb-19,A_Baseline,1,Q3FrontUp,-11.42495,24.84204,50.80071,-75.43184,-94.49487,152.6153,-36.67194,202408271427117308
Feb-19,A_Baseline,1,Q3FrontUp,-11.42495,24.84204,50.80071,-75.43184,-94.49487,152.6153,-36.67194,202408271427117521
Feb-19,A_Baseline,1,Q3FrontUp,-11.66724,24.67653,51.02143,-75.38074,-94.49504,152.614,-36.67096,202408271427117797
Feb-19,A_Baseline,1,Q3FrontUp,-11.66724,24.67653,51.02143,-75.38074,-94.49504,152.614,-36.67096,202408271427117971
Feb-19,A_Baseline,1,Q3FrontUp,-11.90582,24.4978,51.20463,-75.33076,-94.49506,152.6136,-36.66993,202408271427118188
Feb-19,A_Baseline,1,Q3FrontUp,-12.1272,24.30977,51.37691,-75.28746,-94.49522,152.6114,-36.66737,202408271427118476
Feb-19,A_Baseline,1,Q3FrontUp,-12.33477,24.14267,51.54751,-75.27625,-94.49513,152.6112,-36.65577,202408271427118688
Feb-19,A_Baseline,1,Q3FrontUp,-12.56339,23.96307,51.74337,-75.27668,-94.49519,152.593,-36.6456,202408271427118975
Feb-19,A_Baseline,1,Q3FrontUp,-12.56339,23.96307,51.74337,-75.27668,-94.49519,152.593,-36.6456,202408271427119288
Feb-19,A_Baseline,1,Q3FrontUp,-12.77962,23.81145,51.92669,-75.27995,-94.49524,152.5634,-36.63779,202408271427119481
Feb-19,A_Baseline,1,Q3FrontUp,-12.99553,23.63964,52.11102,-75.28437,-94.49507,152.5393,-36.63715,202408271427119676
Feb-19,A_Baseline,1,Q3FrontUp,-13.24766,23.48484,52.32052,-75.29595,-94.49591,152.5156,-36.63464,202408271427119968
Feb-19,A_Baseline,1,Q3FrontUp,-13.24766,23.48484,52.32052,-75.29595,-94.49591,152.5156,-36.63464,202408271427120138
Feb-19,A_Baseline,1,Q3FrontUp,-13.49172,23.36492,52.5152,-75.30074,-94.49604,152.4937,-36.63203,202408271427120303
Feb-19,A_Baseline,1,Q3FrontUp,-13.49172,23.36492,52.5152,-75.30074,-94.49604,152.4937,-36.63203,202408271427120480
Feb-19,A_Baseline,1,Q3FrontUp,-13.72102,23.23728,52.68612,-75.30923,-94.49596,152.4854,-36.63037,202408271427120651
Feb-19,A_Baseline,1,Q3FrontUp,-13.72102,23.23728,52.68612,-75.30923,-94.49596,152.4854,-36.63037,202408271427120869
Feb-19,A_Baseline,1,Q3FrontUp,-13.932,23.14225,52.84253,-75.31738,-94.49608,152.4786,-36.62867,202408271427121143
Feb-19,A_Baseline,1,Q3FrontUp,-13.932,23.14225,52.84253,-75.31738,-94.49608,152.4786,-36.62867,202408271427121354
Feb-19,A_Baseline,1,Q3FrontUp,-14.32707,22.94045,53.14061,-75.3791,-94.50772,152.4095,-36.61316,202408271427121630
Feb-19,A_Baseline,1,Q3FrontUp,-14.32707,22.94045,53.14061,-75.3791,-94.50772,152.4095,-36.61316,202408271427121838
Feb-19,A_Baseline,1,Q3FrontUp,-14.32707,22.94045,53.14061,-75.3791,-94.50772,152.4095,-36.61316,202408271427122019
Feb-19,A_Baseline,1,Q3FrontUp,-14.49779,22.85748,53.25329,-75.42099,-94.51379,152.3598,-36.6094,202408271427122296
Feb-19,A_Baseline,1,Q3FrontUp,-14.67063,22.77447,53.34396,-75.4777,-94.51683,152.3021,-36.60652,202408271427122472
Feb-19,A_Baseline,1,Q3FrontUp,-14.67063,22.77447,53.34396,-75.4777,-94.51683,152.3021,-36.60652,202408271427122633
Feb-19,A_Baseline,1,Q3FrontUp,-14.81214,22.69597,53.39579,-75.52808,-94.5185,152.2317,-36.60602,202408271427122867
Feb-19,A_Baseline,1,Q3FrontUp,-14.96104,22.63091,53.44647,-75.57611,-94.5192,152.1622,-36.60556,202408271427123028
Feb-19,A_Baseline,1,Q3FrontUp,-15.1193,22.57212,53.49684,-75.63303,-94.52086,152.0933,-36.60485,202408271427123285
Feb-19,A_Baseline,1,Q3FrontUp,-15.1193,22.57212,53.49684,-75.63303,-94.52086,152.0933,-36.60485,202408271427123471
Feb-19,A_Baseline,1,Q3FrontUp,-15.29159,22.51619,53.56783,-75.69767,-94.52245,152.0147,-36.60445,202408271427123639
Feb-19,A_Baseline,1,Q3FrontUp,-15.29159,22.51619,53.56783,-75.69767,-94.52245,152.0147,-36.60445,202408271427123790
Feb-19,A_Baseline,1,Q3FrontUp,-15.29159,22.51619,53.56783,-75.69767,-94.52245,152.0147,-36.60445,202408271427124001
Feb-19,A_Baseline,1,Q3FrontUp,-15.4606,22.47682,53.64289,-75.74687,-94.52363,151.9482,-36.60452,202408271427124186
Feb-19,A_Baseline,1,Q3FrontUp,-15.6539,22.45139,53.73839,-75.78959,-94.53493,151.8771,-36.60433,202408271427124464
Feb-19,A_Baseline,1,Q3FrontUp,-15.8573,22.43568,53.85835,-75.82404,-94.55468,151.8013,-36.60386,202408271427124796
Feb-19,A_Baseline,1,Q3FrontUp,-16.09278,22.4132,53.9976,-75.85513,-94.56763,151.7522,-36.60415,202408271427124951
Feb-19,A_Baseline,1,Q3FrontUp,-16.09278,22.4132,53.9976,-75.85513,-94.56763,151.7522,-36.60415,202408271427125122
Feb-19,A_Baseline,1,Q3FrontUp,-16.34224,22.39559,54.11364,-75.88324,-94.58411,151.7155,-36.60456,202408271427125330
Feb-19,A_Baseline,1,Q3FrontUp,-16.59528,22.36396,54.18495,-75.91468,-94.60986,151.674,-36.60443,202408271427125620
Feb-19,A_Baseline,1,Q3FrontUp,-16.59528,22.36396,54.18495,-75.91468,-94.60986,151.674,-36.60443,202408271427125809
Feb-19,A_Baseline,1,Q3FrontUp,-16.92107,22.31396,54.30721,-75.96353,-94.68415,151.6339,-36.60461,202408271427126018
Feb-19,A_Baseline,1,Q3FrontUp,-17.31221,22.25042,54.48485,-76.03094,-94.75643,151.599,-36.60461,202408271427126356
Feb-19,A_Baseline,1,Q3FrontUp,-17.78272,22.18967,54.75044,-76.11514,-94.82256,151.5592,-36.60489,202408271427126639
Feb-19,A_Baseline,1,Q3FrontUp,-17.78272,22.18967,54.75044,-76.11514,-94.82256,151.5592,-36.60489,202408271427126803
Feb-19,A_Baseline,1,Q3FrontUp,-18.24319,22.12965,54.94202,-76.17288,-94.88713,151.526,-36.60476,202408271427126976
Feb-19,A_Baseline,1,Q3FrontUp,-18.76585,22.04384,55.19322,-76.23441,-94.95998,151.492,-36.60485,202408271427127304
Feb-19,A_Baseline,1,Q3FrontUp,-18.76585,22.04384,55.19322,-76.23441,-94.95998,151.492,-36.60485,202408271427127544
Feb-19,A_Baseline,1,Q3FrontUp,-19.30793,21.97823,55.52388,-76.2971,-95.02023,151.4593,-36.60485,202408271427127803
Feb-19,A_Baseline,1,Q3FrontUp,-19.30793,21.97823,55.52388,-76.2971,-95.02023,151.4593,-36.60485,202408271427127979
Feb-19,A_Baseline,1,Q3FrontUp,-19.81345,21.90405,55.78273,-76.327,-95.05312,151.4449,-36.60466,202408271427128146
Feb-19,A_Baseline,1,Q3FrontUp,-20.32533,21.82397,56.05553,-76.35596,-95.09052,151.4245,-36.60494,202408271427128342
Feb-19,A_Baseline,1,Q3FrontUp,-20.32533,21.82397,56.05553,-76.35596,-95.09052,151.4245,-36.60494,202408271427128534
Feb-19,A_Baseline,1,Q3FrontUp,-20.79204,21.73086,56.31019,-76.38737,-95.13395,151.3879,-36.60479,202408271427128803
Feb-19,A_Baseline,1,Q3FrontUp,-21.24222,21.65744,56.5564,-76.409,-95.16975,151.3501,-36.60621,202408271427128989
Feb-19,A_Baseline,1,Q3FrontUp,-21.24222,21.65744,56.5564,-76.409,-95.16975,151.3501,-36.60621,202408271427129186
Feb-19,A_Baseline,1,Q3FrontUp,-22.04077,21.52364,56.98279,-76.44492,-95.2685,151.3033,-36.60685,202408271427129584
Feb-19,A_Baseline,1,Q3FrontUp,-22.04077,21.52364,56.98279,-76.44492,-95.2685,151.3033,-36.60685,202408271427129838
Feb-19,A_Baseline,1,Q3FrontUp,-22.36693,21.46316,57.12456,-76.47076,-95.30885,151.2468,-36.60688,202408271427130118
Feb-19,A_Baseline,1,Q3FrontUp,-22.36693,21.46316,57.12456,-76.47076,-95.30885,151.2468,-36.60688,202408271427130300
Feb-19,A_Baseline,1,Q3FrontUp,-22.65605,21.43303,57.2268,-76.48646,-95.35147,151.1869,-36.60674,202408271427130458
Feb-19,A_Baseline,1,Q3FrontUp,-22.94134,21.42405,57.35369,-76.51941,-95.40183,151.1404,-36.60677,202408271427130649
Feb-19,A_Baseline,1,Q3FrontUp,-22.94134,21.42405,57.35369,-76.51941,-95.40183,151.1404,-36.60677,202408271427130866
Feb-19,A_Baseline,1,Q3FrontUp,-23.19291,21.42295,57.47685,-76.56097,-95.44291,151.1005,-36.6065,202408271427131137
Feb-19,A_Baseline,1,Q3FrontUp,-23.39052,21.4257,57.54464,-76.60466,-95.48869,151.0596,-36.60643,202408271427131331
Feb-19,A_Baseline,1,Q3FrontUp,-23.39052,21.4257,57.54464,-76.60466,-95.48869,151.0596,-36.60643,202408271427131481
Feb-19,A_Baseline,1,Q3FrontUp,-23.53575,21.43309,57.54443,-76.66157,-95.54008,151.0275,-36.60667,202408271427131647
Feb-19,A_Baseline,1,Q3FrontUp,-23.53575,21.43309,57.54443,-76.66157,-95.54008,151.0275,-36.60667,202408271427131835
Feb-19,A_Baseline,1,Q3FrontUp,-23.53575,21.43309,57.54443,-76.66157,-95.54008,151.0275,-36.60667,202408271427132132
Feb-19,A_Baseline,1,Q3FrontUp,-23.63299,21.45288,57.51274,-76.73639,-95.59502,151.0038,-36.60699,202408271427132289
Feb-19,A_Baseline,1,Q3FrontUp,-23.69328,21.4652,57.45863,-76.8279,-95.63789,150.9868,-36.60648,202408271427132505
Feb-19,A_Baseline,1,Q3FrontUp,-23.71111,21.49016,57.36784,-76.92881,-95.65948,150.9834,-36.6078,202408271427132797
Feb-19,A_Baseline,1,Q3FrontUp,-23.68639,21.4964,57.21576,-77.07545,-95.66525,150.9827,-36.60787,202408271427133022
Feb-19,A_Baseline,1,Q3FrontUp,-23.68639,21.4964,57.21576,-77.07545,-95.66525,150.9827,-36.60787,202408271427133301
Feb-19,A_Baseline,1,Q3FrontUp,-23.64222,21.50735,57.05468,-77.23923,-95.6716,150.9765,-36.60749,202408271427133488
Feb-19,A_Baseline,1,Q3FrontUp,-23.58868,21.54394,56.89961,-77.38985,-95.67258,150.947,-36.60799,202408271427133676
Feb-19,A_Baseline,1,Q3FrontUp,-23.51504,21.60107,56.71455,-77.50703,-95.67265,150.9409,-36.60765,202408271427134037
Feb-19,A_Baseline,1,Q3FrontUp,-23.44924,21.67416,56.54069,-77.60451,-95.67448,150.9347,-36.60764,202408271427134289
Feb-19,A_Baseline,1,Q3FrontUp,-23.44924,21.67416,56.54069,-77.60451,-95.67448,150.9347,-36.60764,202408271427134463
Feb-19,A_Baseline,1,Q3FrontUp,-23.41442,21.75684,56.41768,-77.69596,-95.67757,150.9256,-36.60723,202408271427134625
Feb-19,A_Baseline,1,Q3FrontUp,-23.41442,21.75684,56.41768,-77.69596,-95.67757,150.9256,-36.60723,202408271427134786
Feb-19,A_Baseline,1,Q3FrontUp,-23.39515,21.8385,56.29301,-77.79697,-95.68246,150.9108,-36.6077,202408271427134964
Feb-19,A_Baseline,1,Q3FrontUp,-23.39515,21.8385,56.29301,-77.79697,-95.68246,150.9108,-36.6077,202408271427135178
Feb-19,A_Baseline,1,Q3FrontUp,-23.39104,21.93781,56.18883,-77.87751,-95.6879,150.9049,-36.60713,202408271427135458
Feb-19,A_Baseline,1,Q3FrontUp,-23.3918,22.02513,56.09917,-77.93829,-95.69346,150.905,-36.60699,202408271427135705
Feb-19,A_Baseline,1,Q3FrontUp,-23.39068,22.10715,56.01009,-77.98608,-95.69727,150.9049,-36.60717,202408271427135976
Feb-19,A_Baseline,1,Q3FrontUp,-23.39068,22.10715,56.01009,-77.98608,-95.69727,150.9049,-36.60717,202408271427136132
Feb-19,A_Baseline,1,Q3FrontUp,-23.38891,22.18812,55.91785,-78.01418,-95.69934,150.9043,-36.60686,202408271427136383
Feb-19,A_Baseline,1,Q3FrontUp,-23.38584,22.25787,55.8284,-78.036,-95.70134,150.9027,-36.60735,202408271427136655
Feb-19,A_Baseline,1,Q3FrontUp,-23.38518,22.31878,55.74408,-78.06127,-95.70162,150.9018,-36.60713,202408271427136969
Feb-19,A_Baseline,1,Q3FrontUp,-23.38518,22.31878,55.74408,-78.06127,-95.70162,150.9018,-36.60713,202408271427137180
Feb-19,A_Baseline,1,Q3FrontUp,-23.38528,22.37961,55.66852,-78.07288,-95.70203,150.9012,-36.60701,202408271427137351
Feb-19,A_Baseline,1,Q3FrontUp,-23.38566,22.44861,55.60366,-78.077,-95.70241,150.9001,-36.60695,202408271427137628
Feb-19,A_Baseline,1,Q3FrontUp,-23.38566,22.44861,55.60366,-78.077,-95.70241,150.9001,-36.60695,202408271427137801
Feb-19,A_Baseline,1,Q3FrontUp,-23.38468,22.48926,55.53577,-78.09161,-95.70262,150.899,-36.60714,202408271427137988
Feb-19,A_Baseline,1,Q3FrontUp,-23.38389,22.52181,55.46743,-78.10581,-95.70235,150.8973,-36.60736,202408271427138322
Feb-19,A_Baseline,1,Q3FrontUp,-23.38389,22.52181,55.46743,-78.10581,-95.70235,150.8973,-36.60736,202408271427138503
Feb-19,A_Baseline,1,Q3FrontUp,-23.38389,22.52181,55.46743,-78.10581,-95.70235,150.8973,-36.60736,202408271427138702
Feb-19,A_Baseline,1,Q3FrontUp,-23.37736,22.57335,55.34938,-78.11958,-95.70263,150.8944,-36.60704,202408271427138974
Feb-19,A_Baseline,1,Q3FrontUp,-23.37736,22.57335,55.34938,-78.11958,-95.70263,150.8944,-36.60704,202408271427139312
Feb-19,A_Baseline,1,Q3FrontUp,-23.37889,22.5865,55.32297,-78.12076,-95.70367,150.8941,-36.6069,202408271427139501
Feb-19,A_Baseline,1,Q3FrontUp,-23.37784,22.60157,55.32019,-78.12035,-95.70477,150.894,-36.60743,202408271427139803
Feb-19,A_Baseline,1,Q3FrontUp,-23.37784,22.60157,55.32019,-78.12035,-95.70477,150.894,-36.60743,202408271427139967
Feb-19,A_Baseline,1,Q3FrontUp,-23.37128,22.60926,55.32277,-78.12063,-95.70549,150.8941,-36.60735,202408271427140124
Feb-19,A_Baseline,1,Q3FrontUp,-23.37112,22.61767,55.34025,-78.12051,-95.70744,150.8937,-36.60681,202408271427140388
Feb-19,A_Baseline,1,Q3FrontUp,-23.37967,22.63294,55.38393,-78.11956,-95.72021,150.8941,-36.60722,202408271427140629
Feb-19,A_Baseline,1,Q3FrontUp,-23.37967,22.63294,55.38393,-78.11956,-95.72021,150.8941,-36.60722,202408271427140803
Feb-19,A_Baseline,1,Q3FrontUp,-23.39631,22.64103,55.44373,-78.11882,-95.72153,150.894,-36.60756,202408271427141004
Feb-19,A_Baseline,1,Q3FrontUp,-23.41337,22.65313,55.50726,-78.11966,-95.7244,150.8939,-36.60765,202408271427141297
Feb-19,A_Baseline,1,Q3FrontUp,-23.41337,22.65313,55.50726,-78.11966,-95.7244,150.8939,-36.60765,202408271427141477
Feb-19,A_Baseline,1,Q3FrontUp,-23.4262,22.66545,55.5825,-78.11955,-95.72918,150.8941,-36.60769,202408271427141681
Feb-19,A_Baseline,1,Q3FrontUp,-23.45308,22.68732,55.68037,-78.11983,-95.72995,150.8936,-36.60791,202408271427141974
Feb-19,A_Baseline,1,Q3FrontUp,-23.49164,22.70618,55.79159,-78.12027,-95.73038,150.8836,-36.60796,202408271427142298
Feb-19,A_Baseline,1,Q3FrontUp,-23.49164,22.70618,55.79159,-78.12027,-95.73038,150.8836,-36.60796,202408271427142475
Feb-19,A_Baseline,1,Q3FrontUp,-23.54008,22.72596,55.92459,-78.11896,-95.73067,150.8669,-36.60833,202408271427142650
Feb-19,A_Baseline,1,Q3FrontUp,-23.54008,22.72596,55.92459,-78.11896,-95.73067,150.8669,-36.60833,202408271427142877
Feb-19,A_Baseline,1,Q3FrontUp,-23.64598,22.77225,56.16313,-78.11987,-95.75436,150.8445,-36.60796,202408271427143132
Feb-19,A_Baseline,1,Q3FrontUp,-23.64598,22.77225,56.16313,-78.11987,-95.75436,150.8445,-36.60796,202408271427143297
Feb-19,A_Baseline,1,Q3FrontUp,-23.76062,22.83912,56.42764,-78.11851,-95.78452,150.8349,-36.60819,202408271427143528
Feb-19,A_Baseline,1,Q3FrontUp,-23.87096,22.91981,56.70633,-78.11287,-95.82293,150.8349,-36.60769,202408271427143846
Feb-19,A_Baseline,1,Q3FrontUp,-23.97025,22.99754,56.98316,-78.1106,-95.86434,150.8346,-36.60804,202408271427144134
Feb-19,A_Baseline,1,Q3FrontUp,-24.06649,23.09143,57.26867,-78.1112,-95.89693,150.8179,-36.60812,202408271427144305
Feb-19,A_Baseline,1,Q3FrontUp,-24.06649,23.09143,57.26867,-78.1112,-95.89693,150.8179,-36.60812,202408271427144624
Feb-19,A_Baseline,1,Q3FrontUp,-24.06649,23.09143,57.26867,-78.1112,-95.89693,150.8179,-36.60812,202408271427144804
Feb-19,A_Baseline,1,Q3FrontUp,-24.31546,23.39213,58.13016,-78.11105,-96.01155,150.7258,-36.61039,202408271427145024
Feb-19,A_Baseline,1,Q3FrontUp,-24.31546,23.39213,58.13016,-78.11105,-96.01155,150.7258,-36.61039,202408271427145169
Feb-19,A_Baseline,1,Q3FrontUp,-24.50338,23.57493,58.66805,-78.12119,-96.09615,150.6879,-36.61154,202408271427145470
Feb-19,A_Baseline,1,Q3FrontUp,-24.69677,23.77134,59.27465,-78.13394,-96.16467,150.6518,-36.61372,202408271427145642
Feb-19,A_Baseline,1,Q3FrontUp,-24.69677,23.77134,59.27465,-78.13394,-96.16467,150.6518,-36.61372,202408271427145834
Feb-19,A_Baseline,1,Q3FrontUp,-24.845,23.95173,59.82051,-78.14223,-96.22835,150.6295,-36.61541,202408271427146034
Feb-19,A_Baseline,1,Q3FrontUp,-25.03319,24.1269,60.39775,-78.16225,-96.28853,150.6042,-36.62148,202408271427146322
Feb-19,A_Baseline,1,Q3FrontUp,-25.24353,24.30264,61.04762,-78.20328,-96.33558,150.5928,-36.63897,202408271427146639
Feb-19,A_Baseline,1,Q3FrontUp,-25.24353,24.30264,61.04762,-78.20328,-96.33558,150.5928,-36.63897,202408271427146848
Feb-19,A_Baseline,1,Q3FrontUp,-25.45051,24.47604,61.67786,-78.2301,-96.38327,150.5829,-36.64716,202408271427147119
Feb-19,A_Baseline,1,Q3FrontUp,-25.45051,24.47604,61.67786,-78.2301,-96.38327,150.5829,-36.64716,202408271427147291
Feb-19,A_Baseline,1,Q3FrontUp,-25.64682,24.64281,62.27077,-78.25043,-96.43124,150.5772,-36.65509,202408271427147456
Feb-19,A_Baseline,1,Q3FrontUp,-25.64682,24.64281,62.27077,-78.25043,-96.43124,150.5772,-36.65509,202408271427147639
Feb-19,A_Baseline,1,Q3FrontUp,-25.85611,24.80814,62.91135,-78.28814,-96.48991,150.5761,-36.65727,202408271427147797
Feb-19,A_Baseline,1,Q3FrontUp,-26.08718,24.9749,63.53656,-78.33369,-96.52743,150.576,-36.67312,202408271427148010
Feb-19,A_Baseline,1,Q3FrontUp,-26.08718,24.9749,63.53656,-78.33369,-96.52743,150.576,-36.67312,202408271427148199
Feb-19,A_Baseline,1,Q3FrontUp,-26.3557,25.15278,64.24293,-78.38197,-96.57871,150.5713,-36.68404,202408271427148442
Feb-19,A_Baseline,1,Q3FrontUp,-26.63631,25.34796,64.93389,-78.43865,-96.63897,150.5547,-36.6915,202408271427148632
Feb-19,A_Baseline,1,Q3FrontUp,-26.63631,25.34796,64.93389,-78.43865,-96.63897,150.5547,-36.6915,202408271427148798
Feb-19,A_Baseline,1,Q3FrontUp,-26.96876,25.53233,65.67719,-78.52396,-96.69989,150.539,-36.69603,202408271427148974
Feb-19,A_Baseline,1,Q3FrontUp,-26.96876,25.53233,65.67719,-78.52396,-96.69989,150.539,-36.69603,202408271427149150
Feb-19,A_Baseline,1,Q3FrontUp,-26.96876,25.53233,65.67719,-78.52396,-96.69989,150.539,-36.69603,202408271427149345
Feb-19,A_Baseline,1,Q3FrontUp,-27.69277,25.91009,67.17379,-78.66986,-96.9254,150.5303,-36.69873,202408271427149636
Feb-19,A_Baseline,1,Q3FrontUp,-27.69277,25.91009,67.17379,-78.66986,-96.9254,150.5303,-36.69873,202408271427149806
Feb-19,A_Baseline,1,Q3FrontUp,-28.04848,26.1046,67.91323,-78.73487,-97.00436,150.5211,-36.72859,202408271427150019
Feb-19,A_Baseline,1,Q3FrontUp,-28.39379,26.3018,68.63136,-78.78519,-97.07606,150.5186,-36.76172,202408271427150318
Feb-19,A_Baseline,1,Q3FrontUp,-28.39379,26.3018,68.63136,-78.78519,-97.07606,150.5186,-36.76172,202408271427150520
Feb-19,A_Baseline,1,Q3FrontUp,-28.73784,26.47963,69.27723,-78.81315,-97.15369,150.5167,-36.78991,202408271427150791
Feb-19,A_Baseline,1,Q3FrontUp,-29.07583,26.62793,69.92015,-78.84251,-97.28887,150.5076,-36.79006,202408271427150974
Feb-19,A_Baseline,1,Q3FrontUp,-29.07583,26.62793,69.92015,-78.84251,-97.28887,150.5076,-36.79006,202408271427151145
Feb-19,A_Baseline,1,Q3FrontUp,-29.38796,26.78292,70.52168,-78.87319,-97.40937,150.499,-36.79132,202408271427151330
Feb-19,A_Baseline,1,Q3FrontUp,-29.38796,26.78292,70.52168,-78.87319,-97.40937,150.499,-36.79132,202408271427151528
Feb-19,A_Baseline,1,Q3FrontUp,-29.73775,26.96201,71.17519,-78.92175,-97.50503,150.4937,-36.80128,202408271427151804
Feb-19,A_Baseline,1,Q3FrontUp,-30.07156,27.10592,71.7413,-78.96008,-97.60975,150.4872,-36.80215,202408271427151968
Feb-19,A_Baseline,1,Q3FrontUp,-30.07156,27.10592,71.7413,-78.96008,-97.60975,150.4872,-36.80215,202408271427152129
Feb-19,A_Baseline,1,Q3FrontUp,-30.38184,27.24382,72.26455,-78.98622,-97.68197,150.4703,-36.80437,202408271427152299
Feb-19,A_Baseline,1,Q3FrontUp,-30.38184,27.24382,72.26455,-78.98622,-97.68197,150.4703,-36.80437,202408271427152477
Feb-19,A_Baseline,1,Q3FrontUp,-30.67698,27.36512,72.79218,-79.01273,-97.73876,150.45,-36.81006,202408271427152674
Feb-19,A_Baseline,1,Q3FrontUp,-30.93445,27.49846,73.27001,-79.02818,-97.78928,150.4214,-36.81654,202408271427153061
Feb-19,A_Baseline,1,Q3FrontUp,-31.17694,27.63066,73.7055,-79.04274,-97.83843,150.3892,-36.82704,202408271427153306
Feb-19,A_Baseline,1,Q3FrontUp,-31.17694,27.63066,73.7055,-79.04274,-97.83843,150.3892,-36.82704,202408271427153493
Feb-19,A_Baseline,1,Q3FrontUp,-31.4138,27.75366,74.12376,-79.05621,-97.88744,150.3547,-36.83247,202408271427153692
Feb-19,A_Baseline,1,Q3FrontUp,-31.63564,27.85724,74.49875,-79.05774,-97.97722,150.3465,-36.83544,202408271427153974
Feb-19,A_Baseline,1,Q3FrontUp,-31.63564,27.85724,74.49875,-79.05774,-97.97722,150.3465,-36.83544,202408271427154132
Feb-19,A_Baseline,1,Q3FrontUp,-31.82127,27.96366,74.83844,-79.06222,-98.05335,150.3418,-36.83654,202408271427154309
Feb-19,A_Baseline,1,Q3FrontUp,-31.82127,27.96366,74.83844,-79.06222,-98.05335,150.3418,-36.83654,202408271427154476
Feb-19,A_Baseline,1,Q3FrontUp,-31.98508,28.04951,75.12547,-79.06395,-98.11308,150.3402,-36.83683,202408271427154678
Feb-19,A_Baseline,1,Q3FrontUp,-32.12385,28.12506,75.37714,-79.06242,-98.17557,150.338,-36.83679,202408271427154953
Feb-19,A_Baseline,1,Q3FrontUp,-32.12385,28.12506,75.37714,-79.06242,-98.17557,150.338,-36.83679,202408271427155129
Feb-19,A_Baseline,1,Q3FrontUp,-32.12385,28.12506,75.37714,-79.06242,-98.17557,150.338,-36.83679,202408271427155287
Feb-19,A_Baseline,1,Q3FrontUp,-32.22462,28.19972,75.59007,-79.05614,-98.22931,150.3374,-36.83984,202408271427155464
Feb-19,A_Baseline,1,Q3FrontUp,-32.27054,28.24577,75.71282,-79.051,-98.27531,150.3334,-36.85843,202408271427155635
Feb-19,A_Baseline,1,Q3FrontUp,-32.27054,28.24577,75.71282,-79.051,-98.27531,150.3334,-36.85843,202408271427155827
Feb-19,A_Baseline,1,Q3FrontUp,-32.27054,28.24577,75.71282,-79.051,-98.27531,150.3334,-36.85843,202408271427156035
Feb-19,A_Baseline,1,Q3FrontUp,-32.30392,28.29365,75.81435,-79.05112,-98.31509,150.3259,-36.87133,202408271427156205
Feb-19,A_Baseline,1,Q3FrontUp,-32.3104,28.35001,75.87979,-79.05087,-98.35626,150.3211,-36.87938,202408271427156474
Feb-19,A_Baseline,1,Q3FrontUp,-32.3076,28.42154,75.92101,-79.05328,-98.40508,150.3205,-36.88015,202408271427156648
Feb-19,A_Baseline,1,Q3FrontUp,-32.31142,28.50526,75.97417,-79.05753,-98.41642,150.3188,-36.89816,202408271427156972
Feb-19,A_Baseline,1,Q3FrontUp,-32.31142,28.50526,75.97417,-79.05753,-98.41642,150.3188,-36.89816,202408271427157188
Feb-19,A_Baseline,1,Q3FrontUp,-32.31532,28.60074,76.0237,-79.05761,-98.42516,150.318,-36.91622,202408271427157460
Feb-19,A_Baseline,1,Q3FrontUp,-32.32132,28.7051,76.08944,-79.05685,-98.44038,150.3178,-36.92776,202408271427157629
Feb-19,A_Baseline,1,Q3FrontUp,-32.32132,28.7051,76.08944,-79.05685,-98.44038,150.3178,-36.92776,202408271427157857
Feb-19,A_Baseline,1,Q3FrontUp,-32.33368,28.80026,76.16158,-79.05975,-98.45522,150.3179,-36.94117,202408271427158166
Feb-19,A_Baseline,1,Q3FrontUp,-32.3557,28.91917,76.26008,-79.06086,-98.46644,150.3177,-36.96448,202408271427158354
Feb-19,A_Baseline,1,Q3FrontUp,-32.40146,29.03934,76.39978,-79.05891,-98.46737,150.3181,-37.00153,202408271427158675
Feb-19,A_Baseline,1,Q3FrontUp,-32.43859,29.17175,76.51183,-79.05949,-98.46821,150.3181,-37.03135,202408271427158981
Feb-19,A_Baseline,1,Q3FrontUp,-32.43859,29.17175,76.51183,-79.05949,-98.46821,150.3181,-37.03135,202408271427159173
Feb-19,A_Baseline,1,Q3FrontUp,-32.4934,29.28576,76.63656,-79.06078,-98.4693,150.3175,-37.05689,202408271427159342
Feb-19,A_Baseline,1,Q3FrontUp,-32.56316,29.40084,76.77029,-79.07043,-98.47018,150.3181,-37.08271,202408271427159638
Feb-19,A_Baseline,1,Q3FrontUp,-32.64745,29.50336,76.9254,-79.08261,-98.47022,150.3176,-37.1091,202408271427159958
Feb-19,A_Baseline,1,Q3FrontUp,-32.64745,29.50336,76.9254,-79.08261,-98.47022,150.3176,-37.1091,202408271427160124
Feb-19,A_Baseline,1,Q3FrontUp,-32.73626,29.60857,77.07946,-79.09406,-98.47039,150.3175,-37.14183,202408271427160289
Feb-19,A_Baseline,1,Q3FrontUp,-32.73626,29.60857,77.07946,-79.09406,-98.47039,150.3175,-37.14183,202408271427160519
Feb-19,A_Baseline,1,Q3FrontUp,-32.82597,29.72015,77.23073,-79.10075,-98.47039,150.3177,-37.17818,202408271427160793
Feb-19,A_Baseline,1,Q3FrontUp,-32.90818,29.79498,77.35816,-79.1014,-98.47025,150.3177,-37.21276,202408271427161031
Feb-19,A_Baseline,1,Q3FrontUp,-32.97947,29.87884,77.46428,-79.10134,-98.47053,150.3178,-37.24738,202408271427161332
Feb-19,A_Baseline,1,Q3FrontUp,-32.97947,29.87884,77.46428,-79.10134,-98.47053,150.3178,-37.24738,202408271427161521
Feb-19,A_Baseline,1,Q3FrontUp,-33.04721,29.95929,77.57239,-79.10168,-98.47034,150.3178,-37.27579,202408271427161804
Feb-19,A_Baseline,1,Q3FrontUp,-33.11498,30.0383,77.6983,-79.11092,-98.47138,150.3176,-37.29503,202408271427161968
Feb-19,A_Baseline,1,Q3FrontUp,-33.11498,30.0383,77.6983,-79.11092,-98.47138,150.3176,-37.29503,202408271427162134
Feb-19,A_Baseline,1,Q3FrontUp,-33.2047,30.1388,77.86907,-79.12396,-98.47193,150.3172,-37.321,202408271427162464
Feb-19,A_Baseline,1,Q3FrontUp,-33.29852,30.23008,78.05488,-79.14069,-98.47182,150.318,-37.35518,202408271427162670
Feb-19,A_Baseline,1,Q3FrontUp,-33.39521,30.30815,78.20213,-79.16364,-98.4718,150.3157,-37.45441,202408271427162970
Feb-19,A_Baseline,1,Q3FrontUp,-33.39521,30.30815,78.20213,-79.16364,-98.4718,150.3157,-37.45441,202408271427163129
Feb-19,A_Baseline,1,Q3FrontUp,-33.39521,30.30815,78.20213,-79.16364,-98.4718,150.3157,-37.45441,202408271427163331
Feb-19,A_Baseline,1,Q3FrontUp,-33.50561,30.37676,78.3506,-79.17713,-98.47156,150.3001,-37.5438,202408271427163477
Feb-19,A_Baseline,1,Q3FrontUp,-33.61499,30.45527,78.49721,-79.17944,-98.47156,150.2821,-37.61771,202408271427163720
Feb-19,A_Baseline,1,Q3FrontUp,-33.73508,30.51334,78.65754,-79.18237,-98.47134,150.2467,-37.71417,202408271427164006
Feb-19,A_Baseline,1,Q3FrontUp,-33.73508,30.51334,78.65754,-79.18237,-98.47134,150.2467,-37.71417,202408271427164178
Feb-19,A_Baseline,1,Q3FrontUp,-33.8407,30.59885,78.79786,-79.18628,-98.47084,150.2038,-37.80699,202408271427164455
Feb-19,A_Baseline,1,Q3FrontUp,-33.8407,30.59885,78.79786,-79.18628,-98.47084,150.2038,-37.80699,202408271427164631
Feb-19,A_Baseline,1,Q3FrontUp,-33.92775,30.68708,78.91528,-79.18741,-98.47062,150.1626,-37.88809,202408271427164831
Feb-19,A_Baseline,1,Q3FrontUp,-34.00201,30.75976,78.99434,-79.19234,-98.47059,150.1447,-37.95219,202408271427165118
Feb-19,A_Baseline,1,Q3FrontUp,-34.08458,30.82502,79.06888,-79.19574,-98.47025,150.1361,-38.00927,202408271427165278
Feb-19,A_Baseline,1,Q3FrontUp,-34.08458,30.82502,79.06888,-79.19574,-98.47025,150.1361,-38.00927,202408271427165454
Feb-19,A_Baseline,1,Q3FrontUp,-34.16246,30.89443,79.13029,-79.19578,-98.47021,150.1266,-38.0575,202408271427165630
Feb-19,A_Baseline,1,Q3FrontUp,-34.16246,30.89443,79.13029,-79.19578,-98.47021,150.1266,-38.0575,202408271427165865
Feb-19,A_Baseline,1,Q3FrontUp,-34.23266,30.96837,79.18077,-79.19689,-98.47046,150.1116,-38.10377,202408271427166137
Feb-19,A_Baseline,1,Q3FrontUp,-34.30135,31.02495,79.21534,-79.19926,-98.47063,150.1037,-38.13169,202408271427166301
Feb-19,A_Baseline,1,Q3FrontUp,-34.36584,31.06688,79.24488,-79.20056,-98.47089,150.1042,-38.13237,202408271427166630
Feb-19,A_Baseline,1,Q3FrontUp,-34.36584,31.06688,79.24488,-79.20056,-98.47089,150.1042,-38.13237,202408271427166804
Feb-19,A_Baseline,1,Q3FrontUp,-34.41202,31.1039,79.27369,-79.20102,-98.47095,150.1042,-38.13286,202408271427166964
Feb-19,A_Baseline,1,Q3FrontUp,-34.41202,31.1039,79.27369,-79.20102,-98.47095,150.1042,-38.13286,202408271427167176
Feb-19,A_Baseline,1,Q3FrontUp,-34.43924,31.13603,79.3005,-79.2012,-98.47105,150.1048,-38.13323,202408271427167348
Feb-19,A_Baseline,1,Q3FrontUp,-34.4528,31.1559,79.32369,-79.20114,-98.47076,150.105,-38.13372,202408271427167632
Feb-19,A_Baseline,1,Q3FrontUp,-34.4528,31.1559,79.32369,-79.20114,-98.47076,150.105,-38.13372,202408271427167811
Feb-19,A_Baseline,1,Q3FrontUp,-34.46238,31.16662,79.34419,-79.20126,-98.471,150.1051,-38.13467,202408271427167980
Feb-19,A_Baseline,1,Q3FrontUp,-34.46238,31.16662,79.34419,-79.20126,-98.471,150.1051,-38.13467,202408271427168221
Feb-19,A_Baseline,1,Q3FrontUp,-34.46404,31.17138,79.36639,-79.20231,-98.47112,150.1053,-38.13535,202408271427168489
Feb-19,A_Baseline,1,Q3FrontUp,-34.46532,31.17573,79.39462,-79.20501,-98.47097,150.1052,-38.13519,202408271427168819
Feb-19,A_Baseline,1,Q3FrontUp,-34.46813,31.1786,79.42135,-79.20559,-98.47117,150.1053,-38.13525,202408271427169029
Feb-19,A_Baseline,1,Q3FrontUp,-34.46813,31.1786,79.42135,-79.20559,-98.47117,150.1053,-38.13525,202408271427169187
Feb-19,A_Baseline,1,Q3FrontUp,-34.47824,31.18171,79.45992,-79.2082,-98.47108,150.1024,-38.13981,202408271427169469
Feb-19,A_Baseline,1,Q3FrontUp,-34.49737,31.18713,79.52046,-79.21664,-98.47117,150.0835,-38.15744,202408271427169636
Feb-19,A_Baseline,1,Q3FrontUp,-34.49737,31.18713,79.52046,-79.21664,-98.47117,150.0835,-38.15744,202408271427169798
Feb-19,A_Baseline,1,Q3FrontUp,-34.53168,31.2026,79.60471,-79.22755,-98.47121,150.0609,-38.19485,202408271427169971
Feb-19,A_Baseline,1,Q3FrontUp,-34.53168,31.2026,79.60471,-79.22755,-98.47121,150.0609,-38.19485,202408271427170153
Feb-19,A_Baseline,1,Q3FrontUp,-34.57885,31.22536,79.70591,-79.2371,-98.47076,150.0245,-38.23977,202408271427170373
Feb-19,A_Baseline,1,Q3FrontUp,-34.57885,31.22536,79.70591,-79.2371,-98.47076,150.0245,-38.23977,202408271427170632
Feb-19,A_Baseline,1,Q3FrontUp,-34.57885,31.22536,79.70591,-79.2371,-98.47076,150.0245,-38.23977,202408271427170819
Feb-19,A_Baseline,1,Q3FrontUp,-34.7462,31.33724,80.09509,-79.2635,-98.44913,149.7983,-38.39378,202408271427170980
Feb-19,A_Baseline,1,Q3FrontUp,-34.7462,31.33724,80.09509,-79.2635,-98.44913,149.7983,-38.39378,202408271427171311
Feb-19,A_Baseline,1,Q3FrontUp,-34.87505,31.45255,80.37956,-79.26784,-98.43793,149.7205,-38.47515,202408271427171522
Feb-19,A_Baseline,1,Q3FrontUp,-35.03459,31.55902,80.68729,-79.28455,-98.4382,149.7185,-38.53609,202408271427171804
Feb-19,A_Baseline,1,Q3FrontUp,-35.22293,31.69266,81.03205,-79.3086,-98.43813,149.7026,-38.62064,202408271427172175
Feb-19,A_Baseline,1,Q3FrontUp,-35.40531,31.81291,81.34735,-79.31541,-98.43812,149.6967,-38.70113,202408271427172474
Feb-19,A_Baseline,1,Q3FrontUp,-35.57263,31.92494,81.6515,-79.31632,-98.43817,149.6889,-38.78605,202408271427172685
Feb-19,A_Baseline,1,Q3FrontUp,-35.75371,32.04504,81.97804,-79.31929,-98.43896,149.6667,-38.84198,202408271427172974
Feb-19,A_Baseline,1,Q3FrontUp,-35.75371,32.04504,81.97804,-79.31929,-98.43896,149.6667,-38.84198,202408271427173152
Feb-19,A_Baseline,1,Q3FrontUp,-35.94057,32.20905,82.32726,-79.32027,-98.4393,149.6485,-38.8919,202408271427173330
Feb-19,A_Baseline,1,Q3FrontUp,-36.12762,32.39099,82.68449,-79.31976,-98.439,149.6426,-38.94373,202408271427173702
Feb-19,A_Baseline,1,Q3FrontUp,-36.33916,32.62526,83.13255,-79.32967,-98.47981,149.6293,-38.95421,202408271427174010
Feb-19,A_Baseline,1,Q3FrontUp,-36.55643,32.90736,83.63773,-79.33287,-98.52685,149.6268,-38.95864,202408271427174306
Feb-19,A_Baseline,1,Q3FrontUp,-36.76184,33.18322,84.1216,-79.33723,-98.58924,149.627,-38.95795,202408271427174629
Feb-19,A_Baseline,1,Q3FrontUp,-36.76184,33.18322,84.1216,-79.33723,-98.58924,149.627,-38.95795,202408271427174801
Feb-19,A_Baseline,1,Q3FrontUp,-36.9706,33.45007,84.58968,-79.33858,-98.59446,149.6244,-38.97957,202408271427175031
Feb-19,A_Baseline,1,Q3FrontUp,-37.15333,33.68973,85.01482,-79.33736,-98.59464,149.6234,-39.00896,202408271427175286
Feb-19,A_Baseline,1,Q3FrontUp,-37.15333,33.68973,85.01482,-79.33736,-98.59464,149.6234,-39.00896,202408271427175452
Feb-19,A_Baseline,1,Q3FrontUp,-37.34727,33.90968,85.43166,-79.33721,-98.59496,149.6222,-39.03503,202408271427175620
Feb-19,A_Baseline,1,Q3FrontUp,-37.34727,33.90968,85.43166,-79.33721,-98.59496,149.6222,-39.03503,202408271427175818
Feb-19,A_Baseline,1,Q3FrontUp,-37.51956,34.1293,85.78067,-79.33699,-98.59484,149.6203,-39.06477,202408271427176028
Feb-19,A_Baseline,1,Q3FrontUp,-37.67981,34.37145,86.14081,-79.33619,-98.60674,149.619,-39.09775,202408271427176328
Feb-19,A_Baseline,1,Q3FrontUp,-37.67981,34.37145,86.14081,-79.33619,-98.60674,149.619,-39.09775,202408271427176638
Feb-19,A_Baseline,1,Q3FrontUp,-37.67981,34.37145,86.14081,-79.33619,-98.60674,149.619,-39.09775,202408271427176867
Feb-19,A_Baseline,1,Q3FrontUp,-37.94432,34.86189,86.81886,-79.33968,-98.66119,149.618,-39.19776,202408271427177133
Feb-19,A_Baseline,1,Q3FrontUp,-38.08088,35.14576,87.16059,-79.33942,-98.70448,149.6174,-39.28958,202408271427177296
Feb-19,A_Baseline,1,Q3FrontUp,-38.08088,35.14576,87.16059,-79.33942,-98.70448,149.6174,-39.28958,202408271427177462
Feb-19,A_Baseline,1,Q3FrontUp,-38.20355,35.42033,87.49019,-79.33974,-98.75591,149.6164,-39.40168,202408271427177797
Feb-19,A_Baseline,1,Q3FrontUp,-38.20355,35.42033,87.49019,-79.33974,-98.75591,149.6164,-39.40168,202408271427177966
Feb-19,A_Baseline,1,Q3FrontUp,-38.31133,35.6834,87.78767,-79.34387,-98.80071,149.6135,-39.51519,202408271427178195
Feb-19,A_Baseline,1,Q3FrontUp,-38.4188,35.96117,88.07706,-79.34064,-98.89168,149.6004,-39.66913,202408271427178372
Feb-19,A_Baseline,1,Q3FrontUp,-38.50933,36.2547,88.40074,-79.339,-99.04334,149.6004,-39.85519,202408271427178667
Feb-19,A_Baseline,1,Q3FrontUp,-38.50933,36.2547,88.40074,-79.339,-99.04334,149.6004,-39.85519,202408271427178849
Feb-19,A_Baseline,1,Q3FrontUp,-38.56224,36.56937,88.687,-79.33981,-99.21204,149.6001,-40.03167,202408271427179210
Feb-19,A_Baseline,1,Q3FrontUp,-38.61132,36.8663,88.96145,-79.33939,-99.34672,149.5991,-40.21279,202408271427179489
Feb-19,A_Baseline,1,Q3FrontUp,-38.64619,37.13556,89.20584,-79.34089,-99.45423,149.5936,-40.41031,202408271427179794
Feb-19,A_Baseline,1,Q3FrontUp,-38.64619,37.13556,89.20584,-79.34089,-99.45423,149.5936,-40.41031,202408271427180004
Feb-19,A_Baseline,1,Q3FrontUp,-38.6484,37.3204,89.33064,-79.33709,-99.57864,149.591,-40.54156,202408271427180196
Feb-19,A_Baseline,1,Q3FrontUp,-38.61303,37.42611,89.33526,-79.32847,-99.72673,149.591,-40.65642,202408271427180468
Feb-19,A_Baseline,1,Q3FrontUp,-38.53973,37.43203,89.19458,-79.29713,-99.89151,149.5889,-40.76202,202408271427180663
Feb-19,A_Baseline,1,Q3FrontUp,-38.53973,37.43203,89.19458,-79.29713,-99.89151,149.5889,-40.76202,202408271427180819
Feb-19,A_Baseline,1,Q3FrontUp,-38.29371,37.36333,88.78304,-79.21556,-99.9894,149.5935,-40.95345,202408271427181007
Feb-19,A_Baseline,1,Q3FrontUp,-38.29371,37.36333,88.78304,-79.21556,-99.9894,149.5935,-40.95345,202408271427181376
Feb-19,A_Baseline,1,Q3FrontUp,-37.31618,36.72709,87.05919,-78.89559,-100.3456,149.7079,-41.20028,202408271427181641
Feb-19,A_Baseline,1,Q3FrontUp,-37.31618,36.72709,87.05919,-78.89559,-100.3456,149.7079,-41.20028,202408271427181980
Feb-19,A_Baseline,1,Q3FrontUp,-36.4115,36.2095,85.5228,-78.62966,-100.6036,149.7354,-41.26659,202408271427182294
Feb-19,A_Baseline,1,Q3FrontUp,-35.4682,35.61528,83.94891,-78.46853,-100.8435,149.7341,-41.32206,202408271427182504
Feb-19,A_Baseline,1,Q3FrontUp,-34.48684,35.13551,82.39555,-78.39781,-101.0837,149.7275,-41.38025,202408271427182797
Feb-19,A_Baseline,1,Q3FrontUp,-33.16939,34.65577,80.49033,-78.22202,-101.3026,149.7345,-41.39697,202408271427182964
Feb-19,A_Baseline,1,Q3FrontUp,-33.16939,34.65577,80.49033,-78.22202,-101.3026,149.7345,-41.39697,202408271427183204
Feb-19,A_Baseline,1,Q3FrontUp,-31.93519,34.18209,78.69381,-78.07888,-101.4387,149.7108,-41.40314,202408271427183462
Feb-19,A_Baseline,1,Q3FrontUp,-31.71647,34.26897,78.65413,-78.44898,-101.4399,149.5853,-41.40303,202408271427183697
Feb-19,A_Baseline,1,Q3FrontUp,-31.48849,34.49849,78.635,-78.70366,-101.4397,149.5782,-41.40295,202408271427183994
Feb-19,A_Baseline,1,Q3FrontUp,-31.32527,34.60196,78.64063,-78.83584,-101.4387,149.587,-41.40273,202408271427184295
Feb-19,A_Baseline,1,Q3FrontUp,-31.32527,34.60196,78.64063,-78.83584,-101.4387,149.587,-41.40273,202408271427184486
Feb-19,A_Baseline,1,Q3FrontUp,-31.29336,34.67618,78.5602,-78.84937,-101.4384,149.5864,-41.40291,202408271427184678
Feb-19,A_Baseline,1,Q3FrontUp,-31.22506,34.6319,78.37395,-78.80338,-101.4385,149.5854,-41.40264,202408271427184968
Feb-19,A_Baseline,1,Q3FrontUp,-31.22506,34.6319,78.37395,-78.80338,-101.4385,149.5854,-41.40264,202408271427185132
Feb-19,A_Baseline,1,Q3FrontUp,-31.22506,34.6319,78.37395,-78.80338,-101.4385,149.5854,-41.40264,202408271427185302
Feb-19,A_Baseline,1,Q3FrontUp,-31.05171,34.46159,78.15169,-78.7213,-101.4382,149.5948,-41.40283,202408271427185468
Feb-19,A_Baseline,1,Q3FrontUp,-30.84905,34.37234,77.83109,-78.57735,-101.4387,149.6011,-41.40255,202408271427185644
Feb-19,A_Baseline,1,Q3FrontUp,-30.84905,34.37234,77.83109,-78.57735,-101.4387,149.6011,-41.40255,202408271427185873
Feb-19,A_Baseline,1,Q3FrontUp,-30.56527,34.2774,77.3325,-78.42927,-101.4397,149.6019,-41.40269,202408271427186197
Feb-19,A_Baseline,1,Q3FrontUp,-30.14524,34.11472,76.69535,-78.34026,-101.4527,149.6075,-41.4026,202408271427186464
Feb-19,A_Baseline,1,Q3FrontUp,-29.71199,33.92993,76.03582,-78.22861,-101.4705,149.605,-41.40317,202408271427186819
Feb-19,A_Baseline,1,Q3FrontUp,-29.14388,33.73857,75.13622,-78.04362,-101.5115,149.608,-41.40379,202408271427187019
Feb-19,A_Baseline,1,Q3FrontUp,-28.47745,33.51438,74.16782,-77.89458,-101.572,149.6113,-41.40575,202408271427187287
Feb-19,A_Baseline,1,Q3FrontUp,-28.47745,33.51438,74.16782,-77.89458,-101.572,149.6113,-41.40575,202408271427187465
Feb-19,A_Baseline,1,Q3FrontUp,-28.47745,33.51438,74.16782,-77.89458,-101.572,149.6113,-41.40575,202408271427187622
Feb-19,A_Baseline,1,Q3FrontUp,-27.78625,33.28089,73.15952,-77.75746,-101.65,149.6057,-41.40842,202408271427187857
Feb-19,A_Baseline,1,Q3FrontUp,-27.02144,33.03403,72.05212,-77.62048,-101.7468,149.6199,-41.41428,202408271427188144
Feb-19,A_Baseline,1,Q3FrontUp,-26.19279,32.76528,70.85492,-77.48692,-101.8593,149.6245,-41.42456,202408271427188312
Feb-19,A_Baseline,1,Q3FrontUp,-26.19279,32.76528,70.85492,-77.48692,-101.8593,149.6245,-41.42456,202408271427188468
Feb-19,A_Baseline,1,Q3FrontUp,-26.19279,32.76528,70.85492,-77.48692,-101.8593,149.6245,-41.42456,202408271427188664
Feb-19,A_Baseline,1,Q3FrontUp,-24.47454,32.22703,68.48527,-77.21659,-102.0927,149.6318,-41.45108,202408271427188998
Feb-19,A_Baseline,1,Q3FrontUp,-24.47454,32.22703,68.48527,-77.21659,-102.0927,149.6318,-41.45108,202408271427189190
Feb-19,A_Baseline,1,Q3FrontUp,-23.56138,31.96088,67.26785,-77.09991,-102.1966,149.6382,-41.46664,202408271427189364
Feb-19,A_Baseline,1,Q3FrontUp,-22.72086,31.70277,66.10083,-76.99467,-102.2977,149.6373,-41.48535,202408271427189631
Feb-19,A_Baseline,1,Q3FrontUp,-22.72086,31.70277,66.10083,-76.99467,-102.2977,149.6373,-41.48535,202408271427189796
Feb-19,A_Baseline,1,Q3FrontUp,-21.87471,31.44876,64.99392,-76.91538,-102.4111,149.6367,-41.50473,202408271427190132
Feb-19,A_Baseline,1,Q3FrontUp,-21.07793,31.21693,63.95956,-76.82077,-102.5109,149.6375,-41.52025,202408271427190339
Feb-19,A_Baseline,1,Q3FrontUp,-20.2942,30.99582,62.95662,-76.73763,-102.613,149.6403,-41.53667,202408271427190618
Feb-19,A_Baseline,1,Q3FrontUp,-20.2942,30.99582,62.95662,-76.73763,-102.613,149.6403,-41.53667,202408271427190804
Feb-19,A_Baseline,1,Q3FrontUp,-19.62559,30.81079,62.11651,-76.66667,-102.7174,149.6388,-41.55051,202408271427191033
Feb-19,A_Baseline,1,Q3FrontUp,-19.12856,30.70555,61.53316,-76.63414,-102.7759,149.6304,-41.55863,202408271427191365
Feb-19,A_Baseline,1,Q3FrontUp,-19.03918,30.75195,61.57541,-76.73705,-102.7713,149.6257,-41.55785,202408271427191654
Feb-19,A_Baseline,1,Q3FrontUp,-19.03918,30.75195,61.57541,-76.73705,-102.7713,149.6257,-41.55785,202408271427191974
Feb-19,A_Baseline,1,Q3FrontUp,-18.9499,30.78995,61.56472,-76.77599,-102.7696,149.6244,-41.55827,202408271427192140
Feb-19,A_Baseline,1,Q3FrontUp,-18.8977,30.81572,61.53688,-76.78593,-102.7683,149.6232,-41.55793,202408271427192306
Feb-19,A_Baseline,1,Q3FrontUp,-18.8977,30.81572,61.53688,-76.78593,-102.7683,149.6232,-41.55793,202408271427192521
Feb-19,A_Baseline,1,Q3FrontUp,-18.85014,30.815,61.4463,-76.77878,-102.7684,149.624,-41.55792,202408271427192789
Feb-19,A_Baseline,1,Q3FrontUp,-18.7086,30.81086,61.27385,-76.73375,-102.7683,149.6232,-41.55813,202408271427192954
Feb-19,A_Baseline,1,Q3FrontUp,-18.7086,30.81086,61.27385,-76.73375,-102.7683,149.6232,-41.55813,202408271427193121
Feb-19,A_Baseline,1,Q3FrontUp,-18.54142,30.81307,61.06411,-76.66855,-102.7678,149.6253,-41.55791,202408271427193285
Feb-19,A_Baseline,1,Q3FrontUp,-18.54142,30.81307,61.06411,-76.66855,-102.7678,149.6253,-41.55791,202408271427193490
Feb-19,A_Baseline,1,Q3FrontUp,-18.31387,30.81115,60.72755,-76.5596,-102.7678,149.6238,-41.55779,202408271427193710
Feb-19,A_Baseline,1,Q3FrontUp,-18.31387,30.81115,60.72755,-76.5596,-102.7678,149.6238,-41.55779,202408271427193987
Feb-19,A_Baseline,1,Q3FrontUp,-18.31387,30.81115,60.72755,-76.5596,-102.7678,149.6238,-41.55779,202408271427194218
Feb-19,A_Baseline,1,Q3FrontUp,-17.52962,30.79886,59.73602,-76.27008,-102.7676,149.6263,-41.55815,202408271427194461
Feb-19,A_Baseline,1,Q3FrontUp,-17.52962,30.79886,59.73602,-76.27008,-102.7676,149.6263,-41.55815,202408271427194641
Feb-19,A_Baseline,1,Q3FrontUp,-17.52962,30.79886,59.73602,-76.27008,-102.7676,149.6263,-41.55815,202408271427194828
Feb-19,A_Baseline,1,Q3FrontUp,-16.47566,30.79055,58.37872,-75.87988,-102.7678,149.6286,-41.55893,202408271427195119
Feb-19,A_Baseline,1,Q3FrontUp,-16.47566,30.79055,58.37872,-75.87988,-102.7678,149.6286,-41.55893,202408271427195286
Feb-19,A_Baseline,1,Q3FrontUp,-15.82473,30.78041,57.57578,-75.65466,-102.7675,149.6323,-41.5594,202408271427195466
Feb-19,A_Baseline,1,Q3FrontUp,-15.82473,30.78041,57.57578,-75.65466,-102.7675,149.6323,-41.5594,202408271427195628
Feb-19,A_Baseline,1,Q3FrontUp,-15.0977,30.76991,56.67838,-75.39642,-102.7681,149.6297,-41.56073,202408271427195864
Feb-19,A_Baseline,1,Q3FrontUp,-14.29567,30.76497,55.69178,-75.1054,-102.7678,149.6387,-41.56222,202408271427196130
Feb-19,A_Baseline,1,Q3FrontUp,-13.39093,30.75047,54.63459,-74.80442,-102.768,149.6432,-41.5653,202408271427196301
Feb-19,A_Baseline,1,Q3FrontUp,-12.49904,30.74295,53.57084,-74.50552,-102.7686,149.6445,-41.57199,202408271427196620
Feb-19,A_Baseline,1,Q3FrontUp,-12.49904,30.74295,53.57084,-74.50552,-102.7686,149.6445,-41.57199,202408271427196811
Feb-19,A_Baseline,1,Q3FrontUp,-11.51229,30.7373,52.43423,-74.17765,-102.7687,149.6595,-41.58223,202408271427197178
Feb-19,A_Baseline,1,Q3FrontUp,-10.52305,30.73436,51.28108,-73.87161,-102.7686,149.6631,-41.59451,202408271427197339
Feb-19,A_Baseline,1,Q3FrontUp,-9.508368,30.7271,50.1133,-73.52946,-102.7692,149.6724,-41.60734,202408271427197639
Feb-19,A_Baseline,1,Q3FrontUp,-9.508368,30.7271,50.1133,-73.52946,-102.7692,149.6724,-41.60734,202408271427197808
Feb-19,A_Baseline,1,Q3FrontUp,-8.430932,30.72347,48.90188,-73.1871,-102.7694,149.685,-41.62059,202408271427197979
Feb-19,A_Baseline,1,Q3FrontUp,-8.430932,30.72347,48.90188,-73.1871,-102.7694,149.685,-41.62059,202408271427198219
Feb-19,A_Baseline,1,Q3FrontUp,-7.377355,30.7151,47.74173,-72.88322,-102.7693,149.6951,-41.63658,202408271427198460
Feb-19,A_Baseline,1,Q3FrontUp,-6.331004,30.71352,46.56682,-72.55527,-102.7694,149.7028,-41.65205,202408271427198671
Feb-19,A_Baseline,1,Q3FrontUp,-6.331004,30.71352,46.56682,-72.55527,-102.7694,149.7028,-41.65205,202408271427198803
Feb-19,A_Baseline,1,Q3FrontUp,-5.32263,30.70877,45.45498,-72.26033,-102.7697,149.7082,-41.6697,202408271427199056
Feb-19,A_Baseline,1,Q3FrontUp,-4.343316,30.70506,44.4207,-71.96266,-102.7697,149.7176,-41.68908,202408271427199318
Feb-19,A_Baseline,1,Q3FrontUp,-4.343316,30.70506,44.4207,-71.96266,-102.7697,149.7176,-41.68908,202408271427199465
Feb-19,A_Baseline,1,Q3FrontUp,-3.423231,30.69702,43.42621,-71.70067,-102.7698,149.7277,-41.7048,202408271427199806
Feb-19,A_Baseline,1,Q3FrontUp,-2.527587,30.69313,42.49655,-71.46309,-102.7698,149.7349,-41.72287,202408271427199973
Feb-19,A_Baseline,1,Q3FrontUp,-2.527587,30.69313,42.49655,-71.46309,-102.7698,149.7349,-41.72287,202408271427200142
Feb-19,A_Baseline,1,Q3FrontUp,-1.7116,30.69074,41.65581,-71.22662,-102.77,149.7385,-41.7392,202408271427200347
Feb-19,A_Baseline,1,Q3FrontUp,-1.7116,30.69074,41.65581,-71.22662,-102.77,149.7385,-41.7392,202408271427200650
Feb-19,A_Baseline,1,Q3FrontUp,-1.7116,30.69074,41.65581,-71.22662,-102.77,149.7385,-41.7392,202408271427200803
Feb-19,A_Baseline,1,Q3FrontUp,-0.4804395,30.69151,40.51783,-70.89891,-102.7718,149.8119,-41.75761,202408271427200976
Feb-19,A_Baseline,1,Q3FrontUp,-0.4804395,30.69151,40.51783,-70.89891,-102.7718,149.8119,-41.75761,202408271427201149
Feb-19,A_Baseline,1,Q3FrontUp,-0.4804395,30.69151,40.51783,-70.89891,-102.7718,149.8119,-41.75761,202408271427201322
Feb-19,A_Baseline,1,Q3FrontUp,-0.1247233,30.70414,40.31238,-70.77917,-102.7534,149.8933,-41.73765,202408271427201567
Feb-19,A_Baseline,1,Q3FrontUp,0.1579645,30.70327,40.22272,-70.67448,-102.69,149.9715,-41.68328,202408271427201757
Feb-19,A_Baseline,1,Q3FrontUp,0.3381035,30.69755,40.23558,-70.58952,-102.4296,150.0573,-41.58513,202408271427201969
Feb-19,A_Baseline,1,Q3FrontUp,0.3381035,30.69755,40.23558,-70.58952,-102.4296,150.0573,-41.58513,202408271427202176
Feb-19,A_Baseline,1,Q3FrontUp,0.491897,30.68015,40.27615,-70.48868,-102.1951,150.1586,-41.49998,202408271427202466
Feb-19,A_Baseline,1,Q3FrontUp,0.491897,30.68015,40.27615,-70.48868,-102.1951,150.1586,-41.49998,202408271427202686
Feb-19,A_Baseline,1,Q3FrontUp,0.6831672,30.56036,40.46865,-70.3639,-101.7009,150.3584,-41.30073,202408271427202960
Feb-19,A_Baseline,1,Q3FrontUp,0.6831672,30.56036,40.46865,-70.3639,-101.7009,150.3584,-41.30073,202408271427203131
Feb-19,A_Baseline,1,Q3FrontUp,0.6539944,30.50144,40.70305,-70.35605,-101.3811,150.4745,-41.18696,202408271427203293
Feb-19,A_Baseline,1,Q3FrontUp,0.6539944,30.50144,40.70305,-70.35605,-101.3811,150.4745,-41.18696,202408271427203464
Feb-19,A_Baseline,1,Q3FrontUp,0.5436602,30.45964,41.09062,-70.35572,-101.0471,150.5628,-41.07512,202408271427203676
Feb-19,A_Baseline,1,Q3FrontUp,0.5436602,30.45964,41.09062,-70.35572,-101.0471,150.5628,-41.07512,202408271427203855
Feb-19,A_Baseline,1,Q3FrontUp,0.4253259,30.38506,41.45415,-70.35729,-100.737,150.6384,-40.96184,202408271427204009
Feb-19,A_Baseline,1,Q3FrontUp,0.2010617,30.26538,41.90324,-70.39344,-100.4263,150.6924,-40.84955,202408271427204310
Feb-19,A_Baseline,1,Q3FrontUp,-0.2297843,30.18818,42.6343,-70.49493,-100.0836,150.7443,-40.72399,202408271427204642
Feb-19,A_Baseline,1,Q3FrontUp,-0.2297843,30.18818,42.6343,-70.49493,-100.0836,150.7443,-40.72399,202408271427204848
Feb-19,A_Baseline,1,Q3FrontUp,-0.6505404,30.06767,43.36394,-70.58939,-99.74258,150.8024,-40.59196,202408271427205125
Feb-19,A_Baseline,1,Q3FrontUp,-1.122637,29.93495,44.07417,-70.67593,-99.45362,150.8507,-40.48023,202408271427205293
Feb-19,A_Baseline,1,Q3FrontUp,-1.122637,29.93495,44.07417,-70.67593,-99.45362,150.8507,-40.48023,202408271427205540
Feb-19,A_Baseline,1,Q3FrontUp,-1.700601,29.77191,44.92107,-70.82812,-99.17677,150.8773,-40.39497,202408271427205817
Feb-19,A_Baseline,1,Q3FrontUp,-2.402471,29.59731,45.97663,-71.05157,-98.9109,150.8886,-40.31533,202408271427206021
Feb-19,A_Baseline,1,Q3FrontUp,-3.183875,29.44626,47.08939,-71.26942,-98.65393,150.9211,-40.23681,202408271427206308
Feb-19,A_Baseline,1,Q3FrontUp,-3.949471,29.28511,48.21165,-71.48988,-98.4378,150.9416,-40.16601,202408271427206648
Feb-19,A_Baseline,1,Q3FrontUp,-3.949471,29.28511,48.21165,-71.48988,-98.4378,150.9416,-40.16601,202408271427206806
Feb-19,A_Baseline,1,Q3FrontUp,-4.635236,29.12248,49.2218,-71.67871,-98.22666,150.9635,-40.10289,202408271427206998
Feb-19,A_Baseline,1,Q3FrontUp,-4.635236,29.12248,49.2218,-71.67871,-98.22666,150.9635,-40.10289,202408271427207298
Feb-19,A_Baseline,1,Q3FrontUp,-4.635236,29.12248,49.2218,-71.67871,-98.22666,150.9635,-40.10289,202408271427207464
Feb-19,A_Baseline,1,Q3FrontUp,-5.928081,28.77783,51.10093,-71.95881,-97.80756,151.0209,-40.01299,202408271427207633
Feb-19,A_Baseline,1,Q3FrontUp,-5.928081,28.77783,51.10093,-71.95881,-97.80756,151.0209,-40.01299,202408271427207804
Feb-19,A_Baseline,1,Q3FrontUp,-5.928081,28.77783,51.10093,-71.95881,-97.80756,151.0209,-40.01299,202408271427208186
Feb-19,A_Baseline,1,Q3FrontUp,-7.025527,28.4811,52.67949,-72.10427,-97.4575,151.0604,-39.9395,202408271427208462
Feb-19,A_Baseline,1,Q3FrontUp,-7.540925,28.36765,53.38876,-72.13043,-97.33275,151.0715,-39.90315,202408271427208665
Feb-19,A_Baseline,1,Q3FrontUp,-8.02243,28.2529,54.05169,-72.15765,-97.22725,151.0796,-39.86745,202408271427209007
Feb-19,A_Baseline,1,Q3FrontUp,-8.02243,28.2529,54.05169,-72.15765,-97.22725,151.0796,-39.86745,202408271427209177
Feb-19,A_Baseline,1,Q3FrontUp,-8.02243,28.2529,54.05169,-72.15765,-97.22725,151.0796,-39.86745,202408271427209463
Feb-19,A_Baseline,1,Q3FrontUp,-8.876253,28.07142,55.23669,-72.22182,-97.02811,151.0907,-39.81458,202408271427209623
Feb-19,A_Baseline,1,Q3FrontUp,-8.876253,28.07142,55.23669,-72.22182,-97.02811,151.0907,-39.81458,202408271427209792
Feb-19,A_Baseline,1,Q3FrontUp,-8.876253,28.07142,55.23669,-72.22182,-97.02811,151.0907,-39.81458,202408271427209950
Feb-19,A_Baseline,1,Q3FrontUp,-8.876253,28.07142,55.23669,-72.22182,-97.02811,151.0907,-39.81458,202408271427210179
Feb-19,A_Baseline,1,Q3FrontUp,-9.635624,27.96259,56.24229,-72.28858,-96.85419,151.0917,-39.78224,202408271427210370
Feb-19,A_Baseline,1,Q3FrontUp,-9.961796,27.9493,56.73929,-72.30627,-96.78913,151.0944,-39.7704,202408271427210629
Feb-19,A_Baseline,1,Q3FrontUp,-9.961796,27.9493,56.73929,-72.30627,-96.78913,151.0944,-39.7704,202408271427210828
Feb-19,A_Baseline,1,Q3FrontUp,-10.30458,27.95209,57.25354,-72.34285,-96.75046,151.0969,-39.74326,202408271427211199
Feb-19,A_Baseline,1,Q3FrontUp,-10.65357,27.96879,57.76715,-72.37561,-96.71045,151.1095,-39.71314,202408271427211468
Feb-19,A_Baseline,1,Q3FrontUp,-10.97263,27.99208,58.28404,-72.41351,-96.67343,151.1371,-39.67449,202408271427211695
Feb-19,A_Baseline,1,Q3FrontUp,-11.31119,28.04883,58.84073,-72.47511,-96.63123,151.157,-39.65692,202408271427211970
Feb-19,A_Baseline,1,Q3FrontUp,-11.31119,28.04883,58.84073,-72.47511,-96.63123,151.157,-39.65692,202408271427212132
Feb-19,A_Baseline,1,Q3FrontUp,-11.6211,28.09368,59.40815,-72.52825,-96.58891,151.195,-39.63802,202408271427212493
Feb-19,A_Baseline,1,Q3FrontUp,-11.90813,28.13188,59.91378,-72.58004,-96.55145,151.2366,-39.62168,202408271427212799
Feb-19,A_Baseline,1,Q3FrontUp,-12.21498,28.22765,60.46884,-72.62569,-96.48463,151.2878,-39.62145,202408271427212989
Feb-19,A_Baseline,1,Q3FrontUp,-12.21498,28.22765,60.46884,-72.62569,-96.48463,151.2878,-39.62145,202408271427213204
Feb-19,A_Baseline,1,Q3FrontUp,-12.51326,28.32796,61.07155,-72.68297,-96.43076,151.3595,-39.62127,202408271427213557
Feb-19,A_Baseline,1,Q3FrontUp,-12.81922,28.46272,61.67944,-72.76044,-96.39715,151.4151,-39.62141,202408271427213803
Feb-19,A_Baseline,1,Q3FrontUp,-13.12905,28.59192,62.29859,-72.86202,-96.32993,151.4538,-39.64376,202408271427213997
Feb-19,A_Baseline,1,Q3FrontUp,-13.43616,28.73203,62.87138,-72.98367,-96.25776,151.4933,-39.66549,202408271427214293
Feb-19,A_Baseline,1,Q3FrontUp,-13.43616,28.73203,62.87138,-72.98367,-96.25776,151.4933,-39.66549,202408271427214476
Feb-19,A_Baseline,1,Q3FrontUp,-13.70581,28.85173,63.3529,-73.0933,-96.1881,151.5234,-39.67848,202408271427214678
Feb-19,A_Baseline,1,Q3FrontUp,-13.70581,28.85173,63.3529,-73.0933,-96.1881,151.5234,-39.67848,202408271427214840
Feb-19,A_Baseline,1,Q3FrontUp,-14.01908,29.00578,63.91968,-73.25053,-96.08791,151.5289,-39.74687,202408271427215119
Feb-19,A_Baseline,1,Q3FrontUp,-14.34778,29.1733,64.50418,-73.41067,-96.03568,151.5439,-39.77915,202408271427215297
Feb-19,A_Baseline,1,Q3FrontUp,-14.6602,29.36037,65.06675,-73.56519,-96.03593,151.6214,-39.77856,202408271427215643
Feb-19,A_Baseline,1,Q3FrontUp,-14.6602,29.36037,65.06675,-73.56519,-96.03593,151.6214,-39.77856,202408271427215865
Feb-19,A_Baseline,1,Q3FrontUp,-15.0428,29.54843,65.67278,-73.74831,-95.96844,151.6334,-39.83368,202408271427216149
Feb-19,A_Baseline,1,Q3FrontUp,-15.46152,29.73359,66.27327,-73.93335,-95.89035,151.6326,-39.90295,202408271427216324
Feb-19,A_Baseline,1,Q3FrontUp,-15.46152,29.73359,66.27327,-73.93335,-95.89035,151.6326,-39.90295,202408271427216523
Feb-19,A_Baseline,1,Q3FrontUp,-15.90483,29.90944,66.91114,-74.1758,-95.8381,151.6331,-39.97683,202408271427216841
Feb-19,A_Baseline,1,Q3FrontUp,-16.39589,30.07147,67.56766,-74.41055,-95.80534,151.6247,-40.05062,202408271427217130
Feb-19,A_Baseline,1,Q3FrontUp,-16.39589,30.07147,67.56766,-74.41055,-95.80534,151.6247,-40.05062,202408271427217297
Feb-19,A_Baseline,1,Q3FrontUp,-16.92635,30.24797,68.22211,-74.63659,-95.77415,151.6228,-40.12685,202408271427217470
Feb-19,A_Baseline,1,Q3FrontUp,-17.47742,30.39845,68.939,-74.89571,-95.75211,151.6244,-40.21211,202408271427217638
Feb-19,A_Baseline,1,Q3FrontUp,-17.47742,30.39845,68.939,-74.89571,-95.75211,151.6244,-40.21211,202408271427217821
Feb-19,A_Baseline,1,Q3FrontUp,-17.97457,30.56243,69.54711,-75.08112,-95.72994,151.6245,-40.29102,202408271427218038
Feb-19,A_Baseline,1,Q3FrontUp,-17.97457,30.56243,69.54711,-75.08112,-95.72994,151.6245,-40.29102,202408271427218204
Feb-19,A_Baseline,1,Q3FrontUp,-18.54225,30.73749,70.24938,-75.26443,-95.71223,151.6246,-40.38118,202408271427218481
Feb-19,A_Baseline,1,Q3FrontUp,-19.18447,30.91165,71.06051,-75.52011,-95.69798,151.6372,-40.47705,202408271427218808
Feb-19,A_Baseline,1,Q3FrontUp,-19.78709,31.06845,71.77216,-75.71298,-95.68739,151.6463,-40.56012,202408271427218982
Feb-19,A_Baseline,1,Q3FrontUp,-19.78709,31.06845,71.77216,-75.71298,-95.68739,151.6463,-40.56012,202408271427219169
Feb-19,A_Baseline,1,Q3FrontUp,-20.45986,31.25669,72.55827,-75.90105,-95.69395,151.6515,-40.62014,202408271427219466
Feb-19,A_Baseline,1,Q3FrontUp,-21.098,31.43418,73.31904,-76.06014,-95.7137,151.6533,-40.62476,202408271427219634
Feb-19,A_Baseline,1,Q3FrontUp,-21.098,31.43418,73.31904,-76.06014,-95.7137,151.6533,-40.62476,202408271427219835
Feb-19,A_Baseline,1,Q3FrontUp,-21.80048,31.59833,74.1627,-76.23038,-95.76173,151.6714,-40.6249,202408271427220139
Feb-19,A_Baseline,1,Q3FrontUp,-22.49511,31.79922,74.9998,-76.39971,-95.8108,151.7147,-40.62462,202408271427220366
Feb-19,A_Baseline,1,Q3FrontUp,-23.15136,31.99368,75.77996,-76.53197,-95.85538,151.7395,-40.62458,202408271427220631
Feb-19,A_Baseline,1,Q3FrontUp,-23.15136,31.99368,75.77996,-76.53197,-95.85538,151.7395,-40.62458,202408271427220806
Feb-19,A_Baseline,1,Q3FrontUp,-23.73809,32.1555,76.50173,-76.65473,-95.89488,151.7623,-40.62479,202408271427220991
Feb-19,A_Baseline,1,Q3FrontUp,-24.33348,32.30987,77.20645,-76.74979,-95.92152,151.7871,-40.62617,202408271427221342
Feb-19,A_Baseline,1,Q3FrontUp,-24.33348,32.30987,77.20645,-76.74979,-95.92152,151.7871,-40.62617,202408271427221518
Feb-19,A_Baseline,1,Q3FrontUp,-24.92386,32.4879,77.96054,-76.8717,-95.94898,151.8149,-40.64105,202408271427221800
Feb-19,A_Baseline,1,Q3FrontUp,-25.45238,32.64696,78.5845,-77.00219,-95.9507,151.8291,-40.70325,202408271427222130
Feb-19,A_Baseline,1,Q3FrontUp,-25.45238,32.64696,78.5845,-77.00219,-95.9507,151.8291,-40.70325,202408271427222300
Feb-19,A_Baseline,1,Q3FrontUp,-25.9719,32.78597,79.21035,-77.13404,-95.95565,151.8388,-40.75941,202408271427222478
Feb-19,A_Baseline,1,Q3FrontUp,-25.9719,32.78597,79.21035,-77.13404,-95.95565,151.8388,-40.75941,202408271427222690
Feb-19,A_Baseline,1,Q3FrontUp,-26.44138,32.94735,79.80325,-77.2632,-95.97115,151.8459,-40.8026,202408271427222960
Feb-19,A_Baseline,1,Q3FrontUp,-26.89994,33.11017,80.44095,-77.36835,-96.03061,151.8595,-40.83265,202408271427223186
Feb-19,A_Baseline,1,Q3FrontUp,-27.33701,33.31759,81.06725,-77.45942,-96.10631,151.8917,-40.85416,202408271427223507
Feb-19,A_Baseline,1,Q3FrontUp,-27.73034,33.52502,81.64564,-77.55936,-96.19515,151.9604,-40.85733,202408271427223674
Feb-19,A_Baseline,1,Q3FrontUp,-28.10305,33.72822,82.25282,-77.63684,-96.33467,152.0341,-40.85537,202408271427223997
Feb-19,A_Baseline,1,Q3FrontUp,-28.46919,33.93485,82.82166,-77.70437,-96.51139,152.1239,-40.8336,202408271427224291
Feb-19,A_Baseline,1,Q3FrontUp,-28.46919,33.93485,82.82166,-77.70437,-96.51139,152.1239,-40.8336,202408271427224455
Feb-19,A_Baseline,1,Q3FrontUp,-28.7888,34.11768,83.32535,-77.74919,-96.69399,152.2283,-40.79294,202408271427224689
Feb-19,A_Baseline,1,Q3FrontUp,-29.09364,34.29644,83.79203,-77.80025,-96.88689,152.3368,-40.75973,202408271427224964
Feb-19,A_Baseline,1,Q3FrontUp,-29.09364,34.29644,83.79203,-77.80025,-96.88689,152.3368,-40.75973,202408271427225128
Feb-19,A_Baseline,1,Q3FrontUp,-29.36147,34.48273,84.21695,-77.84931,-97.09141,152.424,-40.72852,202408271427225286
Feb-19,A_Baseline,1,Q3FrontUp,-29.36147,34.48273,84.21695,-77.84931,-97.09141,152.424,-40.72852,202408271427225452
Feb-19,A_Baseline,1,Q3FrontUp,-29.64009,34.67964,84.72089,-77.88249,-97.31854,152.5283,-40.68829,202408271427225629
Feb-19,A_Baseline,1,Q3FrontUp,-29.64009,34.67964,84.72089,-77.88249,-97.31854,152.5283,-40.68829,202408271427225799
Feb-19,A_Baseline,1,Q3FrontUp,-29.91034,34.88,85.1842,-77.90482,-97.47361,152.6221,-40.68627,202408271427226031
Feb-19,A_Baseline,1,Q3FrontUp,-30.16035,35.09525,85.63206,-77.90786,-97.61093,152.7321,-40.68668,202408271427226330
Feb-19,A_Baseline,1,Q3FrontUp,-30.16035,35.09525,85.63206,-77.90786,-97.61093,152.7321,-40.68668,202408271427226645
Feb-19,A_Baseline,1,Q3FrontUp,-30.62903,35.47464,86.47553,-77.92563,-97.83231,152.9566,-40.68683,202408271427227120
Feb-19,A_Baseline,1,Q3FrontUp,-30.62903,35.47464,86.47553,-77.92563,-97.83231,152.9566,-40.68683,202408271427227287
Feb-19,A_Baseline,1,Q3FrontUp,-30.62903,35.47464,86.47553,-77.92563,-97.83231,152.9566,-40.68683,202408271427227466
Feb-19,A_Baseline,1,Q3FrontUp,-31.0281,35.84754,87.18398,-77.92494,-98.11333,153.1261,-40.68658,202408271427227629
Feb-19,A_Baseline,1,Q3FrontUp,-31.0281,35.84754,87.18398,-77.92494,-98.11333,153.1261,-40.68658,202408271427227854
Feb-19,A_Baseline,1,Q3FrontUp,-31.22873,36.03093,87.49461,-77.92804,-98.27662,153.22,-40.68633,202408271427228019
Feb-19,A_Baseline,1,Q3FrontUp,-31.42,36.2031,87.77862,-77.92867,-98.42944,153.2846,-40.68604,202408271427228285
Feb-19,A_Baseline,1,Q3FrontUp,-31.42,36.2031,87.77862,-77.92867,-98.42944,153.2846,-40.68604,202408271427228449
Feb-19,A_Baseline,1,Q3FrontUp,-31.42,36.2031,87.77862,-77.92867,-98.42944,153.2846,-40.68604,202408271427228666
Feb-19,A_Baseline,1,Q3FrontUp,-31.78104,36.56203,88.36063,-77.92834,-98.70963,153.3607,-40.68412,202408271427228994
Feb-19,A_Baseline,1,Q3FrontUp,-31.78104,36.56203,88.36063,-77.92834,-98.70963,153.3607,-40.68412,202408271427229184
Feb-19,A_Baseline,1,Q3FrontUp,-31.94436,36.77466,88.62246,-77.92843,-98.82393,153.4239,-40.68451,202408271427229472
Feb-19,A_Baseline,1,Q3FrontUp,-32.10724,36.92676,88.83092,-77.92563,-98.93784,153.4982,-40.68364,202408271427229798
Feb-19,A_Baseline,1,Q3FrontUp,-32.26529,37.05985,89.02162,-77.92491,-99.05496,153.5809,-40.68348,202408271427229971
Feb-19,A_Baseline,1,Q3FrontUp,-32.26529,37.05985,89.02162,-77.92491,-99.05496,153.5809,-40.68348,202408271427230138
