mpan31415/robot-x-ar/study2/data/raw_all_participants/Participant_2-11_1.csv
ParticipantID,Condition,Trial,PostureID,J1,J2,J3,J4,J5,J6,J7,Timestamp,
2-11,C_HumanVertical,1,Q3FrontUp,-11.33671,21.24326,42.21371,-43.28007,-90.91602,166.4369,-34.16573,202408291325575601,
2-11,C_HumanVertical,1,Q3FrontUp,-11.33779,21.24352,42.21639,-43.27993,-90.91772,166.436,-34.16553,202408291325576011,
2-11,C_HumanVertical,1,Q3FrontUp,-11.35163,21.24411,42.24885,-43.27958,-90.95441,166.4323,-34.16629,202408291325576340,
2-11,C_HumanVertical,1,Q3FrontUp,-11.36162,21.24432,42.27848,-43.27955,-90.98118,166.4177,-34.181,202408291325576683,
2-11,C_HumanVertical,1,Q3FrontUp,-11.36654,21.24605,42.3002,-43.27929,-90.99461,166.4119,-34.20057,202408291325577011,
2-11,C_HumanVertical,1,Q3FrontUp,-11.36436,21.25634,42.28947,-43.29277,-90.97487,166.4122,-34.20005,202408291325577392,
2-11,C_HumanVertical,1,Q3FrontUp,-11.3651,21.26408,42.28675,-43.30214,-90.96761,166.4121,-34.19949,202408291325577636,
2-11,C_HumanVertical,1,Q3FrontUp,-11.3664,21.28072,42.28773,-43.31359,-90.9663,166.4115,-34.19979,202408291325577917,
2-11,C_HumanVertical,1,Q3FrontUp,-11.3664,21.28072,42.28773,-43.31359,-90.9663,166.4115,-34.19979,202408291325578071,
2-11,C_HumanVertical,1,Q3FrontUp,-11.37101,21.30639,42.29147,-43.32591,-90.96605,166.409,-34.19923,202408291325578268,
2-11,C_HumanVertical,1,Q3FrontUp,-11.38863,21.34794,42.33064,-43.34914,-90.96787,166.3807,-34.19946,202408291325578548,
2-11,C_HumanVertical,1,Q3FrontUp,-11.41659,21.39593,42.39657,-43.37437,-90.97218,166.3343,-34.19896,202408291325578856,
2-11,C_HumanVertical,1,Q3FrontUp,-11.41659,21.39593,42.39657,-43.37437,-90.97218,166.3343,-34.19896,202408291325579128,
2-11,C_HumanVertical,1,Q3FrontUp,-11.48384,21.45952,42.55365,-43.3999,-90.98227,166.2336,-34.1995,202408291325579481,
2-11,C_HumanVertical,1,Q3FrontUp,-11.48384,21.45952,42.55365,-43.3999,-90.98227,166.2336,-34.1995,202408291325579803,
2-11,C_HumanVertical,1,Q3FrontUp,-11.70272,21.60732,43.01321,-43.47166,-91.05254,165.8801,-34.19962,202408291325579983,
2-11,C_HumanVertical,1,Q3FrontUp,-11.87057,21.70986,43.3682,-43.51003,-91.13445,165.5938,-34.19949,202408291325580262,
2-11,C_HumanVertical,1,Q3FrontUp,-12.07706,21.81063,43.76457,-43.55701,-91.25761,165.2632,-34.19926,202408291325580589,
2-11,C_HumanVertical,1,Q3FrontUp,-12.07706,21.81063,43.76457,-43.55701,-91.25761,165.2632,-34.19926,202408291325580756,
2-11,C_HumanVertical,1,Q3FrontUp,-12.07706,21.81063,43.76457,-43.55701,-91.25761,165.2632,-34.19926,202408291325580988,
2-11,C_HumanVertical,1,Q3FrontUp,-12.29656,21.92154,44.20648,-43.61353,-91.41515,164.9143,-34.19937,202408291325581251,
2-11,C_HumanVertical,1,Q3FrontUp,-12.56795,22.02671,44.74726,-43.69706,-91.6314,164.4648,-34.19976,202408291325581438,
2-11,C_HumanVertical,1,Q3FrontUp,-12.87172,22.14532,45.33942,-43.8067,-91.87781,163.9875,-34.19976,202408291325581679,
2-11,C_HumanVertical,1,Q3FrontUp,-13.1905,22.25658,45.95913,-43.92235,-92.12767,163.4908,-34.19976,202408291325581997,
2-11,C_HumanVertical,1,Q3FrontUp,-13.1905,22.25658,45.95913,-43.92235,-92.12767,163.4908,-34.19976,202408291325582311,
2-11,C_HumanVertical,1,Q3FrontUp,-14.00516,22.52923,47.47963,-44.19331,-92.84054,162.2237,-34.20012,202408291325582592,
2-11,C_HumanVertical,1,Q3FrontUp,-14.41635,22.67681,48.27072,-44.33564,-93.20947,161.5742,-34.2002,202408291325582932,
2-11,C_HumanVertical,1,Q3FrontUp,-14.41635,22.67681,48.27072,-44.33564,-93.20947,161.5742,-34.2002,202408291325583162,
2-11,C_HumanVertical,1,Q3FrontUp,-14.88558,22.83309,49.17254,-44.49649,-93.60995,160.8152,-34.20078,202408291325583425,
2-11,C_HumanVertical,1,Q3FrontUp,-14.88558,22.83309,49.17254,-44.49649,-93.60995,160.8152,-34.20078,202408291325583587,
2-11,C_HumanVertical,1,Q3FrontUp,-15.40987,23.01742,50.14202,-44.66549,-94.08216,160.0094,-34.20126,202408291325583758,
2-11,C_HumanVertical,1,Q3FrontUp,-15.9229,23.1984,51.11096,-44.8478,-94.52654,159.2195,-34.2023,202408291325583919,
2-11,C_HumanVertical,1,Q3FrontUp,-15.9229,23.1984,51.11096,-44.8478,-94.52654,159.2195,-34.2023,202408291325584111,
2-11,C_HumanVertical,1,Q3FrontUp,-16.47714,23.38916,52.16403,-45.00617,-95.05868,158.335,-34.20335,202408291325584319,
2-11,C_HumanVertical,1,Q3FrontUp,-17.06945,23.60969,53.28373,-45.17491,-95.60126,157.3853,-34.20548,202408291325584660,
2-11,C_HumanVertical,1,Q3FrontUp,-17.64541,23.83007,54.3671,-45.36341,-96.13453,156.473,-34.20802,202408291325584911,
2-11,C_HumanVertical,1,Q3FrontUp,-17.64541,23.83007,54.3671,-45.36341,-96.13453,156.473,-34.20802,202408291325585128,
2-11,C_HumanVertical,1,Q3FrontUp,-18.28806,24.05357,55.52976,-45.57106,-96.69725,155.4846,-34.213,202408291325585276,
2-11,C_HumanVertical,1,Q3FrontUp,-18.96061,24.27926,56.75445,-45.78222,-97.32925,154.4563,-34.21978,202408291325585556,
2-11,C_HumanVertical,1,Q3FrontUp,-18.96061,24.27926,56.75445,-45.78222,-97.32925,154.4563,-34.21978,202408291325585739,
2-11,C_HumanVertical,1,Q3FrontUp,-19.64157,24.50932,57.9595,-45.97823,-97.91989,153.4207,-34.22967,202408291325585910,
2-11,C_HumanVertical,1,Q3FrontUp,-19.64157,24.50932,57.9595,-45.97823,-97.91989,153.4207,-34.22967,202408291325586085,
2-11,C_HumanVertical,1,Q3FrontUp,-20.32207,24.74373,59.20898,-46.19269,-98.54317,152.3529,-34.23938,202408291325586401,
2-11,C_HumanVertical,1,Q3FrontUp,-21.01025,24.98952,60.45778,-46.41118,-99.16688,151.2796,-34.25395,202408291325586778,
2-11,C_HumanVertical,1,Q3FrontUp,-21.68622,25.22644,61.67294,-46.59576,-99.81244,150.228,-34.26998,202408291325586930,
2-11,C_HumanVertical,1,Q3FrontUp,-21.68622,25.22644,61.67294,-46.59576,-99.81244,150.228,-34.26998,202408291325587117,
2-11,C_HumanVertical,1,Q3FrontUp,-22.38578,25.49389,62.99557,-46.80877,-100.4529,149.095,-34.29047,202408291325587444,
2-11,C_HumanVertical,1,Q3FrontUp,-23.09187,25.74706,64.25374,-47.01387,-101.0995,147.9859,-34.30973,202408291325587651,
2-11,C_HumanVertical,1,Q3FrontUp,-23.77788,25.98793,65.48203,-47.22735,-101.7386,146.9151,-34.33342,202408291325587915,
2-11,C_HumanVertical,1,Q3FrontUp,-24.50568,26.23753,66.77791,-47.42373,-102.3934,145.7822,-34.3572,202408291325588246,
2-11,C_HumanVertical,1,Q3FrontUp,-24.50568,26.23753,66.77791,-47.42373,-102.3934,145.7822,-34.3572,202408291325588413,
2-11,C_HumanVertical,1,Q3FrontUp,-25.18914,26.46585,68.01289,-47.63477,-103.0466,144.6946,-34.38299,202408291325588586,
2-11,C_HumanVertical,1,Q3FrontUp,-25.18914,26.46585,68.01289,-47.63477,-103.0466,144.6946,-34.38299,202408291325588833,
2-11,C_HumanVertical,1,Q3FrontUp,-25.87434,26.69886,69.19372,-47.82596,-103.6604,143.6331,-34.40707,202408291325589075,
2-11,C_HumanVertical,1,Q3FrontUp,-26.54012,26.93796,70.42402,-48.01657,-104.3465,142.5468,-34.43072,202408291325589321,
2-11,C_HumanVertical,1,Q3FrontUp,-26.54012,26.93796,70.42402,-48.01657,-104.3465,142.5468,-34.43072,202408291325589474,
2-11,C_HumanVertical,1,Q3FrontUp,-27.1846,27.16604,71.56706,-48.17705,-104.9477,141.5147,-34.45427,202408291325589651,
2-11,C_HumanVertical,1,Q3FrontUp,-27.81251,27.36545,72.66841,-48.34378,-105.5569,140.5278,-34.47714,202408291325589922,
2-11,C_HumanVertical,1,Q3FrontUp,-27.81251,27.36545,72.66841,-48.34378,-105.5569,140.5278,-34.47714,202408291325590091,
2-11,C_HumanVertical,1,Q3FrontUp,-28.45108,27.57621,73.78479,-48.52132,-106.18,139.5169,-34.50065,202408291325590432,
2-11,C_HumanVertical,1,Q3FrontUp,-29.04278,27.76697,74.82049,-48.66484,-106.7575,138.591,-34.51864,202408291325590761,
2-11,C_HumanVertical,1,Q3FrontUp,-29.60615,27.94615,75.83064,-48.80516,-107.3107,137.6887,-34.54171,202408291325590985,
2-11,C_HumanVertical,1,Q3FrontUp,-29.60615,27.94615,75.83064,-48.80516,-107.3107,137.6887,-34.54171,202408291325591155,
2-11,C_HumanVertical,1,Q3FrontUp,-30.13583,28.09685,76.72124,-48.92421,-107.8339,136.8514,-34.56304,202408291325591405,
2-11,C_HumanVertical,1,Q3FrontUp,-30.65408,28.25522,77.6228,-49.04984,-108.3614,136.0166,-34.5807,202408291325591610,
2-11,C_HumanVertical,1,Q3FrontUp,-30.65408,28.25522,77.6228,-49.04984,-108.3614,136.0166,-34.5807,202408291325591760,
2-11,C_HumanVertical,1,Q3FrontUp,-31.11549,28.40088,78.42568,-49.17713,-108.8658,135.2689,-34.59851,202408291325591959,
2-11,C_HumanVertical,1,Q3FrontUp,-31.11549,28.40088,78.42568,-49.17713,-108.8658,135.2689,-34.59851,202408291325592159,
2-11,C_HumanVertical,1,Q3FrontUp,-31.56985,28.52184,79.19125,-49.2826,-109.2991,134.5526,-34.61536,202408291325592405,
2-11,C_HumanVertical,1,Q3FrontUp,-31.97156,28.63313,79.86086,-49.35469,-109.7264,133.8948,-34.63252,202408291325592591,
2-11,C_HumanVertical,1,Q3FrontUp,-31.97156,28.63313,79.86086,-49.35469,-109.7264,133.8948,-34.63252,202408291325592803,
2-11,C_HumanVertical,1,Q3FrontUp,-32.32162,28.73608,80.48331,-49.42403,-110.1086,133.3245,-34.6466,202408291325593082,
2-11,C_HumanVertical,1,Q3FrontUp,-32.65289,28.83132,81.09672,-49.47686,-110.4946,132.7313,-34.66482,202408291325593304,
2-11,C_HumanVertical,1,Q3FrontUp,-32.95292,28.92867,81.62835,-49.52033,-110.8775,132.2487,-34.68846,202408291325593605,
2-11,C_HumanVertical,1,Q3FrontUp,-32.95292,28.92867,81.62835,-49.52033,-110.8775,132.2487,-34.68846,202408291325593758,
2-11,C_HumanVertical,1,Q3FrontUp,-33.23587,29.00035,82.13725,-49.53269,-111.2082,131.7464,-34.70835,202408291325593923,
2-11,C_HumanVertical,1,Q3FrontUp,-33.23587,29.00035,82.13725,-49.53269,-111.2082,131.7464,-34.70835,202408291325594124,
2-11,C_HumanVertical,1,Q3FrontUp,-33.49526,29.06651,82.59443,-49.56117,-111.4862,131.3422,-34.73111,202408291325594329,
2-11,C_HumanVertical,1,Q3FrontUp,-33.72813,29.13705,83.02534,-49.58745,-111.7802,130.9417,-34.75537,202408291325594620,
2-11,C_HumanVertical,1,Q3FrontUp,-33.72813,29.13705,83.02534,-49.58745,-111.7802,130.9417,-34.75537,202408291325594907,
2-11,C_HumanVertical,1,Q3FrontUp,-33.92425,29.2042,83.42426,-49.6008,-112.052,130.5635,-34.77728,202408291325595128,
2-11,C_HumanVertical,1,Q3FrontUp,-34.123,29.25659,83.78512,-49.62082,-112.3056,130.2378,-34.79731,202408291325595470,
2-11,C_HumanVertical,1,Q3FrontUp,-34.30931,29.30355,84.10713,-49.63718,-112.5318,129.9328,-34.8138,202408291325595745,
2-11,C_HumanVertical,1,Q3FrontUp,-34.46459,29.3455,84.37744,-49.64739,-112.7559,129.6341,-34.83088,202408291325596017,
2-11,C_HumanVertical,1,Q3FrontUp,-34.46459,29.3455,84.37744,-49.64739,-112.7559,129.6341,-34.83088,202408291325596245,
2-11,C_HumanVertical,1,Q3FrontUp,-34.59389,29.39494,84.64081,-49.65183,-112.984,129.3572,-34.85526,202408291325596409,
2-11,C_HumanVertical,1,Q3FrontUp,-34.71227,29.4253,84.86543,-49.66153,-113.1758,129.1461,-34.87752,202408291325596646,
2-11,C_HumanVertical,1,Q3FrontUp,-34.82382,29.4369,85.05373,-49.67263,-113.337,128.9505,-34.89896,202408291325596932,
2-11,C_HumanVertical,1,Q3FrontUp,-34.82382,29.4369,85.05373,-49.67263,-113.337,128.9505,-34.89896,202408291325597103,
2-11,C_HumanVertical,1,Q3FrontUp,-34.82382,29.4369,85.05373,-49.67263,-113.337,128.9505,-34.89896,202408291325597271,
2-11,C_HumanVertical,1,Q3FrontUp,-34.94209,29.45202,85.2361,-49.70117,-113.4509,128.7554,-34.92263,202408291325597480,
2-11,C_HumanVertical,1,Q3FrontUp,-35.04797,29.46435,85.39133,-49.73397,-113.5451,128.5649,-34.94925,202408291325597745,
2-11,C_HumanVertical,1,Q3FrontUp,-35.14906,29.46784,85.52603,-49.76114,-113.6319,128.3954,-34.97675,202408291325597918,
2-11,C_HumanVertical,1,Q3FrontUp,-35.22495,29.46699,85.6178,-49.77346,-113.6965,128.2515,-35.0098,202408291325598231,
2-11,C_HumanVertical,1,Q3FrontUp,-35.22495,29.46699,85.6178,-49.77346,-113.6965,128.2515,-35.0098,202408291325598405,
2-11,C_HumanVertical,1,Q3FrontUp,-35.27759,29.46642,85.68313,-49.78111,-113.7509,128.1317,-35.04584,202408291325598583,
2-11,C_HumanVertical,1,Q3FrontUp,-35.27759,29.46642,85.68313,-49.78111,-113.7509,128.1317,-35.04584,202408291325598833,
2-11,C_HumanVertical,1,Q3FrontUp,-35.31938,29.46618,85.73052,-49.78743,-113.8015,128.0352,-35.08294,202408291325599002,
2-11,C_HumanVertical,1,Q3FrontUp,-35.35654,29.46685,85.77395,-49.79752,-113.8496,127.943,-35.12038,202408291325599272,
2-11,C_HumanVertical,1,Q3FrontUp,-35.35654,29.46685,85.77395,-49.79752,-113.8496,127.943,-35.12038,202408291325599619,
2-11,C_HumanVertical,1,Q3FrontUp,-35.38585,29.46787,85.80464,-49.81192,-113.8896,127.8606,-35.15968,202408291325599800,
2-11,C_HumanVertical,1,Q3FrontUp,-35.41116,29.46802,85.82197,-49.83274,-113.9246,127.7804,-35.19981,202408291326000081,
2-11,C_HumanVertical,1,Q3FrontUp,-35.41116,29.46802,85.82197,-49.83274,-113.9246,127.7804,-35.19981,202408291326000252,
2-11,C_HumanVertical,1,Q3FrontUp,-35.42918,29.4679,85.82205,-49.85156,-113.9295,127.7354,-35.24642,202408291326000403,
2-11,C_HumanVertical,1,Q3FrontUp,-35.44765,29.46691,85.82065,-49.8708,-113.9311,127.7015,-35.28722,202408291326000633,
2-11,C_HumanVertical,1,Q3FrontUp,-35.46825,29.46671,85.8201,-49.89247,-113.9313,127.6753,-35.32552,202408291326000910,
2-11,C_HumanVertical,1,Q3FrontUp,-35.46825,29.46671,85.8201,-49.89247,-113.9313,127.6753,-35.32552,202408291326001065,
2-11,C_HumanVertical,1,Q3FrontUp,-35.49028,29.46666,85.81768,-49.91435,-113.9314,127.6533,-35.3699,202408291326001244,
2-11,C_HumanVertical,1,Q3FrontUp,-35.49028,29.46666,85.81768,-49.91435,-113.9314,127.6533,-35.3699,202408291326001448,
2-11,C_HumanVertical,1,Q3FrontUp,-35.51366,29.46644,85.80908,-49.93971,-113.9313,127.6356,-35.41521,202408291326001800,
2-11,C_HumanVertical,1,Q3FrontUp,-35.5404,29.46536,85.79507,-49.96817,-113.9313,127.6263,-35.46021,202408291326002012,
2-11,C_HumanVertical,1,Q3FrontUp,-35.5404,29.46536,85.79507,-49.96817,-113.9313,127.6263,-35.46021,202408291326002163,
2-11,C_HumanVertical,1,Q3FrontUp,-35.55542,29.46086,85.74148,-49.99086,-113.9311,127.6233,-35.50749,202408291326002404,
2-11,C_HumanVertical,1,Q3FrontUp,-35.57475,29.45744,85.69609,-50.01044,-113.9313,127.6216,-35.55351,202408291326002582,
2-11,C_HumanVertical,1,Q3FrontUp,-35.59814,29.45714,85.65699,-50.0311,-113.9312,127.6202,-35.59605,202408291326002903,
2-11,C_HumanVertical,1,Q3FrontUp,-35.63016,29.45388,85.60326,-50.05955,-113.9311,127.6202,-35.6447,202408291326003202,
2-11,C_HumanVertical,1,Q3FrontUp,-35.63016,29.45388,85.60326,-50.05955,-113.9311,127.6202,-35.6447,202408291326003402,
2-11,C_HumanVertical,1,Q3FrontUp,-35.66357,29.45478,85.56132,-50.08549,-113.9308,127.6201,-35.68468,202408291326003572,
2-11,C_HumanVertical,1,Q3FrontUp,-35.69654,29.45498,85.52576,-50.10667,-113.9306,127.6201,-35.72601,202408291326003848,
2-11,C_HumanVertical,1,Q3FrontUp,-35.69654,29.45498,85.52576,-50.10667,-113.9306,127.6201,-35.72601,202408291326004128,
2-11,C_HumanVertical,1,Q3FrontUp,-35.73082,29.45533,85.499,-50.11851,-113.9296,127.6199,-35.77565,202408291326004302,
2-11,C_HumanVertical,1,Q3FrontUp,-35.75384,29.45466,85.4664,-50.12381,-113.9274,127.62,-35.82275,202408291326004598,
2-11,C_HumanVertical,1,Q3FrontUp,-35.75384,29.45466,85.4664,-50.12381,-113.9274,127.62,-35.82275,202408291326004756,
2-11,C_HumanVertical,1,Q3FrontUp,-35.76807,29.45193,85.43044,-50.12733,-113.9214,127.6206,-35.87009,202408291326005111,
2-11,C_HumanVertical,1,Q3FrontUp,-35.77112,29.43179,85.3489,-50.12671,-113.8958,127.6206,-35.91246,202408291326005459,
2-11,C_HumanVertical,1,Q3FrontUp,-35.77112,29.43179,85.3489,-50.12671,-113.8958,127.6206,-35.91246,202408291326005591,
2-11,C_HumanVertical,1,Q3FrontUp,-35.77112,29.43179,85.3489,-50.12671,-113.8958,127.6206,-35.91246,202408291326005748,
2-11,C_HumanVertical,1,Q3FrontUp,-35.77112,29.43179,85.3489,-50.12671,-113.8958,127.6206,-35.91246,202408291326005902,
2-11,C_HumanVertical,1,Q3FrontUp,-35.77246,29.40567,85.2233,-50.12808,-113.8691,127.6219,-35.98864,202408291326006078,
2-11,C_HumanVertical,1,Q3FrontUp,-35.77248,29.37065,85.10877,-50.12913,-113.8177,127.6219,-36.02313,202408291326006252,
2-11,C_HumanVertical,1,Q3FrontUp,-35.77248,29.37065,85.10877,-50.12913,-113.8177,127.6219,-36.02313,202408291326006553,
2-11,C_HumanVertical,1,Q3FrontUp,-35.77356,29.30195,84.9287,-50.12854,-113.7182,127.6489,-36.06048,202408291326006801,
2-11,C_HumanVertical,1,Q3FrontUp,-35.77011,29.22081,84.70328,-50.12774,-113.6061,127.6842,-36.10371,202408291326006954,
2-11,C_HumanVertical,1,Q3FrontUp,-35.75026,29.11359,84.38345,-50.1167,-113.4117,127.7767,-36.14758,202408291326007234,
2-11,C_HumanVertical,1,Q3FrontUp,-35.75026,29.11359,84.38345,-50.1167,-113.4117,127.7767,-36.14758,202408291326007450,
2-11,C_HumanVertical,1,Q3FrontUp,-35.73116,28.95481,84.01401,-50.10444,-113.2287,127.8875,-36.19579,202408291326007608,
2-11,C_HumanVertical,1,Q3FrontUp,-35.72129,28.80496,83.6571,-50.10303,-113.0571,128.0155,-36.24382,202408291326007924,
2-11,C_HumanVertical,1,Q3FrontUp,-35.72129,28.80496,83.6571,-50.10303,-113.0571,128.0155,-36.24382,202408291326008077,
2-11,C_HumanVertical,1,Q3FrontUp,-35.71671,28.60577,83.1678,-50.10679,-112.8166,128.2202,-36.2864,202408291326008249,
2-11,C_HumanVertical,1,Q3FrontUp,-35.71671,28.60577,83.1678,-50.10679,-112.8166,128.2202,-36.2864,202408291326008423,
2-11,C_HumanVertical,1,Q3FrontUp,-35.67884,28.4037,82.64491,-50.08912,-112.5739,128.4257,-36.32294,202408291326008673,
2-11,C_HumanVertical,1,Q3FrontUp,-35.64854,28.20078,82.11708,-50.07657,-112.3387,128.6163,-36.36134,202408291326008917,
2-11,C_HumanVertical,1,Q3FrontUp,-35.64854,28.20078,82.11708,-50.07657,-112.3387,128.6163,-36.36134,202408291326009092,
2-11,C_HumanVertical,1,Q3FrontUp,-35.63682,28.01285,81.60986,-50.05866,-112.1148,128.8065,-36.39384,202408291326009283,
2-11,C_HumanVertical,1,Q3FrontUp,-35.63682,28.01285,81.60986,-50.05866,-112.1148,128.8065,-36.39384,202408291326009447,
2-11,C_HumanVertical,1,Q3FrontUp,-35.6081,27.84561,81.11443,-50.04068,-111.8992,129.0032,-36.41679,202408291326009759,
2-11,C_HumanVertical,1,Q3FrontUp,-35.58182,27.68507,80.64495,-50.02939,-111.686,129.1913,-36.43697,202408291326009971,
2-11,C_HumanVertical,1,Q3FrontUp,-35.58182,27.68507,80.64495,-50.02939,-111.686,129.1913,-36.43697,202408291326010138,
2-11,C_HumanVertical,1,Q3FrontUp,-35.54654,27.56224,80.188,-50.02288,-111.4046,129.3725,-36.46133,202408291326010402,
2-11,C_HumanVertical,1,Q3FrontUp,-35.50201,27.40598,79.74805,-50.01238,-111.0774,129.5297,-36.48056,202408291326010733,
2-11,C_HumanVertical,1,Q3FrontUp,-35.50201,27.40598,79.74805,-50.01238,-111.0774,129.5297,-36.48056,202408291326010912,
2-11,C_HumanVertical,1,Q3FrontUp,-35.43745,27.23592,79.30652,-50.00691,-110.7718,129.6755,-36.49597,202408291326011157,
2-11,C_HumanVertical,1,Q3FrontUp,-35.35263,27.074,78.90287,-50.01097,-110.4067,129.8492,-36.50568,202408291326011409,
2-11,C_HumanVertical,1,Q3FrontUp,-35.21105,26.87646,78.48469,-50.01345,-109.9701,130.0208,-36.5109,202408291326011616,
2-11,C_HumanVertical,1,Q3FrontUp,-35.21105,26.87646,78.48469,-50.01345,-109.9701,130.0208,-36.5109,202408291326011832,
2-11,C_HumanVertical,1,Q3FrontUp,-35.05806,26.64209,78.05771,-50.0174,-109.5448,130.1959,-36.51659,202408291326012153,
2-11,C_HumanVertical,1,Q3FrontUp,-34.89408,26.39305,77.70222,-50.02646,-109.1027,130.3737,-36.52166,202408291326012438,
2-11,C_HumanVertical,1,Q3FrontUp,-34.72054,26.14626,77.39606,-50.05447,-108.6592,130.5615,-36.53107,202408291326012587,
2-11,C_HumanVertical,1,Q3FrontUp,-34.5486,25.88267,77.14402,-50.08617,-108.2414,130.7805,-36.53815,202408291326012905,
2-11,C_HumanVertical,1,Q3FrontUp,-34.5486,25.88267,77.14402,-50.08617,-108.2414,130.7805,-36.53815,202408291326013072,
2-11,C_HumanVertical,1,Q3FrontUp,-34.41398,25.6277,77.00279,-50.12385,-107.8349,131.0052,-36.54839,202408291326013310,
2-11,C_HumanVertical,1,Q3FrontUp,-34.41398,25.6277,77.00279,-50.12385,-107.8349,131.0052,-36.54839,202408291326013451,
2-11,C_HumanVertical,1,Q3FrontUp,-34.24763,25.32912,76.88583,-50.17676,-107.3544,131.3005,-36.55588,202408291326013764,
2-11,C_HumanVertical,1,Q3FrontUp,-34.07634,25.01168,76.79336,-50.22784,-106.845,131.6432,-36.56661,202408291326013921,
2-11,C_HumanVertical,1,Q3FrontUp,-34.07634,25.01168,76.79336,-50.22784,-106.845,131.6432,-36.56661,202408291326014130,
2-11,C_HumanVertical,1,Q3FrontUp,-33.93615,24.70789,76.79166,-50.2977,-106.3729,132.0417,-36.58584,202408291326014327,
2-11,C_HumanVertical,1,Q3FrontUp,-33.76508,24.37545,76.79137,-50.37471,-105.9374,132.5456,-36.59291,202408291326014612,
2-11,C_HumanVertical,1,Q3FrontUp,-33.76508,24.37545,76.79137,-50.37471,-105.9374,132.5456,-36.59291,202408291326014897,
2-11,C_HumanVertical,1,Q3FrontUp,-33.40707,23.61048,76.78072,-50.61032,-105.154,133.7529,-36.59327,202408291326015217,
2-11,C_HumanVertical,1,Q3FrontUp,-33.40707,23.61048,76.78072,-50.61032,-105.154,133.7529,-36.59327,202408291326015458,
2-11,C_HumanVertical,1,Q3FrontUp,-33.19061,23.19103,76.78029,-50.76105,-104.7808,134.359,-36.59305,202408291326015732,
2-11,C_HumanVertical,1,Q3FrontUp,-32.93934,22.79003,76.77511,-50.90001,-104.4211,134.9528,-36.59272,202408291326015900,
2-11,C_HumanVertical,1,Q3FrontUp,-32.93934,22.79003,76.77511,-50.90001,-104.4211,134.9528,-36.59272,202408291326016063,
2-11,C_HumanVertical,1,Q3FrontUp,-32.93934,22.79003,76.77511,-50.90001,-104.4211,134.9528,-36.59272,202408291326016238,
2-11,C_HumanVertical,1,Q3FrontUp,-32.64992,22.35129,76.71658,-51.02244,-104.1032,135.6183,-36.59267,202408291326016472,
2-11,C_HumanVertical,1,Q3FrontUp,-32.33488,21.92974,76.60677,-51.145,-103.8118,136.3154,-36.59695,202408291326016660,
2-11,C_HumanVertical,1,Q3FrontUp,-32.33488,21.92974,76.60677,-51.145,-103.8118,136.3154,-36.59695,202408291326016928,
2-11,C_HumanVertical,1,Q3FrontUp,-32.01713,21.52044,76.49522,-51.2902,-103.5394,137.0065,-36.61002,202408291326017099,
2-11,C_HumanVertical,1,Q3FrontUp,-31.66071,21.06358,76.28531,-51.467,-103.2618,137.7376,-36.64119,202408291326017420,
2-11,C_HumanVertical,1,Q3FrontUp,-31.27439,20.61086,76.10642,-51.66373,-103.0189,138.4478,-36.66897,202408291326017616,
2-11,C_HumanVertical,1,Q3FrontUp,-30.8676,20.1811,75.90001,-51.85313,-102.794,139.1077,-36.71311,202408291326017905,
2-11,C_HumanVertical,1,Q3FrontUp,-30.8676,20.1811,75.90001,-51.85313,-102.794,139.1077,-36.71311,202408291326018073,
2-11,C_HumanVertical,1,Q3FrontUp,-30.33593,19.72014,75.33704,-52.05911,-102.6304,139.9752,-36.8679,202408291326018320,
2-11,C_HumanVertical,1,Q3FrontUp,-29.79475,19.22169,74.76009,-52.33033,-102.5326,140.8727,-36.99414,202408291326018666,
2-11,C_HumanVertical,1,Q3FrontUp,-29.29556,18.7594,74.17371,-52.6246,-102.4801,141.7429,-37.10545,202408291326018946,
2-11,C_HumanVertical,1,Q3FrontUp,-29.29556,18.7594,74.17371,-52.6246,-102.4801,141.7429,-37.10545,202408291326019118,
2-11,C_HumanVertical,1,Q3FrontUp,-28.78445,18.33875,73.64573,-52.94683,-102.426,142.5756,-37.2079,202408291326019296,
2-11,C_HumanVertical,1,Q3FrontUp,-28.37907,17.95899,73.23691,-53.30381,-102.4131,143.3023,-37.24668,202408291326019642,
2-11,C_HumanVertical,1,Q3FrontUp,-28.06096,17.61897,72.86462,-53.69395,-102.411,143.9696,-37.25956,202408291326019942,
2-11,C_HumanVertical,1,Q3FrontUp,-28.06096,17.61897,72.86462,-53.69395,-102.411,143.9696,-37.25956,202408291326020237,
2-11,C_HumanVertical,1,Q3FrontUp,-28.06096,17.61897,72.86462,-53.69395,-102.411,143.9696,-37.25956,202408291326020396,
2-11,C_HumanVertical,1,Q3FrontUp,-27.55168,16.9914,72.21316,-54.52249,-102.3961,145.1596,-37.49269,202408291326020556,
2-11,C_HumanVertical,1,Q3FrontUp,-27.55168,16.9914,72.21316,-54.52249,-102.3961,145.1596,-37.49269,202408291326020748,
2-11,C_HumanVertical,1,Q3FrontUp,-27.38191,16.70122,71.93749,-54.92158,-102.406,145.7456,-37.64109,202408291326020974,
2-11,C_HumanVertical,1,Q3FrontUp,-27.26195,16.44534,71.73067,-55.39293,-102.4521,146.3723,-37.82003,202408291326021239,
2-11,C_HumanVertical,1,Q3FrontUp,-27.26195,16.44534,71.73067,-55.39293,-102.4521,146.3723,-37.82003,202408291326021509,
2-11,C_HumanVertical,1,Q3FrontUp,-27.13782,16.23503,71.52626,-55.79446,-102.4806,146.9204,-37.97404,202408291326021770,
2-11,C_HumanVertical,1,Q3FrontUp,-27.04728,16.04342,71.31601,-56.17294,-102.5053,147.442,-38.12472,202408291326021917,
2-11,C_HumanVertical,1,Q3FrontUp,-27.04728,16.04342,71.31601,-56.17294,-102.5053,147.442,-38.12472,202408291326022156,
2-11,C_HumanVertical,1,Q3FrontUp,-26.96128,15.83418,71.01309,-56.56503,-102.6905,147.9574,-38.30529,202408291326022475,
2-11,C_HumanVertical,1,Q3FrontUp,-26.9059,15.66171,70.70142,-56.93062,-102.8513,148.4516,-38.47422,202408291326022760,
2-11,C_HumanVertical,1,Q3FrontUp,-26.86455,15.53628,70.43203,-57.26154,-102.9962,148.8714,-38.64462,202408291326022960,
2-11,C_HumanVertical,1,Q3FrontUp,-26.8711,15.43795,70.17226,-57.57216,-103.1785,149.2783,-38.8498,202408291326023245,
2-11,C_HumanVertical,1,Q3FrontUp,-26.8711,15.43795,70.17226,-57.57216,-103.1785,149.2783,-38.8498,202408291326023394,
2-11,C_HumanVertical,1,Q3FrontUp,-26.86889,15.37067,69.88051,-57.83976,-103.3194,149.6713,-39.03745,202408291326023581,
2-11,C_HumanVertical,1,Q3FrontUp,-26.86889,15.37067,69.88051,-57.83976,-103.3194,149.6713,-39.03745,202408291326023748,
2-11,C_HumanVertical,1,Q3FrontUp,-26.8727,15.33573,69.58803,-58.11131,-103.4515,150.0027,-39.21799,202408291326023908,
2-11,C_HumanVertical,1,Q3FrontUp,-26.8727,15.33573,69.58803,-58.11131,-103.4515,150.0027,-39.21799,202408291326024127,
2-11,C_HumanVertical,1,Q3FrontUp,-26.87382,15.29749,69.2924,-58.37725,-103.6225,150.3224,-39.42445,202408291326024356,
2-11,C_HumanVertical,1,Q3FrontUp,-26.83235,15.25385,68.9849,-58.61856,-103.7564,150.616,-39.63796,202408291326024618,
2-11,C_HumanVertical,1,Q3FrontUp,-26.78351,15.23804,68.68732,-58.86002,-103.8831,150.8317,-39.83901,202408291326024913,
2-11,C_HumanVertical,1,Q3FrontUp,-26.78351,15.23804,68.68732,-58.86002,-103.8831,150.8317,-39.83901,202408291326025086,
2-11,C_HumanVertical,1,Q3FrontUp,-26.72497,15.21656,68.40056,-59.10747,-104.0055,151.0368,-40.03408,202408291326025446,
2-11,C_HumanVertical,1,Q3FrontUp,-26.68934,15.20037,68.16125,-59.34396,-104.1556,151.2127,-40.21478,202408291326025749,
2-11,C_HumanVertical,1,Q3FrontUp,-26.66729,15.18667,67.9576,-59.57512,-104.3013,151.371,-40.37656,202408291326025924,
2-11,C_HumanVertical,1,Q3FrontUp,-26.66729,15.18667,67.9576,-59.57512,-104.3013,151.371,-40.37656,202408291326026162,
2-11,C_HumanVertical,1,Q3FrontUp,-26.6376,15.14872,67.69009,-59.81921,-104.4579,151.5228,-40.51997,202408291326026495,
2-11,C_HumanVertical,1,Q3FrontUp,-26.51231,15.12368,67.32037,-60.00521,-104.5696,151.6589,-40.66269,202408291326026780,
2-11,C_HumanVertical,1,Q3FrontUp,-26.33996,15.10992,66.88591,-60.14511,-104.678,151.7503,-40.79684,202408291326026936,
2-11,C_HumanVertical,1,Q3FrontUp,-26.25246,15.10686,66.54558,-60.29676,-104.8179,151.8174,-40.8959,202408291326027274,
2-11,C_HumanVertical,1,Q3FrontUp,-26.25246,15.10686,66.54558,-60.29676,-104.8179,151.8174,-40.8959,202408291326027471,
2-11,C_HumanVertical,1,Q3FrontUp,-26.18579,15.10787,66.22416,-60.47197,-104.8953,151.8589,-40.98813,202408291326027633,
2-11,C_HumanVertical,1,Q3FrontUp,-26.13968,15.10824,65.92124,-60.67661,-104.9537,151.8856,-41.08263,202408291326027910,
2-11,C_HumanVertical,1,Q3FrontUp,-26.13968,15.10824,65.92124,-60.67661,-104.9537,151.8856,-41.08263,202408291326028063,
2-11,C_HumanVertical,1,Q3FrontUp,-26.1039,15.10947,65.62612,-60.85593,-104.999,151.9008,-41.15195,202408291326028241,
2-11,C_HumanVertical,1,Q3FrontUp,-26.1039,15.10947,65.62612,-60.85593,-104.999,151.9008,-41.15195,202408291326028420,
2-11,C_HumanVertical,1,Q3FrontUp,-26.08699,15.10898,65.35191,-61.05738,-105.0228,151.9033,-41.19533,202408291326028648,
2-11,C_HumanVertical,1,Q3FrontUp,-26.08699,15.10898,65.35191,-61.05738,-105.0228,151.9033,-41.19533,202408291326028919,
2-11,C_HumanVertical,1,Q3FrontUp,-26.09038,15.11198,65.11565,-61.28899,-105.0355,151.9021,-41.22837,202408291326029077,
2-11,C_HumanVertical,1,Q3FrontUp,-26.11523,15.12894,64.94411,-61.52139,-105.0449,151.9015,-41.24371,202408291326029328,
2-11,C_HumanVertical,1,Q3FrontUp,-26.13284,15.14463,64.7621,-61.76398,-105.0487,151.8994,-41.24792,202408291326029662,
2-11,C_HumanVertical,1,Q3FrontUp,-26.15634,15.14852,64.6039,-62.0175,-105.0482,151.8962,-41.24764,202408291326029919,
2-11,C_HumanVertical,1,Q3FrontUp,-26.15634,15.14852,64.6039,-62.0175,-105.0482,151.8962,-41.24764,202408291326030095,
2-11,C_HumanVertical,1,Q3FrontUp,-26.19237,15.16026,64.4882,-62.28109,-105.0482,151.8924,-41.24804,202408291326030401,
2-11,C_HumanVertical,1,Q3FrontUp,-26.21742,15.17075,64.38669,-62.52987,-105.048,151.8902,-41.24787,202408291326030571,
2-11,C_HumanVertical,1,Q3FrontUp,-26.21742,15.17075,64.38669,-62.52987,-105.048,151.8902,-41.24787,202408291326030827,
2-11,C_HumanVertical,1,Q3FrontUp,-26.24413,15.17738,64.31187,-62.77831,-105.046,151.884,-41.24797,202408291326030955,
2-11,C_HumanVertical,1,Q3FrontUp,-26.27901,15.20748,64.31024,-63.02522,-105.0428,151.8597,-41.24756,202408291326031248,
2-11,C_HumanVertical,1,Q3FrontUp,-26.27901,15.20748,64.31024,-63.02522,-105.0428,151.8597,-41.24756,202408291326031451,
2-11,C_HumanVertical,1,Q3FrontUp,-26.29869,15.24135,64.30148,-63.26981,-105.0308,151.8523,-41.24582,202408291326031653,
2-11,C_HumanVertical,1,Q3FrontUp,-26.29869,15.24135,64.30148,-63.26981,-105.0308,151.8523,-41.24582,202408291326031805,
2-11,C_HumanVertical,1,Q3FrontUp,-26.32282,15.25083,64.28789,-63.52099,-105.0186,151.8487,-41.24492,202408291326032072,
2-11,C_HumanVertical,1,Q3FrontUp,-26.3202,15.25611,64.26254,-63.75327,-105.003,151.8349,-41.24343,202408291326032253,
2-11,C_HumanVertical,1,Q3FrontUp,-26.3202,15.25611,64.26254,-63.75327,-105.003,151.8349,-41.24343,202408291326032455,
2-11,C_HumanVertical,1,Q3FrontUp,-26.3012,15.27023,64.23958,-63.96168,-104.9941,151.8152,-41.24257,202408291326032642,
2-11,C_HumanVertical,1,Q3FrontUp,-26.27738,15.2792,64.22287,-64.15662,-104.9808,151.7994,-41.24181,202408291326032920,
2-11,C_HumanVertical,1,Q3FrontUp,-26.25252,15.29438,64.21127,-64.35482,-104.9688,151.7902,-41.24168,202408291326033246,
2-11,C_HumanVertical,1,Q3FrontUp,-26.25252,15.29438,64.21127,-64.35482,-104.9688,151.7902,-41.24168,202408291326033415,
2-11,C_HumanVertical,1,Q3FrontUp,-26.1661,15.31423,64.14967,-64.51066,-104.9238,151.7867,-41.24158,202408291326033585,
2-11,C_HumanVertical,1,Q3FrontUp,-26.1661,15.31423,64.14967,-64.51066,-104.9238,151.7867,-41.24158,202408291326033759,
2-11,C_HumanVertical,1,Q3FrontUp,-26.06053,15.32924,64.08343,-64.62629,-104.8689,151.7843,-41.24199,202408291326034002,
2-11,C_HumanVertical,1,Q3FrontUp,-26.06053,15.32924,64.08343,-64.62629,-104.8689,151.7843,-41.24199,202408291326034153,
2-11,C_HumanVertical,1,Q3FrontUp,-25.99178,15.36743,64.08216,-64.73229,-104.8521,151.785,-41.24182,202408291326034441,
2-11,C_HumanVertical,1,Q3FrontUp,-25.92622,15.405,64.07842,-64.82821,-104.8355,151.7853,-41.24186,202408291326034776,
2-11,C_HumanVertical,1,Q3FrontUp,-25.92622,15.405,64.07842,-64.82821,-104.8355,151.7853,-41.24186,202408291326034951,
2-11,C_HumanVertical,1,Q3FrontUp,-25.85273,15.45234,64.07247,-65.04488,-104.8197,151.7845,-41.24142,202408291326035244,
2-11,C_HumanVertical,1,Q3FrontUp,-25.85273,15.45234,64.07247,-65.04488,-104.8197,151.7845,-41.24142,202408291326035559,
2-11,C_HumanVertical,1,Q3FrontUp,-25.83506,15.47778,64.06933,-65.14635,-104.8176,151.7852,-41.24147,202408291326035781,
2-11,C_HumanVertical,1,Q3FrontUp,-25.80794,15.52276,64.06796,-65.23933,-104.8146,151.7855,-41.24158,202408291326035961,
2-11,C_HumanVertical,1,Q3FrontUp,-25.78905,15.583,64.06559,-65.30595,-104.8088,151.7856,-41.24154,202408291326036249,
2-11,C_HumanVertical,1,Q3FrontUp,-25.78905,15.583,64.06559,-65.30595,-104.8088,151.7856,-41.24154,202408291326036448,
2-11,C_HumanVertical,1,Q3FrontUp,-25.78516,15.66019,64.06498,-65.37548,-104.807,151.7911,-41.24208,202408291326036617,
2-11,C_HumanVertical,1,Q3FrontUp,-25.79168,15.72318,64.06416,-65.46042,-104.8096,151.7949,-41.24174,202408291326036955,
2-11,C_HumanVertical,1,Q3FrontUp,-25.79168,15.72318,64.06416,-65.46042,-104.8096,151.7949,-41.24174,202408291326037145,
2-11,C_HumanVertical,1,Q3FrontUp,-25.82073,15.78941,64.06246,-65.58394,-104.8221,151.7947,-41.24201,202408291326037324,
2-11,C_HumanVertical,1,Q3FrontUp,-25.82073,15.78941,64.06246,-65.58394,-104.8221,151.7947,-41.24201,202408291326037556,
2-11,C_HumanVertical,1,Q3FrontUp,-25.87285,15.85613,64.06411,-65.71558,-104.8605,151.7959,-41.24274,202408291326037742,
2-11,C_HumanVertical,1,Q3FrontUp,-25.93538,15.93133,64.06463,-65.87947,-104.9037,151.7983,-41.24275,202408291326038056,
2-11,C_HumanVertical,1,Q3FrontUp,-26.00203,16.00184,64.06288,-66.02756,-104.9516,151.7983,-41.24317,202408291326038281,
2-11,C_HumanVertical,1,Q3FrontUp,-26.09049,16.08688,64.06067,-66.18519,-105.0082,151.7991,-41.2451,202408291326038579,
2-11,C_HumanVertical,1,Q3FrontUp,-26.09049,16.08688,64.06067,-66.18519,-105.0082,151.7991,-41.2451,202408291326038745,
2-11,C_HumanVertical,1,Q3FrontUp,-26.09049,16.08688,64.06067,-66.18519,-105.0082,151.7991,-41.2451,202408291326039038,
2-11,C_HumanVertical,1,Q3FrontUp,-26.33792,16.23792,64.063,-66.59524,-105.1285,151.8017,-41.26107,202408291326039285,
2-11,C_HumanVertical,1,Q3FrontUp,-26.33792,16.23792,64.063,-66.59524,-105.1285,151.8017,-41.26107,202408291326039539,
2-11,C_HumanVertical,1,Q3FrontUp,-26.51539,16.30034,64.0842,-66.81821,-105.2571,151.8012,-41.2818,202408291326039747,
2-11,C_HumanVertical,1,Q3FrontUp,-26.72801,16.36962,64.11185,-67.06348,-105.4149,151.8005,-41.30634,202408291326039927,
2-11,C_HumanVertical,1,Q3FrontUp,-26.72801,16.36962,64.11185,-67.06348,-105.4149,151.8005,-41.30634,202408291326040271,
2-11,C_HumanVertical,1,Q3FrontUp,-26.93118,16.45069,64.11603,-67.29054,-105.5513,151.8006,-41.32759,202408291326040515,
2-11,C_HumanVertical,1,Q3FrontUp,-27.14036,16.53396,64.11347,-67.51617,-105.6484,151.8005,-41.3643,202408291326040793,
2-11,C_HumanVertical,1,Q3FrontUp,-27.35911,16.62307,64.11517,-67.74196,-105.7377,151.7993,-41.40251,202408291326041073,
2-11,C_HumanVertical,1,Q3FrontUp,-27.61689,16.68108,64.11398,-68.01151,-105.844,151.7971,-41.45745,202408291326041235,
2-11,C_HumanVertical,1,Q3FrontUp,-27.61689,16.68108,64.11398,-68.01151,-105.844,151.7971,-41.45745,202408291326041409,
2-11,C_HumanVertical,1,Q3FrontUp,-27.87389,16.73384,64.11282,-68.28151,-105.9647,151.7881,-41.52466,202408291326041611,
2-11,C_HumanVertical,1,Q3FrontUp,-28.14662,16.77992,64.11729,-68.55416,-106.1087,151.7795,-41.58627,202408291326041841,
2-11,C_HumanVertical,1,Q3FrontUp,-28.14662,16.77992,64.11729,-68.55416,-106.1087,151.7795,-41.58627,202408291326042081,
2-11,C_HumanVertical,1,Q3FrontUp,-28.14662,16.77992,64.11729,-68.55416,-106.1087,151.7795,-41.58627,202408291326042259,
2-11,C_HumanVertical,1,Q3FrontUp,-28.78874,16.85645,64.12679,-69.14035,-106.4526,151.778,-41.70461,202408291326042603,
2-11,C_HumanVertical,1,Q3FrontUp,-28.78874,16.85645,64.12679,-69.14035,-106.4526,151.778,-41.70461,202408291326042792,
2-11,C_HumanVertical,1,Q3FrontUp,-29.08306,16.93482,64.1293,-69.41818,-106.5959,151.7741,-41.75832,202408291326043075,
2-11,C_HumanVertical,1,Q3FrontUp,-29.39607,16.98546,64.12723,-69.71111,-106.723,151.7326,-41.80782,202408291326043238,
2-11,C_HumanVertical,1,Q3FrontUp,-29.39607,16.98546,64.12723,-69.71111,-106.723,151.7326,-41.80782,202408291326043438,
2-11,C_HumanVertical,1,Q3FrontUp,-29.70882,17.05762,64.12801,-70.01089,-106.8614,151.7016,-41.86378,202408291326043707,
2-11,C_HumanVertical,1,Q3FrontUp,-30.03374,17.14598,64.12843,-70.32408,-107.0007,151.6656,-41.92396,202408291326044129,
2-11,C_HumanVertical,1,Q3FrontUp,-30.34897,17.24143,64.13058,-70.6263,-107.1808,151.6188,-41.99317,202408291326044425,
2-11,C_HumanVertical,1,Q3FrontUp,-30.65664,17.348,64.13151,-70.93052,-107.37,151.5754,-42.05209,202408291326044613,
2-11,C_HumanVertical,1,Q3FrontUp,-30.94055,17.46809,64.12896,-71.21664,-107.5346,151.522,-42.10899,202408291326044954,
2-11,C_HumanVertical,1,Q3FrontUp,-31.21313,17.60014,64.12122,-71.479,-107.6893,151.479,-42.18444,202408291326045214,
2-11,C_HumanVertical,1,Q3FrontUp,-31.21313,17.60014,64.12122,-71.479,-107.6893,151.479,-42.18444,202408291326045407,
2-11,C_HumanVertical,1,Q3FrontUp,-31.46035,17.74552,64.08898,-71.7355,-107.8268,151.4168,-42.24448,202408291326045572,
2-11,C_HumanVertical,1,Q3FrontUp,-31.46035,17.74552,64.08898,-71.7355,-107.8268,151.4168,-42.24448,202408291326045735,
2-11,C_HumanVertical,1,Q3FrontUp,-31.46035,17.74552,64.08898,-71.7355,-107.8268,151.4168,-42.24448,202408291326045906,
2-11,C_HumanVertical,1,Q3FrontUp,-31.66535,17.87075,64.05126,-71.95699,-107.9564,151.3464,-42.3029,202408291326046123,
2-11,C_HumanVertical,1,Q3FrontUp,-31.83165,18.01937,63.99026,-72.18085,-108.0692,151.3109,-42.3861,202408291326046408,
2-11,C_HumanVertical,1,Q3FrontUp,-31.99361,18.14836,63.93539,-72.4066,-108.1777,151.2686,-42.46897,202408291326046599,
2-11,C_HumanVertical,1,Q3FrontUp,-31.99361,18.14836,63.93539,-72.4066,-108.1777,151.2686,-42.46897,202408291326046824,
2-11,C_HumanVertical,1,Q3FrontUp,-32.1446,18.26742,63.87758,-72.63892,-108.2949,151.2285,-42.55448,202408291326047153,
2-11,C_HumanVertical,1,Q3FrontUp,-32.2725,18.38594,63.81964,-72.84356,-108.4166,151.1881,-42.63646,202408291326047411,
2-11,C_HumanVertical,1,Q3FrontUp,-32.39755,18.50085,63.7851,-73.03648,-108.5213,151.1546,-42.71122,202408291326047593,
2-11,C_HumanVertical,1,Q3FrontUp,-32.39755,18.50085,63.7851,-73.03648,-108.5213,151.1546,-42.71122,202408291326047906,
2-11,C_HumanVertical,1,Q3FrontUp,-32.51134,18.60196,63.75796,-73.23115,-108.6154,151.135,-42.7796,202408291326048079,
2-11,C_HumanVertical,1,Q3FrontUp,-32.51134,18.60196,63.75796,-73.23115,-108.6154,151.135,-42.7796,202408291326048303,
2-11,C_HumanVertical,1,Q3FrontUp,-32.6801,18.8226,63.66207,-73.63457,-108.7741,151.1167,-42.89706,202408291326048594,
2-11,C_HumanVertical,1,Q3FrontUp,-32.6801,18.8226,63.66207,-73.63457,-108.7741,151.1167,-42.89706,202408291326048749,
2-11,C_HumanVertical,1,Q3FrontUp,-32.74423,18.92685,63.60593,-73.83499,-108.8398,151.0772,-42.94936,202408291326048948,
2-11,C_HumanVertical,1,Q3FrontUp,-32.74423,18.92685,63.60593,-73.83499,-108.8398,151.0772,-42.94936,202408291326049134,
2-11,C_HumanVertical,1,Q3FrontUp,-32.80727,19.00971,63.54548,-74.03994,-108.8807,151.0496,-42.99693,202408291326049329,
2-11,C_HumanVertical,1,Q3FrontUp,-32.86499,19.08752,63.4741,-74.25037,-108.9181,151.0297,-43.04302,202408291326049601,
2-11,C_HumanVertical,1,Q3FrontUp,-32.89121,19.16772,63.38644,-74.44555,-108.9406,151.0119,-43.08543,202408291326049817,
2-11,C_HumanVertical,1,Q3FrontUp,-32.89121,19.16772,63.38644,-74.44555,-108.9406,151.0119,-43.08543,202408291326050073,
2-11,C_HumanVertical,1,Q3FrontUp,-32.86485,19.22184,63.20631,-74.63938,-108.9425,150.9923,-43.11242,202408291326050437,
2-11,C_HumanVertical,1,Q3FrontUp,-32.79371,19.28279,62.96209,-74.83076,-108.9512,150.9815,-43.14434,202408291326050734,
2-11,C_HumanVertical,1,Q3FrontUp,-32.70628,19.37918,62.71445,-74.99261,-108.9593,150.9811,-43.17748,202408291326050909,
2-11,C_HumanVertical,1,Q3FrontUp,-32.70628,19.37918,62.71445,-74.99261,-108.9593,150.9811,-43.17748,202408291326051083,
2-11,C_HumanVertical,1,Q3FrontUp,-32.62905,19.48794,62.48,-75.11493,-108.967,150.9805,-43.21019,202408291326051309,
2-11,C_HumanVertical,1,Q3FrontUp,-32.62905,19.48794,62.48,-75.11493,-108.967,150.9805,-43.21019,202408291326051474,
2-11,C_HumanVertical,1,Q3FrontUp,-32.54189,19.62314,62.22857,-75.22124,-108.9707,150.9797,-43.24648,202408291326051818,
2-11,C_HumanVertical,1,Q3FrontUp,-32.44828,19.78008,61.98177,-75.31873,-108.9715,150.9798,-43.29076,202408291326052095,
2-11,C_HumanVertical,1,Q3FrontUp,-32.30459,19.9509,61.6873,-75.39737,-108.9712,150.975,-43.3361,202408291326052425,
2-11,C_HumanVertical,1,Q3FrontUp,-32.19696,20.09335,61.44269,-75.4694,-108.9711,150.9552,-43.37851,202408291326052716,
2-11,C_HumanVertical,1,Q3FrontUp,-32.19696,20.09335,61.44269,-75.4694,-108.9711,150.9552,-43.37851,202408291326052901,
2-11,C_HumanVertical,1,Q3FrontUp,-32.11462,20.27582,61.24934,-75.54308,-108.9745,150.9256,-43.41833,202408291326053127,
2-11,C_HumanVertical,1,Q3FrontUp,-32.09807,20.53646,61.21841,-75.5975,-108.9878,150.8472,-43.45187,202408291326053422,
2-11,C_HumanVertical,1,Q3FrontUp,-32.09213,20.79281,61.18454,-75.63854,-109.0017,150.7824,-43.48309,202408291326053710,
2-11,C_HumanVertical,1,Q3FrontUp,-32.09428,21.05401,61.15067,-75.66422,-109.0124,150.7211,-43.51141,202408291326053925,
2-11,C_HumanVertical,1,Q3FrontUp,-32.09428,21.05401,61.15067,-75.66422,-109.0124,150.7211,-43.51141,202408291326054272,
2-11,C_HumanVertical,1,Q3FrontUp,-32.08972,21.32428,61.15008,-75.65968,-109.0204,150.6402,-43.53613,202408291326054410,
2-11,C_HumanVertical,1,Q3FrontUp,-32.0878,21.61902,61.17509,-75.6411,-109.0313,150.5796,-43.55652,202408291326054695,
2-11,C_HumanVertical,1,Q3FrontUp,-32.09251,21.91949,61.22759,-75.60054,-109.0386,150.5394,-43.57465,202408291326054958,
2-11,C_HumanVertical,1,Q3FrontUp,-32.09227,22.24689,61.32701,-75.5394,-109.0372,150.5075,-43.61787,202408291326055232,
2-11,C_HumanVertical,1,Q3FrontUp,-32.09227,22.24689,61.32701,-75.5394,-109.0372,150.5075,-43.61787,202408291326055427,
2-11,C_HumanVertical,1,Q3FrontUp,-32.0876,22.55721,61.41336,-75.48653,-109.0367,150.4881,-43.65648,202408291326055742,
2-11,C_HumanVertical,1,Q3FrontUp,-32.08774,22.85064,61.49918,-75.43649,-109.0388,150.4663,-43.69723,202408291326055956,
2-11,C_HumanVertical,1,Q3FrontUp,-32.08774,22.85064,61.49918,-75.43649,-109.0388,150.4663,-43.69723,202408291326056130,
2-11,C_HumanVertical,1,Q3FrontUp,-32.08775,23.23315,61.72004,-75.30618,-109.0366,150.447,-43.7471,202408291326056403,
2-11,C_HumanVertical,1,Q3FrontUp,-32.08747,23.57152,61.94579,-75.15019,-109.0365,150.4429,-43.79403,202408291326056605,
2-11,C_HumanVertical,1,Q3FrontUp,-32.0898,23.88786,62.17661,-74.97871,-109.0375,150.4386,-43.83264,202408291326056975,
2-11,C_HumanVertical,1,Q3FrontUp,-32.09666,24.24488,62.48993,-74.79628,-109.0366,150.4191,-43.85922,202408291326057260,
2-11,C_HumanVertical,1,Q3FrontUp,-32.09666,24.24488,62.48993,-74.79628,-109.0366,150.4191,-43.85922,202408291326057429,
2-11,C_HumanVertical,1,Q3FrontUp,-32.13581,24.58326,62.8911,-74.64364,-109.0367,150.387,-43.89096,202408291326057778,
2-11,C_HumanVertical,1,Q3FrontUp,-32.18385,24.9305,63.33933,-74.45429,-109.0348,150.3668,-43.92041,202408291326057953,
2-11,C_HumanVertical,1,Q3FrontUp,-32.25385,25.27919,63.94528,-74.24908,-109.0222,150.346,-43.96963,202408291326058224,
2-11,C_HumanVertical,1,Q3FrontUp,-32.25385,25.27919,63.94528,-74.24908,-109.0222,150.346,-43.96963,202408291326058384,
2-11,C_HumanVertical,1,Q3FrontUp,-32.28514,25.59675,64.50372,-74.06396,-109.0126,150.3327,-44.01921,202408291326058567,
2-11,C_HumanVertical,1,Q3FrontUp,-32.28514,25.59675,64.50372,-74.06396,-109.0126,150.3327,-44.01921,202408291326058736,
2-11,C_HumanVertical,1,Q3FrontUp,-32.30394,25.86307,65.02744,-73.89531,-109.0074,150.3202,-44.06263,202408291326058900,
2-11,C_HumanVertical,1,Q3FrontUp,-32.30394,25.86307,65.02744,-73.89531,-109.0074,150.3202,-44.06263,202408291326059161,
2-11,C_HumanVertical,1,Q3FrontUp,-32.31315,26.14218,65.65643,-73.70784,-109.0059,150.2486,-44.09716,202408291326059439,
2-11,C_HumanVertical,1,Q3FrontUp,-32.30719,26.37077,66.23494,-73.51683,-109.0044,150.1927,-44.13263,202408291326059594,
2-11,C_HumanVertical,1,Q3FrontUp,-32.30719,26.37077,66.23494,-73.51683,-109.0044,150.1927,-44.13263,202408291326059761,
2-11,C_HumanVertical,1,Q3FrontUp,-32.29927,26.55685,66.80053,-73.34657,-109.0031,150.1487,-44.16648,202408291326059940,
2-11,C_HumanVertical,1,Q3FrontUp,-32.29927,26.55685,66.80053,-73.34657,-109.0031,150.1487,-44.16648,202408291326060115,
2-11,C_HumanVertical,1,Q3FrontUp,-32.29346,26.72443,67.35292,-73.20924,-108.9989,150.1026,-44.21547,202408291326060414,
2-11,C_HumanVertical,1,Q3FrontUp,-32.28192,26.90798,67.91756,-73.07245,-108.9974,150.0694,-44.24017,202408291326060557,
2-11,C_HumanVertical,1,Q3FrontUp,-32.28192,26.90798,67.91756,-73.07245,-108.9974,150.0694,-44.24017,202408291326060741,
2-11,C_HumanVertical,1,Q3FrontUp,-32.28192,26.90798,67.91756,-73.07245,-108.9974,150.0694,-44.24017,202408291326060994,
2-11,C_HumanVertical,1,Q3FrontUp,-32.26611,27.24112,69.15365,-72.76354,-108.9109,149.9884,-44.26421,202408291326061249,
2-11,C_HumanVertical,1,Q3FrontUp,-32.26611,27.24112,69.15365,-72.76354,-108.9109,149.9884,-44.26421,202408291326061444,
2-11,C_HumanVertical,1,Q3FrontUp,-32.25348,27.38811,69.78832,-72.6334,-108.8821,149.9075,-44.27576,202408291326061573,
2-11,C_HumanVertical,1,Q3FrontUp,-32.25348,27.38811,69.78832,-72.6334,-108.8821,149.9075,-44.27576,202408291326061744,
2-11,C_HumanVertical,1,Q3FrontUp,-32.2357,27.53665,70.42593,-72.52722,-108.8628,149.836,-44.28236,202408291326062116,
2-11,C_HumanVertical,1,Q3FrontUp,-32.20587,27.66276,71.01243,-72.44363,-108.851,149.787,-44.29011,202408291326062326,
2-11,C_HumanVertical,1,Q3FrontUp,-32.19735,27.77045,71.64547,-72.35838,-108.8481,149.721,-44.29604,202408291326062574,
2-11,C_HumanVertical,1,Q3FrontUp,-32.19735,27.77045,71.64547,-72.35838,-108.8481,149.721,-44.29604,202408291326062749,
2-11,C_HumanVertical,1,Q3FrontUp,-32.19507,27.8738,72.23348,-72.27737,-108.8478,149.6299,-44.2989,202408291326063074,
2-11,C_HumanVertical,1,Q3FrontUp,-32.19741,28.00392,72.8637,-72.20871,-108.8453,149.5445,-44.3019,202408291326063262,
2-11,C_HumanVertical,1,Q3FrontUp,-32.19741,28.00392,72.8637,-72.20871,-108.8453,149.5445,-44.3019,202408291326063510,
2-11,C_HumanVertical,1,Q3FrontUp,-32.23464,28.11573,73.45947,-72.14135,-108.837,149.4623,-44.30338,202408291326063762,
2-11,C_HumanVertical,1,Q3FrontUp,-32.27807,28.25981,74.09723,-72.06007,-108.8206,149.3731,-44.3039,202408291326063933,
2-11,C_HumanVertical,1,Q3FrontUp,-32.27807,28.25981,74.09723,-72.06007,-108.8206,149.3731,-44.3039,202408291326064254,
2-11,C_HumanVertical,1,Q3FrontUp,-32.44381,28.54313,75.44459,-71.90028,-108.7715,149.2063,-44.31454,202408291326064600,
2-11,C_HumanVertical,1,Q3FrontUp,-32.44381,28.54313,75.44459,-71.90028,-108.7715,149.2063,-44.31454,202408291326064834,
2-11,C_HumanVertical,1,Q3FrontUp,-32.54713,28.67108,76.09063,-71.84414,-108.751,149.1461,-44.32164,202408291326065106,
2-11,C_HumanVertical,1,Q3FrontUp,-32.66946,28.76548,76.68396,-71.79414,-108.7339,149.0874,-44.32643,202408291326065410,
2-11,C_HumanVertical,1,Q3FrontUp,-32.66946,28.76548,76.68396,-71.79414,-108.7339,149.0874,-44.32643,202408291326065582,
2-11,C_HumanVertical,1,Q3FrontUp,-32.795,28.86204,77.26479,-71.73782,-108.7222,149.0307,-44.32763,202408291326065830,
2-11,C_HumanVertical,1,Q3FrontUp,-32.92858,28.97315,77.84489,-71.67487,-108.711,148.9821,-44.32878,202408291326066072,
2-11,C_HumanVertical,1,Q3FrontUp,-32.92858,28.97315,77.84489,-71.67487,-108.711,148.9821,-44.32878,202408291326066251,
2-11,C_HumanVertical,1,Q3FrontUp,-32.92858,28.97315,77.84489,-71.67487,-108.711,148.9821,-44.32878,202408291326066419,
2-11,C_HumanVertical,1,Q3FrontUp,-33.30395,29.32769,79.19774,-71.59966,-108.6398,148.948,-44.34463,202408291326066621,
2-11,C_HumanVertical,1,Q3FrontUp,-33.30395,29.32769,79.19774,-71.59966,-108.6398,148.948,-44.34463,202408291326066873,
2-11,C_HumanVertical,1,Q3FrontUp,-33.54113,29.53888,79.9133,-71.58652,-108.5842,148.9483,-44.34694,202408291326067074,
2-11,C_HumanVertical,1,Q3FrontUp,-33.71843,29.71862,80.51134,-71.56538,-108.5424,148.9487,-44.34724,202408291326067303,
2-11,C_HumanVertical,1,Q3FrontUp,-33.71843,29.71862,80.51134,-71.56538,-108.5424,148.9487,-44.34724,202408291326067464,
2-11,C_HumanVertical,1,Q3FrontUp,-33.89323,29.87458,81.06004,-71.52858,-108.5086,148.948,-44.34776,202408291326067783,
2-11,C_HumanVertical,1,Q3FrontUp,-34.04657,30.0281,81.55283,-71.49392,-108.4808,148.9485,-44.34806,202408291326068083,
2-11,C_HumanVertical,1,Q3FrontUp,-34.17305,30.14891,81.95545,-71.45673,-108.4764,148.9484,-44.34796,202408291326068258,
2-11,C_HumanVertical,1,Q3FrontUp,-34.17305,30.14891,81.95545,-71.45673,-108.4764,148.9484,-44.34796,202408291326068415,
2-11,C_HumanVertical,1,Q3FrontUp,-34.29815,30.27063,82.30643,-71.43272,-108.4636,148.9482,-44.34974,202408291326068594,
2-11,C_HumanVertical,1,Q3FrontUp,-34.29815,30.27063,82.30643,-71.43272,-108.4636,148.9482,-44.34974,202408291326068790,
2-11,C_HumanVertical,1,Q3FrontUp,-34.41874,30.40158,82.60014,-71.42355,-108.451,148.9481,-44.35387,202408291326069005,
2-11,C_HumanVertical,1,Q3FrontUp,-34.41874,30.40158,82.60014,-71.42355,-108.451,148.9481,-44.35387,202408291326069172,
2-11,C_HumanVertical,1,Q3FrontUp,-34.5281,30.52699,82.86515,-71.41416,-108.4467,148.9468,-44.35358,202408291326069420,
2-11,C_HumanVertical,1,Q3FrontUp,-34.63001,30.68174,83.12442,-71.41256,-108.4389,148.9457,-44.35433,202408291326069630,
2-11,C_HumanVertical,1,Q3FrontUp,-34.63001,30.68174,83.12442,-71.41256,-108.4389,148.9457,-44.35433,202408291326069772,
2-11,C_HumanVertical,1,Q3FrontUp,-34.72226,30.83119,83.35404,-71.41154,-108.4301,148.9463,-44.36492,202408291326069956,
2-11,C_HumanVertical,1,Q3FrontUp,-34.82466,30.99366,83.55465,-71.41843,-108.43,148.9472,-44.37122,202408291326070241,
2-11,C_HumanVertical,1,Q3FrontUp,-34.82466,30.99366,83.55465,-71.41843,-108.43,148.9472,-44.37122,202408291326070404,
2-11,C_HumanVertical,1,Q3FrontUp,-34.94847,31.14336,83.74129,-71.41924,-108.4302,148.9465,-44.3756,202408291326070572,
2-11,C_HumanVertical,1,Q3FrontUp,-34.94847,31.14336,83.74129,-71.41924,-108.4302,148.9465,-44.3756,202408291326070799,
2-11,C_HumanVertical,1,Q3FrontUp,-35.09052,31.30794,83.93361,-71.42273,-108.4305,148.9444,-44.38577,202408291326071071,
2-11,C_HumanVertical,1,Q3FrontUp,-35.28904,31.54395,84.2357,-71.47126,-108.4298,148.948,-44.40989,202408291326071241,
2-11,C_HumanVertical,1,Q3FrontUp,-35.28904,31.54395,84.2357,-71.47126,-108.4298,148.948,-44.40989,202408291326071394,
2-11,C_HumanVertical,1,Q3FrontUp,-35.28904,31.54395,84.2357,-71.47126,-108.4298,148.948,-44.40989,202408291326071574,
2-11,C_HumanVertical,1,Q3FrontUp,-35.4806,31.7671,84.53017,-71.50063,-108.4301,148.9471,-44.43053,202408291326071774,
2-11,C_HumanVertical,1,Q3FrontUp,-35.69427,31.99479,84.82849,-71.52781,-108.4306,148.9475,-44.45539,202408291326071944,
2-11,C_HumanVertical,1,Q3FrontUp,-35.69427,31.99479,84.82849,-71.52781,-108.4306,148.9475,-44.45539,202408291326072152,
2-11,C_HumanVertical,1,Q3FrontUp,-35.89207,32.25228,85.14864,-71.52715,-108.4302,148.9501,-44.48407,202408291326072323,
2-11,C_HumanVertical,1,Q3FrontUp,-36.09233,32.5228,85.46938,-71.52509,-108.4304,148.9527,-44.51303,202408291326072592,
2-11,C_HumanVertical,1,Q3FrontUp,-36.09233,32.5228,85.46938,-71.52509,-108.4304,148.9527,-44.51303,202408291326072760,
2-11,C_HumanVertical,1,Q3FrontUp,-36.2886,32.77949,85.74113,-71.51991,-108.4305,148.9586,-44.54041,202408291326073088,
2-11,C_HumanVertical,1,Q3FrontUp,-36.4962,33.01421,86.00992,-71.52175,-108.4308,148.9599,-44.56036,202408291326073331,
2-11,C_HumanVertical,1,Q3FrontUp,-36.70647,33.26684,86.30847,-71.52783,-108.4315,148.9598,-44.5844,202408291326073586,
2-11,C_HumanVertical,1,Q3FrontUp,-36.90623,33.51946,86.59888,-71.52638,-108.4314,148.96,-44.60067,202408291326074006,
2-11,C_HumanVertical,1,Q3FrontUp,-36.90623,33.51946,86.59888,-71.52638,-108.4314,148.96,-44.60067,202408291326074272,
2-11,C_HumanVertical,1,Q3FrontUp,-37.11906,33.77764,86.89396,-71.51886,-108.4316,148.9604,-44.62098,202408291326074493,
2-11,C_HumanVertical,1,Q3FrontUp,-37.32648,34.02246,87.1461,-71.52349,-108.4343,148.9607,-44.63241,202408291326074756,
2-11,C_HumanVertical,1,Q3FrontUp,-37.53729,34.27631,87.41602,-71.52437,-108.4414,148.962,-44.6379,202408291326075084,
2-11,C_HumanVertical,1,Q3FrontUp,-37.76472,34.56951,87.75113,-71.54775,-108.4702,148.9652,-44.63755,202408291326075422,
2-11,C_HumanVertical,1,Q3FrontUp,-37.99421,34.85267,88.06688,-71.58617,-108.4862,148.9668,-44.63734,202408291326075695,
2-11,C_HumanVertical,1,Q3FrontUp,-37.99421,34.85267,88.06688,-71.58617,-108.4862,148.9668,-44.63734,202408291326075922,
2-11,C_HumanVertical,1,Q3FrontUp,-38.2266,35.15719,88.4121,-71.62923,-108.5023,148.9682,-44.63694,202408291326076086,
2-11,C_HumanVertical,1,Q3FrontUp,-38.2266,35.15719,88.4121,-71.62923,-108.5023,148.9682,-44.63694,202408291326076250,
2-11,C_HumanVertical,1,Q3FrontUp,-38.43696,35.48378,88.72812,-71.66831,-108.5234,148.9782,-44.63654,202408291326076429,
2-11,C_HumanVertical,1,Q3FrontUp,-38.65878,35.79399,89.05109,-71.71241,-108.5448,148.9835,-44.63523,202408291326076675,
2-11,C_HumanVertical,1,Q3FrontUp,-38.65878,35.79399,89.05109,-71.71241,-108.5448,148.9835,-44.63523,202408291326076963,
2-11,C_HumanVertical,1,Q3FrontUp,-38.8759,36.11976,89.36051,-71.75584,-108.563,148.9879,-44.63301,202408291326077152,
2-11,C_HumanVertical,1,Q3FrontUp,-39.08751,36.47663,89.68576,-71.79753,-108.5935,148.9895,-44.62558,202408291326077413,
2-11,C_HumanVertical,1,Q3FrontUp,-39.29402,36.86,90.03952,-71.84396,-108.5903,148.9925,-44.62894,202408291326077592,
2-11,C_HumanVertical,1,Q3FrontUp,-39.29402,36.86,90.03952,-71.84396,-108.5903,148.9925,-44.62894,202408291326077785,
2-11,C_HumanVertical,1,Q3FrontUp,-39.50362,37.23159,90.38315,-71.89,-108.5756,149.017,-44.64226,202408291326078064,
2-11,C_HumanVertical,1,Q3FrontUp,-39.50362,37.23159,90.38315,-71.89,-108.5756,149.017,-44.64226,202408291326078250,
2-11,C_HumanVertical,1,Q3FrontUp,-39.69831,37.60199,90.71629,-71.92593,-108.5699,149.0266,-44.65128,202408291326078418,
2-11,C_HumanVertical,1,Q3FrontUp,-39.87502,37.95531,91.00373,-71.94118,-108.5552,149.0499,-44.65638,202408291326078589,
2-11,C_HumanVertical,1,Q3FrontUp,-39.87502,37.95531,91.00373,-71.94118,-108.5552,149.0499,-44.65638,202408291326078836,
2-11,C_HumanVertical,1,Q3FrontUp,-40.05191,38.32332,91.31945,-71.95768,-108.5421,149.0943,-44.6646,202408291326079053,
2-11,C_HumanVertical,1,Q3FrontUp,-40.22332,38.65105,91.5701,-71.96661,-108.5189,149.2027,-44.66632,202408291326079246,
2-11,C_HumanVertical,1,Q3FrontUp,-40.22332,38.65105,91.5701,-71.96661,-108.5189,149.2027,-44.66632,202408291326079465,
2-11,C_HumanVertical,1,Q3FrontUp,-40.38674,38.97416,91.77544,-71.96639,-108.5035,149.3004,-44.66734,202408291326079608,
2-11,C_HumanVertical,1,Q3FrontUp,-40.38674,38.97416,91.77544,-71.96639,-108.5035,149.3004,-44.66734,202408291326079778,
2-11,C_HumanVertical,1,Q3FrontUp,-40.54286,39.28317,91.97778,-71.96857,-108.4936,149.3926,-44.66825,202408291326080128,
2-11,C_HumanVertical,1,Q3FrontUp,-40.7039,39.65376,92.25063,-72.01003,-108.4734,149.5409,-44.66826,202408291326080429,
2-11,C_HumanVertical,1,Q3FrontUp,-40.86033,40.0118,92.51548,-72.04397,-108.4499,149.6932,-44.66683,202408291326080732,
2-11,C_HumanVertical,1,Q3FrontUp,-41.02478,40.36094,92.77249,-72.08891,-108.4338,149.8431,-44.66595,202408291326080906,
2-11,C_HumanVertical,1,Q3FrontUp,-41.02478,40.36094,92.77249,-72.08891,-108.4338,149.8431,-44.66595,202408291326081073,
2-11,C_HumanVertical,1,Q3FrontUp,-41.18357,40.71528,93.00029,-72.12538,-108.4234,149.9733,-44.66502,202408291326081285,
2-11,C_HumanVertical,1,Q3FrontUp,-41.18357,40.71528,93.00029,-72.12538,-108.4234,149.9733,-44.66502,202408291326081601,
2-11,C_HumanVertical,1,Q3FrontUp,-41.18357,40.71528,93.00029,-72.12538,-108.4234,149.9733,-44.66502,202408291326081745,
2-11,C_HumanVertical,1,Q3FrontUp,-41.46271,41.36484,93.38551,-72.20358,-108.3885,150.2614,-44.66398,202408291326082017,
2-11,C_HumanVertical,1,Q3FrontUp,-41.46271,41.36484,93.38551,-72.20358,-108.3885,150.2614,-44.66398,202408291326082267,
2-11,C_HumanVertical,1,Q3FrontUp,-41.59924,41.66098,93.5622,-72.25124,-108.359,150.4127,-44.66434,202408291326082438,
2-11,C_HumanVertical,1,Q3FrontUp,-41.72827,41.95364,93.71552,-72.3039,-108.3358,150.5761,-44.66294,202408291326082723,
2-11,C_HumanVertical,1,Q3FrontUp,-41.85049,42.2403,93.83968,-72.35385,-108.3161,150.7196,-44.66113,202408291326082897,
2-11,C_HumanVertical,1,Q3FrontUp,-41.85049,42.2403,93.83968,-72.35385,-108.3161,150.7196,-44.66113,202408291326083071,
2-11,C_HumanVertical,1,Q3FrontUp,-41.95491,42.49612,93.93825,-72.41224,-108.2984,150.8298,-44.65908,202408291326083418,
2-11,C_HumanVertical,1,Q3FrontUp,-42.05363,42.76546,94.057,-72.46899,-108.2837,150.9443,-44.65542,202408291326083655,
2-11,C_HumanVertical,1,Q3FrontUp,-42.14249,43.01556,94.16172,-72.52531,-108.2689,151.0461,-44.65277,202408291326083901,
2-11,C_HumanVertical,1,Q3FrontUp,-42.14249,43.01556,94.16172,-72.52531,-108.2689,151.0461,-44.65277,202408291326084072,
2-11,C_HumanVertical,1,Q3FrontUp,-42.20624,43.26268,94.24904,-72.57234,-108.2391,151.1448,-44.65328,202408291326084272,
2-11,C_HumanVertical,1,Q3FrontUp,-42.20624,43.26268,94.24904,-72.57234,-108.2391,151.1448,-44.65328,202408291326084411,
2-11,C_HumanVertical,1,Q3FrontUp,-42.26031,43.51122,94.33231,-72.61344,-108.212,151.248,-44.65311,202408291326084645,
2-11,C_HumanVertical,1,Q3FrontUp,-42.26031,43.51122,94.33231,-72.61344,-108.212,151.248,-44.65311,202408291326084795,
2-11,C_HumanVertical,1,Q3FrontUp,-42.31479,43.71923,94.39287,-72.64888,-108.1777,151.3522,-44.65299,202408291326084974,
2-11,C_HumanVertical,1,Q3FrontUp,-42.34492,43.88118,94.40134,-72.65355,-108.0974,151.4998,-44.65335,202408291326085227,
2-11,C_HumanVertical,1,Q3FrontUp,-42.34492,43.88118,94.40134,-72.65355,-108.0974,151.4998,-44.65335,202408291326085430,
2-11,C_HumanVertical,1,Q3FrontUp,-42.35835,44.05323,94.39885,-72.65331,-108.0479,151.6472,-44.65295,202408291326085750,
2-11,C_HumanVertical,1,Q3FrontUp,-42.35588,44.22277,94.38847,-72.65494,-108.0115,151.7711,-44.6534,202408291326085929,
2-11,C_HumanVertical,1,Q3FrontUp,-42.35588,44.22277,94.38847,-72.65494,-108.0115,151.7711,-44.6534,202408291326086224,
2-11,C_HumanVertical,1,Q3FrontUp,-42.35588,44.22277,94.38847,-72.65494,-108.0115,151.7711,-44.6534,202408291326086395,
2-11,C_HumanVertical,1,Q3FrontUp,-42.346,44.46162,94.21224,-72.65273,-107.898,152.0162,-44.65496,202408291326086566,
2-11,C_HumanVertical,1,Q3FrontUp,-42.346,44.46162,94.21224,-72.65273,-107.898,152.0162,-44.65496,202408291326086855,
2-11,C_HumanVertical,1,Q3FrontUp,-42.26135,44.62365,93.78748,-72.65071,-107.8157,152.1767,-44.63821,202408291326087184,
2-11,C_HumanVertical,1,Q3FrontUp,-42.26135,44.62365,93.78748,-72.65071,-107.8157,152.1767,-44.63821,202408291326087401,
2-11,C_HumanVertical,1,Q3FrontUp,-42.20704,44.68992,93.5525,-72.65273,-107.8161,152.2523,-44.61867,202408291326087588,
2-11,C_HumanVertical,1,Q3FrontUp,-42.20704,44.68992,93.5525,-72.65273,-107.8161,152.2523,-44.61867,202408291326087740,
2-11,C_HumanVertical,1,Q3FrontUp,-42.20704,44.68992,93.5525,-72.65273,-107.8161,152.2523,-44.61867,202408291326087903,
2-11,C_HumanVertical,1,Q3FrontUp,-42.13367,44.77236,93.29263,-72.66248,-107.8155,152.3208,-44.60595,202408291326088107,
2-11,C_HumanVertical,1,Q3FrontUp,-42.13367,44.77236,93.29263,-72.66248,-107.8155,152.3208,-44.60595,202408291326088272,
2-11,C_HumanVertical,1,Q3FrontUp,-42.0473,44.83877,92.95973,-72.66987,-107.8157,152.3543,-44.60636,202408291326088570,
2-11,C_HumanVertical,1,Q3FrontUp,-41.95366,44.9362,92.645,-72.67946,-107.8158,152.3619,-44.60654,202408291326088743,
2-11,C_HumanVertical,1,Q3FrontUp,-41.86035,45.04196,92.29424,-72.70368,-107.8118,152.3647,-44.60728,202408291326088928,
2-11,C_HumanVertical,1,Q3FrontUp,-41.86035,45.04196,92.29424,-72.70368,-107.8118,152.3647,-44.60728,202408291326089106,
2-11,C_HumanVertical,1,Q3FrontUp,-41.79413,45.1428,92.01499,-72.72472,-107.7774,152.3636,-44.60885,202408291326089325,
2-11,C_HumanVertical,1,Q3FrontUp,-41.79413,45.1428,92.01499,-72.72472,-107.7774,152.3636,-44.60885,202408291326089563,
2-11,C_HumanVertical,1,Q3FrontUp,-41.7161,45.27166,91.74248,-72.73788,-107.751,152.3638,-44.60992,202408291326089762,
2-11,C_HumanVertical,1,Q3FrontUp,-41.63979,45.36515,91.46413,-72.75232,-107.7312,152.3628,-44.61176,202408291326089983,
2-11,C_HumanVertical,1,Q3FrontUp,-41.54547,45.4626,91.15948,-72.75401,-107.7132,152.3625,-44.62171,202408291326090249,
2-11,C_HumanVertical,1,Q3FrontUp,-41.54547,45.4626,91.15948,-72.75401,-107.7132,152.3625,-44.62171,202408291326090434,
2-11,C_HumanVertical,1,Q3FrontUp,-41.46485,45.52717,90.88004,-72.75229,-107.6973,152.363,-44.6232,202408291326090728,
2-11,C_HumanVertical,1,Q3FrontUp,-41.3731,45.58991,90.59903,-72.75346,-107.6929,152.3623,-44.62337,202408291326091056,
2-11,C_HumanVertical,1,Q3FrontUp,-41.26117,45.68523,90.32903,-72.75595,-107.6892,152.3624,-44.62349,202408291326091242,
2-11,C_HumanVertical,1,Q3FrontUp,-41.26117,45.68523,90.32903,-72.75595,-107.6892,152.3624,-44.62349,202408291326091410,
2-11,C_HumanVertical,1,Q3FrontUp,-41.15045,45.76753,90.07002,-72.7643,-107.6854,152.363,-44.62392,202408291326091633,
2-11,C_HumanVertical,1,Q3FrontUp,-41.06123,45.83281,89.83504,-72.78045,-107.6815,152.3622,-44.62407,202408291326091939,
2-11,C_HumanVertical,1,Q3FrontUp,-40.96851,45.91305,89.64974,-72.78657,-107.6623,152.3621,-44.62392,202408291326092262,
2-11,C_HumanVertical,1,Q3FrontUp,-40.96851,45.91305,89.64974,-72.78657,-107.6623,152.3621,-44.62392,202408291326092449,
2-11,C_HumanVertical,1,Q3FrontUp,-40.8541,46.00901,89.47368,-72.78325,-107.6581,152.3623,-44.62267,202408291326092618,
2-11,C_HumanVertical,1,Q3FrontUp,-40.8541,46.00901,89.47368,-72.78325,-107.6581,152.3623,-44.62267,202408291326092878,
2-11,C_HumanVertical,1,Q3FrontUp,-40.8541,46.00901,89.47368,-72.78325,-107.6581,152.3623,-44.62267,202408291326093057,
2-11,C_HumanVertical,1,Q3FrontUp,-40.5776,46.17019,89.15298,-72.76332,-107.6589,152.3781,-44.60177,202408291326093263,
2-11,C_HumanVertical,1,Q3FrontUp,-40.5776,46.17019,89.15298,-72.76332,-107.6589,152.3781,-44.60177,202408291326093556,
2-11,C_HumanVertical,1,Q3FrontUp,-40.41478,46.24681,89.03683,-72.74922,-107.6589,152.402,-44.58892,202408291326093797,
2-11,C_HumanVertical,1,Q3FrontUp,-40.25613,46.3175,88.93343,-72.74813,-107.6596,152.418,-44.58215,202408291326094089,
2-11,C_HumanVertical,1,Q3FrontUp,-40.07116,46.47787,88.91759,-72.74638,-107.6588,152.42,-44.58216,202408291326094232,
2-11,C_HumanVertical,1,Q3FrontUp,-40.07116,46.47787,88.91759,-72.74638,-107.6588,152.42,-44.58216,202408291326094439,
2-11,C_HumanVertical,1,Q3FrontUp,-39.89022,46.61085,88.91598,-72.74402,-107.6541,152.4205,-44.58682,202408291326094619,
2-11,C_HumanVertical,1,Q3FrontUp,-39.89022,46.61085,88.91598,-72.74402,-107.6541,152.4205,-44.58682,202408291326094796,
2-11,C_HumanVertical,1,Q3FrontUp,-39.70352,46.7415,88.91751,-72.74255,-107.6408,152.4226,-44.59329,202408291326095130,
2-11,C_HumanVertical,1,Q3FrontUp,-39.51427,46.83355,88.91731,-72.74438,-107.6282,152.4238,-44.59933,202408291326095385,
2-11,C_HumanVertical,1,Q3FrontUp,-39.31184,46.95121,88.92139,-72.74532,-107.6228,152.4265,-44.60013,202408291326095552,
2-11,C_HumanVertical,1,Q3FrontUp,-39.31184,46.95121,88.92139,-72.74532,-107.6228,152.4265,-44.60013,202408291326095726,
2-11,C_HumanVertical,1,Q3FrontUp,-39.11307,47.05989,88.93567,-72.74218,-107.6207,152.453,-44.59974,202408291326095959,
2-11,C_HumanVertical,1,Q3FrontUp,-38.91034,47.17645,88.9447,-72.74264,-107.6188,152.4679,-44.59989,202408291326096234,
2-11,C_HumanVertical,1,Q3FrontUp,-38.71647,47.27666,88.95956,-72.74275,-107.6171,152.481,-44.59973,202408291326096496,
2-11,C_HumanVertical,1,Q3FrontUp,-38.71647,47.27666,88.95956,-72.74275,-107.6171,152.481,-44.59973,202408291326096732,
2-11,C_HumanVertical,1,Q3FrontUp,-38.53025,47.3767,88.95531,-72.74292,-107.6169,152.4911,-44.59975,202408291326096931,
2-11,C_HumanVertical,1,Q3FrontUp,-38.53025,47.3767,88.95531,-72.74292,-107.6169,152.4911,-44.59975,202408291326097148,
2-11,C_HumanVertical,1,Q3FrontUp,-38.33041,47.5079,88.95193,-72.73337,-107.6145,152.5502,-44.59909,202408291326097412,
2-11,C_HumanVertical,1,Q3FrontUp,-38.1423,47.60893,88.9464,-72.73528,-107.6138,152.6155,-44.59838,202408291326097743,
2-11,C_HumanVertical,1,Q3FrontUp,-37.95539,47.71338,88.9422,-72.73618,-107.6136,152.6859,-44.59826,202408291326097944,
2-11,C_HumanVertical,1,Q3FrontUp,-37.76668,47.80912,88.94112,-72.74141,-107.613,152.7486,-44.59795,202408291326098210,
2-11,C_HumanVertical,1,Q3FrontUp,-37.76668,47.80912,88.94112,-72.74141,-107.613,152.7486,-44.59795,202408291326098379,
2-11,C_HumanVertical,1,Q3FrontUp,-37.58712,47.9265,88.94179,-72.75555,-107.6065,152.8185,-44.59589,202408291326098554,
2-11,C_HumanVertical,1,Q3FrontUp,-37.58712,47.9265,88.94179,-72.75555,-107.6065,152.8185,-44.59589,202408291326098725,
2-11,C_HumanVertical,1,Q3FrontUp,-37.58712,47.9265,88.94179,-72.75555,-107.6065,152.8185,-44.59589,202408291326098897,
2-11,C_HumanVertical,1,Q3FrontUp,-37.413,48.03431,88.94131,-72.77332,-107.5873,152.9025,-44.58734,202408291326099120,
2-11,C_HumanVertical,1,Q3FrontUp,-37.26134,48.12553,88.93935,-72.7977,-107.5669,152.9745,-44.58345,202408291326099360,
2-11,C_HumanVertical,1,Q3FrontUp,-37.10568,48.24162,88.93855,-72.81415,-107.5519,153.0442,-44.58149,202408291326099695,
2-11,C_HumanVertical,1,Q3FrontUp,-36.96272,48.34507,88.93132,-72.82594,-107.5402,153.1089,-44.5801,202408291326099902,
2-11,C_HumanVertical,1,Q3FrontUp,-36.96272,48.34507,88.93132,-72.82594,-107.5402,153.1089,-44.5801,202408291326100236,
2-11,C_HumanVertical,1,Q3FrontUp,-36.81811,48.46294,88.92368,-72.84301,-107.5323,153.1723,-44.57946,202408291326100476,
2-11,C_HumanVertical,1,Q3FrontUp,-36.69048,48.56026,88.92333,-72.86515,-107.5154,153.2355,-44.5749,202408291326100704,
2-11,C_HumanVertical,1,Q3FrontUp,-36.69048,48.56026,88.92333,-72.86515,-107.5154,153.2355,-44.5749,202408291326100875,
2-11,C_HumanVertical,1,Q3FrontUp,-36.57067,48.6792,88.92427,-72.90202,-107.4993,153.2853,-44.56348,202408291326101094,
2-11,C_HumanVertical,1,Q3FrontUp,-36.46273,48.79602,88.9244,-72.94305,-107.4777,153.3204,-44.56055,202408291326101392,
2-11,C_HumanVertical,1,Q3FrontUp,-36.3714,48.90489,88.92295,-72.98876,-107.4587,153.3471,-44.55894,202408291326101645,
2-11,C_HumanVertical,1,Q3FrontUp,-36.3714,48.90489,88.92295,-72.98876,-107.4587,153.3471,-44.55894,202408291326101880,
2-11,C_HumanVertical,1,Q3FrontUp,-36.28484,49.01611,88.92194,-73.02799,-107.438,153.3807,-44.55657,202408291326102099,
2-11,C_HumanVertical,1,Q3FrontUp,-36.18548,49.12429,88.92194,-73.03775,-107.4228,153.4332,-44.54078,202408291326102247,
2-11,C_HumanVertical,1,Q3FrontUp,-36.18548,49.12429,88.92194,-73.03775,-107.4228,153.4332,-44.54078,202408291326102438,
2-11,C_HumanVertical,1,Q3FrontUp,-36.18548,49.12429,88.92194,-73.03775,-107.4228,153.4332,-44.54078,202408291326102610,
2-11,C_HumanVertical,1,Q3FrontUp,-35.99318,49.34299,88.92368,-73.05288,-107.3796,153.5475,-44.52457,202408291326102915,
2-11,C_HumanVertical,1,Q3FrontUp,-35.89954,49.45776,88.92577,-73.06234,-107.3586,153.6038,-44.5132,202408291326103213,
2-11,C_HumanVertical,1,Q3FrontUp,-35.89954,49.45776,88.92577,-73.06234,-107.3586,153.6038,-44.5132,202408291326103393,
2-11,C_HumanVertical,1,Q3FrontUp,-35.89954,49.45776,88.92577,-73.06234,-107.3586,153.6038,-44.5132,202408291326103557,
2-11,C_HumanVertical,1,Q3FrontUp,-35.82533,49.54824,88.92652,-73.07678,-107.3278,153.6527,-44.50986,202408291326103813,
2-11,C_HumanVertical,1,Q3FrontUp,-35.75701,49.64462,88.92603,-73.09473,-107.3013,153.6916,-44.50755,202408291326104061,
2-11,C_HumanVertical,1,Q3FrontUp,-35.75701,49.64462,88.92603,-73.09473,-107.3013,153.6916,-44.50755,202408291326104333,
2-11,C_HumanVertical,1,Q3FrontUp,-35.63025,49.83923,88.93167,-73.12747,-107.1998,153.7947,-44.50063,202408291326104614,
2-11,C_HumanVertical,1,Q3FrontUp,-35.63025,49.83923,88.93167,-73.12747,-107.1998,153.7947,-44.50063,202408291326104832,
2-11,C_HumanVertical,1,Q3FrontUp,-35.57389,49.93858,88.94209,-73.1446,-107.1261,153.8446,-44.49719,202408291326105114,
2-11,C_HumanVertical,1,Q3FrontUp,-35.52011,50.05185,88.98468,-73.15997,-107.0586,153.9245,-44.47985,202408291326105390,
2-11,C_HumanVertical,1,Q3FrontUp,-35.46507,50.17756,89.02391,-73.1776,-106.9926,153.9992,-44.46548,202408291326105731,
2-11,C_HumanVertical,1,Q3FrontUp,-35.41402,50.29647,89.07262,-73.1951,-106.9245,154.0757,-44.451,202408291326105940,
2-11,C_HumanVertical,1,Q3FrontUp,-35.35928,50.43695,89.14426,-73.21495,-106.8716,154.1473,-44.42987,202408291326106304,
2-11,C_HumanVertical,1,Q3FrontUp,-35.30669,50.55746,89.21304,-73.23389,-106.8183,154.2169,-44.411,202408291326106509,
2-11,C_HumanVertical,1,Q3FrontUp,-35.30669,50.55746,89.21304,-73.23389,-106.8183,154.2169,-44.411,202408291326106739,
2-11,C_HumanVertical,1,Q3FrontUp,-35.25183,50.67252,89.26519,-73.24923,-106.7594,154.2838,-44.3943,202408291326106988,
2-11,C_HumanVertical,1,Q3FrontUp,-35.18803,50.79306,89.33042,-73.25602,-106.6878,154.3541,-44.37419,202408291326107263,
2-11,C_HumanVertical,1,Q3FrontUp,-35.18803,50.79306,89.33042,-73.25602,-106.6878,154.3541,-44.37419,202408291326107474,
2-11,C_HumanVertical,1,Q3FrontUp,-35.12787,50.90233,89.3978,-73.26372,-106.6306,154.4158,-44.36003,202408291326107754,
2-11,C_HumanVertical,1,Q3FrontUp,-35.06877,51.01427,89.47169,-73.26884,-106.5916,154.4796,-44.33714,202408291326107931,
2-11,C_HumanVertical,1,Q3FrontUp,-34.99207,51.13559,89.49772,-73.26785,-106.5898,154.529,-44.30494,202408291326108213,
2-11,C_HumanVertical,1,Q3FrontUp,-34.99207,51.13559,89.49772,-73.26785,-106.5898,154.529,-44.30494,202408291326108374,
2-11,C_HumanVertical,1,Q3FrontUp,-34.91077,51.26364,89.52795,-73.26779,-106.5897,154.5976,-44.26855,202408291326108555,
2-11,C_HumanVertical,1,Q3FrontUp,-34.91077,51.26364,89.52795,-73.26779,-106.5897,154.5976,-44.26855,202408291326108717,
2-11,C_HumanVertical,1,Q3FrontUp,-34.83069,51.38993,89.55677,-73.26789,-106.5898,154.6877,-44.23023,202408291326108893,
2-11,C_HumanVertical,1,Q3FrontUp,-34.83069,51.38993,89.55677,-73.26789,-106.5898,154.6877,-44.23023,202408291326109139,
2-11,C_HumanVertical,1,Q3FrontUp,-34.72675,51.56071,89.64272,-73.26138,-106.5873,154.7683,-44.19483,202408291326109439,
2-11,C_HumanVertical,1,Q3FrontUp,-34.6147,51.75984,89.75249,-73.2581,-106.5713,154.8115,-44.16619,202408291326109749,
2-11,C_HumanVertical,1,Q3FrontUp,-34.49239,51.94909,89.87087,-73.25605,-106.5477,154.8499,-44.1427,202408291326110085,
2-11,C_HumanVertical,1,Q3FrontUp,-34.49239,51.94909,89.87087,-73.25605,-106.5477,154.8499,-44.1427,202408291326110269,
2-11,C_HumanVertical,1,Q3FrontUp,-34.23958,52.2333,90.07502,-73.23229,-106.4902,154.9315,-44.11253,202408291326110591,
2-11,C_HumanVertical,1,Q3FrontUp,-34.10991,52.3312,90.1636,-73.19852,-106.4836,154.9891,-44.07453,202408291326110870,
2-11,C_HumanVertical,1,Q3FrontUp,-34.10991,52.3312,90.1636,-73.19852,-106.4836,154.9891,-44.07453,202408291326111048,
2-11,C_HumanVertical,1,Q3FrontUp,-33.96545,52.4338,90.26473,-73.14982,-106.4638,155.024,-44.06055,202408291326111230,
2-11,C_HumanVertical,1,Q3FrontUp,-33.96545,52.4338,90.26473,-73.14982,-106.4638,155.024,-44.06055,202408291326111471,
2-11,C_HumanVertical,1,Q3FrontUp,-33.82705,52.51253,90.37948,-73.10139,-106.4416,155.0573,-44.04811,202408291326111730,
2-11,C_HumanVertical,1,Q3FrontUp,-33.6849,52.5723,90.48595,-73.05479,-106.4183,155.0855,-44.03348,202408291326111927,
2-11,C_HumanVertical,1,Q3FrontUp,-33.6849,52.5723,90.48595,-73.05479,-106.4183,155.0855,-44.03348,202408291326112087,
2-11,C_HumanVertical,1,Q3FrontUp,-33.53631,52.63874,90.59891,-72.99316,-106.3834,155.1423,-44.01597,202408291326112310,
2-11,C_HumanVertical,1,Q3FrontUp,-33.53631,52.63874,90.59891,-72.99316,-106.3834,155.1423,-44.01597,202408291326112492,
2-11,C_HumanVertical,1,Q3FrontUp,-33.39953,52.70097,90.72009,-72.93715,-106.3465,155.1933,-43.99948,202408291326112728,
2-11,C_HumanVertical,1,Q3FrontUp,-33.26377,52.74319,90.83123,-72.87715,-106.2994,155.2523,-43.97711,202408291326112880,
2-11,C_HumanVertical,1,Q3FrontUp,-33.26377,52.74319,90.83123,-72.87715,-106.2994,155.2523,-43.97711,202408291326113041,
2-11,C_HumanVertical,1,Q3FrontUp,-33.26377,52.74319,90.83123,-72.87715,-106.2994,155.2523,-43.97711,202408291326113214,
2-11,C_HumanVertical,1,Q3FrontUp,-33.11617,52.79224,90.97614,-72.78215,-106.2344,155.3351,-43.93021,202408291326113404,
2-11,C_HumanVertical,1,Q3FrontUp,-32.96225,52.85894,91.1371,-72.68187,-106.1594,155.4751,-43.85638,202408291326113634,
2-11,C_HumanVertical,1,Q3FrontUp,-32.80501,52.93007,91.3267,-72.58068,-106.0663,155.6492,-43.77123,202408291326113905,
2-11,C_HumanVertical,1,Q3FrontUp,-32.80501,52.93007,91.3267,-72.58068,-106.0663,155.6492,-43.77123,202408291326114058,
2-11,C_HumanVertical,1,Q3FrontUp,-32.64455,53.01604,91.50684,-72.48411,-105.9131,155.8417,-43.66642,202408291326114247,
2-11,C_HumanVertical,1,Q3FrontUp,-32.64455,53.01604,91.50684,-72.48411,-105.9131,155.8417,-43.66642,202408291326114422,
2-11,C_HumanVertical,1,Q3FrontUp,-32.49732,53.07368,91.66853,-72.39211,-105.7709,156.0373,-43.56326,202408291326114665,
2-11,C_HumanVertical,1,Q3FrontUp,-32.49732,53.07368,91.66853,-72.39211,-105.7709,156.0373,-43.56326,202408291326114907,
2-11,C_HumanVertical,1,Q3FrontUp,-32.49732,53.07368,91.66853,-72.39211,-105.7709,156.0373,-43.56326,202408291326115064,
2-11,C_HumanVertical,1,Q3FrontUp,-32.14337,53.20001,91.99081,-72.17651,-105.4609,156.403,-43.33846,202408291326115279,
2-11,C_HumanVertical,1,Q3FrontUp,-32.14337,53.20001,91.99081,-72.17651,-105.4609,156.403,-43.33846,202408291326115473,
2-11,C_HumanVertical,2,Q3FrontDown,-8.610567,10.95731,56.31517,-36.63333,-87.26906,115.8098,-47.25477,202408291332177333,
2-11,C_HumanVertical,2,Q3FrontDown,-8.610567,10.95731,56.31517,-36.63333,-87.26906,115.8098,-47.25477,202408291332177506,
2-11,C_HumanVertical,2,Q3FrontDown,-8.605516,10.95676,56.31322,-36.63337,-87.26906,115.8097,-47.25454,202408291332177769,
2-11,C_HumanVertical,2,Q3FrontDown,-8.600169,10.95702,56.30935,-36.63129,-87.27081,115.8096,-47.25081,202408291332177950,
2-11,C_HumanVertical,2,Q3FrontDown,-8.600169,10.95702,56.30935,-36.63129,-87.27081,115.8096,-47.25081,202408291332178120,
2-11,C_HumanVertical,2,Q3FrontDown,-8.598629,10.95872,56.31046,-36.58279,-87.28407,115.8109,-47.18721,202408291332178395,
2-11,C_HumanVertical,2,Q3FrontDown,-8.601374,10.95951,56.30919,-36.53713,-87.29866,115.8105,-47.13102,202408291332178696,
2-11,C_HumanVertical,2,Q3FrontDown,-8.601374,10.95951,56.30919,-36.53713,-87.29866,115.8105,-47.13102,202408291332178893,
2-11,C_HumanVertical,2,Q3FrontDown,-8.602182,10.95905,56.30907,-36.48008,-87.30898,115.8105,-47.07715,202408291332179171,
2-11,C_HumanVertical,2,Q3FrontDown,-8.607469,10.95905,56.30862,-36.41348,-87.31685,115.8101,-47.02395,202408291332179398,
2-11,C_HumanVertical,2,Q3FrontDown,-8.607288,10.95756,56.30921,-36.33943,-87.32376,115.8106,-46.96761,202408291332179633,
2-11,C_HumanVertical,2,Q3FrontDown,-8.607288,10.95756,56.30921,-36.33943,-87.32376,115.8106,-46.96761,202408291332179928,
2-11,C_HumanVertical,2,Q3FrontDown,-8.604958,10.9553,56.30939,-36.26946,-87.32751,115.8111,-46.91057,202408291332180114,
2-11,C_HumanVertical,2,Q3FrontDown,-8.60572,10.95559,56.30897,-36.20234,-87.33139,115.811,-46.86689,202408291332180294,
2-11,C_HumanVertical,2,Q3FrontDown,-8.60572,10.95559,56.30897,-36.20234,-87.33139,115.811,-46.86689,202408291332180483,
2-11,C_HumanVertical,2,Q3FrontDown,-8.609346,10.95577,56.30939,-36.12862,-87.33626,115.811,-46.82654,202408291332180784,
2-11,C_HumanVertical,2,Q3FrontDown,-8.609346,10.95577,56.30939,-36.12862,-87.33626,115.811,-46.82654,202408291332180948,
2-11,C_HumanVertical,2,Q3FrontDown,-8.615179,10.95628,56.30973,-36.05104,-87.34366,115.8106,-46.78774,202408291332181207,
2-11,C_HumanVertical,2,Q3FrontDown,-8.615089,10.95668,56.30944,-35.98305,-87.34618,115.8093,-46.78596,202408291332181479,
2-11,C_HumanVertical,2,Q3FrontDown,-8.615109,10.95668,56.30971,-35.92381,-87.34763,115.8018,-46.78403,202408291332181711,
2-11,C_HumanVertical,2,Q3FrontDown,-8.614896,10.95594,56.30968,-35.86573,-87.34898,115.783,-46.78103,202408291332182003,
2-11,C_HumanVertical,2,Q3FrontDown,-8.614896,10.95594,56.30968,-35.86573,-87.34898,115.783,-46.78103,202408291332182269,
2-11,C_HumanVertical,2,Q3FrontDown,-8.618764,10.9549,56.31346,-35.81821,-87.35166,115.7837,-46.73873,202408291332182445,
2-11,C_HumanVertical,2,Q3FrontDown,-8.619251,10.95384,56.31462,-35.79174,-87.35281,115.7855,-46.71525,202408291332182833,
2-11,C_HumanVertical,2,Q3FrontDown,-8.618961,10.95377,56.31385,-35.77177,-87.35438,115.7871,-46.69843,202408291332183114,
2-11,C_HumanVertical,2,Q3FrontDown,-8.632518,10.95382,56.31413,-35.76413,-87.42611,115.7873,-46.65715,202408291332183306,
2-11,C_HumanVertical,2,Q3FrontDown,-8.632518,10.95382,56.31413,-35.76413,-87.42611,115.7873,-46.65715,202408291332183442,
2-11,C_HumanVertical,2,Q3FrontDown,-8.622768,10.9527,56.26113,-35.76215,-87.45944,115.7968,-46.58364,202408291332183707,
2-11,C_HumanVertical,2,Q3FrontDown,-8.589855,10.95235,56.14794,-35.76027,-87.46829,115.8138,-46.49636,202408291332184023,
2-11,C_HumanVertical,2,Q3FrontDown,-8.117857,10.94371,55.52912,-35.66831,-87.44425,115.8699,-46.44022,202408291332184331,
2-11,C_HumanVertical,2,Q3FrontDown,-7.661756,10.94342,54.97363,-35.57642,-87.4379,115.9317,-46.34064,202408291332184603,
2-11,C_HumanVertical,2,Q3FrontDown,-7.661756,10.94342,54.97363,-35.57642,-87.4379,115.9317,-46.34064,202408291332184782,
2-11,C_HumanVertical,2,Q3FrontDown,-7.205058,10.94368,54.43977,-35.50178,-87.43811,116.022,-46.21231,202408291332184971,
2-11,C_HumanVertical,2,Q3FrontDown,-7.205058,10.94368,54.43977,-35.50178,-87.43811,116.022,-46.21231,202408291332185153,
2-11,C_HumanVertical,2,Q3FrontDown,-6.757385,10.94386,53.96637,-35.46844,-87.438,116.0989,-46.09712,202408291332185438,
2-11,C_HumanVertical,2,Q3FrontDown,-6.757385,10.94386,53.96637,-35.46844,-87.438,116.0989,-46.09712,202408291332185629,
2-11,C_HumanVertical,2,Q3FrontDown,-6.220684,10.93314,53.36085,-35.4508,-87.46513,116.2069,-45.95769,202408291332185794,
2-11,C_HumanVertical,2,Q3FrontDown,-5.559417,10.90072,52.55603,-35.44174,-87.51367,116.3522,-45.78364,202408291332186066,
2-11,C_HumanVertical,2,Q3FrontDown,-5.559417,10.90072,52.55603,-35.44174,-87.51367,116.3522,-45.78364,202408291332186307,
2-11,C_HumanVertical,2,Q3FrontDown,-4.287093,10.85867,51.19671,-35.48566,-87.68382,116.6385,-45.4836,202408291332186647,
2-11,C_HumanVertical,2,Q3FrontDown,-4.287093,10.85867,51.19671,-35.48566,-87.68382,116.6385,-45.4836,202408291332186861,
2-11,C_HumanVertical,2,Q3FrontDown,-3.722794,10.83353,50.60739,-35.60944,-88.05949,116.8338,-45.38395,202408291332187102,
2-11,C_HumanVertical,2,Q3FrontDown,-2.862557,10.80152,49.66121,-35.73909,-88.42331,117.0135,-45.36544,202408291332187283,
2-11,C_HumanVertical,2,Q3FrontDown,-2.040474,10.76929,48.74261,-35.87787,-88.79417,117.1414,-45.34171,202408291332187599,
2-11,C_HumanVertical,2,Q3FrontDown,-2.040474,10.76929,48.74261,-35.87787,-88.79417,117.1414,-45.34171,202408291332187761,
2-11,C_HumanVertical,2,Q3FrontDown,-2.040474,10.76929,48.74261,-35.87787,-88.79417,117.1414,-45.34171,202408291332187958,
2-11,C_HumanVertical,2,Q3FrontDown,-1.24169,10.73767,47.86742,-36.04592,-89.19043,117.2638,-45.32406,202408291332188216,
2-11,C_HumanVertical,2,Q3FrontDown,-0.6271749,10.72824,47.17346,-36.30496,-89.5709,117.3811,-45.32336,202408291332188363,
2-11,C_HumanVertical,2,Q3FrontDown,-0.02955969,10.70818,46.42755,-36.59087,-89.74679,117.5017,-45.35592,202408291332188614,
2-11,C_HumanVertical,2,Q3FrontDown,-0.02955969,10.70818,46.42755,-36.59087,-89.74679,117.5017,-45.35592,202408291332188809,
2-11,C_HumanVertical,2,Q3FrontDown,0.5757596,10.70298,45.63221,-36.83859,-89.79762,117.5892,-45.41637,202408291332189158,
2-11,C_HumanVertical,2,Q3FrontDown,1.413078,10.71428,44.59219,-37.10835,-89.8263,117.6551,-45.41759,202408291332189347,
2-11,C_HumanVertical,2,Q3FrontDown,1.413078,10.71428,44.59219,-37.10835,-89.8263,117.6551,-45.41759,202408291332189639,
2-11,C_HumanVertical,2,Q3FrontDown,2.94968,10.81585,42.81748,-37.67459,-89.88329,117.7801,-45.41786,202408291332189961,
2-11,C_HumanVertical,2,Q3FrontDown,3.125027,10.9428,42.61903,-37.97931,-90.04806,117.9362,-45.38874,202408291332190285,
2-11,C_HumanVertical,2,Q3FrontDown,3.125027,10.9428,42.61903,-37.97931,-90.04806,117.9362,-45.38874,202408291332190518,
2-11,C_HumanVertical,2,Q3FrontDown,3.311013,11.04759,42.3824,-38.27851,-90.12099,118.0857,-45.37963,202408291332190785,
2-11,C_HumanVertical,2,Q3FrontDown,3.311013,11.04759,42.3824,-38.27851,-90.12099,118.0857,-45.37963,202408291332190943,
2-11,C_HumanVertical,2,Q3FrontDown,3.545015,11.1982,42.07122,-38.50102,-90.12282,118.1816,-45.37984,202408291332191107,
2-11,C_HumanVertical,2,Q3FrontDown,3.601771,11.39404,41.97732,-38.68568,-90.15865,118.2564,-45.37166,202408291332191304,
2-11,C_HumanVertical,2,Q3FrontDown,3.601771,11.39404,41.97732,-38.68568,-90.15865,118.2564,-45.37166,202408291332191468,
2-11,C_HumanVertical,2,Q3FrontDown,3.601771,11.39404,41.97732,-38.68568,-90.15865,118.2564,-45.37166,202408291332191689,
2-11,C_HumanVertical,2,Q3FrontDown,3.555731,11.88968,42.12529,-39.04145,-90.30457,118.3447,-45.32037,202408291332191968,
2-11,C_HumanVertical,2,Q3FrontDown,3.555731,11.88968,42.12529,-39.04145,-90.30457,118.3447,-45.32037,202408291332192290,
2-11,C_HumanVertical,2,Q3FrontDown,3.500571,12.15771,42.19502,-39.20576,-90.38502,118.3856,-45.2932,202408291332192458,
2-11,C_HumanVertical,2,Q3FrontDown,3.455048,12.41912,42.20067,-39.35226,-90.46416,118.416,-45.26511,202408291332192644,
2-11,C_HumanVertical,2,Q3FrontDown,3.450395,12.68828,42.18791,-39.48028,-90.5299,118.4499,-45.23232,202408291332192919,
2-11,C_HumanVertical,2,Q3FrontDown,3.450395,12.68828,42.18791,-39.48028,-90.5299,118.4499,-45.23232,202408291332193088,
2-11,C_HumanVertical,2,Q3FrontDown,3.398584,12.97899,42.19097,-39.61,-90.62537,118.5048,-45.17728,202408291332193341,
2-11,C_HumanVertical,2,Q3FrontDown,3.335027,13.23854,42.19748,-39.73106,-90.71429,118.5432,-45.13918,202408291332193606,
2-11,C_HumanVertical,2,Q3FrontDown,3.335027,13.23854,42.19748,-39.73106,-90.71429,118.5432,-45.13918,202408291332193913,
2-11,C_HumanVertical,2,Q3FrontDown,3.275,13.5216,42.20674,-39.86098,-90.79147,118.5695,-45.10606,202408291332194234,
2-11,C_HumanVertical,2,Q3FrontDown,3.189144,13.78828,42.20619,-39.99472,-90.88904,118.6022,-45.04878,202408291332194467,
2-11,C_HumanVertical,2,Q3FrontDown,3.092712,14.04618,42.20601,-40.1259,-90.96774,118.6225,-44.99857,202408291332194642,
2-11,C_HumanVertical,2,Q3FrontDown,3.092712,14.04618,42.20601,-40.1259,-90.96774,118.6225,-44.99857,202408291332194858,
2-11,C_HumanVertical,2,Q3FrontDown,3.023249,14.29202,42.20597,-40.24745,-91.04168,118.6481,-44.95152,202408291332195115,
2-11,C_HumanVertical,2,Q3FrontDown,2.956958,14.54369,42.20526,-40.35632,-91.12225,118.6798,-44.90231,202408291332195422,
2-11,C_HumanVertical,2,Q3FrontDown,2.866757,14.79488,42.24509,-40.43583,-91.20418,118.7138,-44.85588,202408291332195591,
2-11,C_HumanVertical,2,Q3FrontDown,2.866757,14.79488,42.24509,-40.43583,-91.20418,118.7138,-44.85588,202408291332195761,
2-11,C_HumanVertical,2,Q3FrontDown,2.766511,15.04756,42.32358,-40.49836,-91.28822,118.7561,-44.81117,202408291332196013,
2-11,C_HumanVertical,2,Q3FrontDown,2.661961,15.2705,42.41598,-40.55444,-91.36885,118.7753,-44.77873,202408291332196313,
2-11,C_HumanVertical,2,Q3FrontDown,2.661961,15.2705,42.41598,-40.55444,-91.36885,118.7753,-44.77873,202408291332196535,
2-11,C_HumanVertical,2,Q3FrontDown,2.564219,15.47816,42.46893,-40.59225,-91.43241,118.8038,-44.75082,202408291332196816,
2-11,C_HumanVertical,2,Q3FrontDown,2.494533,15.67157,42.49253,-40.5997,-91.49598,118.8416,-44.72676,202408291332197007,
2-11,C_HumanVertical,2,Q3FrontDown,2.398515,15.85899,42.53166,-40.61554,-91.59317,118.89,-44.69467,202408291332197294,
2-11,C_HumanVertical,2,Q3FrontDown,2.398515,15.85899,42.53166,-40.61554,-91.59317,118.89,-44.69467,202408291332197443,
2-11,C_HumanVertical,2,Q3FrontDown,2.256617,16.02757,42.62561,-40.63472,-91.69324,118.947,-44.66513,202408291332197760,
2-11,C_HumanVertical,2,Q3FrontDown,2.256617,16.02757,42.62561,-40.63472,-91.69324,118.947,-44.66513,202408291332197932,
2-11,C_HumanVertical,2,Q3FrontDown,2.073085,16.19382,42.7587,-40.67379,-91.80321,119.0097,-44.63712,202408291332198160,
2-11,C_HumanVertical,2,Q3FrontDown,1.895353,16.34788,42.86762,-40.71257,-91.89944,119.0605,-44.61227,202408291332198488,
2-11,C_HumanVertical,2,Q3FrontDown,1.739923,16.50109,42.91663,-40.75396,-91.98383,119.097,-44.5852,202408291332198813,
2-11,C_HumanVertical,2,Q3FrontDown,1.600706,16.62514,42.92435,-40.79886,-92.06158,119.1109,-44.56026,202408291332199205,
2-11,C_HumanVertical,2,Q3FrontDown,1.43717,16.78109,42.95766,-40.84861,-92.17645,119.1396,-44.51472,202408291332199489,
2-11,C_HumanVertical,2,Q3FrontDown,1.246681,16.92446,43.03925,-40.90394,-92.32394,119.159,-44.4723,202408291332199667,
2-11,C_HumanVertical,2,Q3FrontDown,1.246681,16.92446,43.03925,-40.90394,-92.32394,119.159,-44.4723,202408291332199940,
2-11,C_HumanVertical,2,Q3FrontDown,1.009754,17.07156,43.17722,-40.98506,-92.51219,119.1765,-44.42697,202408291332200107,
2-11,C_HumanVertical,2,Q3FrontDown,0.7485091,17.23287,43.3611,-41.07478,-92.7449,119.1852,-44.39223,202408291332200315,
2-11,C_HumanVertical,2,Q3FrontDown,0.4968067,17.39035,43.52266,-41.1526,-92.97516,119.1904,-44.34992,202408291332200616,
2-11,C_HumanVertical,2,Q3FrontDown,0.4968067,17.39035,43.52266,-41.1526,-92.97516,119.1904,-44.34992,202408291332200783,
2-11,C_HumanVertical,2,Q3FrontDown,0.2344407,17.56213,43.666,-41.22992,-93.17953,119.1937,-44.30727,202408291332200947,
2-11,C_HumanVertical,2,Q3FrontDown,0.2344407,17.56213,43.666,-41.22992,-93.17953,119.1937,-44.30727,202408291332201147,
2-11,C_HumanVertical,2,Q3FrontDown,-0.01072938,17.74092,43.77918,-41.30209,-93.35987,119.1949,-44.26883,202408291332201353,
2-11,C_HumanVertical,2,Q3FrontDown,-0.01072938,17.74092,43.77918,-41.30209,-93.35987,119.1949,-44.26883,202408291332201638,
2-11,C_HumanVertical,2,Q3FrontDown,-0.2830836,17.92837,43.93206,-41.38948,-93.53288,119.1976,-44.24996,202408291332201817,
2-11,C_HumanVertical,2,Q3FrontDown,-0.623108,18.10707,44.14844,-41.5237,-93.71225,119.1987,-44.24435,202408291332202137,
2-11,C_HumanVertical,2,Q3FrontDown,-0.9100307,18.29378,44.30418,-41.65407,-93.88151,119.1986,-44.24299,202408291332202325,
2-11,C_HumanVertical,2,Q3FrontDown,-1.184769,18.47141,44.43211,-41.77878,-94.02985,119.1992,-44.24142,202408291332202601,
2-11,C_HumanVertical,2,Q3FrontDown,-1.184769,18.47141,44.43211,-41.77878,-94.02985,119.1992,-44.24142,202408291332202778,
2-11,C_HumanVertical,2,Q3FrontDown,-1.184769,18.47141,44.43211,-41.77878,-94.02985,119.1992,-44.24142,202408291332202997,
2-11,C_HumanVertical,2,Q3FrontDown,-1.781037,18.91533,44.76103,-41.97289,-94.35077,119.1986,-44.24011,202408291332203317,
2-11,C_HumanVertical,2,Q3FrontDown,-1.781037,18.91533,44.76103,-41.97289,-94.35077,119.1986,-44.24011,202408291332203547,
2-11,C_HumanVertical,2,Q3FrontDown,-2.100427,19.14823,44.99062,-42.07979,-94.49899,119.1988,-44.2405,202408291332203815,
2-11,C_HumanVertical,2,Q3FrontDown,-2.396046,19.38964,45.16457,-42.18478,-94.63485,119.1986,-44.24147,202408291332203969,
2-11,C_HumanVertical,2,Q3FrontDown,-2.396046,19.38964,45.16457,-42.18478,-94.63485,119.1986,-44.24147,202408291332204144,
2-11,C_HumanVertical,2,Q3FrontDown,-2.744991,19.66432,45.38623,-42.29713,-94.80185,119.1992,-44.24411,202408291332204307,
2-11,C_HumanVertical,2,Q3FrontDown,-2.744991,19.66432,45.38623,-42.29713,-94.80185,119.1992,-44.24411,202408291332204524,
2-11,C_HumanVertical,2,Q3FrontDown,-3.080939,19.91286,45.57739,-42.40701,-94.96658,119.1988,-44.24577,202408291332204794,
2-11,C_HumanVertical,2,Q3FrontDown,-3.400907,20.1642,45.75194,-42.51193,-95.11863,119.1991,-44.24644,202408291332205108,
2-11,C_HumanVertical,2,Q3FrontDown,-3.744754,20.45259,45.94053,-42.59937,-95.29002,119.1989,-44.24634,202408291332205448,
2-11,C_HumanVertical,2,Q3FrontDown,-4.056287,20.74076,46.13536,-42.66604,-95.449,119.1977,-44.24658,202408291332205671,
2-11,C_HumanVertical,2,Q3FrontDown,-4.384942,21.0429,46.36826,-42.71866,-95.60896,119.1966,-44.2473,202408291332205941,
2-11,C_HumanVertical,2,Q3FrontDown,-4.384942,21.0429,46.36826,-42.71866,-95.60896,119.1966,-44.2473,202408291332206228,
2-11,C_HumanVertical,2,Q3FrontDown,-4.690478,21.3664,46.55215,-42.72785,-95.77611,119.1958,-44.24687,202408291332206431,
2-11,C_HumanVertical,2,Q3FrontDown,-4.954425,21.67865,46.70733,-42.73962,-95.93382,119.1959,-44.24659,202408291332206670,
2-11,C_HumanVertical,2,Q3FrontDown,-4.954425,21.67865,46.70733,-42.73962,-95.93382,119.1959,-44.24659,202408291332206821,
2-11,C_HumanVertical,2,Q3FrontDown,-5.191909,21.96593,46.85128,-42.75605,-96.10316,119.1954,-44.2463,202408291332207138,
2-11,C_HumanVertical,2,Q3FrontDown,-5.516284,22.28769,47.10224,-42.78207,-96.32843,119.1969,-44.24708,202408291332207469,
2-11,C_HumanVertical,2,Q3FrontDown,-5.809885,22.57973,47.30213,-42.79581,-96.43267,119.1958,-44.26462,202408291332207671,
2-11,C_HumanVertical,2,Q3FrontDown,-5.809885,22.57973,47.30213,-42.79581,-96.43267,119.1958,-44.26462,202408291332207842,
2-11,C_HumanVertical,2,Q3FrontDown,-6.06559,22.85982,47.43084,-42.80326,-96.45265,119.1947,-44.2874,202408291332208106,
2-11,C_HumanVertical,2,Q3FrontDown,-6.06559,22.85982,47.43084,-42.80326,-96.45265,119.1947,-44.2874,202408291332208269,
2-11,C_HumanVertical,2,Q3FrontDown,-6.417932,23.16744,47.66191,-42.81815,-96.46117,119.1971,-44.36058,202408291332208469,
2-11,C_HumanVertical,2,Q3FrontDown,-6.785673,23.46088,47.94725,-42.82999,-96.46426,119.1965,-44.4375,202408291332208617,
2-11,C_HumanVertical,2,Q3FrontDown,-6.785673,23.46088,47.94725,-42.82999,-96.46426,119.1965,-44.4375,202408291332208815,
2-11,C_HumanVertical,2,Q3FrontDown,-7.152871,23.76385,48.23452,-42.85573,-96.46475,119.1972,-44.5158,202408291332209026,
2-11,C_HumanVertical,2,Q3FrontDown,-7.152871,23.76385,48.23452,-42.85573,-96.46475,119.1972,-44.5158,202408291332209187,
2-11,C_HumanVertical,2,Q3FrontDown,-7.586317,24.07482,48.54454,-42.85456,-96.46461,119.1971,-44.56484,202408291332209443,
2-11,C_HumanVertical,2,Q3FrontDown,-7.586317,24.07482,48.54454,-42.85456,-96.46461,119.1971,-44.56484,202408291332209633,
2-11,C_HumanVertical,2,Q3FrontDown,-8.401885,24.64929,49.04794,-42.85755,-96.46521,119.1967,-44.65198,202408291332209944,
2-11,C_HumanVertical,2,Q3FrontDown,-8.401885,24.64929,49.04794,-42.85755,-96.46521,119.1967,-44.65198,202408291332210148,
2-11,C_HumanVertical,2,Q3FrontDown,-8.853188,24.95543,49.37466,-42.8419,-96.46525,119.1984,-44.69605,202408291332210450,
2-11,C_HumanVertical,2,Q3FrontDown,-9.299386,25.26521,49.67059,-42.80401,-96.4646,119.2006,-44.7365,202408291332210614,
2-11,C_HumanVertical,2,Q3FrontDown,-9.299386,25.26521,49.67059,-42.80401,-96.4646,119.2006,-44.7365,202408291332210825,
2-11,C_HumanVertical,2,Q3FrontDown,-9.299386,25.26521,49.67059,-42.80401,-96.4646,119.2006,-44.7365,202408291332211107,
2-11,C_HumanVertical,2,Q3FrontDown,-10.17052,25.91952,50.3882,-42.68079,-96.46056,119.3015,-44.81991,202408291332211342,
2-11,C_HumanVertical,2,Q3FrontDown,-10.17052,25.91952,50.3882,-42.68079,-96.46056,119.3015,-44.81991,202408291332211635,
2-11,C_HumanVertical,2,Q3FrontDown,-10.63796,26.27783,50.7851,-42.57485,-96.4604,119.3943,-44.85442,202408291332211812,
2-11,C_HumanVertical,2,Q3FrontDown,-11.13678,26.61979,51.2145,-42.46273,-96.45969,119.5199,-44.88313,202408291332211981,
2-11,C_HumanVertical,2,Q3FrontDown,-11.59559,26.9797,51.62731,-42.3374,-96.45213,119.6853,-44.91042,202408291332212336,
2-11,C_HumanVertical,2,Q3FrontDown,-12.05779,27.31305,51.98528,-42.19668,-96.44646,119.8501,-44.93659,202408291332212606,
2-11,C_HumanVertical,2,Q3FrontDown,-12.05779,27.31305,51.98528,-42.19668,-96.44646,119.8501,-44.93659,202408291332212771,
2-11,C_HumanVertical,2,Q3FrontDown,-12.05779,27.31305,51.98528,-42.19668,-96.44646,119.8501,-44.93659,202408291332212949,
2-11,C_HumanVertical,2,Q3FrontDown,-12.50236,27.64329,52.32083,-42.04778,-96.44428,120.0033,-44.96003,202408291332213114,
2-11,C_HumanVertical,2,Q3FrontDown,-12.97988,28.00747,52.72253,-41.88041,-96.44245,120.2576,-44.98061,202408291332213282,
2-11,C_HumanVertical,2,Q3FrontDown,-12.97988,28.00747,52.72253,-41.88041,-96.44245,120.2576,-44.98061,202408291332213522,
2-11,C_HumanVertical,2,Q3FrontDown,-13.47904,28.34845,53.13254,-41.7357,-96.44218,120.4912,-45.00757,202408291332213818,
2-11,C_HumanVertical,2,Q3FrontDown,-14.01038,28.7058,53.57904,-41.58571,-96.44212,120.7501,-45.04023,202408291332214023,
2-11,C_HumanVertical,2,Q3FrontDown,-14.52822,29.06932,54.02886,-41.44154,-96.44183,121.0472,-45.05979,202408291332214309,
2-11,C_HumanVertical,2,Q3FrontDown,-14.52822,29.06932,54.02886,-41.44154,-96.44183,121.0472,-45.05979,202408291332214502,
2-11,C_HumanVertical,2,Q3FrontDown,-15.07771,29.42614,54.42514,-41.28189,-96.44193,121.3808,-45.08231,202408291332214770,
2-11,C_HumanVertical,2,Q3FrontDown,-15.64173,29.7679,54.83474,-41.13538,-96.4426,121.7062,-45.10858,202408291332214929,
2-11,C_HumanVertical,2,Q3FrontDown,-15.64173,29.7679,54.83474,-41.13538,-96.4426,121.7062,-45.10858,202408291332215133,
2-11,C_HumanVertical,2,Q3FrontDown,-16.19587,30.11561,55.17844,-41.01373,-96.4426,122.0039,-45.13497,202408291332215443,
2-11,C_HumanVertical,2,Q3FrontDown,-16.79628,30.46674,55.49325,-40.88546,-96.48326,122.2945,-45.171,202408291332215681,
2-11,C_HumanVertical,2,Q3FrontDown,-17.4239,30.83487,55.77299,-40.77608,-96.53265,122.6079,-45.2111,202408291332215950,
2-11,C_HumanVertical,2,Q3FrontDown,-18.07259,31.19468,56.04986,-40.65216,-96.56723,122.8868,-45.23413,202408291332216292,
2-11,C_HumanVertical,2,Q3FrontDown,-18.07259,31.19468,56.04986,-40.65216,-96.56723,122.8868,-45.23413,202408291332216431,
2-11,C_HumanVertical,2,Q3FrontDown,-18.7515,31.60074,56.33767,-40.5121,-96.5928,123.1623,-45.2576,202408291332216631,
2-11,C_HumanVertical,2,Q3FrontDown,-18.7515,31.60074,56.33767,-40.5121,-96.5928,123.1623,-45.2576,202408291332216846,
2-11,C_HumanVertical,2,Q3FrontDown,-19.46045,32.02782,56.59995,-40.35432,-96.61598,123.4411,-45.2814,202408291332217177,
2-11,C_HumanVertical,2,Q3FrontDown,-20.15142,32.48661,56.90887,-40.21187,-96.63014,123.6343,-45.34967,202408291332217441,
2-11,C_HumanVertical,2,Q3FrontDown,-20.80109,32.9218,57.1516,-40.08738,-96.63985,123.7893,-45.41223,202408291332217767,
2-11,C_HumanVertical,2,Q3FrontDown,-21.47793,33.37402,57.3424,-39.93875,-96.65437,123.9167,-45.4748,202408291332217971,
2-11,C_HumanVertical,2,Q3FrontDown,-21.47793,33.37402,57.3424,-39.93875,-96.65437,123.9167,-45.4748,202408291332218281,
2-11,C_HumanVertical,2,Q3FrontDown,-22.06385,33.81335,57.57754,-39.79478,-96.67468,124.0429,-45.54747,202408291332218439,
2-11,C_HumanVertical,2,Q3FrontDown,-22.68935,34.26566,57.8036,-39.64438,-96.68858,124.1778,-45.61954,202408291332218646,
2-11,C_HumanVertical,2,Q3FrontDown,-22.68935,34.26566,57.8036,-39.64438,-96.68858,124.1778,-45.61954,202408291332218873,
2-11,C_HumanVertical,2,Q3FrontDown,-23.30268,34.7077,58.00468,-39.52272,-96.69464,124.3354,-45.68575,202408291332219047,
2-11,C_HumanVertical,2,Q3FrontDown,-23.87263,35.12205,58.22696,-39.39407,-96.70032,124.4866,-45.73461,202408291332219302,
2-11,C_HumanVertical,2,Q3FrontDown,-23.87263,35.12205,58.22696,-39.39407,-96.70032,124.4866,-45.73461,202408291332219475,
2-11,C_HumanVertical,2,Q3FrontDown,-24.41717,35.53947,58.44207,-39.24927,-96.70655,124.6552,-45.76831,202408291332219804,
2-11,C_HumanVertical,2,Q3FrontDown,-24.94102,35.93986,58.63633,-39.11189,-96.70957,124.8311,-45.78939,202408291332220056,
2-11,C_HumanVertical,2,Q3FrontDown,-25.42384,36.31187,58.80463,-38.95882,-96.70998,124.97,-45.81166,202408291332220367,
2-11,C_HumanVertical,2,Q3FrontDown,-25.88098,36.66032,58.98396,-38.80685,-96.71006,125.0966,-45.83146,202408291332220800,
2-11,C_HumanVertical,2,Q3FrontDown,-26.33135,36.99202,59.18583,-38.681,-96.71022,125.2234,-45.85538,202408291332220937,
2-11,C_HumanVertical,2,Q3FrontDown,-26.33135,36.99202,59.18583,-38.681,-96.71022,125.2234,-45.85538,202408291332221137,
2-11,C_HumanVertical,2,Q3FrontDown,-26.72718,37.28099,59.34208,-38.55414,-96.71024,125.3325,-45.87963,202408291332221380,
2-11,C_HumanVertical,2,Q3FrontDown,-27.10456,37.55616,59.48288,-38.42746,-96.71001,125.4317,-45.91194,202408291332221668,
2-11,C_HumanVertical,2,Q3FrontDown,-27.47965,37.80274,59.63806,-38.28851,-96.70992,125.5224,-45.95518,202408291332221931,
2-11,C_HumanVertical,2,Q3FrontDown,-27.47965,37.80274,59.63806,-38.28851,-96.70992,125.5224,-45.95518,202408291332222216,
2-11,C_HumanVertical,2,Q3FrontDown,-27.80455,38.02161,59.77114,-38.15554,-96.71012,125.611,-46.00784,202408291332222555,
2-11,C_HumanVertical,2,Q3FrontDown,-28.10234,38.20275,59.88805,-38.02848,-96.70843,125.7148,-46.05092,202408291332222762,
2-11,C_HumanVertical,2,Q3FrontDown,-28.10234,38.20275,59.88805,-38.02848,-96.70843,125.7148,-46.05092,202408291332222946,
2-11,C_HumanVertical,2,Q3FrontDown,-28.67649,38.50767,60.01424,-37.77795,-96.70769,125.9167,-46.12361,202408291332223264,
2-11,C_HumanVertical,2,Q3FrontDown,-28.67649,38.50767,60.01424,-37.77795,-96.70769,125.9167,-46.12361,202408291332223497,
2-11,C_HumanVertical,2,Q3FrontDown,-28.67649,38.50767,60.01424,-37.77795,-96.70769,125.9167,-46.12361,202408291332223696,
2-11,C_HumanVertical,2,Q3FrontDown,-29.15289,38.69751,60.04221,-37.54777,-96.70743,126.1142,-46.16181,202408291332223967,
2-11,C_HumanVertical,2,Q3FrontDown,-29.15289,38.69751,60.04221,-37.54777,-96.70743,126.1142,-46.16181,202408291332224144,
2-11,C_HumanVertical,2,Q3FrontDown,-29.34712,38.77834,60.04449,-37.42876,-96.7076,126.2089,-46.17347,202408291332224326,
2-11,C_HumanVertical,2,Q3FrontDown,-29.34712,38.77834,60.04449,-37.42876,-96.7076,126.2089,-46.17347,202408291332224508,
2-11,C_HumanVertical,2,Q3FrontDown,-29.53213,38.83236,60.04457,-37.3331,-96.69598,126.2892,-46.19713,202408291332224792,
2-11,C_HumanVertical,2,Q3FrontDown,-29.53213,38.83236,60.04457,-37.3331,-96.69598,126.2892,-46.19713,202408291332224941,
2-11,C_HumanVertical,2,Q3FrontDown,-29.72298,38.86633,60.04445,-37.26669,-96.68993,126.364,-46.23082,202408291332225157,
2-11,C_HumanVertical,2,Q3FrontDown,-29.90374,38.89455,60.04147,-37.20745,-96.69005,126.4105,-46.29724,202408291332225377,
2-11,C_HumanVertical,2,Q3FrontDown,-30.05059,38.9198,60.01589,-37.15822,-96.68909,126.4611,-46.3481,202408291332225695,
2-11,C_HumanVertical,2,Q3FrontDown,-30.18443,38.93416,59.98545,-37.11837,-96.68821,126.5152,-46.39562,202408291332225957,
2-11,C_HumanVertical,2,Q3FrontDown,-30.18443,38.93416,59.98545,-37.11837,-96.68821,126.5152,-46.39562,202408291332226142,
2-11,C_HumanVertical,2,Q3FrontDown,-30.18443,38.93416,59.98545,-37.11837,-96.68821,126.5152,-46.39562,202408291332226314,
2-11,C_HumanVertical,2,Q3FrontDown,-30.30681,38.94815,59.96597,-37.07867,-96.6879,126.5753,-46.4446,202408291332226481,
2-11,C_HumanVertical,2,Q3FrontDown,-30.4139,38.95957,59.93637,-37.06059,-96.67257,126.6456,-46.48553,202408291332226723,
2-11,C_HumanVertical,2,Q3FrontDown,-30.5132,38.97249,59.89376,-37.05172,-96.6503,126.7207,-46.52376,202408291332227019,
2-11,C_HumanVertical,2,Q3FrontDown,-30.60089,38.97751,59.8074,-37.05362,-96.61385,126.8082,-46.55675,202408291332227270,
2-11,C_HumanVertical,2,Q3FrontDown,-30.60089,38.97751,59.8074,-37.05362,-96.61385,126.8082,-46.55675,202408291332227448,
2-11,C_HumanVertical,2,Q3FrontDown,-30.60089,38.97751,59.8074,-37.05362,-96.61385,126.8082,-46.55675,202408291332227606,
2-11,C_HumanVertical,2,Q3FrontDown,-30.68447,38.98133,59.73494,-37.05299,-96.58763,126.8955,-46.58597,202408291332227842,
2-11,C_HumanVertical,2,Q3FrontDown,-30.76003,38.98878,59.65387,-37.05335,-96.56916,126.9777,-46.61765,202408291332228097,
2-11,C_HumanVertical,2,Q3FrontDown,-30.76003,38.98878,59.65387,-37.05335,-96.56916,126.9777,-46.61765,202408291332228280,
2-11,C_HumanVertical,2,Q3FrontDown,-30.82062,38.98654,59.4301,-37.07301,-96.5269,127.098,-46.61766,202408291332228512,
2-11,C_HumanVertical,2,Q3FrontDown,-30.884,38.98717,59.22502,-37.08716,-96.50388,127.1962,-46.61739,202408291332228827,
2-11,C_HumanVertical,2,Q3FrontDown,-30.95551,38.99312,59.0187,-37.10637,-96.48374,127.2855,-46.61736,202408291332229032,
2-11,C_HumanVertical,2,Q3FrontDown,-31.01104,38.99319,58.65544,-37.11887,-96.47379,127.3539,-46.61758,202408291332229296,
2-11,C_HumanVertical,2,Q3FrontDown,-31.08504,38.99469,58.28026,-37.12751,-96.46986,127.4219,-46.61528,202408291332229639,
2-11,C_HumanVertical,2,Q3FrontDown,-31.17978,39.01826,57.85124,-37.14726,-96.46927,127.5119,-46.61034,202408291332230041,
2-11,C_HumanVertical,2,Q3FrontDown,-31.30605,39.0329,57.34675,-37.15002,-96.46967,127.602,-46.59982,202408291332230304,
2-11,C_HumanVertical,2,Q3FrontDown,-31.44088,39.06219,56.80736,-37.14553,-96.46079,127.6801,-46.59253,202408291332230593,
2-11,C_HumanVertical,2,Q3FrontDown,-31.44088,39.06219,56.80736,-37.14553,-96.46079,127.6801,-46.59253,202408291332230746,
2-11,C_HumanVertical,2,Q3FrontDown,-31.58817,39.12345,56.25001,-37.13632,-96.44131,127.7339,-46.59116,202408291332230937,
2-11,C_HumanVertical,2,Q3FrontDown,-31.58817,39.12345,56.25001,-37.13632,-96.44131,127.7339,-46.59116,202408291332231130,
