mpan31415/robot-x-ar/study2/data/raw_all_participants/Participant_2-5_1.csv
ParticipantID,Condition,Trial,PostureID,J1,J2,J3,J4,J5,J6,J7,Timestamp,
2-5,C_HumanVertical,1,Q1FrontUp,-30.66028,28.20043,74.83424,-23.4993,-128.9235,162.5594,-47.71447,202408231534507032,
2-5,C_HumanVertical,1,Q1FrontUp,-30.66028,28.20035,74.83402,-23.49952,-128.9246,162.5593,-47.71447,202408231534507449,
2-5,C_HumanVertical,1,Q1FrontUp,-30.66039,28.20031,74.83388,-23.49943,-128.925,162.5592,-47.71443,202408231534507712,
2-5,C_HumanVertical,1,Q1FrontUp,-30.66039,28.20031,74.83388,-23.49943,-128.925,162.5592,-47.71443,202408231534507946,
2-5,C_HumanVertical,1,Q1FrontUp,-30.66016,28.19997,74.83438,-23.49939,-128.9259,162.5591,-47.71431,202408231534508324,
2-5,C_HumanVertical,1,Q1FrontUp,-30.66016,28.19997,74.83438,-23.49939,-128.9259,162.5591,-47.71431,202408231534508659,
2-5,C_HumanVertical,1,Q1FrontUp,-30.66017,28.20023,74.83444,-23.49944,-128.9267,162.5594,-47.71462,202408231534509011,
2-5,C_HumanVertical,1,Q1FrontUp,-30.6605,28.20023,74.83428,-23.49943,-128.9273,162.5594,-47.71494,202408231534509308,
2-5,C_HumanVertical,1,Q1FrontUp,-30.66028,28.20056,74.83438,-23.49923,-128.9283,162.5594,-47.71457,202408231534509587,
2-5,C_HumanVertical,1,Q1FrontUp,-30.6599,28.20005,74.83501,-23.49946,-128.9403,162.5594,-47.71474,202408231534509875,
2-5,C_HumanVertical,1,Q1FrontUp,-30.66024,28.20036,74.83485,-23.49982,-128.9603,162.5594,-47.71438,202408231534510091,
2-5,C_HumanVertical,1,Q1FrontUp,-30.66024,28.20036,74.83485,-23.49982,-128.9603,162.5594,-47.71438,202408231534510311,
2-5,C_HumanVertical,1,Q1FrontUp,-30.66022,28.20013,74.83479,-23.50012,-128.9703,162.5595,-47.71436,202408231534510552,
2-5,C_HumanVertical,1,Q1FrontUp,-30.66045,28.20026,74.83452,-23.49981,-128.9851,162.5595,-47.71447,202408231534510727,
2-5,C_HumanVertical,1,Q1FrontUp,-30.66023,28.20025,74.83464,-23.5005,-129.0041,162.5595,-47.71434,202408231534511072,
2-5,C_HumanVertical,1,Q1FrontUp,-30.66023,28.20025,74.83464,-23.5005,-129.0041,162.5595,-47.71434,202408231534511223,
2-5,C_HumanVertical,1,Q1FrontUp,-30.66049,28.20056,74.83471,-23.50063,-129.0108,162.5595,-47.71438,202408231534511452,
2-5,C_HumanVertical,1,Q1FrontUp,-30.66069,28.2002,74.83496,-23.50072,-129.0209,162.5595,-47.71461,202408231534511725,
2-5,C_HumanVertical,1,Q1FrontUp,-30.66042,28.20041,74.8352,-23.50092,-129.0366,162.5594,-47.71487,202408231534512080,
2-5,C_HumanVertical,1,Q1FrontUp,-30.66042,28.20041,74.8352,-23.50092,-129.0366,162.5594,-47.71487,202408231534512246,
2-5,C_HumanVertical,1,Q1FrontUp,-30.66045,28.20035,74.8355,-23.50078,-129.0438,162.5595,-47.71471,202408231534512418,
2-5,C_HumanVertical,1,Q1FrontUp,-30.6604,28.20059,74.83622,-23.5008,-129.0506,162.5595,-47.71461,202408231534512691,
2-5,C_HumanVertical,1,Q1FrontUp,-30.6604,28.20059,74.83622,-23.5008,-129.0506,162.5595,-47.71461,202408231534512870,
2-5,C_HumanVertical,1,Q1FrontUp,-30.66029,28.20047,74.83669,-23.50055,-129.0573,162.5595,-47.71452,202408231534513021,
2-5,C_HumanVertical,1,Q1FrontUp,-30.66029,28.20047,74.83669,-23.50055,-129.0573,162.5595,-47.71452,202408231534513260,
2-5,C_HumanVertical,1,Q1FrontUp,-30.66029,28.20047,74.83669,-23.50055,-129.0573,162.5595,-47.71452,202408231534513549,
2-5,C_HumanVertical,1,Q1FrontUp,-30.66052,28.20041,74.83609,-23.50087,-129.0675,162.5595,-47.71457,202408231534513799,
2-5,C_HumanVertical,1,Q1FrontUp,-30.66052,28.20041,74.83609,-23.50087,-129.0675,162.5595,-47.71457,202408231534514101,
2-5,C_HumanVertical,1,Q1FrontUp,-30.6603,28.20035,74.8345,-23.50045,-129.0713,162.5596,-47.71465,202408231534514409,
2-5,C_HumanVertical,1,Q1FrontUp,-30.6603,28.20035,74.8345,-23.50045,-129.0713,162.5596,-47.71465,202408231534514567,
2-5,C_HumanVertical,1,Q1FrontUp,-30.65954,28.20052,74.83434,-23.49972,-129.0762,162.5597,-47.71445,202408231534514757,
2-5,C_HumanVertical,1,Q1FrontUp,-30.65918,28.2004,74.83366,-23.49943,-129.0892,162.5599,-47.71481,202408231534515047,
2-5,C_HumanVertical,1,Q1FrontUp,-30.65918,28.2004,74.83366,-23.49943,-129.0892,162.5599,-47.71481,202408231534515211,
2-5,C_HumanVertical,1,Q1FrontUp,-30.65848,28.20061,74.83402,-23.49903,-129.0966,162.5597,-47.71479,202408231534515544,
2-5,C_HumanVertical,1,Q1FrontUp,-30.6585,28.20035,74.83748,-23.49866,-129.1073,162.5598,-47.71479,202408231534515731,
2-5,C_HumanVertical,1,Q1FrontUp,-30.6585,28.20035,74.83748,-23.49866,-129.1073,162.5598,-47.71479,202408231534515935,
2-5,C_HumanVertical,1,Q1FrontUp,-30.65804,28.20056,74.85079,-23.49685,-129.1213,162.5599,-47.71461,202408231534516226,
2-5,C_HumanVertical,1,Q1FrontUp,-30.65753,28.20045,74.8511,-23.49369,-129.1231,162.56,-47.71471,202408231534516458,
2-5,C_HumanVertical,1,Q1FrontUp,-30.6573,28.20004,74.84595,-23.49183,-129.126,162.56,-47.71438,202408231534516724,
2-5,C_HumanVertical,1,Q1FrontUp,-30.6573,28.20004,74.84595,-23.49183,-129.126,162.56,-47.71438,202408231534516872,
2-5,C_HumanVertical,1,Q1FrontUp,-30.65724,28.19992,74.8355,-23.49083,-129.1308,162.5599,-47.71438,202408231534517091,
2-5,C_HumanVertical,1,Q1FrontUp,-30.65771,28.20039,74.83506,-23.48539,-129.1317,162.56,-47.71469,202408231534517360,
2-5,C_HumanVertical,1,Q1FrontUp,-30.65771,28.20039,74.83506,-23.48539,-129.1317,162.56,-47.71469,202408231534517523,
2-5,C_HumanVertical,1,Q1FrontUp,-30.65784,28.20074,74.83443,-23.47881,-129.132,162.56,-47.71443,202408231534517698,
2-5,C_HumanVertical,1,Q1FrontUp,-30.65784,28.20074,74.83443,-23.47881,-129.132,162.56,-47.71443,202408231534517873,
2-5,C_HumanVertical,1,Q1FrontUp,-30.65775,28.20087,74.83376,-23.47735,-129.1321,162.56,-47.71437,202408231534518120,
2-5,C_HumanVertical,1,Q1FrontUp,-30.65721,28.20089,74.83148,-23.47764,-129.1346,162.56,-47.71479,202408231534518373,
2-5,C_HumanVertical,1,Q1FrontUp,-30.65721,28.20089,74.83148,-23.47764,-129.1346,162.56,-47.71479,202408231534518559,
2-5,C_HumanVertical,1,Q1FrontUp,-30.65721,28.20089,74.83148,-23.47764,-129.1346,162.56,-47.71479,202408231534518721,
2-5,C_HumanVertical,1,Q1FrontUp,-30.65715,28.20071,74.82574,-23.47717,-129.1357,162.5603,-47.71478,202408231534518900,
2-5,C_HumanVertical,1,Q1FrontUp,-30.65725,28.20033,74.82394,-23.47717,-129.1364,162.5602,-47.71434,202408231534519081,
2-5,C_HumanVertical,1,Q1FrontUp,-30.65728,28.20067,74.82649,-23.47695,-129.1369,162.56,-47.71507,202408231534519415,
2-5,C_HumanVertical,1,Q1FrontUp,-30.65728,28.20067,74.82649,-23.47695,-129.1369,162.56,-47.71507,202408231534519592,
2-5,C_HumanVertical,1,Q1FrontUp,-30.65715,28.20097,74.82761,-23.477,-129.1367,162.5603,-47.71541,202408231534519877,
2-5,C_HumanVertical,1,Q1FrontUp,-30.65715,28.20097,74.82761,-23.477,-129.1367,162.5603,-47.71541,202408231534520047,
2-5,C_HumanVertical,1,Q1FrontUp,-30.65664,28.20078,74.82806,-23.47705,-129.1368,162.5604,-47.71582,202408231534520219,
2-5,C_HumanVertical,1,Q1FrontUp,-30.65573,28.20116,74.82835,-23.47727,-129.1365,162.5601,-47.71692,202408231534520381,
2-5,C_HumanVertical,1,Q1FrontUp,-30.65573,28.20116,74.82835,-23.47727,-129.1365,162.5601,-47.71692,202408231534520599,
2-5,C_HumanVertical,1,Q1FrontUp,-30.65542,28.20099,74.82576,-23.47688,-129.1369,162.5602,-47.71814,202408231534520880,
2-5,C_HumanVertical,1,Q1FrontUp,-30.65546,28.20102,74.82381,-23.47687,-129.1369,162.5602,-47.71893,202408231534521045,
2-5,C_HumanVertical,1,Q1FrontUp,-30.65546,28.20102,74.82381,-23.47687,-129.1369,162.5602,-47.71893,202408231534521275,
2-5,C_HumanVertical,1,Q1FrontUp,-30.6539,28.20069,74.82031,-23.47642,-129.1465,162.5601,-47.71949,202408231534521613,
2-5,C_HumanVertical,1,Q1FrontUp,-30.64466,28.2009,74.81319,-23.47457,-129.1535,162.5603,-47.71986,202408231534521891,
2-5,C_HumanVertical,1,Q1FrontUp,-30.6375,28.20099,74.80585,-23.47218,-129.155,162.5603,-47.7201,202408231534522043,
2-5,C_HumanVertical,1,Q1FrontUp,-30.6375,28.20099,74.80585,-23.47218,-129.155,162.5603,-47.7201,202408231534522192,
2-5,C_HumanVertical,1,Q1FrontUp,-30.63437,28.20099,74.79909,-23.47188,-129.1561,162.5601,-47.72014,202408231534522376,
2-5,C_HumanVertical,1,Q1FrontUp,-30.63437,28.20099,74.79909,-23.47188,-129.1561,162.5601,-47.72014,202408231534522555,
2-5,C_HumanVertical,1,Q1FrontUp,-30.63337,28.20084,74.79067,-23.47209,-129.1585,162.5603,-47.71998,202408231534522745,
2-5,C_HumanVertical,1,Q1FrontUp,-30.63427,28.20107,74.78242,-23.47186,-129.1619,162.5603,-47.72034,202408231534523036,
2-5,C_HumanVertical,1,Q1FrontUp,-30.63427,28.20107,74.78242,-23.47186,-129.1619,162.5603,-47.72034,202408231534523218,
2-5,C_HumanVertical,1,Q1FrontUp,-30.63503,28.20098,74.77313,-23.47152,-129.1722,162.56,-47.72065,202408231534523372,
2-5,C_HumanVertical,1,Q1FrontUp,-30.63503,28.20098,74.77313,-23.47152,-129.1722,162.56,-47.72065,202408231534523557,
2-5,C_HumanVertical,1,Q1FrontUp,-30.63456,28.20077,74.76649,-23.47124,-129.1864,162.5603,-47.72105,202408231534523778,
2-5,C_HumanVertical,1,Q1FrontUp,-30.63456,28.20077,74.76649,-23.47124,-129.1864,162.5603,-47.72105,202408231534524062,
2-5,C_HumanVertical,1,Q1FrontUp,-30.63433,28.20074,74.7612,-23.47163,-129.2068,162.5602,-47.72368,202408231534524247,
2-5,C_HumanVertical,1,Q1FrontUp,-30.6339,28.20081,74.75707,-23.4718,-129.2271,162.5607,-47.74691,202408231534524521,
2-5,C_HumanVertical,1,Q1FrontUp,-30.6345,28.20126,74.75169,-23.47155,-129.2511,162.5611,-47.76393,202408231534524708,
2-5,C_HumanVertical,1,Q1FrontUp,-30.6345,28.20126,74.75169,-23.47155,-129.2511,162.5611,-47.76393,202408231534524909,
2-5,C_HumanVertical,1,Q1FrontUp,-30.63522,28.2013,74.74483,-23.47145,-129.2761,162.5614,-47.78467,202408231534525197,
2-5,C_HumanVertical,1,Q1FrontUp,-30.63522,28.2013,74.74483,-23.47145,-129.2761,162.5614,-47.78467,202408231534525363,
2-5,C_HumanVertical,1,Q1FrontUp,-30.63493,28.20098,74.73695,-23.47145,-129.3041,162.5617,-47.80736,202408231534525534,
2-5,C_HumanVertical,1,Q1FrontUp,-30.63592,28.20188,74.73437,-23.47052,-129.3277,162.5978,-47.82735,202408231534525723,
2-5,C_HumanVertical,1,Q1FrontUp,-30.63592,28.20188,74.73437,-23.47052,-129.3277,162.5978,-47.82735,202408231534525926,
2-5,C_HumanVertical,1,Q1FrontUp,-30.63571,28.20157,74.73486,-23.46904,-129.3512,162.695,-47.85177,202408231534526205,
2-5,C_HumanVertical,1,Q1FrontUp,-30.63571,28.20177,74.73557,-23.46949,-129.4044,162.8252,-47.87671,202408231534526372,
2-5,C_HumanVertical,1,Q1FrontUp,-30.63576,28.20205,74.73534,-23.46914,-129.4581,162.995,-47.90564,202408231534526725,
2-5,C_HumanVertical,1,Q1FrontUp,-30.63576,28.20205,74.73534,-23.46914,-129.4581,162.995,-47.90564,202408231534526880,
2-5,C_HumanVertical,1,Q1FrontUp,-30.6345,28.20124,74.73595,-23.46955,-129.5055,163.1756,-47.9327,202408231534527100,
2-5,C_HumanVertical,1,Q1FrontUp,-30.6363,28.20173,74.73696,-23.46874,-129.5465,163.3972,-47.95279,202408231534527375,
2-5,C_HumanVertical,1,Q1FrontUp,-30.6363,28.20173,74.73696,-23.46874,-129.5465,163.3972,-47.95279,202408231534527588,
2-5,C_HumanVertical,1,Q1FrontUp,-30.637,28.20212,74.73869,-23.46841,-129.5932,163.6276,-47.97444,202408231534527889,
2-5,C_HumanVertical,1,Q1FrontUp,-30.63745,28.20191,74.74202,-23.46866,-129.6526,163.8877,-47.99166,202408231534528109,
2-5,C_HumanVertical,1,Q1FrontUp,-30.63943,28.20187,74.74761,-23.46818,-129.7404,164.22,-48.00715,202408231534528376,
2-5,C_HumanVertical,1,Q1FrontUp,-30.63943,28.20187,74.74761,-23.46818,-129.7404,164.22,-48.00715,202408231534528571,
2-5,C_HumanVertical,1,Q1FrontUp,-30.63943,28.20187,74.74761,-23.46818,-129.7404,164.22,-48.00715,202408231534528861,
2-5,C_HumanVertical,1,Q1FrontUp,-30.64236,28.20208,74.75867,-23.46812,-129.9459,164.9474,-48.03172,202408231534529103,
2-5,C_HumanVertical,1,Q1FrontUp,-30.64345,28.20124,74.76383,-23.46895,-130.0444,165.3344,-48.0452,202408231534529380,
2-5,C_HumanVertical,1,Q1FrontUp,-30.64345,28.20124,74.76383,-23.46895,-130.0444,165.3344,-48.0452,202408231534529545,
2-5,C_HumanVertical,1,Q1FrontUp,-30.64417,28.20064,74.77114,-23.46986,-130.1691,165.642,-48.06152,202408231534529879,
2-5,C_HumanVertical,1,Q1FrontUp,-30.64577,28.20077,74.7775,-23.47009,-130.3052,165.9097,-48.09654,202408231534530214,
2-5,C_HumanVertical,1,Q1FrontUp,-30.64849,28.20122,74.77853,-23.46942,-130.4466,166.2424,-48.15499,202408231534530420,
2-5,C_HumanVertical,1,Q1FrontUp,-30.64849,28.20122,74.77853,-23.46942,-130.4466,166.2424,-48.15499,202408231534530594,
2-5,C_HumanVertical,1,Q1FrontUp,-30.65266,28.20386,74.77845,-23.46639,-130.6124,166.6777,-48.22139,202408231534530874,
2-5,C_HumanVertical,1,Q1FrontUp,-30.66459,28.20819,74.77946,-23.46686,-130.7783,167.2498,-48.2876,202408231534531070,
2-5,C_HumanVertical,1,Q1FrontUp,-30.66823,28.2128,74.7798,-23.46848,-131.0153,167.8992,-48.38199,202408231534531391,
2-5,C_HumanVertical,1,Q1FrontUp,-30.66823,28.2128,74.7798,-23.46848,-131.0153,167.8992,-48.38199,202408231534531570,
2-5,C_HumanVertical,1,Q1FrontUp,-30.67192,28.21682,74.78036,-23.46778,-131.2387,168.5895,-48.4769,202408231534531873,
2-5,C_HumanVertical,1,Q1FrontUp,-30.67192,28.21682,74.78036,-23.46778,-131.2387,168.5895,-48.4769,202408231534532047,
2-5,C_HumanVertical,1,Q1FrontUp,-30.68153,28.22044,74.78284,-23.46798,-131.4333,169.3947,-48.56704,202408231534532250,
2-5,C_HumanVertical,1,Q1FrontUp,-30.68657,28.22919,74.79492,-23.4694,-131.6352,170.2604,-48.68523,202408231534532574,
2-5,C_HumanVertical,1,Q1FrontUp,-30.69322,28.23311,74.80503,-23.4695,-131.837,171.155,-48.83398,202408231534532879,
2-5,C_HumanVertical,1,Q1FrontUp,-30.69614,28.23256,74.81675,-23.46972,-132.0277,172.0314,-49.00903,202408231534533060,
2-5,C_HumanVertical,1,Q1FrontUp,-30.69614,28.23256,74.81675,-23.46972,-132.0277,172.0314,-49.00903,202408231534533222,
2-5,C_HumanVertical,1,Q1FrontUp,-30.69614,28.23256,74.81675,-23.46972,-132.0277,172.0314,-49.00903,202408231534533413,
2-5,C_HumanVertical,1,Q1FrontUp,-30.69673,28.23133,74.82726,-23.4699,-132.2136,172.8359,-49.17369,202408231534533588,
2-5,C_HumanVertical,1,Q1FrontUp,-30.70352,28.23256,74.8456,-23.46974,-132.4211,173.6661,-49.36384,202408231534533755,
2-5,C_HumanVertical,1,Q1FrontUp,-30.71691,28.23226,74.86708,-23.47204,-132.627,174.5286,-49.58155,202408231534534023,
2-5,C_HumanVertical,1,Q1FrontUp,-30.71691,28.23226,74.86708,-23.47204,-132.627,174.5286,-49.58155,202408231534534211,
2-5,C_HumanVertical,1,Q1FrontUp,-30.72223,28.2322,74.86829,-23.47075,-132.8051,175.363,-49.82689,202408231534534552,
2-5,C_HumanVertical,1,Q1FrontUp,-30.73261,28.23245,74.86755,-23.46959,-133.0147,176.1852,-50.04599,202408231534534748,
2-5,C_HumanVertical,1,Q1FrontUp,-30.73997,28.23272,74.86781,-23.47107,-133.2659,177.0363,-50.25296,202408231534535030,
2-5,C_HumanVertical,1,Q1FrontUp,-30.73997,28.23272,74.86781,-23.47107,-133.2659,177.0363,-50.25296,202408231534535200,
2-5,C_HumanVertical,1,Q1FrontUp,-30.74409,28.23347,74.86738,-23.47281,-133.4631,177.8476,-50.4635,202408231534535434,
2-5,C_HumanVertical,1,Q1FrontUp,-30.74565,28.23506,74.8661,-23.47367,-133.6281,178.6191,-50.68338,202408231534535713,
2-5,C_HumanVertical,1,Q1FrontUp,-30.74565,28.23506,74.8661,-23.47367,-133.6281,178.6191,-50.68338,202408231534535907,
2-5,C_HumanVertical,1,Q1FrontUp,-30.74573,28.23746,74.86625,-23.47372,-133.7393,179.341,-50.89887,202408231534536191,
2-5,C_HumanVertical,1,Q1FrontUp,-30.74586,28.23846,74.86587,-23.47365,-133.8488,180.022,-51.10249,202408231534536368,
2-5,C_HumanVertical,1,Q1FrontUp,-30.74586,28.23846,74.86587,-23.47365,-133.8488,180.022,-51.10249,202408231534536547,
2-5,C_HumanVertical,1,Q1FrontUp,-30.7463,28.23828,74.86593,-23.47416,-133.9551,180.6604,-51.30345,202408231534536703,
2-5,C_HumanVertical,1,Q1FrontUp,-30.7463,28.23828,74.86593,-23.47416,-133.9551,180.6604,-51.30345,202408231534536948,
2-5,C_HumanVertical,1,Q1FrontUp,-30.74692,28.23737,74.86666,-23.47461,-134.0562,181.2811,-51.47489,202408231534537188,
2-5,C_HumanVertical,1,Q1FrontUp,-30.75156,28.23759,74.86605,-23.47586,-134.1463,181.9349,-51.67022,202408231534537388,
2-5,C_HumanVertical,1,Q1FrontUp,-30.75156,28.23759,74.86605,-23.47586,-134.1463,181.9349,-51.67022,202408231534537567,
2-5,C_HumanVertical,1,Q1FrontUp,-30.75981,28.23901,74.86584,-23.48093,-134.2336,182.5937,-51.80962,202408231534537754,
2-5,C_HumanVertical,1,Q1FrontUp,-30.75981,28.23901,74.86584,-23.48093,-134.2336,182.5937,-51.80962,202408231534538027,
2-5,C_HumanVertical,1,Q1FrontUp,-30.76644,28.24049,74.86601,-23.49171,-134.3232,183.2742,-51.91225,202408231534538256,
2-5,C_HumanVertical,1,Q1FrontUp,-30.76703,28.24083,74.86591,-23.50643,-134.4033,183.8501,-52.01997,202408231534538426,
2-5,C_HumanVertical,1,Q1FrontUp,-30.76642,28.2405,74.86072,-23.5176,-134.4623,184.3538,-52.13791,202408231534538728,
2-5,C_HumanVertical,1,Q1FrontUp,-30.76642,28.2405,74.86072,-23.5176,-134.4623,184.3538,-52.13791,202408231534538865,
2-5,C_HumanVertical,1,Q1FrontUp,-30.76549,28.23973,74.85735,-23.52687,-134.5041,184.766,-52.26334,202408231534539057,
2-5,C_HumanVertical,1,Q1FrontUp,-30.76549,28.23973,74.85735,-23.52687,-134.5041,184.766,-52.26334,202408231534539257,
2-5,C_HumanVertical,1,Q1FrontUp,-30.76563,28.2405,74.85252,-23.53288,-134.5427,185.1502,-52.3909,202408231534539536,
2-5,C_HumanVertical,1,Q1FrontUp,-30.76521,28.24076,74.84963,-23.53366,-134.5856,185.4505,-52.47042,202408231534539701,
2-5,C_HumanVertical,1,Q1FrontUp,-30.76521,28.24076,74.84963,-23.53366,-134.5856,185.4505,-52.47042,202408231534539873,
2-5,C_HumanVertical,1,Q1FrontUp,-30.76586,28.24137,74.84915,-23.53256,-134.6308,185.6154,-52.51452,202408231534540081,
2-5,C_HumanVertical,1,Q1FrontUp,-30.76586,28.24137,74.84915,-23.53256,-134.6308,185.6154,-52.51452,202408231534540244,
2-5,C_HumanVertical,1,Q1FrontUp,-30.76628,28.24072,74.84331,-23.53103,-134.6747,185.7144,-52.55495,202408231534540536,
2-5,C_HumanVertical,1,Q1FrontUp,-30.76628,28.24072,74.84331,-23.53103,-134.6747,185.7144,-52.55495,202408231534540701,
2-5,C_HumanVertical,1,Q1FrontUp,-30.76597,28.24055,74.83672,-23.53063,-134.7239,185.7603,-52.57285,202408231534540865,
2-5,C_HumanVertical,1,Q1FrontUp,-30.76749,28.2428,74.82676,-23.52931,-134.7759,185.7605,-52.57528,202408231534541037,
2-5,C_HumanVertical,1,Q1FrontUp,-30.76749,28.2428,74.82676,-23.52931,-134.7759,185.7605,-52.57528,202408231534541210,
2-5,C_HumanVertical,1,Q1FrontUp,-30.76517,28.24537,74.81335,-23.52283,-134.8789,185.5421,-52.5737,202408231534541436,
2-5,C_HumanVertical,1,Q1FrontUp,-30.76135,28.24581,74.78207,-23.51475,-134.9467,185.1821,-52.55265,202408231534541699,
2-5,C_HumanVertical,1,Q1FrontUp,-30.76135,28.24581,74.78207,-23.51475,-134.9467,185.1821,-52.55265,202408231534541887,
2-5,C_HumanVertical,1,Q1FrontUp,-30.75725,28.24895,74.73318,-23.49993,-134.9744,184.597,-52.51593,202408231534542029,
2-5,C_HumanVertical,1,Q1FrontUp,-30.75809,28.25823,74.67951,-23.47122,-135.0016,184.0611,-52.48547,202408231534542358,
2-5,C_HumanVertical,1,Q1FrontUp,-30.75809,28.25823,74.67951,-23.47122,-135.0016,184.0611,-52.48547,202408231534542576,
2-5,C_HumanVertical,1,Q1FrontUp,-30.75824,28.27531,74.64488,-23.45318,-135.0215,183.4278,-52.44893,202408231534542866,
2-5,C_HumanVertical,1,Q1FrontUp,-30.76045,28.30229,74.6358,-23.43276,-135.0303,182.6096,-52.40633,202408231534543034,
2-5,C_HumanVertical,1,Q1FrontUp,-30.76045,28.30229,74.6358,-23.43276,-135.0303,182.6096,-52.40633,202408231534543275,
2-5,C_HumanVertical,1,Q1FrontUp,-30.75715,28.31853,74.63399,-23.4116,-135.0322,181.5239,-52.35551,202408231534543535,
2-5,C_HumanVertical,1,Q1FrontUp,-30.75779,28.33651,74.63329,-23.39171,-135.0323,180.4499,-52.31025,202408231534543778,
2-5,C_HumanVertical,1,Q1FrontUp,-30.75779,28.33651,74.63329,-23.39171,-135.0323,180.4499,-52.31025,202408231534544039,
2-5,C_HumanVertical,1,Q1FrontUp,-30.75823,28.36967,74.63175,-23.36584,-135.0326,179.4524,-52.26427,202408231534544210,
2-5,C_HumanVertical,1,Q1FrontUp,-30.75919,28.41177,74.63287,-23.33264,-135.0347,178.4787,-52.10302,202408231534544520,
2-5,C_HumanVertical,1,Q1FrontUp,-30.76012,28.44389,74.63235,-23.29334,-135.0366,177.6136,-51.97694,202408231534544701,
2-5,C_HumanVertical,1,Q1FrontUp,-30.76012,28.44389,74.63235,-23.29334,-135.0366,177.6136,-51.97694,202408231534544902,
2-5,C_HumanVertical,1,Q1FrontUp,-30.76009,28.47575,74.63224,-23.24831,-135.0419,176.8521,-51.86874,202408231534545198,
2-5,C_HumanVertical,1,Q1FrontUp,-30.71655,28.5072,74.60172,-23.16721,-135.0352,176.2384,-51.78711,202408231534545516,
2-5,C_HumanVertical,1,Q1FrontUp,-30.65555,28.53356,74.55523,-23.08893,-134.8474,175.8085,-51.74876,202408231534545688,
2-5,C_HumanVertical,1,Q1FrontUp,-30.65555,28.53356,74.55523,-23.08893,-134.8474,175.8085,-51.74876,202408231534545862,
2-5,C_HumanVertical,1,Q1FrontUp,-30.65555,28.53356,74.55523,-23.08893,-134.8474,175.8085,-51.74876,202408231534546091,
2-5,C_HumanVertical,1,Q1FrontUp,-30.40921,28.50754,74.38612,-22.90734,-133.6828,175.6356,-51.82444,202408231534546374,
2-5,C_HumanVertical,1,Q1FrontUp,-30.40921,28.50754,74.38612,-22.90734,-133.6828,175.6356,-51.82444,202408231534546620,
2-5,C_HumanVertical,1,Q1FrontUp,-30.15353,28.47213,74.27039,-22.82187,-132.7412,175.6818,-51.95678,202408231534546899,
2-5,C_HumanVertical,1,Q1FrontUp,-29.83992,28.39701,74.14514,-22.74131,-131.7372,175.735,-52.12742,202408231534547081,
2-5,C_HumanVertical,1,Q1FrontUp,-29.49977,28.27772,74.04881,-22.70489,-130.7671,175.7734,-52.28837,202408231534547362,
2-5,C_HumanVertical,1,Q1FrontUp,-29.49977,28.27772,74.04881,-22.70489,-130.7671,175.7734,-52.28837,202408231534547529,
2-5,C_HumanVertical,1,Q1FrontUp,-29.20001,28.16119,74.03471,-22.69673,-130.1793,175.7979,-52.36992,202408231534547855,
2-5,C_HumanVertical,1,Q1FrontUp,-29.06067,28.03996,74.08571,-22.83574,-130.1848,175.7906,-52.36992,202408231534548031,
2-5,C_HumanVertical,1,Q1FrontUp,-29.06067,28.03996,74.08571,-22.83574,-130.1848,175.7906,-52.36992,202408231534548264,
2-5,C_HumanVertical,1,Q1FrontUp,-28.96907,27.91546,74.11253,-22.92749,-130.1748,175.7874,-52.37208,202408231534548528,
2-5,C_HumanVertical,1,Q1FrontUp,-28.89514,27.84232,74.12302,-23.02958,-130.1061,175.7786,-52.38922,202408231534548700,
2-5,C_HumanVertical,1,Q1FrontUp,-28.89514,27.84232,74.12302,-23.02958,-130.1061,175.7786,-52.38922,202408231534548858,
2-5,C_HumanVertical,1,Q1FrontUp,-28.8751,27.79772,74.12324,-23.05741,-129.9958,175.7447,-52.42335,202408231534549224,
2-5,C_HumanVertical,1,Q1FrontUp,-28.81186,27.7909,74.11991,-23.1251,-129.7284,175.6962,-52.51144,202408231534549421,
2-5,C_HumanVertical,1,Q1FrontUp,-28.71482,27.78552,74.11568,-23.21529,-129.3509,175.6458,-52.62139,202408231534549756,
2-5,C_HumanVertical,1,Q1FrontUp,-28.71482,27.78552,74.11568,-23.21529,-129.3509,175.6458,-52.62139,202408231534550023,
2-5,C_HumanVertical,1,Q1FrontUp,-28.614,27.78117,74.11378,-23.28819,-128.8914,175.578,-52.77094,202408231534550190,
2-5,C_HumanVertical,1,Q1FrontUp,-28.614,27.78117,74.11378,-23.28819,-128.8914,175.578,-52.77094,202408231534550371,
2-5,C_HumanVertical,1,Q1FrontUp,-28.46719,27.75671,74.10455,-23.39281,-128.2747,175.4852,-52.9822,202408231534550572,
2-5,C_HumanVertical,1,Q1FrontUp,-28.29134,27.70193,74.10098,-23.53396,-127.633,175.3882,-53.21738,202408231534550862,
2-5,C_HumanVertical,1,Q1FrontUp,-28.09579,27.6379,74.10147,-23.67721,-126.9174,175.2911,-53.45398,202408231534551015,
2-5,C_HumanVertical,1,Q1FrontUp,-28.09579,27.6379,74.10147,-23.67721,-126.9174,175.2911,-53.45398,202408231534551188,
2-5,C_HumanVertical,1,Q1FrontUp,-28.09579,27.6379,74.10147,-23.67721,-126.9174,175.2911,-53.45398,202408231534551415,
2-5,C_HumanVertical,1,Q1FrontUp,-27.86155,27.5409,74.09924,-23.82518,-126.1372,175.1711,-53.7268,202408231534551596,
2-5,C_HumanVertical,1,Q1FrontUp,-27.58504,27.40908,74.10019,-23.98446,-125.3473,175.0341,-54.00793,202408231534551868,
2-5,C_HumanVertical,1,Q1FrontUp,-27.31691,27.23671,74.10094,-24.15086,-124.5523,174.9032,-54.28468,202408231534552018,
2-5,C_HumanVertical,1,Q1FrontUp,-27.31691,27.23671,74.10094,-24.15086,-124.5523,174.9032,-54.28468,202408231534552210,
2-5,C_HumanVertical,1,Q1FrontUp,-27.02409,27.05892,74.10141,-24.32853,-123.8092,174.7706,-54.54898,202408231534552526,
2-5,C_HumanVertical,1,Q1FrontUp,-27.02409,27.05892,74.10141,-24.32853,-123.8092,174.7706,-54.54898,202408231534552747,
2-5,C_HumanVertical,1,Q1FrontUp,-26.75165,26.84212,74.10477,-24.5071,-123.132,174.6467,-54.78747,202408231534552939,
2-5,C_HumanVertical,1,Q1FrontUp,-26.49544,26.60195,74.10508,-24.66199,-122.4705,174.5479,-55.02916,202408231534553199,
2-5,C_HumanVertical,1,Q1FrontUp,-26.30163,26.45413,74.14448,-24.76465,-122.4374,174.5521,-55.02606,202408231534553373,
2-5,C_HumanVertical,1,Q1FrontUp,-26.30163,26.45413,74.14448,-24.76465,-122.4374,174.5521,-55.02606,202408231534553543,
2-5,C_HumanVertical,1,Q1FrontUp,-26.17076,26.29819,74.16343,-24.86875,-122.4365,174.5514,-55.02621,202408231534553765,
2-5,C_HumanVertical,1,Q1FrontUp,-26.09801,26.1932,74.16106,-25.01837,-122.4365,174.5513,-55.0264,202408231534554061,
2-5,C_HumanVertical,1,Q1FrontUp,-26.06234,26.12464,74.11505,-25.23392,-122.4145,174.5326,-55.03146,202408231534554393,
2-5,C_HumanVertical,1,Q1FrontUp,-26.06234,26.12464,74.11505,-25.23392,-122.4145,174.5326,-55.03146,202408231534554600,
2-5,C_HumanVertical,1,Q1FrontUp,-26.00717,26.09052,74.02366,-25.50792,-122.3764,174.4564,-55.05897,202408231534554766,
2-5,C_HumanVertical,1,Q1FrontUp,-25.93108,26.08665,73.85801,-25.90502,-122.3407,174.3295,-55.09756,202408231534555028,
2-5,C_HumanVertical,1,Q1FrontUp,-25.93108,26.08665,73.85801,-25.90502,-122.3407,174.3295,-55.09756,202408231534555213,
2-5,C_HumanVertical,1,Q1FrontUp,-25.80833,26.07126,73.60195,-26.46599,-122.235,174.1441,-55.17411,202408231534555375,
2-5,C_HumanVertical,1,Q1FrontUp,-25.80833,26.07126,73.60195,-26.46599,-122.235,174.1441,-55.17411,202408231534555550,
2-5,C_HumanVertical,1,Q1FrontUp,-25.64037,26.06215,73.34502,-27.09383,-122.1234,173.9077,-55.27171,202408231534555711,
2-5,C_HumanVertical,1,Q1FrontUp,-25.64037,26.06215,73.34502,-27.09383,-122.1234,173.9077,-55.27171,202408231534555922,
2-5,C_HumanVertical,1,Q1FrontUp,-25.42257,26.06317,73.04696,-27.83166,-121.9938,173.6157,-55.38744,202408231534556135,
2-5,C_HumanVertical,1,Q1FrontUp,-25.13867,26.05161,72.69659,-28.71017,-121.8155,173.2914,-55.53656,202408231534556365,
2-5,C_HumanVertical,1,Q1FrontUp,-25.13867,26.05161,72.69659,-28.71017,-121.8155,173.2914,-55.53656,202408231534556553,
2-5,C_HumanVertical,1,Q1FrontUp,-25.13867,26.05161,72.69659,-28.71017,-121.8155,173.2914,-55.53656,202408231534556699,
2-5,C_HumanVertical,1,Q1FrontUp,-24.81059,26.04539,72.35474,-29.59456,-121.6296,172.9879,-55.68126,202408231534556890,
2-5,C_HumanVertical,1,Q1FrontUp,-24.45614,26.03671,71.98084,-30.55144,-121.4476,172.6703,-55.8396,202408231534557090,
2-5,C_HumanVertical,1,Q1FrontUp,-24.07654,26.03728,71.68261,-31.48452,-121.2511,172.3562,-55.97995,202408231534557362,
2-5,C_HumanVertical,1,Q1FrontUp,-24.07654,26.03728,71.68261,-31.48452,-121.2511,172.3562,-55.97995,202408231534557542,
2-5,C_HumanVertical,1,Q1FrontUp,-23.66835,26.03979,71.39302,-32.3734,-121.1065,172.092,-56.11952,202408231534557750,
2-5,C_HumanVertical,1,Q1FrontUp,-23.30155,26.05248,71.13413,-33.18465,-120.9823,171.8801,-56.24652,202408231534558055,
2-5,C_HumanVertical,1,Q1FrontUp,-23.00046,26.15977,71.12016,-33.67567,-121.0344,171.872,-56.24574,202408231534558298,
2-5,C_HumanVertical,1,Q1FrontUp,-23.00046,26.15977,71.12016,-33.67567,-121.0344,171.872,-56.24574,202408231534558557,
2-5,C_HumanVertical,1,Q1FrontUp,-22.76244,26.27943,71.12972,-33.98664,-121.0495,171.8831,-56.24398,202408231534558709,
2-5,C_HumanVertical,1,Q1FrontUp,-22.76244,26.27943,71.12972,-33.98664,-121.0495,171.8831,-56.24398,202408231534558898,
2-5,C_HumanVertical,1,Q1FrontUp,-22.63738,26.36827,71.12958,-34.24795,-121.0516,171.884,-56.24382,202408231534559263,
2-5,C_HumanVertical,1,Q1FrontUp,-22.61343,26.44584,71.07471,-34.51631,-121.0515,171.8586,-56.24424,202408231534559435,
2-5,C_HumanVertical,1,Q1FrontUp,-22.62641,26.46946,70.97534,-34.75721,-121.0476,171.7795,-56.24511,202408231534559697,
2-5,C_HumanVertical,1,Q1FrontUp,-22.62641,26.46946,70.97534,-34.75721,-121.0476,171.7795,-56.24511,202408231534559866,
2-5,C_HumanVertical,1,Q1FrontUp,-22.64066,26.45214,70.83769,-35.09021,-121.0485,171.6296,-56.2465,202408231534560033,
2-5,C_HumanVertical,1,Q1FrontUp,-22.64563,26.42146,70.65717,-35.58935,-121.0364,171.4007,-56.26371,202408231534560372,
2-5,C_HumanVertical,1,Q1FrontUp,-22.64563,26.42146,70.65717,-35.58935,-121.0364,171.4007,-56.26371,202408231534560598,
2-5,C_HumanVertical,1,Q1FrontUp,-22.63801,26.40889,70.44835,-36.18123,-121.0248,171.1156,-56.28429,202408231534560757,
2-5,C_HumanVertical,1,Q1FrontUp,-22.62505,26.40591,70.22688,-36.94494,-121.0163,170.8139,-56.3172,202408231534561038,
2-5,C_HumanVertical,1,Q1FrontUp,-22.62505,26.40591,70.22688,-36.94494,-121.0163,170.8139,-56.3172,202408231534561211,
2-5,C_HumanVertical,1,Q1FrontUp,-22.62505,26.40591,70.22688,-36.94494,-121.0163,170.8139,-56.3172,202408231534561399,
2-5,C_HumanVertical,1,Q1FrontUp,-22.58442,26.38748,69.95813,-37.82288,-120.9897,170.4627,-56.36765,202408231534561606,
2-5,C_HumanVertical,1,Q1FrontUp,-22.51295,26.38802,69.67583,-38.76678,-120.969,170.0599,-56.42534,202408231534561875,
2-5,C_HumanVertical,1,Q1FrontUp,-22.42674,26.41066,69.35832,-39.78875,-120.9538,169.667,-56.48826,202408231534562033,
2-5,C_HumanVertical,1,Q1FrontUp,-22.30452,26.42918,69.01828,-40.89444,-120.9304,169.2705,-56.55878,202408231534562410,
2-5,C_HumanVertical,1,Q1FrontUp,-22.30452,26.42918,69.01828,-40.89444,-120.9304,169.2705,-56.55878,202408231534562580,
2-5,C_HumanVertical,1,Q1FrontUp,-22.17542,26.4637,68.73196,-41.95421,-120.9091,168.8622,-56.62791,202408231534562945,
2-5,C_HumanVertical,1,Q1FrontUp,-22.02462,26.52234,68.42403,-42.97086,-120.8985,168.5132,-56.69101,202408231534563290,
2-5,C_HumanVertical,1,Q1FrontUp,-21.86107,26.60474,68.15733,-43.90576,-120.8909,168.2141,-56.75338,202408231534563570,
2-5,C_HumanVertical,1,Q1FrontUp,-21.71788,26.74529,67.99734,-44.68114,-120.9163,168.0236,-56.78848,202408231534563773,
2-5,C_HumanVertical,1,Q1FrontUp,-21.71788,26.74529,67.99734,-44.68114,-120.9163,168.0236,-56.78848,202408231534563950,
2-5,C_HumanVertical,1,Q1FrontUp,-21.49843,26.96308,67.98463,-45.01795,-120.9524,168.0221,-56.7874,202408231534564210,
2-5,C_HumanVertical,1,Q1FrontUp,-21.37117,27.17813,67.9369,-45.29282,-120.9546,168.0162,-56.78712,202408231534564555,
2-5,C_HumanVertical,1,Q1FrontUp,-21.32036,27.30589,67.85834,-45.55175,-120.9522,167.988,-56.78731,202408231534564717,
2-5,C_HumanVertical,1,Q1FrontUp,-21.32036,27.30589,67.85834,-45.55175,-120.9522,167.988,-56.78731,202408231534564928,
2-5,C_HumanVertical,1,Q1FrontUp,-21.33389,27.42268,67.69526,-45.80154,-120.9544,167.9067,-56.78759,202408231534565200,
2-5,C_HumanVertical,1,Q1FrontUp,-21.36693,27.45057,67.50768,-46.12455,-120.9493,167.7531,-56.78881,202408231534565362,
2-5,C_HumanVertical,1,Q1FrontUp,-21.36693,27.45057,67.50768,-46.12455,-120.9493,167.7531,-56.78881,202408231534565575,
2-5,C_HumanVertical,1,Q1FrontUp,-21.38984,27.4497,67.31438,-46.52142,-120.9383,167.5451,-56.79285,202408231534565862,
2-5,C_HumanVertical,1,Q1FrontUp,-21.39201,27.48795,67.0708,-47.01982,-120.9311,167.2984,-56.80117,202408231534566081,
2-5,C_HumanVertical,1,Q1FrontUp,-21.39389,27.55178,66.74722,-47.68562,-120.9068,166.9431,-56.82204,202408231534566386,
2-5,C_HumanVertical,1,Q1FrontUp,-21.39389,27.55178,66.74722,-47.68562,-120.9068,166.9431,-56.82204,202408231534566580,
2-5,C_HumanVertical,1,Q1FrontUp,-21.36866,27.61798,66.43722,-48.41586,-120.8874,166.5724,-56.85015,202408231534566722,
2-5,C_HumanVertical,1,Q1FrontUp,-21.36866,27.61798,66.43722,-48.41586,-120.8874,166.5724,-56.85015,202408231534566910,
2-5,C_HumanVertical,1,Q1FrontUp,-21.34862,27.70755,66.07397,-49.23253,-120.8618,166.2106,-56.88251,202408231534567117,
2-5,C_HumanVertical,1,Q1FrontUp,-21.34862,27.70755,66.07397,-49.23253,-120.8618,166.2106,-56.88251,202408231534567369,
2-5,C_HumanVertical,1,Q1FrontUp,-21.34862,27.70755,66.07397,-49.23253,-120.8618,166.2106,-56.88251,202408231534567545,
2-5,C_HumanVertical,1,Q1FrontUp,-21.2479,28.00715,65.36477,-50.94703,-120.8191,165.4074,-56.9558,202408231534567707,
2-5,C_HumanVertical,1,Q1FrontUp,-21.2479,28.00715,65.36477,-50.94703,-120.8191,165.4074,-56.9558,202408231534567888,
2-5,C_HumanVertical,1,Q1FrontUp,-21.2479,28.00715,65.36477,-50.94703,-120.8191,165.4074,-56.9558,202408231534568055,
2-5,C_HumanVertical,1,Q1FrontUp,-21.17155,28.21667,65.0177,-51.79255,-120.8093,165.0647,-56.99105,202408231534568275,
2-5,C_HumanVertical,1,Q1FrontUp,-21.09654,28.46623,64.67729,-52.56518,-120.8024,164.7564,-57.02201,202408231534568578,
2-5,C_HumanVertical,1,Q1FrontUp,-20.99426,28.75008,64.31979,-53.3707,-120.7753,164.4423,-57.05803,202408231534568760,
2-5,C_HumanVertical,1,Q1FrontUp,-20.9649,29.04167,63.89394,-54.26364,-120.7489,164.2046,-57.10108,202408231534569086,
2-5,C_HumanVertical,1,Q1FrontUp,-20.9649,29.04167,63.89394,-54.26364,-120.7489,164.2046,-57.10108,202408231534569272,
2-5,C_HumanVertical,1,Q1FrontUp,-20.92148,29.34426,63.52201,-55.12371,-120.721,164.0227,-57.1457,202408231534569551,
2-5,C_HumanVertical,1,Q1FrontUp,-20.86161,29.70202,63.07858,-55.97596,-120.6675,163.8257,-57.18812,202408231534569711,
2-5,C_HumanVertical,1,Q1FrontUp,-20.86161,29.70202,63.07858,-55.97596,-120.6675,163.8257,-57.18812,202408231534569902,
2-5,C_HumanVertical,1,Q1FrontUp,-20.7826,30.0779,62.69036,-56.69579,-120.5859,163.5722,-57.22501,202408231534570207,
2-5,C_HumanVertical,1,Q1FrontUp,-20.65882,30.5258,62.25342,-57.32976,-120.5116,163.2995,-57.25231,202408231534570427,
2-5,C_HumanVertical,1,Q1FrontUp,-20.52509,31.00209,61.79668,-57.91053,-120.4131,163.0125,-57.29699,202408231534570712,
2-5,C_HumanVertical,1,Q1FrontUp,-20.36366,31.39792,61.30204,-58.36563,-120.3074,162.6603,-57.35978,202408231534571075,
2-5,C_HumanVertical,1,Q1FrontUp,-20.36366,31.39792,61.30204,-58.36563,-120.3074,162.6603,-57.35978,202408231534571243,
2-5,C_HumanVertical,1,Q1FrontUp,-20.17878,31.82442,60.77955,-58.667,-120.1871,162.2853,-57.39482,202408231534571468,
2-5,C_HumanVertical,1,Q1FrontUp,-19.98002,32.22346,60.2832,-58.86594,-120.0755,161.9088,-57.41324,202408231534571738,
2-5,C_HumanVertical,1,Q1FrontUp,-19.98002,32.22346,60.2832,-58.86594,-120.0755,161.9088,-57.41324,202408231534571919,
2-5,C_HumanVertical,1,Q1FrontUp,-19.98002,32.22346,60.2832,-58.86594,-120.0755,161.9088,-57.41324,202408231534572201,
2-5,C_HumanVertical,1,Q1FrontUp,-19.519,32.91738,59.24823,-58.97058,-119.8424,161.0862,-57.41793,202408231534572376,
2-5,C_HumanVertical,1,Q1FrontUp,-19.519,32.91738,59.24823,-58.97058,-119.8424,161.0862,-57.41793,202408231534572574,
2-5,C_HumanVertical,1,Q1FrontUp,-19.519,32.91738,59.24823,-58.97058,-119.8424,161.0862,-57.41793,202408231534572863,
2-5,C_HumanVertical,1,Q1FrontUp,-19.10725,33.4119,58.38327,-58.86644,-119.6077,160.3004,-57.42107,202408231534573023,
2-5,C_HumanVertical,1,Q1FrontUp,-19.10725,33.4119,58.38327,-58.86644,-119.6077,160.3004,-57.42107,202408231534573189,
2-5,C_HumanVertical,1,Q1FrontUp,-19.10725,33.4119,58.38327,-58.86644,-119.6077,160.3004,-57.42107,202408231534573375,
2-5,C_HumanVertical,1,Q1FrontUp,-18.91425,33.61386,58.02689,-58.76001,-119.4926,159.9077,-57.42159,202408231534573622,
2-5,C_HumanVertical,1,Q1FrontUp,-18.72186,33.76706,57.70261,-58.63013,-119.387,159.5808,-57.42373,202408231534573913,
2-5,C_HumanVertical,1,Q1FrontUp,-18.52699,33.85735,57.41297,-58.46727,-119.2818,159.278,-57.43135,202408231534574222,
2-5,C_HumanVertical,1,Q1FrontUp,-18.26607,33.87956,57.06335,-58.29295,-119.1359,158.993,-57.43531,202408231534574557,
2-5,C_HumanVertical,1,Q1FrontUp,-17.98865,33.88169,56.77122,-58.11674,-119.0258,158.7115,-57.44253,202408231534574736,
2-5,C_HumanVertical,1,Q1FrontUp,-17.98865,33.88169,56.77122,-58.11674,-119.0258,158.7115,-57.44253,202408231534574930,
2-5,C_HumanVertical,1,Q1FrontUp,-17.69353,33.87519,56.50422,-57.92315,-118.9502,158.4678,-57.44867,202408231534575097,
2-5,C_HumanVertical,1,Q1FrontUp,-17.35243,33.81075,56.21538,-57.69365,-118.8929,158.2333,-57.45227,202408231534575378,
2-5,C_HumanVertical,1,Q1FrontUp,-17.35243,33.81075,56.21538,-57.69365,-118.8929,158.2333,-57.45227,202408231534575539,
2-5,C_HumanVertical,1,Q1FrontUp,-16.99279,33.72356,55.9655,-57.48735,-118.8128,158.025,-57.46429,202408231534575719,
2-5,C_HumanVertical,1,Q1FrontUp,-16.99279,33.72356,55.9655,-57.48735,-118.8128,158.025,-57.46429,202408231534575921,
2-5,C_HumanVertical,1,Q1FrontUp,-16.57545,33.62375,55.69202,-57.28587,-118.7019,157.849,-57.48188,202408231534576138,
2-5,C_HumanVertical,1,Q1FrontUp,-16.14312,33.49879,55.47266,-57.11097,-118.5918,157.6934,-57.49856,202408231534576428,
2-5,C_HumanVertical,1,Q1FrontUp,-16.14312,33.49879,55.47266,-57.11097,-118.5918,157.6934,-57.49856,202408231534576808,
2-5,C_HumanVertical,1,Q1FrontUp,-15.05754,33.1078,54.80038,-56.76305,-118.4304,157.4284,-57.50787,202408231534577072,
2-5,C_HumanVertical,1,Q1FrontUp,-15.05754,33.1078,54.80038,-56.76305,-118.4304,157.4284,-57.50787,202408231534577255,
2-5,C_HumanVertical,1,Q1FrontUp,-14.46456,32.88022,54.4709,-56.63401,-118.3518,157.3296,-57.50819,202408231534577540,
2-5,C_HumanVertical,1,Q1FrontUp,-13.83815,32.63578,54.1462,-56.51875,-118.2903,157.2349,-57.50822,202408231534577700,
2-5,C_HumanVertical,1,Q1FrontUp,-13.83815,32.63578,54.1462,-56.51875,-118.2903,157.2349,-57.50822,202408231534577865,
2-5,C_HumanVertical,1,Q1FrontUp,-13.83815,32.63578,54.1462,-56.51875,-118.2903,157.2349,-57.50822,202408231534578024,
2-5,C_HumanVertical,1,Q1FrontUp,-13.16935,32.37442,53.85501,-56.4361,-118.2519,157.1381,-57.50833,202408231534578233,
2-5,C_HumanVertical,1,Q1FrontUp,-12.46401,32.0987,53.5229,-56.3089,-118.2234,157.022,-57.50788,202408231534578426,
2-5,C_HumanVertical,1,Q1FrontUp,-11.70333,31.81706,53.1958,-56.21083,-118.1967,156.8967,-57.50797,202408231534578714,
2-5,C_HumanVertical,1,Q1FrontUp,-11.70333,31.81706,53.1958,-56.21083,-118.1967,156.8967,-57.50797,202408231534578900,
2-5,C_HumanVertical,1,Q1FrontUp,-10.93405,31.51955,52.85966,-56.11305,-118.1688,156.7579,-57.5079,202408231534579226,
2-5,C_HumanVertical,1,Q1FrontUp,-10.07243,31.20532,52.51336,-56.04325,-118.1377,156.6522,-57.5076,202408231534579410,
2-5,C_HumanVertical,1,Q1FrontUp,-10.07243,31.20532,52.51336,-56.04325,-118.1377,156.6522,-57.5076,202408231534579585,
2-5,C_HumanVertical,1,Q1FrontUp,-9.267159,30.90355,52.22288,-55.98631,-118.1185,156.5546,-57.50782,202408231534579873,
2-5,C_HumanVertical,1,Q1FrontUp,-8.429168,30.62921,51.96616,-55.94771,-118.099,156.4863,-57.50804,202408231534580151,
2-5,C_HumanVertical,1,Q1FrontUp,-7.627428,30.35938,51.76512,-55.90395,-118.0956,156.424,-57.50758,202408231534580427,
2-5,C_HumanVertical,1,Q1FrontUp,-6.788226,30.10303,51.56976,-55.87865,-118.09,156.3626,-57.5081,202408231534580726,
2-5,C_HumanVertical,1,Q1FrontUp,-6.788226,30.10303,51.56976,-55.87865,-118.09,156.3626,-57.5081,202408231534580913,
2-5,C_HumanVertical,1,Q1FrontUp,-5.975517,29.85118,51.36048,-55.83583,-118.0831,156.3,-57.50822,202408231534581226,
2-5,C_HumanVertical,1,Q1FrontUp,-5.975517,29.85118,51.36048,-55.83583,-118.0831,156.3,-57.50822,202408231534581407,
2-5,C_HumanVertical,1,Q1FrontUp,-5.166433,29.60386,51.16746,-55.81265,-118.0713,156.2595,-57.50795,202408231534581611,
2-5,C_HumanVertical,1,Q1FrontUp,-4.420331,29.38615,51.02121,-55.79757,-118.0604,156.2337,-57.50816,202408231534581778,
2-5,C_HumanVertical,1,Q1FrontUp,-3.718213,29.19275,50.91378,-55.76948,-118.0558,156.2282,-57.50777,202408231534582034,
2-5,C_HumanVertical,1,Q1FrontUp,-3.718213,29.19275,50.91378,-55.76948,-118.0558,156.2282,-57.50777,202408231534582222,
2-5,C_HumanVertical,1,Q1FrontUp,-3.071733,29.06197,50.84016,-55.73328,-118.0559,156.2273,-57.50788,202408231534582389,
2-5,C_HumanVertical,1,Q1FrontUp,-3.071733,29.06197,50.84016,-55.73328,-118.0559,156.2273,-57.50788,202408231534582576,
2-5,C_HumanVertical,1,Q1FrontUp,-2.454811,28.91133,50.74977,-55.71021,-118.0563,156.2114,-57.50813,202408231534582946,
2-5,C_HumanVertical,1,Q1FrontUp,-1.853339,28.77387,50.59787,-55.67218,-118.0562,156.1629,-57.508,202408231534583106,
2-5,C_HumanVertical,1,Q1FrontUp,-1.292411,28.66962,50.49408,-55.65669,-118.0558,156.142,-57.50763,202408231534583376,
2-5,C_HumanVertical,1,Q1FrontUp,-1.292411,28.66962,50.49408,-55.65669,-118.0558,156.142,-57.50763,202408231534583557,
2-5,C_HumanVertical,1,Q1FrontUp,-0.7978404,28.59403,50.39221,-55.6368,-118.0558,156.1163,-57.50734,202408231534583753,
2-5,C_HumanVertical,1,Q1FrontUp,-0.7978404,28.59403,50.39221,-55.6368,-118.0558,156.1163,-57.50734,202408231534583942,
2-5,C_HumanVertical,1,Q1FrontUp,-0.3887205,28.53936,50.33325,-55.63613,-118.0586,156.1042,-57.50727,202408231534584209,
2-5,C_HumanVertical,1,Q1FrontUp,-0.04298334,28.48975,50.27982,-55.62893,-118.0592,156.0994,-57.50721,202408231534584554,
2-5,C_HumanVertical,1,Q1FrontUp,0.2516414,28.47275,50.21069,-55.61383,-118.0596,156.0828,-57.5075,202408231534584763,
2-5,C_HumanVertical,1,Q1FrontUp,0.2516414,28.47275,50.21069,-55.61383,-118.0596,156.0828,-57.5075,202408231534584930,
2-5,C_HumanVertical,1,Q1FrontUp,0.4863906,28.47479,50.12492,-55.59662,-118.0598,156.0486,-57.50767,202408231534585213,
2-5,C_HumanVertical,1,Q1FrontUp,0.4863906,28.47479,50.12492,-55.59662,-118.0598,156.0486,-57.50767,202408231534585391,
2-5,C_HumanVertical,1,Q1FrontUp,0.4863906,28.47479,50.12492,-55.59662,-118.0598,156.0486,-57.50767,202408231534585564,
2-5,C_HumanVertical,1,Q1FrontUp,0.8846893,28.50043,49.8769,-55.59119,-118.0592,155.9621,-57.50737,202408231534585898,
2-5,C_HumanVertical,1,Q1FrontUp,0.8846893,28.50043,49.8769,-55.59119,-118.0592,155.9621,-57.50737,202408231534586118,
2-5,C_HumanVertical,1,Q1FrontUp,1.136274,28.60546,49.68344,-55.60764,-118.0587,155.8689,-57.50669,202408231534586408,
2-5,C_HumanVertical,1,Q1FrontUp,1.136274,28.60546,49.68344,-55.60764,-118.0587,155.8689,-57.50669,202408231534586597,
2-5,C_HumanVertical,1,Q1FrontUp,1.20515,28.67249,49.61789,-55.62988,-118.0415,155.8315,-57.50669,202408231534586916,
2-5,C_HumanVertical,1,Q1FrontUp,1.246834,28.75423,49.56607,-55.67767,-118.0023,155.7702,-57.50651,202408231534587097,
2-5,C_HumanVertical,1,Q1FrontUp,1.249603,28.86404,49.53405,-55.77703,-117.9589,155.578,-57.50632,202408231534587374,
2-5,C_HumanVertical,1,Q1FrontUp,1.249603,28.86404,49.53405,-55.77703,-117.9589,155.578,-57.50632,202408231534587570,
2-5,C_HumanVertical,1,Q1FrontUp,1.252264,28.99138,49.494,-55.8733,-117.9167,155.3776,-57.50612,202408231534587954,
2-5,C_HumanVertical,1,Q1FrontUp,1.25185,29.13831,49.45644,-56.00052,-117.8846,155.2043,-57.50564,202408231534588289,
2-5,C_HumanVertical,1,Q1FrontUp,1.227486,29.32574,49.40755,-56.14401,-117.8761,155.0425,-57.49176,202408231534588582,
2-5,C_HumanVertical,1,Q1FrontUp,1.179162,29.53918,49.35728,-56.27874,-117.8737,154.9035,-57.47985,202408231534588736,
2-5,C_HumanVertical,1,Q1FrontUp,1.179162,29.53918,49.35728,-56.27874,-117.8737,154.9035,-57.47985,202408231534588940,
2-5,C_HumanVertical,1,Q1FrontUp,0.9912119,30.02294,49.25115,-56.69866,-117.8557,154.6326,-57.43471,202408231534589361,
2-5,C_HumanVertical,1,Q1FrontUp,0.9912119,30.02294,49.25115,-56.69866,-117.8557,154.6326,-57.43471,202408231534589618,
2-5,C_HumanVertical,1,Q1FrontUp,0.8771979,30.30772,49.15496,-56.97009,-117.841,154.5303,-57.42388,202408231534589887,
2-5,C_HumanVertical,1,Q1FrontUp,0.8771979,30.30772,49.15496,-56.97009,-117.841,154.5303,-57.42388,202408231534590223,
2-5,C_HumanVertical,1,Q1FrontUp,0.6949668,30.92158,48.85563,-57.54866,-117.8001,154.4654,-57.45031,202408231534590420,
2-5,C_HumanVertical,1,Q1FrontUp,0.6038886,31.21631,48.69394,-57.889,-117.775,154.4288,-57.47662,202408231534590725,
2-5,C_HumanVertical,1,Q1FrontUp,0.6038886,31.21631,48.69394,-57.889,-117.775,154.4288,-57.47662,202408231534590891,
2-5,C_HumanVertical,1,Q1FrontUp,0.4692328,31.54716,48.47943,-58.31123,-117.7477,154.3729,-57.50737,202408231534591108,
2-5,C_HumanVertical,1,Q1FrontUp,0.3618207,31.8834,48.24701,-58.71732,-117.7336,154.3317,-57.53447,202408231534591432,
2-5,C_HumanVertical,1,Q1FrontUp,0.2293528,32.22269,48.03237,-59.13411,-117.7196,154.3067,-57.54651,202408231534591714,
2-5,C_HumanVertical,1,Q1FrontUp,0.2293528,32.22269,48.03237,-59.13411,-117.7196,154.3067,-57.54651,202408231534591889,
2-5,C_HumanVertical,1,Q1FrontUp,0.03993764,32.54451,47.83204,-59.57898,-117.7173,154.3045,-57.54613,202408231534592053,
2-5,C_HumanVertical,1,Q1FrontUp,0.03993764,32.54451,47.83204,-59.57898,-117.7173,154.3045,-57.54613,202408231534592389,
2-5,C_HumanVertical,1,Q1FrontUp,-0.1565296,32.91328,47.61206,-60.02527,-117.7171,154.3034,-57.54607,202408231534592589,
2-5,C_HumanVertical,1,Q1FrontUp,-0.3299507,33.27459,47.40323,-60.44886,-117.7156,154.3005,-57.54622,202408231534592753,
2-5,C_HumanVertical,1,Q1FrontUp,-0.3299507,33.27459,47.40323,-60.44886,-117.7156,154.3005,-57.54622,202408231534592929,
2-5,C_HumanVertical,1,Q1FrontUp,-0.559545,33.62439,47.21953,-60.88428,-117.7157,154.2975,-57.54649,202408231534593290,
2-5,C_HumanVertical,1,Q1FrontUp,-0.7945848,33.96195,47.0668,-61.30968,-117.7129,154.2835,-57.54615,202408231534593569,
2-5,C_HumanVertical,1,Q1FrontUp,-1.013781,34.30593,46.89024,-61.72245,-117.7009,154.2675,-57.54503,202408231534593776,
2-5,C_HumanVertical,1,Q1FrontUp,-1.013781,34.30593,46.89024,-61.72245,-117.7009,154.2675,-57.54503,202408231534594095,
2-5,C_HumanVertical,1,Q1FrontUp,-1.253218,34.61919,46.70377,-62.14579,-117.6784,154.2447,-57.54426,202408231534594254,
2-5,C_HumanVertical,1,Q1FrontUp,-1.512318,34.93334,46.51791,-62.54804,-117.6739,154.2127,-57.53076,202408231534594455,
2-5,C_HumanVertical,1,Q1FrontUp,-1.768686,35.24889,46.35827,-62.92726,-117.6644,154.1843,-57.52014,202408231534594773,
2-5,C_HumanVertical,1,Q1FrontUp,-2.028612,35.55939,46.22104,-63.29803,-117.6549,154.1773,-57.5075,202408231534595060,
2-5,C_HumanVertical,1,Q1FrontUp,-2.028612,35.55939,46.22104,-63.29803,-117.6549,154.1773,-57.5075,202408231534595215,
2-5,C_HumanVertical,1,Q1FrontUp,-2.028612,35.55939,46.22104,-63.29803,-117.6549,154.1773,-57.5075,202408231534595399,
2-5,C_HumanVertical,1,Q1FrontUp,-2.294426,35.85413,46.06019,-63.66845,-117.6438,154.1646,-57.49732,202408231534595563,
2-5,C_HumanVertical,1,Q1FrontUp,-2.534378,36.13391,45.89873,-63.99909,-117.6391,154.1325,-57.49392,202408231534595752,
2-5,C_HumanVertical,1,Q1FrontUp,-2.534378,36.13391,45.89873,-63.99909,-117.6391,154.1325,-57.49392,202408231534595974,
2-5,C_HumanVertical,1,Q1FrontUp,-2.825248,36.3998,45.7428,-64.3736,-117.639,154.0839,-57.49417,202408231534596163,
2-5,C_HumanVertical,1,Q1FrontUp,-3.123224,36.67665,45.58976,-64.72563,-117.6389,154.0421,-57.48954,202408231534596416,
2-5,C_HumanVertical,1,Q1FrontUp,-3.41507,36.91958,45.45527,-65.06957,-117.6384,153.9935,-57.48645,202408231534596742,
2-5,C_HumanVertical,1,Q1FrontUp,-3.41507,36.91958,45.45527,-65.06957,-117.6384,153.9935,-57.48645,202408231534596915,
2-5,C_HumanVertical,1,Q1FrontUp,-3.706105,37.16041,45.30046,-65.39438,-117.6382,153.9258,-57.48715,202408231534597096,
2-5,C_HumanVertical,1,Q1FrontUp,-3.96756,37.3831,45.13755,-65.74863,-117.5886,153.8152,-57.47765,202408231534597388,
2-5,C_HumanVertical,1,Q1FrontUp,-3.96756,37.3831,45.13755,-65.74863,-117.5886,153.8152,-57.47765,202408231534597548,
2-5,C_HumanVertical,1,Q1FrontUp,-4.227689,37.62392,44.98675,-66.12766,-117.5372,153.7024,-57.46822,202408231534597786,
2-5,C_HumanVertical,1,Q1FrontUp,-4.492395,37.83808,44.85851,-66.49843,-117.4844,153.5935,-57.46423,202408231534598090,
2-5,C_HumanVertical,1,Q1FrontUp,-4.492395,37.83808,44.85851,-66.49843,-117.4844,153.5935,-57.46423,202408231534598303,
2-5,C_HumanVertical,1,Q1FrontUp,-4.726476,38.04267,44.74237,-66.84224,-117.4425,153.4819,-57.46112,202408231534598591,
2-5,C_HumanVertical,1,Q1FrontUp,-4.933316,38.24821,44.6339,-67.1805,-117.3903,153.396,-57.44216,202408231534598774,
2-5,C_HumanVertical,1,Q1FrontUp,-5.116225,38.43229,44.49924,-67.53511,-117.3396,153.379,-57.41042,202408231534599069,
2-5,C_HumanVertical,1,Q1FrontUp,-5.116225,38.43229,44.49924,-67.53511,-117.3396,153.379,-57.41042,202408231534599286,
2-5,C_HumanVertical,1,Q1FrontUp,-5.250239,38.61048,44.34048,-67.87322,-117.3285,153.3746,-57.33863,202408231534599552,
2-5,C_HumanVertical,1,Q1FrontUp,-5.377609,38.77063,44.18394,-68.22993,-117.2976,153.3582,-57.28579,202408231534599726,
2-5,C_HumanVertical,1,Q1FrontUp,-5.377609,38.77063,44.18394,-68.22993,-117.2976,153.3582,-57.28579,202408231534599899,
2-5,C_HumanVertical,1,Q1FrontUp,-5.377609,38.77063,44.18394,-68.22993,-117.2976,153.3582,-57.28579,202408231535000061,
2-5,C_HumanVertical,1,Q1FrontUp,-5.482981,38.91534,44.03036,-68.56893,-117.2539,153.3072,-57.25156,202408231535000229,
2-5,C_HumanVertical,1,Q1FrontUp,-5.587667,39.07597,43.87038,-68.94152,-117.128,153.2648,-57.24019,202408231535000488,
2-5,C_HumanVertical,1,Q1FrontUp,-5.655828,39.22175,43.70541,-69.29525,-116.991,153.2207,-57.23515,202408231535000712,
2-5,C_HumanVertical,1,Q1FrontUp,-5.655828,39.22175,43.70541,-69.29525,-116.991,153.2207,-57.23515,202408231535000966,
2-5,C_HumanVertical,1,Q1FrontUp,-5.733823,39.34488,43.54094,-69.66356,-116.8236,153.1505,-57.23182,202408231535001234,
2-5,C_HumanVertical,1,Q1FrontUp,-5.802448,39.49686,43.39996,-70.00304,-116.6797,153.0816,-57.22924,202408231535001417,
2-5,C_HumanVertical,1,Q1FrontUp,-5.802448,39.49686,43.39996,-70.00304,-116.6797,153.0816,-57.22924,202408231535001608,
2-5,C_HumanVertical,1,Q1FrontUp,-5.870117,39.64631,43.25203,-70.34473,-116.5201,153.0288,-57.17766,202408231535001895,
2-5,C_HumanVertical,1,Q1FrontUp,-5.922956,39.8068,43.06776,-70.69722,-116.3431,153.0063,-57.08722,202408231535002225,
2-5,C_HumanVertical,1,Q1FrontUp,-5.970757,39.9552,42.87803,-71.04086,-116.1711,152.9818,-57.00581,202408231535002538,
2-5,C_HumanVertical,1,Q1FrontUp,-6.02893,40.11056,42.67614,-71.40707,-115.9527,152.9438,-56.91613,202408231535002800,
2-5,C_HumanVertical,1,Q1FrontUp,-6.088037,40.2592,42.47149,-71.78809,-115.7137,152.8883,-56.82638,202408231535003049,
2-5,C_HumanVertical,1,Q1FrontUp,-6.088037,40.2592,42.47149,-71.78809,-115.7137,152.8883,-56.82638,202408231535003211,
2-5,C_HumanVertical,1,Q1FrontUp,-6.123796,40.42182,42.23523,-72.19378,-115.4687,152.8773,-56.65527,202408231535003373,
2-5,C_HumanVertical,1,Q1FrontUp,-6.123796,40.42182,42.23523,-72.19378,-115.4687,152.8773,-56.65527,202408231535003587,
2-5,C_HumanVertical,1,Q1FrontUp,-6.164976,40.56368,42.01152,-72.65736,-115.1993,152.7848,-56.50648,202408231535003808,
2-5,C_HumanVertical,1,Q1FrontUp,-6.164976,40.56368,42.01152,-72.65736,-115.1993,152.7848,-56.50648,202408231535004111,
2-5,C_HumanVertical,1,Q1FrontUp,-6.283521,40.83106,41.63873,-73.6987,-114.6157,152.2682,-56.18963,202408231535004405,
2-5,C_HumanVertical,1,Q1FrontUp,-6.330418,40.9845,41.46948,-74.23232,-114.2847,151.9892,-56.0052,202408231535004731,
2-5,C_HumanVertical,1,Q1FrontUp,-6.330418,40.9845,41.46948,-74.23232,-114.2847,151.9892,-56.0052,202408231535004923,
2-5,C_HumanVertical,1,Q1FrontUp,-6.385683,41.12198,41.31241,-74.7785,-113.9316,151.7568,-55.80856,202408231535005269,
2-5,C_HumanVertical,1,Q1FrontUp,-6.426477,41.30099,41.1911,-75.27598,-113.5932,151.5711,-55.63183,202408231535005632,
2-5,C_HumanVertical,1,Q1FrontUp,-6.465948,41.45865,41.0489,-75.83202,-113.1873,151.3224,-55.41597,202408231535005961,
2-5,C_HumanVertical,1,Q1FrontUp,-6.49515,41.58089,40.87431,-76.40906,-112.7964,151.0079,-55.17178,202408231535006217,
2-5,C_HumanVertical,1,Q1FrontUp,-6.495588,41.71552,40.69373,-76.92833,-112.4594,150.7433,-54.96573,202408231535006423,
2-5,C_HumanVertical,1,Q1FrontUp,-6.495588,41.71552,40.69373,-76.92833,-112.4594,150.7433,-54.96573,202408231535006576,
2-5,C_HumanVertical,1,Q1FrontUp,-6.510194,41.82748,40.5171,-77.45009,-112.1283,150.4911,-54.76215,202408231535006905,
2-5,C_HumanVertical,1,Q1FrontUp,-6.533703,41.90889,40.35023,-77.99104,-111.8151,150.2014,-54.57607,202408231535007100,
2-5,C_HumanVertical,1,Q1FrontUp,-6.549788,42.02143,40.16642,-78.47829,-111.566,150.0015,-54.38589,202408231535007401,
2-5,C_HumanVertical,1,Q1FrontUp,-6.549788,42.02143,40.16642,-78.47829,-111.566,150.0015,-54.38589,202408231535007563,
2-5,C_HumanVertical,1,Q1FrontUp,-6.571526,42.11737,39.96384,-78.96174,-111.3242,149.8114,-54.19144,202408231535007721,
2-5,C_HumanVertical,1,Q1FrontUp,-6.571526,42.11737,39.96384,-78.96174,-111.3242,149.8114,-54.19144,202408231535007900,
2-5,C_HumanVertical,1,Q1FrontUp,-6.595692,42.21356,39.77945,-79.40119,-111.0882,149.6635,-53.99057,202408231535008088,
2-5,C_HumanVertical,1,Q1FrontUp,-6.595692,42.21356,39.77945,-79.40119,-111.0882,149.6635,-53.99057,202408231535008300,
2-5,C_HumanVertical,1,Q1FrontUp,-6.606783,42.33561,39.6088,-79.75407,-110.8831,149.5353,-53.82616,202408231535008576,
2-5,C_HumanVertical,1,Q1FrontUp,-6.618625,42.44975,39.45329,-80.06286,-110.6887,149.4194,-53.67067,202408231535008789,
2-5,C_HumanVertical,1,Q1FrontUp,-6.621515,42.54555,39.30605,-80.33022,-110.5184,149.3165,-53.53535,202408231535009073,
2-5,C_HumanVertical,1,Q1FrontUp,-6.621515,42.54555,39.30605,-80.33022,-110.5184,149.3165,-53.53535,202408231535009274,
2-5,C_HumanVertical,1,Q1FrontUp,-6.617465,42.65282,39.16983,-80.53944,-110.3432,149.1947,-53.41145,202408231535009562,
2-5,C_HumanVertical,1,Q1FrontUp,-6.604312,42.77021,39.03193,-80.68651,-110.1869,149.0917,-53.28706,202408231535009876,
2-5,C_HumanVertical,1,Q1FrontUp,-6.578828,42.85556,38.90734,-80.74834,-110.0301,149.0149,-53.17939,202408231535010069,
2-5,C_HumanVertical,1,Q1FrontUp,-6.546806,42.96399,38.77845,-80.7463,-109.8766,148.9561,-53.07149,202408231535010307,
2-5,C_HumanVertical,1,Q1FrontUp,-6.546806,42.96399,38.77845,-80.7463,-109.8766,148.9561,-53.07149,202408231535010549,
2-5,C_HumanVertical,1,Q1FrontUp,-6.546806,42.96399,38.77845,-80.7463,-109.8766,148.9561,-53.07149,202408231535010723,
2-5,C_HumanVertical,1,Q1FrontUp,-6.498152,43.05442,38.64168,-80.69781,-109.7377,148.9187,-52.96604,202408231535010922,
2-5,C_HumanVertical,1,Q1FrontUp,-6.411134,43.13452,38.45908,-80.56503,-109.6143,148.9053,-52.86257,202408231535011087,
2-5,C_HumanVertical,1,Q1FrontUp,-6.286523,43.17986,38.26431,-80.37757,-109.4355,148.8904,-52.77813,202408231535011427,
2-5,C_HumanVertical,1,Q1FrontUp,-6.286523,43.17986,38.26431,-80.37757,-109.4355,148.8904,-52.77813,202408231535011627,
2-5,C_HumanVertical,1,Q1FrontUp,-6.135479,43.2216,38.08527,-80.11765,-109.253,148.8725,-52.69854,202408231535011792,
2-5,C_HumanVertical,1,Q1FrontUp,-5.974517,43.24317,37.91284,-79.82819,-109.1078,148.8701,-52.61527,202408231535012071,
2-5,C_HumanVertical,1,Q1FrontUp,-5.974517,43.24317,37.91284,-79.82819,-109.1078,148.8701,-52.61527,202408231535012376,
2-5,C_HumanVertical,1,Q1FrontUp,-5.80392,43.24652,37.74591,-79.51841,-108.9491,148.8697,-52.53477,202408231535012543,
2-5,C_HumanVertical,1,Q1FrontUp,-5.63662,43.24416,37.59973,-79.2273,-108.786,148.8697,-52.46863,202408231535012754,
2-5,C_HumanVertical,1,Q1FrontUp,-5.451273,43.24083,37.45137,-78.88403,-108.6044,148.8701,-52.40236,202408231535013033,
2-5,C_HumanVertical,1,Q1FrontUp,-5.451273,43.24083,37.45137,-78.88403,-108.6044,148.8701,-52.40236,202408231535013196,
2-5,C_HumanVertical,1,Q1FrontUp,-5.217426,43.24038,37.26909,-78.46772,-108.4715,148.8689,-52.31993,202408231535013441,
2-5,C_HumanVertical,1,Q1FrontUp,-4.962223,43.25085,37.08607,-78.00156,-108.3271,148.8706,-52.25598,202408231535013771,
2-5,C_HumanVertical,1,Q1FrontUp,-4.962223,43.25085,37.08607,-78.00156,-108.3271,148.8706,-52.25598,202408231535014067,
2-5,C_HumanVertical,1,Q1FrontUp,-4.650664,43.24965,36.86471,-77.47831,-108.1626,148.8677,-52.21718,202408231535014240,
2-5,C_HumanVertical,1,Q1FrontUp,-4.327903,43.24328,36.65858,-76.92754,-107.9687,148.8653,-52.15857,202408231535014572,
2-5,C_HumanVertical,1,Q1FrontUp,-4.327903,43.24328,36.65858,-76.92754,-107.9687,148.8653,-52.15857,202408231535014763,
2-5,C_HumanVertical,1,Q1FrontUp,-3.650666,43.24377,36.27893,-75.6459,-107.5775,148.8658,-52.07664,202408231535015045,
2-5,C_HumanVertical,1,Q1FrontUp,-3.650666,43.24377,36.27893,-75.6459,-107.5775,148.8658,-52.07664,202408231535015211,
2-5,C_HumanVertical,1,Q1FrontUp,-3.277008,43.24501,36.08895,-74.88665,-107.432,148.8655,-51.98206,202408231535015389,
2-5,C_HumanVertical,1,Q1FrontUp,-2.915728,43.24308,35.94531,-74.17667,-107.2982,148.8651,-51.89095,202408231535015714,
2-5,C_HumanVertical,1,Q1FrontUp,-2.915728,43.24308,35.94531,-74.17667,-107.2982,148.8651,-51.89095,202408231535015913,
2-5,C_HumanVertical,1,Q1FrontUp,-2.604891,43.22854,35.84042,-73.4902,-107.1621,148.8653,-51.80151,202408231535016205,
2-5,C_HumanVertical,1,Q1FrontUp,-2.286108,43.2115,35.72137,-72.78906,-106.9624,148.8663,-51.72473,202408231535016389,
2-5,C_HumanVertical,1,Q1FrontUp,-2.286108,43.2115,35.72137,-72.78906,-106.9624,148.8663,-51.72473,202408231535016710,
2-5,C_HumanVertical,1,Q1FrontUp,-1.987201,43.18694,35.62544,-72.12225,-106.7387,148.8668,-51.6726,202408231535016918,
2-5,C_HumanVertical,1,Q1FrontUp,-1.688609,43.14295,35.54357,-71.47154,-106.4957,148.8671,-51.63535,202408231535017222,
2-5,C_HumanVertical,1,Q1FrontUp,-1.380377,43.09479,35.47348,-70.84311,-106.273,148.8671,-51.60068,202408231535017387,
2-5,C_HumanVertical,1,Q1FrontUp,-1.380377,43.09479,35.47348,-70.84311,-106.273,148.8671,-51.60068,202408231535017541,
2-5,C_HumanVertical,1,Q1FrontUp,-1.083714,43.0614,35.38354,-70.22251,-106.0437,148.8689,-51.58388,202408231535017711,
2-5,C_HumanVertical,1,Q1FrontUp,-1.083714,43.0614,35.38354,-70.22251,-106.0437,148.8689,-51.58388,202408231535017880,
2-5,C_HumanVertical,1,Q1FrontUp,-0.7494537,43.03646,35.25438,-69.54192,-105.7878,148.8687,-51.58365,202408231535018108,
2-5,C_HumanVertical,1,Q1FrontUp,-0.7494537,43.03646,35.25438,-69.54192,-105.7878,148.8687,-51.58365,202408231535018300,
2-5,C_HumanVertical,1,Q1FrontUp,-0.4422223,43.00491,35.16121,-68.86628,-105.5174,148.8682,-51.58378,202408231535018589,
2-5,C_HumanVertical,1,Q1FrontUp,-0.1206535,42.98198,35.07294,-68.22063,-105.3051,148.8689,-51.56876,202408231535018942,
2-5,C_HumanVertical,1,Q1FrontUp,0.2254255,42.98115,34.9755,-67.50186,-105.1003,148.8689,-51.52901,202408231535019259,
2-5,C_HumanVertical,1,Q1FrontUp,0.5680053,42.97629,34.84367,-66.77393,-104.8569,148.8675,-51.5141,202408231535019422,
2-5,C_HumanVertical,1,Q1FrontUp,0.5680053,42.97629,34.84367,-66.77393,-104.8569,148.8675,-51.5141,202408231535019619,
2-5,C_HumanVertical,1,Q1FrontUp,0.8980353,42.95994,34.73051,-66.03458,-104.6445,148.8674,-51.4786,202408231535019888,
2-5,C_HumanVertical,1,Q1FrontUp,1.22361,42.94753,34.64805,-65.30364,-104.449,148.8673,-51.42419,202408231535020219,
2-5,C_HumanVertical,1,Q1FrontUp,1.587578,42.93824,34.54155,-64.51607,-104.2101,148.8646,-51.41961,202408231535020389,
2-5,C_HumanVertical,1,Q1FrontUp,1.587578,42.93824,34.54155,-64.51607,-104.2101,148.8646,-51.41961,202408231535020589,
2-5,C_HumanVertical,1,Q1FrontUp,1.587578,42.93824,34.54155,-64.51607,-104.2101,148.8646,-51.41961,202408231535020874,
2-5,C_HumanVertical,1,Q1FrontUp,2.286935,42.90062,34.3804,-62.9077,-103.7949,148.8638,-51.40167,202408231535021060,
2-5,C_HumanVertical,1,Q1FrontUp,2.286935,42.90062,34.3804,-62.9077,-103.7949,148.8638,-51.40167,202408231535021278,
2-5,C_HumanVertical,1,Q1FrontUp,2.614971,42.85517,34.33667,-62.15845,-103.612,148.8638,-51.39373,202408231535021614,
2-5,C_HumanVertical,1,Q1FrontUp,2.948776,42.78895,34.29254,-61.43147,-103.459,148.8639,-51.37722,202408231535021891,
2-5,C_HumanVertical,1,Q1FrontUp,3.305711,42.7295,34.23683,-60.72301,-103.3128,148.8634,-51.35301,202408231535022217,
2-5,C_HumanVertical,1,Q1FrontUp,3.647491,42.66363,34.17827,-59.97168,-103.2306,148.8623,-51.31389,202408231535022558,
2-5,C_HumanVertical,1,Q1FrontUp,4.015208,42.58823,34.11456,-59.22837,-103.1438,148.8612,-51.27776,202408231535022763,
2-5,C_HumanVertical,1,Q1FrontUp,4.403287,42.50528,34.04668,-58.47141,-103.0503,148.8407,-51.24197,202408231535023028,
2-5,C_HumanVertical,1,Q1FrontUp,4.403287,42.50528,34.04668,-58.47141,-103.0503,148.8407,-51.24197,202408231535023212,
2-5,C_HumanVertical,1,Q1FrontUp,4.809221,42.42414,33.94027,-57.76453,-102.9471,148.8322,-51.22137,202408231535023536,
2-5,C_HumanVertical,1,Q1FrontUp,5.237291,42.31113,33.80242,-57.00923,-102.8436,148.8187,-51.1963,202408231535023730,
2-5,C_HumanVertical,1,Q1FrontUp,5.668951,42.19638,33.68332,-56.28624,-102.755,148.7765,-51.16291,202408231535023946,
2-5,C_HumanVertical,1,Q1FrontUp,5.668951,42.19638,33.68332,-56.28624,-102.755,148.7765,-51.16291,202408231535024279,
2-5,C_HumanVertical,1,Q1FrontUp,6.113257,42.04072,33.5827,-55.58364,-102.6417,148.7489,-51.13107,202408231535024568,
2-5,C_HumanVertical,1,Q1FrontUp,6.54227,41.9096,33.47014,-54.9309,-102.544,148.7327,-51.09447,202408231535024727,
2-5,C_HumanVertical,1,Q1FrontUp,6.54227,41.9096,33.47014,-54.9309,-102.544,148.7327,-51.09447,202408231535024923,
2-5,C_HumanVertical,1,Q1FrontUp,6.991971,41.74321,33.30737,-54.27558,-102.4627,148.7253,-51.05795,202408231535025197,
2-5,C_HumanVertical,1,Q1FrontUp,7.481164,41.57616,33.12127,-53.58405,-102.3743,148.7247,-51.04358,202408231535025382,
2-5,C_HumanVertical,1,Q1FrontUp,7.481164,41.57616,33.12127,-53.58405,-102.3743,148.7247,-51.04358,202408231535025554,
2-5,C_HumanVertical,1,Q1FrontUp,7.977867,41.42493,32.94944,-52.91553,-102.2982,148.7242,-51.0372,202408231535025727,
2-5,C_HumanVertical,1,Q1FrontUp,7.977867,41.42493,32.94944,-52.91553,-102.2982,148.7242,-51.0372,202408231535025938,
2-5,C_HumanVertical,1,Q1FrontUp,7.977867,41.42493,32.94944,-52.91553,-102.2982,148.7242,-51.0372,202408231535026133,
2-5,C_HumanVertical,1,Q1FrontUp,8.976824,41.15756,32.66718,-51.48366,-102.1983,148.7156,-51.03566,202408231535026412,
2-5,C_HumanVertical,1,Q1FrontUp,8.976824,41.15756,32.66718,-51.48366,-102.1983,148.7156,-51.03566,202408231535026581,
2-5,C_HumanVertical,1,Q1FrontUp,9.483068,41.01502,32.57999,-50.77595,-102.1534,148.7122,-51.03497,202408231535026914,
2-5,C_HumanVertical,1,Q1FrontUp,10.01333,40.85589,32.46129,-50.08891,-102.1083,148.7062,-51.0346,202408231535027273,
2-5,C_HumanVertical,1,Q1FrontUp,10.59045,40.67126,32.34557,-49.36104,-102.0807,148.6761,-51.03458,202408231535027556,
2-5,C_HumanVertical,1,Q1FrontUp,11.1421,40.48763,32.26201,-48.69041,-102.0711,148.6375,-51.03464,202408231535027720,
2-5,C_HumanVertical,1,Q1FrontUp,11.1421,40.48763,32.26201,-48.69041,-102.0711,148.6375,-51.03464,202408231535027893,
2-5,C_HumanVertical,1,Q1FrontUp,11.68867,40.28617,32.20655,-47.98994,-102.0701,148.5982,-51.03463,202408231535028073,
2-5,C_HumanVertical,1,Q1FrontUp,11.68867,40.28617,32.20655,-47.98994,-102.0701,148.5982,-51.03463,202408231535028325,
2-5,C_HumanVertical,1,Q1FrontUp,12.23833,40.05213,32.17672,-47.34457,-102.0688,148.5715,-51.03444,202408231535028551,
2-5,C_HumanVertical,1,Q1FrontUp,12.74045,39.8204,32.15932,-46.72169,-102.0666,148.555,-51.03488,202408231535028732,
2-5,C_HumanVertical,1,Q1FrontUp,12.74045,39.8204,32.15932,-46.72169,-102.0666,148.555,-51.03488,202408231535028927,
2-5,C_HumanVertical,1,Q1FrontUp,13.23596,39.60981,32.16034,-46.07763,-102.056,148.5547,-51.03469,202408231535029192,
2-5,C_HumanVertical,1,Q1FrontUp,13.74637,39.36658,32.17262,-45.45396,-102.0589,148.5025,-51.03538,202408231535029434,
2-5,C_HumanVertical,1,Q1FrontUp,14.2344,39.10941,32.1758,-44.79955,-102.0598,148.4414,-51.03545,202408231535029738,
2-5,C_HumanVertical,1,Q1FrontUp,14.70652,38.84993,32.18954,-44.19916,-102.0599,148.3957,-51.03558,202408231535030036,
2-5,C_HumanVertical,1,Q1FrontUp,14.70652,38.84993,32.18954,-44.19916,-102.0599,148.3957,-51.03558,202408231535030232,
2-5,C_HumanVertical,1,Q1FrontUp,15.17381,38.5644,32.20061,-43.61528,-102.06,148.3612,-51.03573,202408231535030471,
2-5,C_HumanVertical,1,Q1FrontUp,15.60987,38.27667,32.20243,-43.06873,-102.0603,148.3388,-51.03588,202408231535030726,
2-5,C_HumanVertical,1,Q1FrontUp,15.60987,38.27667,32.20243,-43.06873,-102.0603,148.3388,-51.03588,202408231535030896,
2-5,C_HumanVertical,1,Q1FrontUp,16.04182,38.00632,32.20728,-42.50064,-102.0599,148.3333,-51.03589,202408231535031075,
2-5,C_HumanVertical,1,Q1FrontUp,16.04182,38.00632,32.20728,-42.50064,-102.0599,148.3333,-51.03589,202408231535031263,
2-5,C_HumanVertical,1,Q1FrontUp,16.45475,37.70391,32.20798,-41.97018,-102.0598,148.3224,-51.03587,202408231535031421,
2-5,C_HumanVertical,1,Q1FrontUp,16.45475,37.70391,32.20798,-41.97018,-102.0598,148.3224,-51.03587,202408231535031589,
2-5,C_HumanVertical,1,Q1FrontUp,16.88049,37.39404,32.20631,-41.47273,-102.0612,148.3037,-51.03647,202408231535031898,
2-5,C_HumanVertical,1,Q1FrontUp,17.27859,37.07728,32.20716,-41.00952,-102.0622,148.2802,-51.03645,202408231535032290,
2-5,C_HumanVertical,1,Q1FrontUp,17.65125,36.73272,32.20768,-40.58019,-102.0818,148.2305,-51.03673,202408231535032543,
2-5,C_HumanVertical,1,Q1FrontUp,18.029,36.40379,32.21038,-40.1763,-102.088,148.1741,-51.03638,202408231535032717,
2-5,C_HumanVertical,1,Q1FrontUp,18.029,36.40379,32.21038,-40.1763,-102.088,148.1741,-51.03638,202408231535032878,
2-5,C_HumanVertical,1,Q1FrontUp,18.40997,36.06388,32.21053,-39.82053,-102.0907,148.1233,-51.03639,202408231535033039,
2-5,C_HumanVertical,1,Q1FrontUp,18.40997,36.06388,32.21053,-39.82053,-102.0907,148.1233,-51.03639,202408231535033214,
2-5,C_HumanVertical,1,Q1FrontUp,18.40997,36.06388,32.21053,-39.82053,-102.0907,148.1233,-51.03639,202408231535033415,
2-5,C_HumanVertical,1,Q1FrontUp,18.73935,35.70939,32.23671,-39.50338,-102.1069,148.0536,-51.03629,202408231535033626,
2-5,C_HumanVertical,1,Q1FrontUp,19.02409,35.35867,32.28605,-39.23829,-102.115,147.9842,-51.03643,202408231535033781,
2-5,C_HumanVertical,1,Q1FrontUp,19.30802,35.02451,32.3601,-38.97177,-102.1184,147.9199,-51.03635,202408231535034069,
2-5,C_HumanVertical,1,Q1FrontUp,19.57837,34.65833,32.44883,-38.77446,-102.1182,147.8802,-51.03632,202408231535034397,
2-5,C_HumanVertical,1,Q1FrontUp,19.57837,34.65833,32.44883,-38.77446,-102.1182,147.8802,-51.03632,202408231535034611,
2-5,C_HumanVertical,1,Q1FrontUp,19.79353,34.30639,32.52987,-38.62148,-102.1182,147.8491,-51.0363,202408231535034889,
2-5,C_HumanVertical,1,Q1FrontUp,20.00657,33.94222,32.5946,-38.45834,-102.1182,147.7945,-51.03607,202408231535035047,
2-5,C_HumanVertical,1,Q1FrontUp,20.00657,33.94222,32.5946,-38.45834,-102.1182,147.7945,-51.03607,202408231535035226,
2-5,C_HumanVertical,1,Q1FrontUp,20.14754,33.63239,32.71345,-38.32906,-102.1182,147.7455,-51.03635,202408231535035434,
2-5,C_HumanVertical,1,Q1FrontUp,20.23841,33.30972,32.89866,-38.21116,-102.1197,147.7083,-51.03717,202408231535035712,
2-5,C_HumanVertical,1,Q1FrontUp,20.23841,33.30972,32.89866,-38.21116,-102.1197,147.7083,-51.03717,202408231535035872,
2-5,C_HumanVertical,1,Q1FrontUp,20.2583,33.01129,33.09695,-38.13338,-102.1262,147.6886,-51.0385,202408231535036042,
2-5,C_HumanVertical,1,Q1FrontUp,20.2583,33.01129,33.09695,-38.13338,-102.1262,147.6886,-51.0385,202408231535036221,
2-5,C_HumanVertical,1,Q1FrontUp,20.26923,32.71027,33.2596,-38.06305,-102.1301,147.6658,-51.03941,202408231535036394,
2-5,C_HumanVertical,1,Q1FrontUp,20.26923,32.71027,33.2596,-38.06305,-102.1301,147.6658,-51.03941,202408231535036578,
2-5,C_HumanVertical,1,Q1FrontUp,20.26452,32.44656,33.38873,-38.00663,-102.1311,147.6445,-51.04065,202408231535036796,
2-5,C_HumanVertical,1,Q1FrontUp,20.26452,32.44656,33.38873,-38.00663,-102.1311,147.6445,-51.04065,202408231535036955,
2-5,C_HumanVertical,1,Q1FrontUp,20.24794,32.20227,33.49648,-37.94063,-102.131,147.6129,-51.04193,202408231535037222,
2-5,C_HumanVertical,1,Q1FrontUp,20.21218,32.0163,33.62254,-37.87155,-102.1332,147.6023,-51.05224,202408231535037541,
2-5,C_HumanVertical,1,Q1FrontUp,20.17538,31.85992,33.73434,-37.81416,-102.1404,147.5964,-51.06094,202408231535037730,
2-5,C_HumanVertical,1,Q1FrontUp,20.17538,31.85992,33.73434,-37.81416,-102.1404,147.5964,-51.06094,202408231535037946,
2-5,C_HumanVertical,1,Q1FrontUp,20.17538,31.85992,33.73434,-37.81416,-102.1404,147.5964,-51.06094,202408231535038213,
2-5,C_HumanVertical,1,Q1FrontUp,20.05865,31.61455,33.91648,-37.71476,-102.1482,147.5839,-51.08137,202408231535038386,
2-5,C_HumanVertical,1,Q1FrontUp,20.05865,31.61455,33.91648,-37.71476,-102.1482,147.5839,-51.08137,202408231535038621,
2-5,C_HumanVertical,1,Q1FrontUp,19.97878,31.53345,33.97847,-37.67287,-102.1485,147.5829,-51.09005,202408231535038955,
2-5,C_HumanVertical,1,Q1FrontUp,19.87632,31.48587,34.02739,-37.63161,-102.1483,147.5811,-51.09264,202408231535039254,
2-5,C_HumanVertical,1,Q1FrontUp,19.71712,31.46215,34.10991,-37.58777,-102.1485,147.5791,-51.106,202408231535039549,
2-5,C_HumanVertical,1,Q1FrontUp,19.53477,31.45533,34.17365,-37.53944,-102.1486,147.5747,-51.11681,202408231535039887,
2-5,C_HumanVertical,1,Q1FrontUp,19.53477,31.45533,34.17365,-37.53944,-102.1486,147.5747,-51.11681,202408231535040088,
2-5,C_HumanVertical,1,Q1FrontUp,19.04796,31.47002,34.40179,-37.47588,-102.1486,147.5501,-51.12602,202408231535040389,
2-5,C_HumanVertical,1,Q1FrontUp,19.04796,31.47002,34.40179,-37.47588,-102.1486,147.5501,-51.12602,202408231535040564,
2-5,C_HumanVertical,1,Q1FrontUp,18.71931,31.48755,34.60163,-37.44655,-102.1174,147.5479,-51.12611,202408231535040737,
2-5,C_HumanVertical,1,Q1FrontUp,18.71931,31.48755,34.60163,-37.44655,-102.1174,147.5479,-51.12611,202408231535040910,
2-5,C_HumanVertical,1,Q1FrontUp,18.40503,31.49448,34.79531,-37.39048,-102.081,147.5476,-51.12701,202408231535041114,
2-5,C_HumanVertical,1,Q1FrontUp,18.04298,31.49278,34.97319,-37.32677,-102.0659,147.5451,-51.12906,202408231535041418,
2-5,C_HumanVertical,1,Q1FrontUp,18.04298,31.49278,34.97319,-37.32677,-102.0659,147.5451,-51.12906,202408231535041618,
2-5,C_HumanVertical,1,Q1FrontUp,17.64473,31.49892,35.22239,-37.22428,-102.068,147.522,-51.14501,202408231535041889,
2-5,C_HumanVertical,1,Q1FrontUp,17.22133,31.49462,35.56145,-37.11504,-102.0715,147.4856,-51.16979,202408231535042053,
2-5,C_HumanVertical,1,Q1FrontUp,17.22133,31.49462,35.56145,-37.11504,-102.0715,147.4856,-51.16979,202408231535042260,
2-5,C_HumanVertical,1,Q1FrontUp,16.78262,31.49305,35.88448,-36.9529,-102.0735,147.439,-51.19178,202408231535042551,
2-5,C_HumanVertical,1,Q1FrontUp,16.32418,31.49144,36.1706,-36.7488,-102.0748,147.4017,-51.22406,202408231535042720,
2-5,C_HumanVertical,1,Q1FrontUp,16.32418,31.49144,36.1706,-36.7488,-102.0748,147.4017,-51.22406,202408231535042890,
2-5,C_HumanVertical,1,Q1FrontUp,15.8548,31.48075,36.44507,-36.53049,-102.0746,147.373,-51.26149,202408231535043088,
2-5,C_HumanVertical,1,Q1FrontUp,15.8548,31.48075,36.44507,-36.53049,-102.0746,147.373,-51.26149,202408231535043278,
2-5,C_HumanVertical,1,Q1FrontUp,15.38682,31.43393,36.73755,-36.30928,-102.0983,147.3465,-51.29303,202408231535043557,
2-5,C_HumanVertical,1,Q1FrontUp,14.93422,31.37175,36.97592,-36.0578,-102.107,147.3306,-51.3258,202408231535043762,
2-5,C_HumanVertical,1,Q1FrontUp,14.93422,31.37175,36.97592,-36.0578,-102.107,147.3306,-51.3258,202408231535043915,
2-5,C_HumanVertical,1,Q1FrontUp,14.48661,31.29003,37.1965,-35.79332,-102.1116,147.3172,-51.36059,202408231535044231,
2-5,C_HumanVertical,1,Q1FrontUp,14.05701,31.19115,37.40971,-35.56932,-102.115,147.2966,-51.3907,202408231535044514,
2-5,C_HumanVertical,1,Q1FrontUp,13.68105,31.04959,37.58377,-35.30921,-102.1161,147.2755,-51.42354,202408231535044742,
2-5,C_HumanVertical,1,Q1FrontUp,13.68105,31.04959,37.58377,-35.30921,-102.1161,147.2755,-51.42354,202408231535044951,
2-5,C_HumanVertical,1,Q1FrontUp,13.36535,30.90809,37.68919,-35.01887,-102.116,147.2511,-51.4616,202408231535045217,
2-5,C_HumanVertical,1,Q1FrontUp,13.0198,30.7002,37.86123,-34.7743,-102.1449,147.2262,-51.50952,202408231535045388,
2-5,C_HumanVertical,1,Q1FrontUp,13.0198,30.7002,37.86123,-34.7743,-102.1449,147.2262,-51.50952,202408231535045651,
2-5,C_HumanVertical,1,Q1FrontUp,12.73314,30.47641,38.04181,-34.50721,-102.1453,147.1969,-51.55161,202408231535045892,
2-5,C_HumanVertical,1,Q1FrontUp,12.53957,30.2114,38.19292,-34.24709,-102.1313,147.1708,-51.58867,202408231535046099,
2-5,C_HumanVertical,1,Q1FrontUp,12.31927,29.90672,38.38471,-34.02358,-102.1306,147.1523,-51.62739,202408231535046427,
2-5,C_HumanVertical,1,Q1FrontUp,12.31927,29.90672,38.38471,-34.02358,-102.1306,147.1523,-51.62739,202408231535046663,
2-5,C_HumanVertical,1,Q1FrontUp,12.08148,29.57903,38.64397,-33.76586,-102.1602,147.1357,-51.66622,202408231535046907,
2-5,C_HumanVertical,1,Q1FrontUp,11.83428,29.25191,39.01383,-33.54465,-102.2002,147.1282,-51.70659,202408231535047220,
2-5,C_HumanVertical,1,Q1FrontUp,11.83428,29.25191,39.01383,-33.54465,-102.2002,147.1282,-51.70659,202408231535047388,
2-5,C_HumanVertical,1,Q1FrontUp,11.83428,29.25191,39.01383,-33.54465,-102.2002,147.1282,-51.70659,202408231535047558,
2-5,C_HumanVertical,1,Q1FrontUp,11.28708,28.48044,39.66737,-33.05958,-102.2584,147.1254,-51.78349,202408231535047853,
2-5,C_HumanVertical,1,Q1FrontUp,11.28708,28.48044,39.66737,-33.05958,-102.2584,147.1254,-51.78349,202408231535048090,
2-5,C_HumanVertical,1,Q1FrontUp,11.00956,28.09282,40.00216,-32.79821,-102.2804,147.1241,-51.83058,202408231535048335,
2-5,C_HumanVertical,1,Q1FrontUp,10.79835,27.67184,40.27011,-32.56862,-102.2662,147.1092,-51.88033,202408231535048554,
2-5,C_HumanVertical,1,Q1FrontUp,10.5657,27.27116,40.53731,-32.30848,-102.258,147.084,-51.93431,202408231535048747,
2-5,C_HumanVertical,1,Q1FrontUp,10.5657,27.27116,40.53731,-32.30848,-102.258,147.084,-51.93431,202408231535048936,
2-5,C_HumanVertical,1,Q1FrontUp,10.373,26.8597,40.76444,-32.05309,-102.2564,147.047,-51.98414,202408231535049225,
2-5,C_HumanVertical,1,Q1FrontUp,10.373,26.8597,40.76444,-32.05309,-102.2564,147.047,-51.98414,202408231535049406,
2-5,C_HumanVertical,1,Q1FrontUp,9.986691,26.0451,41.34936,-31.62375,-102.2766,147.0059,-52.07841,202408231535049774,
2-5,C_HumanVertical,1,Q1FrontUp,9.986691,26.0451,41.34936,-31.62375,-102.2766,147.0059,-52.07841,202408231535050053,
2-5,C_HumanVertical,1,Q1FrontUp,9.676255,25.66086,41.80827,-31.445,-102.316,147.0025,-52.11438,202408231535050221,
2-5,C_HumanVertical,1,Q1FrontUp,9.321825,25.29505,42.3023,-31.25199,-102.3313,147.0032,-52.16765,202408231535050397,
2-5,C_HumanVertical,1,Q1FrontUp,9.321825,25.29505,42.3023,-31.25199,-102.3313,147.0032,-52.16765,202408231535050565,
2-5,C_HumanVertical,1,Q1FrontUp,8.929157,24.92687,42.77649,-31.07922,-102.3514,146.9991,-52.2279,202408231535050730,
2-5,C_HumanVertical,1,Q1FrontUp,8.929157,24.92687,42.77649,-31.07922,-102.3514,146.9991,-52.2279,202408231535050920,
2-5,C_HumanVertical,1,Q1FrontUp,8.530528,24.62136,43.19306,-30.85986,-102.3644,146.9876,-52.29595,202408231535051126,
2-5,C_HumanVertical,1,Q1FrontUp,8.530528,24.62136,43.19306,-30.85986,-102.3644,146.9876,-52.29595,202408231535051293,
2-5,C_HumanVertical,1,Q1FrontUp,8.12987,24.33406,43.62675,-30.67567,-102.3652,146.9856,-52.32763,202408231535051577,
2-5,C_HumanVertical,1,Q1FrontUp,7.753297,24.03215,44.00786,-30.51679,-102.3658,146.9854,-52.35586,202408231535051898,
2-5,C_HumanVertical,1,Q1FrontUp,7.379438,23.76821,44.35793,-30.37459,-102.3664,146.9836,-52.38174,202408231535052272,
2-5,C_HumanVertical,1,Q1FrontUp,6.992315,23.53571,44.72145,-30.23875,-102.3663,146.9841,-52.41858,202408231535052544,
2-5,C_HumanVertical,1,Q1FrontUp,6.699222,23.34521,45.0621,-30.1224,-102.357,146.9825,-52.45855,202408231535052723,
2-5,C_HumanVertical,1,Q1FrontUp,6.699222,23.34521,45.0621,-30.1224,-102.357,146.9825,-52.45855,202408231535052952,
2-5,C_HumanVertical,1,Q1FrontUp,6.499187,23.18366,45.31784,-29.97185,-102.3369,146.9828,-52.50739,202408231535053220,
2-5,C_HumanVertical,1,Q1FrontUp,6.499187,23.18366,45.31784,-29.97185,-102.3369,146.9828,-52.50739,202408231535053447,
2-5,C_HumanVertical,1,Q1FrontUp,5.918543,23.0063,45.9591,-29.76668,-102.344,146.9836,-52.57315,202408231535053713,
2-5,C_HumanVertical,1,Q1FrontUp,5.918543,23.0063,45.9591,-29.76668,-102.344,146.9836,-52.57315,202408231535053922,
2-5,C_HumanVertical,1,Q1FrontUp,5.633671,22.96659,46.34663,-29.72319,-102.3442,146.9839,-52.60423,202408231535054269,
2-5,C_HumanVertical,1,Q1FrontUp,5.299263,22.94972,46.78074,-29.67946,-102.3057,146.9836,-52.63169,202408231535054425,
2-5,C_HumanVertical,1,Q1FrontUp,4.957411,22.96571,47.2021,-29.64437,-102.2792,146.9828,-52.66808,202408231535054716,
2-5,C_HumanVertical,1,Q1FrontUp,4.957411,22.96571,47.2021,-29.64437,-102.2792,146.9828,-52.66808,202408231535054872,
2-5,C_HumanVertical,1,Q1FrontUp,4.592724,23.00417,47.67599,-29.6448,-102.2587,146.9821,-52.71508,202408231535055038,
2-5,C_HumanVertical,1,Q1FrontUp,4.592724,23.00417,47.67599,-29.6448,-102.2587,146.9821,-52.71508,202408231535055217,
2-5,C_HumanVertical,1,Q1FrontUp,4.592724,23.00417,47.67599,-29.6448,-102.2587,146.9821,-52.71508,202408231535055398,
2-5,C_HumanVertical,1,Q1FrontUp,4.592724,23.00417,47.67599,-29.6448,-102.2587,146.9821,-52.71508,202408231535055615,
2-5,C_HumanVertical,1,Q1FrontUp,3.782295,23.13802,48.67494,-29.63973,-102.2246,146.983,-52.80246,202408231535055895,
2-5,C_HumanVertical,1,Q1FrontUp,3.39596,23.21254,49.10458,-29.6262,-102.2106,146.9819,-52.84051,202408231535056140,
2-5,C_HumanVertical,1,Q1FrontUp,2.894881,23.3551,49.70684,-29.6055,-102.1533,146.9796,-52.90461,202408231535056423,
2-5,C_HumanVertical,1,Q1FrontUp,2.894881,23.3551,49.70684,-29.6055,-102.1533,146.9796,-52.90461,202408231535056618,
2-5,C_HumanVertical,1,Q1FrontUp,2.397798,23.49411,50.24826,-29.55537,-102.119,146.9782,-52.95538,202408231535056874,
2-5,C_HumanVertical,1,Q1FrontUp,1.877733,23.6564,50.8019,-29.52518,-102.101,146.9741,-53.00685,202408231535057053,
2-5,C_HumanVertical,1,Q1FrontUp,1.877733,23.6564,50.8019,-29.52518,-102.101,146.9741,-53.00685,202408231535057207,
2-5,C_HumanVertical,1,Q1FrontUp,1.877733,23.6564,50.8019,-29.52518,-102.101,146.9741,-53.00685,202408231535057375,
2-5,C_HumanVertical,1,Q1FrontUp,1.877733,23.6564,50.8019,-29.52518,-102.101,146.9741,-53.00685,202408231535057552,
2-5,C_HumanVertical,1,Q1FrontUp,0.8125684,23.99836,51.72702,-29.39276,-102.0712,146.9542,-53.11178,202408231535057755,
2-5,C_HumanVertical,1,Q1FrontUp,0.8125684,23.99836,51.72702,-29.39276,-102.0712,146.9542,-53.11178,202408231535058053,
2-5,C_HumanVertical,1,Q1FrontUp,0.8125684,23.99836,51.72702,-29.39276,-102.0712,146.9542,-53.11178,202408231535058219,
2-5,C_HumanVertical,1,Q1FrontUp,-0.2019771,24.36634,52.53352,-29.22962,-102.0432,146.9073,-53.25179,202408231535058396,
2-5,C_HumanVertical,1,Q1FrontUp,-0.2019771,24.36634,52.53352,-29.22962,-102.0432,146.9073,-53.25179,202408231535058577,
2-5,C_HumanVertical,1,Q1FrontUp,-0.2019771,24.36634,52.53352,-29.22962,-102.0432,146.9073,-53.25179,202408231535058801,
2-5,C_HumanVertical,1,Q1FrontUp,-1.166161,24.73084,53.18793,-29.03979,-102.001,146.8944,-53.36551,202408231535059068,
2-5,C_HumanVertical,1,Q1FrontUp,-1.166161,24.73084,53.18793,-29.03979,-102.001,146.8944,-53.36551,202408231535059273,
2-5,C_HumanVertical,1,Q1FrontUp,-1.638615,24.89865,53.45291,-28.95752,-101.9811,146.8898,-53.42285,202408231535059547,
2-5,C_HumanVertical,1,Q1FrontUp,-2.084791,25.05206,53.69366,-28.87799,-101.971,146.8821,-53.4866,202408231535059724,
2-5,C_HumanVertical,1,Q1FrontUp,-2.084791,25.05206,53.69366,-28.87799,-101.971,146.8821,-53.4866,202408231535059932,
2-5,C_HumanVertical,1,Q1FrontUp,-2.492606,25.21345,53.93537,-28.78777,-101.9697,146.8708,-53.55435,202408231535060220,
2-5,C_HumanVertical,1,Q1FrontUp,-2.879246,25.35321,54.12112,-28.66632,-101.9697,146.8478,-53.63712,202408231535060391,
2-5,C_HumanVertical,1,Q1FrontUp,-3.234503,25.48643,54.27538,-28.51755,-101.9699,146.8371,-53.71053,202408231535060715,
2-5,C_HumanVertical,1,Q1FrontUp,-3.234503,25.48643,54.27538,-28.51755,-101.9699,146.8371,-53.71053,202408231535060963,
2-5,C_HumanVertical,1,Q1FrontUp,-3.594188,25.58102,54.45153,-28.37108,-101.9696,146.83,-53.78332,202408231535061223,
2-5,C_HumanVertical,1,Q1FrontUp,-3.932461,25.64883,54.64452,-28.22016,-101.9698,146.8117,-53.86568,202408231535061396,
2-5,C_HumanVertical,1,Q1FrontUp,-3.932461,25.64883,54.64452,-28.22016,-101.9698,146.8117,-53.86568,202408231535061578,
2-5,C_HumanVertical,1,Q1FrontUp,-4.264927,25.68909,54.82991,-28.05744,-101.9691,146.7942,-53.94967,202408231535061894,
2-5,C_HumanVertical,1,Q1FrontUp,-4.578223,25.69482,54.96495,-27.872,-101.9673,146.7731,-54.02876,202408231535062070,
2-5,C_HumanVertical,1,Q1FrontUp,-4.578223,25.69482,54.96495,-27.872,-101.9673,146.7731,-54.02876,202408231535062249,
2-5,C_HumanVertical,1,Q1FrontUp,-4.930794,25.68251,55.20191,-27.66488,-101.9684,146.7362,-54.11958,202408231535062418,
2-5,C_HumanVertical,1,Q1FrontUp,-4.930794,25.68251,55.20191,-27.66488,-101.9684,146.7362,-54.11958,202408231535062700,
2-5,C_HumanVertical,1,Q1FrontUp,-5.296818,25.63583,55.4871,-27.47147,-101.9689,146.713,-54.21494,202408231535062875,
2-5,C_HumanVertical,1,Q1FrontUp,-5.654085,25.55398,55.74337,-27.26928,-101.9685,146.6871,-54.31313,202408231535063039,
2-5,C_HumanVertical,1,Q1FrontUp,-5.654085,25.55398,55.74337,-27.26928,-101.9685,146.6871,-54.31313,202408231535063215,
2-5,C_HumanVertical,1,Q1FrontUp,-5.994822,25.46401,55.96096,-27.06262,-101.9686,146.6637,-54.39683,202408231535063470,
2-5,C_HumanVertical,1,Q1FrontUp,-6.343404,25.36219,56.2616,-26.81872,-101.9557,146.6347,-54.48535,202408231535063742,
2-5,C_HumanVertical,1,Q1FrontUp,-6.343404,25.36219,56.2616,-26.81872,-101.9557,146.6347,-54.48535,202408231535064107,
2-5,C_HumanVertical,1,Q1FrontUp,-7.069667,25.06985,57.00802,-26.49126,-101.9021,146.569,-54.68214,202408231535064453,
2-5,C_HumanVertical,1,Q1FrontUp,-7.443563,24.91161,57.36491,-26.33133,-101.8947,146.532,-54.7602,202408231535064725,
2-5,C_HumanVertical,1,Q1FrontUp,-7.443563,24.91161,57.36491,-26.33133,-101.8947,146.532,-54.7602,202408231535064896,
2-5,C_HumanVertical,1,Q1FrontUp,-7.801594,24.73293,57.7352,-26.16898,-101.8947,146.4931,-54.81993,202408231535065064,
2-5,C_HumanVertical,1,Q1FrontUp,-7.801594,24.73293,57.7352,-26.16898,-101.8947,146.4931,-54.81993,202408231535065223,
2-5,C_HumanVertical,1,Q1FrontUp,-8.156964,24.53744,58.07726,-26.0173,-101.8946,146.4695,-54.88248,202408231535065388,
2-5,C_HumanVertical,1,Q1FrontUp,-8.156964,24.53744,58.07726,-26.0173,-101.8946,146.4695,-54.88248,202408231535065627,
2-5,C_HumanVertical,1,Q1FrontUp,-8.514892,24.32103,58.45313,-25.88094,-101.8957,146.4495,-54.95599,202408231535065892,
2-5,C_HumanVertical,1,Q1FrontUp,-8.89092,24.11082,58.84119,-25.76249,-101.8956,146.4447,-55.03513,202408231535066055,
2-5,C_HumanVertical,1,Q1FrontUp,-8.89092,24.11082,58.84119,-25.76249,-101.8956,146.4447,-55.03513,202408231535066234,
2-5,C_HumanVertical,1,Q1FrontUp,-9.261442,23.88751,59.22245,-25.62286,-101.9216,146.4439,-55.06081,202408231535066416,
2-5,C_HumanVertical,1,Q1FrontUp,-9.261442,23.88751,59.22245,-25.62286,-101.9216,146.4439,-55.06081,202408231535066645,
2-5,C_HumanVertical,1,Q1FrontUp,-9.590798,23.68213,59.54409,-25.49346,-101.931,146.4432,-55.08511,202408231535066895,
2-5,C_HumanVertical,1,Q1FrontUp,-9.922925,23.46211,59.88745,-25.35141,-101.9403,146.4426,-55.10976,202408231535067058,
2-5,C_HumanVertical,1,Q1FrontUp,-9.922925,23.46211,59.88745,-25.35141,-101.9403,146.4426,-55.10976,202408231535067266,
2-5,C_HumanVertical,1,Q1FrontUp,-10.14885,23.26817,60.08959,-25.19897,-101.9406,146.4417,-55.14666,202408231535067547,
2-5,C_HumanVertical,1,Q1FrontUp,-10.3605,23.07967,60.2616,-25.05972,-101.939,146.4397,-55.17967,202408231535067751,
2-5,C_HumanVertical,1,Q1FrontUp,-10.52821,22.89333,60.41782,-24.93517,-101.9388,146.4374,-55.20495,202408231535068036,
2-5,C_HumanVertical,1,Q1FrontUp,-10.52821,22.89333,60.41782,-24.93517,-101.9388,146.4374,-55.20495,202408231535068213,
2-5,C_HumanVertical,1,Q1FrontUp,-10.65147,22.71463,60.57881,-24.83279,-101.9386,146.4346,-55.22718,202408231535068390,
2-5,C_HumanVertical,1,Q1FrontUp,-10.65147,22.71463,60.57881,-24.83279,-101.9386,146.4346,-55.22718,202408231535068588,
2-5,C_HumanVertical,1,Q1FrontUp,-10.75044,22.54534,60.74654,-24.74856,-101.9225,146.4317,-55.26192,202408231535068798,
2-5,C_HumanVertical,1,Q1FrontUp,-10.8288,22.39007,60.89572,-24.70648,-101.9076,146.4326,-55.30808,202408231535069081,
2-5,C_HumanVertical,1,Q1FrontUp,-10.84892,22.24947,60.95584,-24.68969,-101.9076,146.4319,-55.31632,202408231535069375,
2-5,C_HumanVertical,1,Q1FrontUp,-10.84892,22.24947,60.95584,-24.68969,-101.9076,146.4319,-55.31632,202408231535069565,
2-5,C_HumanVertical,1,Q1FrontUp,-10.85864,22.1154,61.00316,-24.67586,-101.8961,146.4328,-55.33356,202408231535069743,
2-5,C_HumanVertical,1,Q1FrontUp,-10.85864,22.1154,61.00316,-24.67586,-101.8961,146.4328,-55.33356,202408231535069927,
2-5,C_HumanVertical,1,Q1FrontUp,-10.85864,22.1154,61.00316,-24.67586,-101.8961,146.4328,-55.33356,202408231535070213,
2-5,C_HumanVertical,1,Q1FrontUp,-10.78742,21.96337,61.04765,-24.67426,-101.8444,146.4325,-55.37524,202408231535070431,
2-5,C_HumanVertical,1,Q1FrontUp,-10.78742,21.96337,61.04765,-24.67426,-101.8444,146.4325,-55.37524,202408231535070728,
2-5,C_HumanVertical,1,Q1FrontUp,-10.68224,21.95024,61.03978,-24.66916,-101.7914,146.432,-55.39626,202408231535070890,
2-5,C_HumanVertical,1,Q1FrontUp,-10.55024,21.95613,61.01124,-24.65457,-101.7206,146.4323,-55.40642,202408231535071131,
2-5,C_HumanVertical,1,Q1FrontUp,-10.38842,22.00146,60.9771,-24.65541,-101.6571,146.4324,-55.41214,202408231535071402,
2-5,C_HumanVertical,1,Q1FrontUp,-10.38842,22.00146,60.9771,-24.65541,-101.6571,146.4324,-55.41214,202408231535071578,
2-5,C_HumanVertical,1,Q1FrontUp,-10.20317,22.08226,60.91633,-24.65837,-101.5787,146.4343,-55.42126,202408231535071737,
2-5,C_HumanVertical,1,Q1FrontUp,-10.20317,22.08226,60.91633,-24.65837,-101.5787,146.4343,-55.42126,202408231535071942,
2-5,C_HumanVertical,1,Q1FrontUp,-10.01282,22.20113,60.83286,-24.66616,-101.4914,146.4328,-55.43199,202408231535072212,
2-5,C_HumanVertical,1,Q1FrontUp,-9.834735,22.32693,60.7671,-24.66784,-101.4041,146.4328,-55.44482,202408231535072540,
2-5,C_HumanVertical,1,Q1FrontUp,-9.648955,22.50393,60.68447,-24.67311,-101.321,146.4331,-55.44995,202408231535072707,
2-5,C_HumanVertical,1,Q1FrontUp,-9.648955,22.50393,60.68447,-24.67311,-101.321,146.4331,-55.44995,202408231535072880,
2-5,C_HumanVertical,1,Q1FrontUp,-9.470881,22.69502,60.5827,-24.68621,-101.2446,146.4326,-55.45033,202408231535073079,
2-5,C_HumanVertical,1,Q1FrontUp,-9.250581,22.9462,60.43365,-24.69858,-101.1173,146.4327,-55.46203,202408231535073291,
2-5,C_HumanVertical,1,Q1FrontUp,-9.250581,22.9462,60.43365,-24.69858,-101.1173,146.4327,-55.46203,202408231535073554,
2-5,C_HumanVertical,1,Q1FrontUp,-9.027449,23.20306,60.27359,-24.69216,-100.9969,146.434,-55.47013,202408231535073767,
2-5,C_HumanVertical,1,Q1FrontUp,-8.815879,23.49092,60.10268,-24.6943,-100.8948,146.4326,-55.47076,202408231535074050,
2-5,C_HumanVertical,1,Q1FrontUp,-8.815879,23.49092,60.10268,-24.6943,-100.8948,146.4326,-55.47076,202408231535074252,
2-5,C_HumanVertical,1,Q1FrontUp,-8.627069,23.80191,59.96242,-24.70168,-100.8081,146.4311,-55.47181,202408231535074424,
2-5,C_HumanVertical,1,Q1FrontUp,-8.442798,24.16764,59.80989,-24.70476,-100.6988,146.432,-55.47252,202408231535074715,
2-5,C_HumanVertical,1,Q1FrontUp,-8.442798,24.16764,59.80989,-24.70476,-100.6988,146.432,-55.47252,202408231535074878,
2-5,C_HumanVertical,1,Q1FrontUp,-8.266725,24.54388,59.63104,-24.70176,-100.5677,146.432,-55.47446,202408231535075094,
2-5,C_HumanVertical,1,Q1FrontUp,-8.266725,24.54388,59.63104,-24.70176,-100.5677,146.432,-55.47446,202408231535075393,
2-5,C_HumanVertical,1,Q1FrontUp,-8.079161,24.95074,59.41089,-24.68236,-100.3976,146.432,-55.47544,202408231535075608,
2-5,C_HumanVertical,1,Q1FrontUp,-7.917406,25.34782,59.21622,-24.6618,-100.2059,146.4322,-55.47736,202408231535075898,
2-5,C_HumanVertical,1,Q1FrontUp,-7.765574,25.78182,59.02898,-24.63348,-100.0087,146.4314,-55.48593,202408231535076062,
2-5,C_HumanVertical,1,Q1FrontUp,-7.765574,25.78182,59.02898,-24.63348,-100.0087,146.4314,-55.48593,202408231535076237,
2-5,C_HumanVertical,1,Q1FrontUp,-7.635063,26.25066,58.8556,-24.58642,-99.7859,146.4312,-55.4893,202408231535076413,
2-5,C_HumanVertical,1,Q1FrontUp,-7.548708,26.67941,58.69478,-24.5682,-99.59954,146.4307,-55.49263,202408231535076629,
2-5,C_HumanVertical,1,Q1FrontUp,-7.548708,26.67941,58.69478,-24.5682,-99.59954,146.4307,-55.49263,202408231535076908,
2-5,C_HumanVertical,1,Q1FrontUp,-7.499454,27.11788,58.5705,-24.5684,-99.42503,146.4293,-55.49939,202408231535077071,
2-5,C_HumanVertical,1,Q1FrontUp,-7.503613,27.5729,58.53286,-24.57036,-99.33028,146.4297,-55.50489,202408231535077379,
2-5,C_HumanVertical,1,Q1FrontUp,-7.503613,27.5729,58.53286,-24.57036,-99.33028,146.4297,-55.50489,202408231535077545,
2-5,C_HumanVertical,1,Q1FrontUp,-7.545249,28.01824,58.52196,-24.58304,-99.232,146.429,-55.51412,202408231535077767,
2-5,C_HumanVertical,1,Q1FrontUp,-7.620899,28.44364,58.52404,-24.61995,-99.14478,146.4272,-55.53442,202408231535078059,
2-5,C_HumanVertical,1,Q1FrontUp,-7.620899,28.44364,58.52404,-24.61995,-99.14478,146.4272,-55.53442,202408231535078288,
2-5,C_HumanVertical,1,Q1FrontUp,-7.706327,28.85347,58.52405,-24.63937,-99.06765,146.4256,-55.55285,202408231535078585,
2-5,C_HumanVertical,1,Q1FrontUp,-7.837801,29.29234,58.57212,-24.64968,-99.02573,146.4252,-55.57285,202408231535078787,
2-5,C_HumanVertical,1,Q1FrontUp,-8.010553,29.68753,58.64183,-24.6882,-99.01533,146.4209,-55.59337,202408231535079066,
2-5,C_HumanVertical,1,Q1FrontUp,-8.010553,29.68753,58.64183,-24.6882,-99.01533,146.4209,-55.59337,202408231535079248,
2-5,C_HumanVertical,1,Q1FrontUp,-8.243352,30.11674,58.78065,-24.73762,-99.00988,146.421,-55.64841,202408231535079563,
2-5,C_HumanVertical,1,Q1FrontUp,-8.490458,30.51208,58.92861,-24.75937,-98.99557,146.4221,-55.70031,202408231535079879,
2-5,C_HumanVertical,1,Q1FrontUp,-8.773717,30.92381,59.11005,-24.77661,-98.97198,146.4199,-55.7501,202408231535080147,
2-5,C_HumanVertical,1,Q1FrontUp,-9.091629,31.36201,59.29007,-24.77987,-98.96753,146.421,-55.79835,202408231535080417,
2-5,C_HumanVertical,1,Q1FrontUp,-9.091629,31.36201,59.29007,-24.77987,-98.96753,146.421,-55.79835,202408231535080607,
2-5,C_HumanVertical,1,Q1FrontUp,-9.720619,32.1924,59.58331,-24.7758,-98.93055,146.4208,-55.8737,202408231535081073,
2-5,C_HumanVertical,1,Q1FrontUp,-9.720619,32.1924,59.58331,-24.7758,-98.93055,146.4208,-55.8737,202408231535081291,
2-5,C_HumanVertical,1,Q1FrontUp,-10.01848,32.62059,59.76185,-24.75615,-98.89279,146.4198,-55.9087,202408231535081581,
2-5,C_HumanVertical,1,Q1FrontUp,-10.32585,33.06742,59.93997,-24.74767,-98.86089,146.4197,-55.9428,202408231535081734,
2-5,C_HumanVertical,1,Q1FrontUp,-10.32585,33.06742,59.93997,-24.74767,-98.86089,146.4197,-55.9428,202408231535081903,
2-5,C_HumanVertical,1,Q1FrontUp,-10.61436,33.46824,60.06873,-24.73152,-98.83363,146.4184,-55.97457,202408231535082068,
2-5,C_HumanVertical,1,Q1FrontUp,-10.86118,33.88203,60.1608,-24.70063,-98.79309,146.4182,-55.99921,202408231535082286,
2-5,C_HumanVertical,1,Q1FrontUp,-10.86118,33.88203,60.1608,-24.70063,-98.79309,146.4182,-55.99921,202408231535082553,
2-5,C_HumanVertical,1,Q1FrontUp,-11.08106,34.24811,60.23167,-24.68452,-98.75092,146.4181,-56.01963,202408231535082920,
2-5,C_HumanVertical,1,Q1FrontUp,-11.2652,34.61333,60.2911,-24.65873,-98.70347,146.4178,-56.03234,202408231535083222,
2-5,C_HumanVertical,1,Q1FrontUp,-11.43408,34.9453,60.36027,-24.64095,-98.66087,146.4174,-56.06558,202408231535083444,
2-5,C_HumanVertical,1,Q1FrontUp,-11.57609,35.25991,60.40857,-24.63725,-98.635,146.418,-56.09549,202408231535083735,
2-5,C_HumanVertical,1,Q1FrontUp,-11.57609,35.25991,60.40857,-24.63725,-98.635,146.418,-56.09549,202408231535083919,
2-5,C_HumanVertical,1,Q1FrontUp,-11.70357,35.52157,60.43093,-24.65394,-98.63004,146.4176,-56.11974,202408231535084082,
2-5,C_HumanVertical,1,Q1FrontUp,-11.70357,35.52157,60.43093,-24.65394,-98.63004,146.4176,-56.11974,202408231535084244,
2-5,C_HumanVertical,1,Q1FrontUp,-11.81354,35.76724,60.45264,-24.66712,-98.62666,146.4171,-56.14248,202408231535084451,
2-5,C_HumanVertical,1,Q1FrontUp,-11.92626,35.99238,60.46431,-24.69014,-98.62506,146.4173,-56.16182,202408231535084718,
2-5,C_HumanVertical,1,Q1FrontUp,-11.92626,35.99238,60.46431,-24.69014,-98.62506,146.4173,-56.16182,202408231535084887,
2-5,C_HumanVertical,1,Q1FrontUp,-12.03789,36.18326,60.46456,-24.7399,-98.62517,146.4171,-56.17266,202408231535085036,
2-5,C_HumanVertical,1,Q1FrontUp,-12.03789,36.18326,60.46456,-24.7399,-98.62517,146.4171,-56.17266,202408231535085196,
2-5,C_HumanVertical,1,Q1FrontUp,-12.15566,36.3481,60.4649,-24.83681,-98.62522,146.4172,-56.18445,202408231535085392,
2-5,C_HumanVertical,1,Q1FrontUp,-12.15566,36.3481,60.4649,-24.83681,-98.62522,146.4172,-56.18445,202408231535085609,
2-5,C_HumanVertical,1,Q1FrontUp,-12.28811,36.47314,60.46634,-24.96889,-98.62571,146.4183,-56.19255,202408231535085894,
2-5,C_HumanVertical,1,Q1FrontUp,-12.28811,36.47314,60.46634,-24.96889,-98.62571,146.4183,-56.19255,202408231535086125,
2-5,C_HumanVertical,1,Q1FrontUp,-12.66785,36.65685,60.46652,-25.46238,-98.68373,146.4207,-56.19654,202408231535086423,
2-5,C_HumanVertical,1,Q1FrontUp,-12.66785,36.65685,60.46652,-25.46238,-98.68373,146.4207,-56.19654,202408231535086640,
2-5,C_HumanVertical,1,Q1FrontUp,-12.87546,36.7347,60.46679,-25.77164,-98.72644,146.424,-56.19624,202408231535086879,
2-5,C_HumanVertical,1,Q1FrontUp,-13.12957,36.79811,60.46499,-26.15986,-98.76595,146.4271,-56.19692,202408231535087076,
2-5,C_HumanVertical,1,Q1FrontUp,-13.37542,36.87011,60.46427,-26.5291,-98.79051,146.4302,-56.19691,202408231535087372,
2-5,C_HumanVertical,1,Q1FrontUp,-13.37542,36.87011,60.46427,-26.5291,-98.79051,146.4302,-56.19691,202408231535087564,
2-5,C_HumanVertical,1,Q1FrontUp,-13.62449,36.94381,60.4281,-26.94744,-98.81815,146.4363,-56.19181,202408231535087790,
2-5,C_HumanVertical,1,Q1FrontUp,-13.91729,36.97345,60.33741,-27.55123,-98.86375,146.4404,-56.17092,202408231535088067,
2-5,C_HumanVertical,1,Q1FrontUp,-13.91729,36.97345,60.33741,-27.55123,-98.86375,146.4404,-56.17092,202408231535088230,
2-5,C_HumanVertical,1,Q1FrontUp,-14.19459,37.00154,60.25311,-28.15714,-98.89846,146.4444,-56.15567,202408231535088556,
2-5,C_HumanVertical,1,Q1FrontUp,-14.41517,37.03871,60.13407,-28.75866,-98.923,146.4461,-56.12883,202408231535088758,
2-5,C_HumanVertical,1,Q1FrontUp,-14.41517,37.03871,60.13407,-28.75866,-98.923,146.4461,-56.12883,202408231535088934,
2-5,C_HumanVertical,1,Q1FrontUp,-14.6407,37.06858,59.9978,-29.42128,-98.9408,146.4468,-56.09645,202408231535089246,
2-5,C_HumanVertical,1,Q1FrontUp,-14.88951,37.09394,59.81715,-30.20541,-98.97768,146.4488,-56.01946,202408231535089435,
2-5,C_HumanVertical,1,Q1FrontUp,-15.12502,37.09893,59.60674,-31.04952,-98.99939,146.4504,-55.90806,202408231535089746,
2-5,C_HumanVertical,1,Q1FrontUp,-15.12502,37.09893,59.60674,-31.04952,-98.99939,146.4504,-55.90806,202408231535089953,
2-5,C_HumanVertical,1,Q1FrontUp,-15.3315,37.10482,59.36277,-31.91913,-99.00169,146.4517,-55.78127,202408231535090217,
2-5,C_HumanVertical,1,Q1FrontUp,-15.53317,37.10749,59.13277,-32.86231,-99.00056,146.4499,-55.66363,202408231535090395,
2-5,C_HumanVertical,1,Q1FrontUp,-15.53317,37.10749,59.13277,-32.86231,-99.00056,146.4499,-55.66363,202408231535090567,
2-5,C_HumanVertical,1,Q1FrontUp,-15.67042,37.11138,58.83897,-33.86645,-99.00095,146.4525,-55.53388,202408231535090738,
2-5,C_HumanVertical,1,Q1FrontUp,-15.67042,37.11138,58.83897,-33.86645,-99.00095,146.4525,-55.53388,202408231535090907,
2-5,C_HumanVertical,1,Q1FrontUp,-15.77344,37.11836,58.48199,-34.87531,-99.00399,146.447,-55.42091,202408231535091118,
2-5,C_HumanVertical,1,Q1FrontUp,-15.88877,37.10948,58.11837,-35.99816,-99.00636,146.4436,-55.24783,202408231535091411,
2-5,C_HumanVertical,1,Q1FrontUp,-15.94631,37.1053,57.74543,-37.09138,-99.00864,146.4448,-55.0924,202408231535091733,
2-5,C_HumanVertical,1,Q1FrontUp,-15.94631,37.1053,57.74543,-37.09138,-99.00864,146.4448,-55.0924,202408231535091890,
2-5,C_HumanVertical,1,Q1FrontUp,-15.9948,37.10451,57.38125,-38.22393,-99.00906,146.4374,-54.95913,202408231535092073,
2-5,C_HumanVertical,1,Q1FrontUp,-15.9948,37.10451,57.38125,-38.22393,-99.00906,146.4374,-54.95913,202408231535092268,
2-5,C_HumanVertical,1,Q1FrontUp,-16.00668,37.13187,57.0097,-39.33136,-99.01061,146.4348,-54.81238,202408231535092554,
2-5,C_HumanVertical,1,Q1FrontUp,-16.02019,37.14928,56.68219,-40.40097,-99.0234,146.4318,-54.68317,202408231535092767,
2-5,C_HumanVertical,1,Q1FrontUp,-16.01273,37.17342,56.30717,-41.48579,-99.06137,146.4145,-54.56531,202408231535093051,
2-5,C_HumanVertical,1,Q1FrontUp,-16.01273,37.17342,56.30717,-41.48579,-99.06137,146.4145,-54.56531,202408231535093217,
2-5,C_HumanVertical,1,Q1FrontUp,-16.01273,37.17342,56.30717,-41.48579,-99.06137,146.4145,-54.56531,202408231535093451,
2-5,C_HumanVertical,1,Q1FrontUp,-15.99934,37.2276,55.62794,-43.51043,-99.1301,146.4003,-54.33677,202408231535093743,
2-5,C_HumanVertical,1,Q1FrontUp,-15.99934,37.2276,55.62794,-43.51043,-99.1301,146.4003,-54.33677,202408231535093908,
2-5,C_HumanVertical,1,Q1FrontUp,-15.96177,37.24867,55.31253,-44.4179,-99.18315,146.3805,-54.23323,202408231535094084,
2-5,C_HumanVertical,1,Q1FrontUp,-15.96177,37.24867,55.31253,-44.4179,-99.18315,146.3805,-54.23323,202408231535094283,
2-5,C_HumanVertical,1,Q1FrontUp,-15.92148,37.29138,54.9545,-45.2753,-99.23383,146.3575,-54.13439,202408231535094441,
2-5,C_HumanVertical,1,Q1FrontUp,-15.92148,37.29138,54.9545,-45.2753,-99.23383,146.3575,-54.13439,202408231535094710,
2-5,C_HumanVertical,1,Q1FrontUp,-15.89241,37.33707,54.64946,-46.04255,-99.28117,146.3305,-54.04713,202408231535094875,
2-5,C_HumanVertical,1,Q1FrontUp,-15.86353,37.39079,54.38364,-46.735,-99.32906,146.2912,-53.97393,202408231535095032,
2-5,C_HumanVertical,1,Q1FrontUp,-15.86353,37.39079,54.38364,-46.735,-99.32906,146.2912,-53.97393,202408231535095211,
2-5,C_HumanVertical,1,Q1FrontUp,-15.83508,37.44037,54.14993,-47.38292,-99.40054,146.252,-53.89799,202408231535095374,
2-5,C_HumanVertical,1,Q1FrontUp,-15.83508,37.44037,54.14993,-47.38292,-99.40054,146.252,-53.89799,202408231535095621,
2-5,C_HumanVertical,1,Q1FrontUp,-15.83053,37.48891,53.95152,-47.95939,-99.47094,146.2094,-53.83285,202408231535095775,
2-5,C_HumanVertical,1,Q1FrontUp,-15.81682,37.53909,53.78687,-48.47828,-99.52936,146.171,-53.77049,202408231535096078,
2-5,C_HumanVertical,1,Q1FrontUp,-15.83221,37.56674,53.6309,-49.00713,-99.58106,146.142,-53.69455,202408231535096410,
2-5,C_HumanVertical,1,Q1FrontUp,-15.83221,37.56674,53.6309,-49.00713,-99.58106,146.142,-53.69455,202408231535096625,
2-5,C_HumanVertical,1,Q1FrontUp,-15.85065,37.57382,53.49968,-49.49033,-99.63629,146.1109,-53.62779,202408231535096901,
2-5,C_HumanVertical,1,Q1FrontUp,-15.8591,37.58379,53.37732,-49.94613,-99.68524,146.0646,-53.57332,202408231535097221,
2-5,C_HumanVertical,1,Q1FrontUp,-15.88766,37.57686,53.28978,-50.43036,-99.70898,146.0184,-53.50834,202408231535097444,
2-5,C_HumanVertical,1,Q1FrontUp,-15.91915,37.56014,53.25024,-50.90186,-99.71934,145.9687,-53.42857,202408231535097721,
2-5,C_HumanVertical,1,Q1FrontUp,-15.91915,37.56014,53.25024,-50.90186,-99.71934,145.9687,-53.42857,202408231535097884,
2-5,C_HumanVertical,1,Q1FrontUp,-15.91915,37.56014,53.25024,-50.90186,-99.71934,145.9687,-53.42857,202408231535098043,
2-5,C_HumanVertical,1,Q1FrontUp,-15.94337,37.55712,53.22144,-51.38664,-99.71985,145.9038,-53.33276,202408231535098222,
2-5,C_HumanVertical,1,Q1FrontUp,-15.97051,37.53886,53.20179,-51.92152,-99.71904,145.8733,-53.22828,202408231535098400,
2-5,C_HumanVertical,1,Q1FrontUp,-15.97051,37.53886,53.20179,-51.92152,-99.71904,145.8733,-53.22828,202408231535098591,
2-5,C_HumanVertical,1,Q1FrontUp,-15.97051,37.53886,53.20179,-51.92152,-99.71904,145.8733,-53.22828,202408231535098798,
2-5,C_HumanVertical,1,Q1FrontUp,-15.98277,37.4953,53.16512,-53.02398,-99.7197,145.7949,-53.01263,202408231535099078,
2-5,C_HumanVertical,1,Q1FrontUp,-15.98277,37.4953,53.16512,-53.02398,-99.7197,145.7949,-53.01263,202408231535099230,
2-5,C_HumanVertical,1,Q1FrontUp,-15.97905,37.48153,53.14712,-53.56634,-99.72022,145.7516,-52.90057,202408231535099589,
2-5,C_HumanVertical,1,Q1FrontUp,-15.96461,37.47086,53.12883,-54.1322,-99.72077,145.7158,-52.77454,202408231535099843,
2-5,C_HumanVertical,1,Q1FrontUp,-15.94973,37.46143,53.09697,-54.6955,-99.7213,145.6779,-52.63556,202408231535100118,
2-5,C_HumanVertical,1,Q1FrontUp,-15.95295,37.43711,53.06652,-55.3278,-99.72972,145.57,-52.49914,202408231535100388,
2-5,C_HumanVertical,1,Q1FrontUp,-15.95295,37.43711,53.06652,-55.3278,-99.72972,145.57,-52.49914,202408231535100622,
2-5,C_HumanVertical,1,Q1FrontUp,-15.94614,37.4132,53.04789,-55.9562,-99.7432,145.4264,-52.36269,202408231535100924,
2-5,C_HumanVertical,1,Q1FrontUp,-15.94823,37.38431,53.03384,-56.59769,-99.76125,145.2551,-52.21311,202408231535101090,
2-5,C_HumanVertical,1,Q1FrontUp,-15.94587,37.33201,53.02824,-57.2799,-99.77265,145.1103,-52.08636,202408231535101394,
