mpan31415/robot-x-ar/study2/data/raw_all_participants/Participant_2-21_1.csv
ParticipantID,Condition,Trial,PostureID,J1,J2,J3,J4,J5,J6,J7,Timestamp,
2-21,A_Baseline,1,Q1FrontUp,-41.27793,33.99256,86.80052,-39.45132,-148.1634,156.4294,-43.1618,202408281349159466,
2-21,A_Baseline,1,Q1FrontUp,-41.2776,33.99241,86.80436,-39.45126,-148.1634,156.4296,-43.16214,202408281349159891,
2-21,A_Baseline,1,Q1FrontUp,-41.27781,33.99224,86.80807,-39.45137,-148.1632,156.4297,-43.16177,202408281349160188,
2-21,A_Baseline,1,Q1FrontUp,-41.27782,33.99286,86.81525,-39.45085,-148.1635,156.4297,-43.16191,202408281349160389,
2-21,A_Baseline,1,Q1FrontUp,-41.27782,33.99286,86.81525,-39.45085,-148.1635,156.4297,-43.16191,202408281349160676,
2-21,A_Baseline,1,Q1FrontUp,-41.2779,33.99333,86.82407,-39.45113,-148.1636,156.4297,-43.16195,202408281349160891,
2-21,A_Baseline,1,Q1FrontUp,-41.27773,33.99352,86.8334,-39.4509,-148.1635,156.4295,-43.16199,202408281349161105,
2-21,A_Baseline,1,Q1FrontUp,-41.27773,33.99352,86.8334,-39.4509,-148.1635,156.4295,-43.16199,202408281349161445,
2-21,A_Baseline,1,Q1FrontUp,-41.27795,33.99339,86.85474,-39.45126,-148.1637,156.4296,-43.16259,202408281349161773,
2-21,A_Baseline,1,Q1FrontUp,-41.27795,33.99339,86.85474,-39.45126,-148.1637,156.4296,-43.16259,202408281349162022,
2-21,A_Baseline,1,Q1FrontUp,-41.27777,33.99339,86.86378,-39.45115,-148.1637,156.4295,-43.16247,202408281349162184,
2-21,A_Baseline,1,Q1FrontUp,-41.2779,33.99332,86.87292,-39.45116,-148.1637,156.4297,-43.16242,202408281349162338,
2-21,A_Baseline,1,Q1FrontUp,-41.2779,33.99332,86.87292,-39.45116,-148.1637,156.4297,-43.16242,202408281349162563,
2-21,A_Baseline,1,Q1FrontUp,-41.27794,33.99362,86.88086,-39.45118,-148.1635,156.4298,-43.16226,202408281349162838,
2-21,A_Baseline,1,Q1FrontUp,-41.27794,33.99362,86.88086,-39.45118,-148.1635,156.4298,-43.16226,202408281349163015,
2-21,A_Baseline,1,Q1FrontUp,-41.27788,33.99366,86.89212,-39.45119,-148.1636,156.4296,-43.16236,202408281349163345,
2-21,A_Baseline,1,Q1FrontUp,-41.27788,33.99366,86.89212,-39.45119,-148.1636,156.4296,-43.16236,202408281349163680,
2-21,A_Baseline,1,Q1FrontUp,-41.27778,33.99385,86.89747,-39.45126,-148.1639,156.4298,-43.16237,202408281349163900,
2-21,A_Baseline,1,Q1FrontUp,-41.27774,33.99364,86.90135,-39.45132,-148.1639,156.4297,-43.16267,202408281349164160,
2-21,A_Baseline,1,Q1FrontUp,-41.27774,33.99364,86.90135,-39.45132,-148.1639,156.4297,-43.16267,202408281349164326,
2-21,A_Baseline,1,Q1FrontUp,-41.27777,33.99392,86.90611,-39.45119,-148.1636,156.4295,-43.16255,202408281349164499,
2-21,A_Baseline,1,Q1FrontUp,-41.27766,33.99376,86.91129,-39.45131,-148.1639,156.4297,-43.16251,202408281349164846,
2-21,A_Baseline,1,Q1FrontUp,-41.27778,33.99388,86.91479,-39.45127,-148.164,156.4295,-43.16251,202408281349165124,
2-21,A_Baseline,1,Q1FrontUp,-41.27778,33.99388,86.91479,-39.45127,-148.164,156.4295,-43.16251,202408281349165382,
2-21,A_Baseline,1,Q1FrontUp,-41.27774,33.9936,86.91792,-39.45119,-148.164,156.4298,-43.16271,202408281349165556,
2-21,A_Baseline,1,Q1FrontUp,-41.27773,33.99371,86.91999,-39.45114,-148.1639,156.4297,-43.16255,202408281349165770,
2-21,A_Baseline,1,Q1FrontUp,-41.27782,33.99392,86.92242,-39.45129,-148.1643,156.4298,-43.16295,202408281349166048,
2-21,A_Baseline,1,Q1FrontUp,-41.27782,33.99392,86.92242,-39.45129,-148.1643,156.4298,-43.16295,202408281349166249,
2-21,A_Baseline,1,Q1FrontUp,-41.27772,33.99385,86.9242,-39.45136,-148.164,156.4297,-43.16291,202408281349166560,
2-21,A_Baseline,1,Q1FrontUp,-41.27777,33.9941,86.92612,-39.45102,-148.1641,156.4295,-43.16291,202408281349166810,
2-21,A_Baseline,1,Q1FrontUp,-41.27777,33.9941,86.92612,-39.45102,-148.1641,156.4295,-43.16291,202408281349166975,
2-21,A_Baseline,1,Q1FrontUp,-41.27805,33.99398,86.92838,-39.45131,-148.1642,156.4296,-43.16288,202408281349167158,
2-21,A_Baseline,1,Q1FrontUp,-41.27765,33.99398,86.9301,-39.45097,-148.1643,156.4297,-43.16298,202408281349167404,
2-21,A_Baseline,1,Q1FrontUp,-41.27765,33.99398,86.9301,-39.45097,-148.1643,156.4297,-43.16298,202408281349167657,
2-21,A_Baseline,1,Q1FrontUp,-41.27776,33.9939,86.93185,-39.45131,-148.1641,156.4296,-43.16293,202408281349167837,
2-21,A_Baseline,1,Q1FrontUp,-41.27776,33.9939,86.93185,-39.45131,-148.1641,156.4296,-43.16293,202408281349168002,
2-21,A_Baseline,1,Q1FrontUp,-41.27776,33.9938,86.93548,-39.4511,-148.1642,156.4295,-43.16309,202408281349168344,
2-21,A_Baseline,1,Q1FrontUp,-41.27776,33.9938,86.93548,-39.4511,-148.1642,156.4295,-43.16309,202408281349168518,
2-21,A_Baseline,1,Q1FrontUp,-41.27772,33.99368,86.93659,-39.45097,-148.1644,156.4296,-43.16296,202408281349168820,
2-21,A_Baseline,1,Q1FrontUp,-41.27761,33.994,86.93723,-39.4513,-148.1643,156.4295,-43.16272,202408281349169073,
2-21,A_Baseline,1,Q1FrontUp,-41.27783,33.9939,86.93764,-39.45097,-148.1644,156.4295,-43.16289,202408281349169374,
2-21,A_Baseline,1,Q1FrontUp,-41.27783,33.9939,86.93764,-39.45097,-148.1644,156.4295,-43.16289,202408281349169571,
2-21,A_Baseline,1,Q1FrontUp,-41.2778,33.99411,86.93809,-39.45102,-148.1643,156.4296,-43.16301,202408281349169805,
2-21,A_Baseline,1,Q1FrontUp,-41.2778,33.99411,86.93809,-39.45102,-148.1643,156.4296,-43.16301,202408281349170007,
2-21,A_Baseline,1,Q1FrontUp,-41.2778,33.99411,86.93809,-39.45102,-148.1643,156.4296,-43.16301,202408281349170180,
2-21,A_Baseline,1,Q1FrontUp,-41.27763,33.99434,86.93818,-39.45124,-148.1645,156.4295,-43.16323,202408281349170364,
2-21,A_Baseline,1,Q1FrontUp,-41.27787,33.99409,86.93856,-39.45109,-148.1644,156.4297,-43.16286,202408281349170562,
2-21,A_Baseline,1,Q1FrontUp,-41.27766,33.99437,86.93905,-39.45106,-148.1647,156.4297,-43.16281,202408281349170844,
2-21,A_Baseline,1,Q1FrontUp,-41.2775,33.99503,86.9407,-39.45124,-148.165,156.4297,-43.16318,202408281349171167,
2-21,A_Baseline,1,Q1FrontUp,-41.27768,33.99607,86.94614,-39.45113,-148.165,156.4298,-43.16295,202408281349171336,
2-21,A_Baseline,1,Q1FrontUp,-41.27768,33.99607,86.94614,-39.45113,-148.165,156.4298,-43.16295,202408281349171647,
2-21,A_Baseline,1,Q1FrontUp,-41.27736,33.99678,86.95026,-39.45102,-148.1651,156.4297,-43.16287,202408281349171900,
2-21,A_Baseline,1,Q1FrontUp,-41.27683,33.99696,86.95494,-39.45102,-148.1647,156.4295,-43.16323,202408281349172073,
2-21,A_Baseline,1,Q1FrontUp,-41.27683,33.99696,86.95494,-39.45102,-148.1647,156.4295,-43.16323,202408281349172321,
2-21,A_Baseline,1,Q1FrontUp,-41.2751,33.99962,86.9617,-39.45114,-148.1651,156.4296,-43.16286,202408281349172490,
2-21,A_Baseline,1,Q1FrontUp,-41.27058,34.00546,86.97105,-39.45061,-148.1651,156.4296,-43.16325,202408281349172689,
2-21,A_Baseline,1,Q1FrontUp,-41.27058,34.00546,86.97105,-39.45061,-148.1651,156.4296,-43.16325,202408281349172882,
2-21,A_Baseline,1,Q1FrontUp,-41.26674,34.00972,86.98177,-39.45046,-148.165,156.4297,-43.16315,202408281349173159,
2-21,A_Baseline,1,Q1FrontUp,-41.26674,34.00972,86.98177,-39.45046,-148.165,156.4297,-43.16315,202408281349173340,
2-21,A_Baseline,1,Q1FrontUp,-41.25615,34.01968,87.00388,-39.45028,-148.1651,156.4296,-43.16303,202408281349173703,
2-21,A_Baseline,1,Q1FrontUp,-41.25615,34.01968,87.00388,-39.45028,-148.1651,156.4296,-43.16303,202408281349173978,
2-21,A_Baseline,1,Q1FrontUp,-41.2519,34.02761,87.02137,-39.4505,-148.165,156.4299,-43.16291,202408281349174137,
2-21,A_Baseline,1,Q1FrontUp,-41.2519,34.02761,87.02137,-39.4505,-148.165,156.4299,-43.16291,202408281349174315,
2-21,A_Baseline,1,Q1FrontUp,-41.24663,34.03227,87.0362,-39.44802,-148.1649,156.4307,-43.16307,202408281349174483,
2-21,A_Baseline,1,Q1FrontUp,-41.24663,34.03227,87.0362,-39.44802,-148.1649,156.4307,-43.16307,202408281349174646,
2-21,A_Baseline,1,Q1FrontUp,-41.24091,34.036,87.05139,-39.44016,-148.165,156.4322,-43.16284,202408281349174828,
2-21,A_Baseline,1,Q1FrontUp,-41.23256,34.04125,87.06695,-39.42619,-148.1647,156.4775,-43.163,202408281349175061,
2-21,A_Baseline,1,Q1FrontUp,-41.23256,34.04125,87.06695,-39.42619,-148.1647,156.4775,-43.163,202408281349175319,
2-21,A_Baseline,1,Q1FrontUp,-41.22406,34.04523,87.08038,-39.41239,-148.1648,156.5166,-43.16272,202408281349175493,
2-21,A_Baseline,1,Q1FrontUp,-41.21965,34.04694,87.09382,-39.40034,-148.1649,156.5534,-43.16255,202408281349175663,
2-21,A_Baseline,1,Q1FrontUp,-41.21965,34.04694,87.09382,-39.40034,-148.1649,156.5534,-43.16255,202408281349175826,
2-21,A_Baseline,1,Q1FrontUp,-41.21965,34.04694,87.09382,-39.40034,-148.1649,156.5534,-43.16255,202408281349176023,
2-21,A_Baseline,1,Q1FrontUp,-41.21947,34.06752,87.16342,-39.38559,-148.1646,156.6401,-43.16259,202408281349176324,
2-21,A_Baseline,1,Q1FrontUp,-41.21947,34.06752,87.16342,-39.38559,-148.1646,156.6401,-43.16259,202408281349176635,
2-21,A_Baseline,1,Q1FrontUp,-41.21961,34.08448,87.21172,-39.38497,-148.1643,156.6664,-43.16264,202408281349176884,
2-21,A_Baseline,1,Q1FrontUp,-41.21961,34.08448,87.21172,-39.38497,-148.1643,156.6664,-43.16264,202408281349177054,
2-21,A_Baseline,1,Q1FrontUp,-41.21977,34.10055,87.25996,-39.3847,-148.1643,156.6936,-43.16319,202408281349177342,
2-21,A_Baseline,1,Q1FrontUp,-41.21991,34.12169,87.32492,-39.3843,-148.1638,156.7249,-43.16345,202408281349177526,
2-21,A_Baseline,1,Q1FrontUp,-41.21991,34.12169,87.32492,-39.3843,-148.1638,156.7249,-43.16345,202408281349177667,
2-21,A_Baseline,1,Q1FrontUp,-41.21654,34.16913,87.46741,-39.37469,-148.1584,156.8053,-43.16358,202408281349178019,
2-21,A_Baseline,1,Q1FrontUp,-41.21654,34.16913,87.46741,-39.37469,-148.1584,156.8053,-43.16358,202408281349178223,
2-21,A_Baseline,1,Q1FrontUp,-41.21352,34.18995,87.5384,-39.36241,-148.1575,156.8433,-43.16373,202408281349178483,
2-21,A_Baseline,1,Q1FrontUp,-41.21352,34.18995,87.5384,-39.36241,-148.1575,156.8433,-43.16373,202408281349178646,
2-21,A_Baseline,1,Q1FrontUp,-41.20983,34.2028,87.60476,-39.34169,-148.1525,156.8811,-43.16392,202408281349178970,
2-21,A_Baseline,1,Q1FrontUp,-41.17976,34.21008,87.66365,-39.26843,-148.1201,156.9467,-43.1638,202408281349179155,
2-21,A_Baseline,1,Q1FrontUp,-41.15401,34.21656,87.71143,-39.19608,-148.1111,157.0189,-43.1647,202408281349179380,
2-21,A_Baseline,1,Q1FrontUp,-41.15401,34.21656,87.71143,-39.19608,-148.1111,157.0189,-43.1647,202408281349179636,
2-21,A_Baseline,1,Q1FrontUp,-41.13192,34.2167,87.75134,-39.12259,-148.1091,157.0881,-43.1647,202408281349179807,
2-21,A_Baseline,1,Q1FrontUp,-41.13192,34.2167,87.75134,-39.12259,-148.1091,157.0881,-43.1647,202408281349180038,
2-21,A_Baseline,1,Q1FrontUp,-41.10995,34.21598,87.81998,-38.96548,-148.1077,157.2534,-43.16452,202408281349180375,
2-21,A_Baseline,1,Q1FrontUp,-41.1073,34.21603,87.84501,-38.88942,-148.1073,157.3539,-43.16455,202408281349180691,
2-21,A_Baseline,1,Q1FrontUp,-41.1073,34.21603,87.84501,-38.88942,-148.1073,157.3539,-43.16455,202408281349181000,
2-21,A_Baseline,1,Q1FrontUp,-41.10791,34.21856,87.84894,-38.82322,-148.1064,157.502,-43.16438,202408281349181169,
2-21,A_Baseline,1,Q1FrontUp,-41.10791,34.21856,87.84894,-38.82322,-148.1064,157.502,-43.16438,202408281349181374,
2-21,A_Baseline,1,Q1FrontUp,-41.10814,34.22042,87.8502,-38.76871,-148.1056,157.6239,-43.16418,202408281349181545,
2-21,A_Baseline,1,Q1FrontUp,-41.10763,34.22128,87.85136,-38.7169,-148.1053,157.7418,-43.16406,202408281349181810,
2-21,A_Baseline,1,Q1FrontUp,-41.10763,34.22128,87.85136,-38.7169,-148.1053,157.7418,-43.16406,202408281349182009,
2-21,A_Baseline,1,Q1FrontUp,-41.09722,34.22305,87.8516,-38.65429,-148.1055,157.8677,-43.16404,202408281349182315,
2-21,A_Baseline,1,Q1FrontUp,-41.08362,34.22623,87.85172,-38.59037,-148.1055,158.0007,-43.16401,202408281349182538,
2-21,A_Baseline,1,Q1FrontUp,-41.07155,34.22862,87.85142,-38.52858,-148.1057,158.1306,-43.16433,202408281349182862,
2-21,A_Baseline,1,Q1FrontUp,-41.05338,34.23457,87.85158,-38.46476,-148.1054,158.2257,-43.16378,202408281349183021,
2-21,A_Baseline,1,Q1FrontUp,-41.05338,34.23457,87.85158,-38.46476,-148.1054,158.2257,-43.16378,202408281349183213,
2-21,A_Baseline,1,Q1FrontUp,-41.03828,34.23601,87.85188,-38.40641,-148.1057,158.3086,-43.16382,202408281349183529,
2-21,A_Baseline,1,Q1FrontUp,-41.02416,34.23685,87.85178,-38.34877,-148.1059,158.3828,-43.16382,202408281349183807,
2-21,A_Baseline,1,Q1FrontUp,-41.02416,34.23685,87.85178,-38.34877,-148.1059,158.3828,-43.16382,202408281349183978,
2-21,A_Baseline,1,Q1FrontUp,-41.02416,34.23685,87.85178,-38.34877,-148.1059,158.3828,-43.16382,202408281349184147,
2-21,A_Baseline,1,Q1FrontUp,-41.00933,34.23916,87.85127,-38.29188,-148.1058,158.4507,-43.16403,202408281349184313,
2-21,A_Baseline,1,Q1FrontUp,-40.99763,34.2433,87.85132,-38.24249,-148.1057,158.512,-43.16394,202408281349184483,
2-21,A_Baseline,1,Q1FrontUp,-40.99763,34.2433,87.85132,-38.24249,-148.1057,158.512,-43.16394,202408281349184706,
2-21,A_Baseline,1,Q1FrontUp,-40.98972,34.24615,87.85141,-38.19893,-148.1057,158.5565,-43.1638,202408281349184887,
2-21,A_Baseline,1,Q1FrontUp,-40.98357,34.24805,87.85119,-38.16012,-148.1059,158.5892,-43.16376,202408281349185136,
2-21,A_Baseline,1,Q1FrontUp,-40.98357,34.24805,87.85119,-38.16012,-148.1059,158.5892,-43.16376,202408281349185324,
2-21,A_Baseline,1,Q1FrontUp,-40.98008,34.24963,87.85117,-38.12758,-148.1057,158.6203,-43.16394,202408281349185491,
2-21,A_Baseline,1,Q1FrontUp,-40.97864,34.25019,87.85118,-38.10306,-148.106,158.6413,-43.16373,202408281349185695,
2-21,A_Baseline,1,Q1FrontUp,-40.97864,34.25019,87.85118,-38.10306,-148.106,158.6413,-43.16373,202408281349185987,
2-21,A_Baseline,1,Q1FrontUp,-40.97839,34.25069,87.84964,-38.09066,-148.1059,158.649,-43.16374,202408281349186152,
2-21,A_Baseline,1,Q1FrontUp,-40.9783,34.2506,87.84922,-38.08197,-148.106,158.6558,-43.16375,202408281349186370,
2-21,A_Baseline,1,Q1FrontUp,-40.9783,34.2506,87.84922,-38.08197,-148.106,158.6558,-43.16375,202408281349186574,
2-21,A_Baseline,1,Q1FrontUp,-40.97812,34.25104,87.84883,-38.07746,-148.1059,158.6615,-43.1637,202408281349186766,
2-21,A_Baseline,1,Q1FrontUp,-40.97826,34.25163,87.84769,-38.07735,-148.1058,158.664,-43.16388,202408281349186976,
2-21,A_Baseline,1,Q1FrontUp,-40.97826,34.25163,87.84769,-38.07735,-148.1058,158.664,-43.16388,202408281349187136,
2-21,A_Baseline,1,Q1FrontUp,-40.97826,34.25163,87.84769,-38.07735,-148.1058,158.664,-43.16388,202408281349187307,
2-21,A_Baseline,1,Q1FrontUp,-40.97781,34.25274,87.84702,-38.07753,-148.1061,158.6652,-43.16378,202408281349187476,
2-21,A_Baseline,1,Q1FrontUp,-40.97781,34.25274,87.84702,-38.07753,-148.1061,158.6652,-43.16378,202408281349187683,
2-21,A_Baseline,1,Q1FrontUp,-40.97791,34.25368,87.84518,-38.07761,-148.1059,158.6661,-43.16378,202408281349187882,
2-21,A_Baseline,1,Q1FrontUp,-40.97757,34.25374,87.8398,-38.07744,-148.1059,158.6663,-43.16408,202408281349188035,
2-21,A_Baseline,1,Q1FrontUp,-40.97757,34.25374,87.8398,-38.07744,-148.1059,158.6663,-43.16408,202408281349188310,
2-21,A_Baseline,1,Q1FrontUp,-40.97791,34.25435,87.83727,-38.07738,-148.106,158.6667,-43.16382,202408281349188488,
2-21,A_Baseline,1,Q1FrontUp,-40.97777,34.25462,87.83482,-38.07736,-148.106,158.6668,-43.16364,202408281349188811,
2-21,A_Baseline,1,Q1FrontUp,-40.97777,34.25462,87.83482,-38.07736,-148.106,158.6668,-43.16364,202408281349189016,
2-21,A_Baseline,1,Q1FrontUp,-40.97773,34.25474,87.83072,-38.07748,-148.106,158.6671,-43.1638,202408281349189298,
2-21,A_Baseline,1,Q1FrontUp,-40.97762,34.25483,87.82745,-38.07737,-148.106,158.6674,-43.1637,202408281349189469,
2-21,A_Baseline,1,Q1FrontUp,-40.97762,34.25483,87.82745,-38.07737,-148.106,158.6674,-43.1637,202408281349189692,
2-21,A_Baseline,1,Q1FrontUp,-40.97782,34.25514,87.81963,-38.07732,-148.106,158.6674,-43.16378,202408281349189995,
2-21,A_Baseline,1,Q1FrontUp,-40.97782,34.25514,87.81963,-38.07732,-148.106,158.6674,-43.16378,202408281349190196,
2-21,A_Baseline,1,Q1FrontUp,-40.97769,34.25528,87.81779,-38.07746,-148.106,158.6675,-43.1636,202408281349190461,
2-21,A_Baseline,1,Q1FrontUp,-40.97781,34.25528,87.81676,-38.07716,-148.106,158.6675,-43.1636,202408281349190651,
2-21,A_Baseline,1,Q1FrontUp,-40.97781,34.25528,87.81676,-38.07716,-148.106,158.6675,-43.1636,202408281349190812,
2-21,A_Baseline,1,Q1FrontUp,-40.97781,34.25528,87.81676,-38.07716,-148.106,158.6675,-43.1636,202408281349190973,
2-21,A_Baseline,1,Q1FrontUp,-40.97787,34.25519,87.8167,-38.07745,-148.1062,158.6676,-43.1636,202408281349191181,
2-21,A_Baseline,1,Q1FrontUp,-40.97787,34.25519,87.8167,-38.07745,-148.1062,158.6676,-43.1636,202408281349191356,
2-21,A_Baseline,1,Q1FrontUp,-40.97781,34.25514,87.8168,-38.0774,-148.1059,158.6675,-43.16356,202408281349191636,
2-21,A_Baseline,1,Q1FrontUp,-40.97783,34.2551,87.81646,-38.0775,-148.1061,158.6676,-43.16364,202408281349191806,
2-21,A_Baseline,1,Q1FrontUp,-40.97779,34.2551,87.8167,-38.0774,-148.106,158.6675,-43.16391,202408281349191977,
2-21,A_Baseline,1,Q1FrontUp,-40.97779,34.2551,87.8167,-38.0774,-148.106,158.6675,-43.16391,202408281349192150,
2-21,A_Baseline,1,Q1FrontUp,-40.97792,34.255,87.81647,-38.07736,-148.106,158.6674,-43.16355,202408281349192537,
2-21,A_Baseline,1,Q1FrontUp,-40.97792,34.255,87.81647,-38.07736,-148.106,158.6674,-43.16355,202408281349192710,
2-21,A_Baseline,1,Q1FrontUp,-40.97769,34.25528,87.81657,-38.07745,-148.106,158.6676,-43.16368,202408281349192992,
2-21,A_Baseline,1,Q1FrontUp,-40.97771,34.25526,87.81666,-38.07742,-148.1059,158.6676,-43.16383,202408281349193163,
2-21,A_Baseline,1,Q1FrontUp,-40.97783,34.2553,87.81667,-38.07737,-148.106,158.6677,-43.16369,202408281349193517,
2-21,A_Baseline,1,Q1FrontUp,-40.97782,34.25569,87.81688,-38.07726,-148.1059,158.6673,-43.16377,202408281349193807,
2-21,A_Baseline,1,Q1FrontUp,-40.97782,34.25569,87.81688,-38.07726,-148.1059,158.6673,-43.16377,202408281349193959,
2-21,A_Baseline,1,Q1FrontUp,-40.97799,34.25564,87.81666,-38.07749,-148.106,158.6676,-43.1638,202408281349194128,
2-21,A_Baseline,1,Q1FrontUp,-40.97797,34.25534,87.81667,-38.07737,-148.1059,158.6676,-43.16371,202408281349194371,
2-21,A_Baseline,1,Q1FrontUp,-40.97797,34.25534,87.81667,-38.07737,-148.1059,158.6676,-43.16371,202408281349194528,
2-21,A_Baseline,1,Q1FrontUp,-40.97787,34.25565,87.81681,-38.0773,-148.1059,158.6677,-43.16332,202408281349194808,
2-21,A_Baseline,1,Q1FrontUp,-40.97787,34.25565,87.81681,-38.0773,-148.1059,158.6677,-43.16332,202408281349194996,
2-21,A_Baseline,1,Q1FrontUp,-40.97788,34.25595,87.81683,-38.07726,-148.1058,158.6677,-43.16397,202408281349195155,
2-21,A_Baseline,1,Q1FrontUp,-40.97768,34.25599,87.81683,-38.07756,-148.1059,158.6677,-43.16364,202408281349195324,
2-21,A_Baseline,1,Q1FrontUp,-40.97768,34.25599,87.81683,-38.07756,-148.1059,158.6677,-43.16364,202408281349195510,
2-21,A_Baseline,1,Q1FrontUp,-40.97786,34.25602,87.81693,-38.07714,-148.106,158.6675,-43.16331,202408281349195713,
2-21,A_Baseline,1,Q1FrontUp,-40.97786,34.25602,87.81693,-38.07714,-148.106,158.6675,-43.16331,202408281349195990,
2-21,A_Baseline,1,Q1FrontUp,-40.97789,34.25602,87.81699,-38.07747,-148.1062,158.6677,-43.16377,202408281349196310,
2-21,A_Baseline,1,Q1FrontUp,-40.97828,34.2562,87.82478,-38.07729,-148.1055,158.6678,-43.16302,202408281349196461,
2-21,A_Baseline,1,Q1FrontUp,-40.97828,34.2562,87.82478,-38.07729,-148.1055,158.6678,-43.16302,202408281349196651,
2-21,A_Baseline,1,Q1FrontUp,-40.97846,34.25661,87.8358,-38.07744,-148.1046,158.6682,-43.16286,202408281349196872,
2-21,A_Baseline,1,Q1FrontUp,-40.97811,34.25627,87.84448,-38.07736,-148.0908,158.6685,-43.16286,202408281349197159,
2-21,A_Baseline,1,Q1FrontUp,-40.97797,34.25592,87.85297,-38.07744,-148.085,158.6688,-43.16277,202408281349197549,
2-21,A_Baseline,1,Q1FrontUp,-40.97818,34.25557,87.85889,-38.07735,-148.0784,158.6691,-43.16266,202408281349197827,
2-21,A_Baseline,1,Q1FrontUp,-40.97836,34.25566,87.86108,-38.07667,-148.0629,158.669,-43.16278,202408281349198039,
2-21,A_Baseline,1,Q1FrontUp,-40.97836,34.25566,87.86108,-38.07667,-148.0629,158.669,-43.16278,202408281349198318,
2-21,A_Baseline,1,Q1FrontUp,-40.97818,34.25549,87.86226,-38.07572,-148.0565,158.6695,-43.16291,202408281349198475,
2-21,A_Baseline,1,Q1FrontUp,-40.97818,34.25549,87.86226,-38.07572,-148.0565,158.6695,-43.16291,202408281349198636,
2-21,A_Baseline,1,Q1FrontUp,-40.97806,34.25571,87.86272,-38.0753,-148.0553,158.6696,-43.16289,202408281349198808,
2-21,A_Baseline,1,Q1FrontUp,-40.97806,34.25581,87.86293,-38.07463,-148.0547,158.6696,-43.16286,202408281349198989,
2-21,A_Baseline,1,Q1FrontUp,-40.97806,34.25581,87.86293,-38.07463,-148.0547,158.6696,-43.16286,202408281349199193,
2-21,A_Baseline,1,Q1FrontUp,-40.97839,34.25616,87.86292,-38.07475,-148.0547,158.6697,-43.16272,202408281349199488,
2-21,A_Baseline,1,Q1FrontUp,-40.97839,34.25616,87.86292,-38.07475,-148.0547,158.6697,-43.16272,202408281349199645,
2-21,A_Baseline,1,Q1FrontUp,-40.9787,34.25621,87.86298,-38.0747,-148.0544,158.6697,-43.16269,202408281349199831,
2-21,A_Baseline,1,Q1FrontUp,-40.9787,34.25621,87.86298,-38.0747,-148.0544,158.6697,-43.16269,202408281349199979,
2-21,A_Baseline,1,Q1FrontUp,-40.97905,34.25607,87.86322,-38.07465,-148.0544,158.6698,-43.16251,202408281349200172,
2-21,A_Baseline,1,Q1FrontUp,-40.97905,34.25607,87.86322,-38.07465,-148.0544,158.6698,-43.16251,202408281349200368,
2-21,A_Baseline,1,Q1FrontUp,-40.97927,34.25602,87.8632,-38.07471,-148.0543,158.6699,-43.1629,202408281349200711,
2-21,A_Baseline,1,Q1FrontUp,-40.9789,34.25618,87.86303,-38.07456,-148.0543,158.6699,-43.16291,202408281349200977,
2-21,A_Baseline,1,Q1FrontUp,-40.97906,34.25623,87.86313,-38.07475,-148.0536,158.6698,-43.1635,202408281349201145,
2-21,A_Baseline,1,Q1FrontUp,-40.97906,34.25623,87.86313,-38.07475,-148.0536,158.6698,-43.1635,202408281349201323,
2-21,A_Baseline,1,Q1FrontUp,-40.97903,34.25632,87.86285,-38.0746,-148.0529,158.6702,-43.16341,202408281349201520,
2-21,A_Baseline,1,Q1FrontUp,-40.97903,34.25632,87.86285,-38.0746,-148.0529,158.6702,-43.16341,202408281349201800,
2-21,A_Baseline,1,Q1FrontUp,-40.97903,34.25632,87.86285,-38.0746,-148.0529,158.6702,-43.16341,202408281349201966,
2-21,A_Baseline,1,Q1FrontUp,-40.97903,34.25632,87.86285,-38.0746,-148.0529,158.6702,-43.16341,202408281349202134,
2-21,A_Baseline,1,Q1FrontUp,-40.97903,34.25632,87.86285,-38.0746,-148.0529,158.6702,-43.16341,202408281349202372,
2-21,A_Baseline,1,Q1FrontUp,-40.97903,34.25632,87.86285,-38.0746,-148.0529,158.6702,-43.16341,202408281349202657,
2-21,A_Baseline,1,Q1FrontUp,-40.97905,34.25611,87.8629,-38.06867,-148.0524,158.6707,-43.16293,202408281349202823,
2-21,A_Baseline,1,Q1FrontUp,-40.97905,34.25611,87.8629,-38.06867,-148.0524,158.6707,-43.16293,202408281349203001,
2-21,A_Baseline,1,Q1FrontUp,-40.97911,34.2559,87.86292,-38.06798,-148.0524,158.671,-43.16304,202408281349203175,
2-21,A_Baseline,1,Q1FrontUp,-40.97892,34.25621,87.86258,-38.06718,-148.0523,158.6708,-43.16323,202408281349203493,
2-21,A_Baseline,1,Q1FrontUp,-40.97892,34.25621,87.86258,-38.06718,-148.0523,158.6708,-43.16323,202408281349203695,
2-21,A_Baseline,1,Q1FrontUp,-40.97892,34.25621,87.86258,-38.06718,-148.0523,158.6708,-43.16323,202408281349203867,
2-21,A_Baseline,1,Q1FrontUp,-40.97892,34.25621,87.86258,-38.06718,-148.0523,158.6708,-43.16323,202408281349204150,
2-21,A_Baseline,1,Q1FrontUp,-40.97892,34.25621,87.86258,-38.06718,-148.0523,158.6708,-43.16323,202408281349204315,
2-21,A_Baseline,1,Q1FrontUp,-40.97892,34.25621,87.86258,-38.06718,-148.0523,158.6708,-43.16323,202408281349204478,
2-21,A_Baseline,1,Q1FrontUp,-40.97892,34.25621,87.86258,-38.06718,-148.0523,158.6708,-43.16323,202408281349204636,
2-21,A_Baseline,1,Q1FrontUp,-40.97903,34.25602,87.86181,-38.06561,-148.0517,158.6711,-43.16338,202408281349204881,
2-21,A_Baseline,1,Q1FrontUp,-40.97891,34.25621,87.86166,-38.06524,-148.0518,158.6713,-43.16348,202408281349205135,
2-21,A_Baseline,1,Q1FrontUp,-40.97891,34.25621,87.86166,-38.06524,-148.0518,158.6713,-43.16348,202408281349205296,
2-21,A_Baseline,1,Q1FrontUp,-40.9789,34.25602,87.86175,-38.06505,-148.0513,158.6713,-43.16364,202408281349205523,
2-21,A_Baseline,1,Q1FrontUp,-40.9789,34.25602,87.86175,-38.06505,-148.0513,158.6713,-43.16364,202408281349205851,
2-21,A_Baseline,1,Q1FrontUp,-40.9789,34.25602,87.86175,-38.06505,-148.0513,158.6713,-43.16364,202408281349206146,
2-21,A_Baseline,1,Q1FrontUp,-40.9786,34.25621,87.8624,-38.06513,-147.9994,158.6712,-43.16323,202408281349206467,
2-21,A_Baseline,1,Q1FrontUp,-40.9786,34.25621,87.8624,-38.06513,-147.9994,158.6712,-43.16323,202408281349206634,
2-21,A_Baseline,1,Q1FrontUp,-40.9786,34.25621,87.8624,-38.06513,-147.9994,158.6712,-43.16323,202408281349206810,
2-21,A_Baseline,1,Q1FrontUp,-40.9786,34.25621,87.8624,-38.06513,-147.9994,158.6712,-43.16323,202408281349207034,
2-21,A_Baseline,1,Q1FrontUp,-40.9786,34.25621,87.8624,-38.06513,-147.9994,158.6712,-43.16323,202408281349207297,
2-21,A_Baseline,1,Q1FrontUp,-40.9786,34.25621,87.8624,-38.06513,-147.9994,158.6712,-43.16323,202408281349207461,
2-21,A_Baseline,1,Q1FrontUp,-40.97876,34.25609,87.86262,-38.06521,-147.975,158.6712,-43.16343,202408281349207647,
2-21,A_Baseline,1,Q1FrontUp,-40.97858,34.25584,87.8624,-38.06509,-147.9698,158.6713,-43.16327,202408281349207800,
2-21,A_Baseline,1,Q1FrontUp,-40.97858,34.25584,87.8624,-38.06509,-147.9698,158.6713,-43.16327,202408281349207992,
2-21,A_Baseline,1,Q1FrontUp,-40.97844,34.25596,87.86259,-38.06527,-147.9672,158.6713,-43.16341,202408281349208202,
2-21,A_Baseline,1,Q1FrontUp,-40.97844,34.25596,87.86259,-38.06527,-147.9672,158.6713,-43.16341,202408281349208593,
2-21,A_Baseline,1,Q1FrontUp,-40.97844,34.25596,87.86259,-38.06527,-147.9672,158.6713,-43.16341,202408281349208877,
2-21,A_Baseline,1,Q1FrontUp,-40.97844,34.25596,87.86259,-38.06527,-147.9672,158.6713,-43.16341,202408281349209160,
2-21,A_Baseline,1,Q1FrontUp,-40.97844,34.25596,87.86259,-38.06527,-147.9672,158.6713,-43.16341,202408281349209357,
2-21,A_Baseline,1,Q1FrontUp,-40.9791,34.25625,87.90762,-38.06502,-147.9212,158.6729,-43.16282,202408281349209627,
2-21,A_Baseline,1,Q1FrontUp,-40.9791,34.25588,87.93126,-38.06492,-147.912,158.6745,-43.16315,202408281349209797,
2-21,A_Baseline,1,Q1FrontUp,-40.9791,34.25588,87.93126,-38.06492,-147.912,158.6745,-43.16315,202408281349209956,
2-21,A_Baseline,1,Q1FrontUp,-40.97891,34.25609,87.95599,-38.06566,-147.9047,158.7287,-43.16272,202408281349210137,
2-21,A_Baseline,1,Q1FrontUp,-40.97891,34.25609,87.95599,-38.06566,-147.9047,158.7287,-43.16272,202408281349210379,
2-21,A_Baseline,1,Q1FrontUp,-40.97891,34.25609,87.95599,-38.06566,-147.9047,158.7287,-43.16272,202408281349210548,
2-21,A_Baseline,1,Q1FrontUp,-40.98881,34.25929,88.07993,-38.06329,-147.7943,159.0128,-43.17347,202408281349210820,
2-21,A_Baseline,1,Q1FrontUp,-40.98881,34.25929,88.07993,-38.06329,-147.7943,159.0128,-43.17347,202408281349211013,
2-21,A_Baseline,1,Q1FrontUp,-40.99728,34.26138,88.19419,-38.06083,-147.6752,159.3135,-43.17358,202408281349211302,
2-21,A_Baseline,1,Q1FrontUp,-40.99728,34.26138,88.19419,-38.06083,-147.6752,159.3135,-43.17358,202408281349211475,
2-21,A_Baseline,1,Q1FrontUp,-40.99656,34.25945,88.31171,-38.05249,-147.5168,159.6748,-43.17455,202408281349211689,
2-21,A_Baseline,1,Q1FrontUp,-40.99658,34.25502,88.43397,-38.04461,-147.3475,160.0506,-43.17971,202408281349211860,
2-21,A_Baseline,1,Q1FrontUp,-40.99658,34.25502,88.43397,-38.04461,-147.3475,160.0506,-43.17971,202408281349212147,
2-21,A_Baseline,1,Q1FrontUp,-40.99658,34.25502,88.43397,-38.04461,-147.3475,160.0506,-43.17971,202408281349212473,
2-21,A_Baseline,1,Q1FrontUp,-40.99658,34.25502,88.43397,-38.04461,-147.3475,160.0506,-43.17971,202408281349212697,
2-21,A_Baseline,1,Q1FrontUp,-40.99658,34.25502,88.43397,-38.04461,-147.3475,160.0506,-43.17971,202408281349212993,
2-21,A_Baseline,1,Q1FrontUp,-40.99461,34.17355,88.95272,-37.905,-146.2756,161.4347,-43.47544,202408281349213322,
2-21,A_Baseline,1,Q1FrontUp,-40.99492,34.1461,89.09045,-37.86438,-146.0146,161.7207,-43.55858,202408281349213518,
2-21,A_Baseline,1,Q1FrontUp,-40.99274,34.11239,89.20058,-37.81599,-145.7789,161.9996,-43.62465,202408281349213797,
2-21,A_Baseline,1,Q1FrontUp,-40.99274,34.11239,89.20058,-37.81599,-145.7789,161.9996,-43.62465,202408281349213975,
2-21,A_Baseline,1,Q1FrontUp,-40.99274,34.11239,89.20058,-37.81599,-145.7789,161.9996,-43.62465,202408281349214157,
2-21,A_Baseline,1,Q1FrontUp,-40.97015,34.05399,89.23354,-37.7298,-145.4151,162.3484,-43.62585,202408281349214484,
2-21,A_Baseline,1,Q1FrontUp,-40.97015,34.05399,89.23354,-37.7298,-145.4151,162.3484,-43.62585,202408281349214654,
2-21,A_Baseline,1,Q1FrontUp,-40.97015,34.05399,89.23354,-37.7298,-145.4151,162.3484,-43.62585,202408281349214880,
2-21,A_Baseline,1,Q1FrontUp,-40.97015,34.05399,89.23354,-37.7298,-145.4151,162.3484,-43.62585,202408281349215137,
2-21,A_Baseline,1,Q1FrontUp,-40.97015,34.05399,89.23354,-37.7298,-145.4151,162.3484,-43.62585,202408281349215324,
2-21,A_Baseline,1,Q1FrontUp,-40.97015,34.05399,89.23354,-37.7298,-145.4151,162.3484,-43.62585,202408281349215498,
2-21,A_Baseline,1,Q1FrontUp,-40.78259,33.80925,89.27055,-37.48788,-143.702,163.8246,-43.87516,202408281349215824,
2-21,A_Baseline,1,Q1FrontUp,-40.78259,33.80925,89.27055,-37.48788,-143.702,163.8246,-43.87516,202408281349216017,
2-21,A_Baseline,1,Q1FrontUp,-40.78259,33.80925,89.27055,-37.48788,-143.702,163.8246,-43.87516,202408281349216323,
2-21,A_Baseline,1,Q1FrontUp,-40.78259,33.80925,89.27055,-37.48788,-143.702,163.8246,-43.87516,202408281349216669,
2-21,A_Baseline,1,Q1FrontUp,-40.78259,33.80925,89.27055,-37.48788,-143.702,163.8246,-43.87516,202408281349216966,
2-21,A_Baseline,1,Q1FrontUp,-40.78259,33.80925,89.27055,-37.48788,-143.702,163.8246,-43.87516,202408281349217200,
2-21,A_Baseline,1,Q1FrontUp,-40.42202,33.75037,89.18602,-37.47134,-141.9275,165.2978,-43.74108,202408281349217460,
2-21,A_Baseline,1,Q1FrontUp,-40.42202,33.75037,89.18602,-37.47134,-141.9275,165.2978,-43.74108,202408281349217654,
2-21,A_Baseline,1,Q1FrontUp,-40.33707,33.74768,89.15415,-37.49538,-141.5415,165.5556,-43.69774,202408281349217817,
2-21,A_Baseline,1,Q1FrontUp,-40.33707,33.74768,89.15415,-37.49538,-141.5415,165.5556,-43.69774,202408281349218199,
2-21,A_Baseline,1,Q1FrontUp,-40.33707,33.74768,89.15415,-37.49538,-141.5415,165.5556,-43.69774,202408281349218470,
2-21,A_Baseline,1,Q1FrontUp,-40.33707,33.74768,89.15415,-37.49538,-141.5415,165.5556,-43.69774,202408281349218646,
2-21,A_Baseline,1,Q1FrontUp,-40.33707,33.74768,89.15415,-37.49538,-141.5415,165.5556,-43.69774,202408281349218812,
2-21,A_Baseline,1,Q1FrontUp,-40.33707,33.74768,89.15415,-37.49538,-141.5415,165.5556,-43.69774,202408281349218986,
2-21,A_Baseline,1,Q1FrontUp,-40.02634,33.71876,88.53852,-38.2848,-138.5715,166.6541,-43.35703,202408281349219308,
2-21,A_Baseline,1,Q1FrontUp,-39.90038,33.72686,88.39469,-38.51779,-137.8985,166.8754,-43.27145,202408281349219538,
2-21,A_Baseline,1,Q1FrontUp,-39.75425,33.73785,88.22501,-38.79328,-137.2416,167.1109,-43.14942,202408281349219693,
2-21,A_Baseline,1,Q1FrontUp,-39.75425,33.73785,88.22501,-38.79328,-137.2416,167.1109,-43.14942,202408281349219971,
2-21,A_Baseline,1,Q1FrontUp,-39.75425,33.73785,88.22501,-38.79328,-137.2416,167.1109,-43.14942,202408281349220161,
2-21,A_Baseline,1,Q1FrontUp,-39.75425,33.73785,88.22501,-38.79328,-137.2416,167.1109,-43.14942,202408281349220495,
2-21,A_Baseline,1,Q1FrontUp,-39.75425,33.73785,88.22501,-38.79328,-137.2416,167.1109,-43.14942,202408281349220701,
2-21,A_Baseline,1,Q1FrontUp,-39.75425,33.73785,88.22501,-38.79328,-137.2416,167.1109,-43.14942,202408281349220977,
2-21,A_Baseline,1,Q1FrontUp,-39.75425,33.73785,88.22501,-38.79328,-137.2416,167.1109,-43.14942,202408281349221152,
2-21,A_Baseline,1,Q1FrontUp,-39.02008,33.71192,86.96018,-40.49604,-134.3718,168.3525,-41.95552,202408281349221347,
2-21,A_Baseline,1,Q1FrontUp,-38.7892,33.73771,86.70127,-40.91705,-133.7752,168.6284,-41.70429,202408281349221638,
2-21,A_Baseline,1,Q1FrontUp,-38.57476,33.76913,86.3989,-41.34505,-133.197,168.8538,-41.47818,202408281349221845,
2-21,A_Baseline,1,Q1FrontUp,-38.33511,33.76572,85.9539,-41.86837,-132.4995,169.0401,-41.27754,202408281349222125,
2-21,A_Baseline,1,Q1FrontUp,-38.33511,33.76572,85.9539,-41.86837,-132.4995,169.0401,-41.27754,202408281349222304,
2-21,A_Baseline,1,Q1FrontUp,-38.33511,33.76572,85.9539,-41.86837,-132.4995,169.0401,-41.27754,202408281349222489,
2-21,A_Baseline,1,Q1FrontUp,-38.33511,33.76572,85.9539,-41.86837,-132.4995,169.0401,-41.27754,202408281349222667,
2-21,A_Baseline,1,Q1FrontUp,-38.33511,33.76572,85.9539,-41.86837,-132.4995,169.0401,-41.27754,202408281349222872,
2-21,A_Baseline,1,Q1FrontUp,-38.33511,33.76572,85.9539,-41.86837,-132.4995,169.0401,-41.27754,202408281349223159,
2-21,A_Baseline,1,Q1FrontUp,-37.24001,33.77493,84.42856,-43.8746,-130.173,169.7665,-40.46724,202408281349223495,
2-21,A_Baseline,1,Q1FrontUp,-36.96107,33.80441,84.02219,-44.36186,-129.6832,169.9076,-40.26759,202408281349223834,
2-21,A_Baseline,1,Q1FrontUp,-36.96107,33.80441,84.02219,-44.36186,-129.6832,169.9076,-40.26759,202408281349224024,
2-21,A_Baseline,1,Q1FrontUp,-36.65662,33.80784,83.58081,-44.8842,-129.0909,170.0292,-40.03283,202408281349224314,
2-21,A_Baseline,1,Q1FrontUp,-36.37308,33.82332,83.16611,-45.3895,-128.5662,170.1644,-39.81114,202408281349224525,
2-21,A_Baseline,1,Q1FrontUp,-36.09712,33.84295,82.75299,-45.89,-128.064,170.2933,-39.60988,202408281349224782,
2-21,A_Baseline,1,Q1FrontUp,-36.09712,33.84295,82.75299,-45.89,-128.064,170.2933,-39.60988,202408281349224976,
2-21,A_Baseline,1,Q1FrontUp,-35.7803,33.85402,82.32829,-46.40847,-127.5488,170.4346,-39.3928,202408281349225194,
2-21,A_Baseline,1,Q1FrontUp,-35.45585,33.91206,81.87025,-46.88085,-127.017,170.5843,-39.17768,202408281349225492,
2-21,A_Baseline,1,Q1FrontUp,-35.45585,33.91206,81.87025,-46.88085,-127.017,170.5843,-39.17768,202408281349225646,
2-21,A_Baseline,1,Q1FrontUp,-35.14225,33.96174,81.40337,-47.33,-126.5026,170.7288,-38.95213,202408281349226010,
2-21,A_Baseline,1,Q1FrontUp,-34.79864,33.99073,80.89498,-47.78895,-125.9715,170.8677,-38.73175,202408281349226172,
2-21,A_Baseline,1,Q1FrontUp,-34.46091,34.04035,80.44744,-48.2035,-125.5116,170.9775,-38.52045,202408281349226458,
2-21,A_Baseline,1,Q1FrontUp,-34.46091,34.04035,80.44744,-48.2035,-125.5116,170.9775,-38.52045,202408281349226653,
2-21,A_Baseline,1,Q1FrontUp,-34.14008,34.1087,80.01009,-48.62576,-125.0518,171.0578,-38.30818,202408281349226811,
2-21,A_Baseline,1,Q1FrontUp,-33.76494,34.15787,79.41171,-48.99581,-124.4946,171.1507,-38.07253,202408281349227157,
2-21,A_Baseline,1,Q1FrontUp,-33.76494,34.15787,79.41171,-48.99581,-124.4946,171.1507,-38.07253,202408281349227366,
2-21,A_Baseline,1,Q1FrontUp,-33.43757,34.19888,78.87339,-49.3761,-124.0099,171.2406,-37.84859,202408281349227647,
2-21,A_Baseline,1,Q1FrontUp,-33.08967,34.25298,78.35571,-49.72519,-123.554,171.3134,-37.64871,202408281349227861,
2-21,A_Baseline,1,Q1FrontUp,-32.66662,34.29181,77.72694,-50.03619,-122.9945,171.4014,-37.42422,202408281349228152,
2-21,A_Baseline,1,Q1FrontUp,-32.66662,34.29181,77.72694,-50.03619,-122.9945,171.4014,-37.42422,202408281349228325,
2-21,A_Baseline,1,Q1FrontUp,-32.30696,34.37184,77.15636,-50.31348,-122.4747,171.4826,-37.2086,202408281349228529,
2-21,A_Baseline,1,Q1FrontUp,-31.9582,34.46148,76.6145,-50.59265,-121.9794,171.5613,-37.00766,202408281349228804,
2-21,A_Baseline,1,Q1FrontUp,-31.9582,34.46148,76.6145,-50.59265,-121.9794,171.5613,-37.00766,202408281349228980,
2-21,A_Baseline,1,Q1FrontUp,-31.58199,34.51236,76.04334,-50.85478,-121.4248,171.6517,-36.78089,202408281349229137,
2-21,A_Baseline,1,Q1FrontUp,-31.21333,34.59259,75.49718,-51.069,-120.8839,171.7254,-36.56065,202408281349229356,
2-21,A_Baseline,1,Q1FrontUp,-31.21333,34.59259,75.49718,-51.069,-120.8839,171.7254,-36.56065,202408281349229545,
2-21,A_Baseline,1,Q1FrontUp,-30.85882,34.68228,74.94057,-51.26927,-120.3228,171.7851,-36.33774,202408281349229815,
2-21,A_Baseline,1,Q1FrontUp,-30.85882,34.68228,74.94057,-51.26927,-120.3228,171.7851,-36.33774,202408281349229993,
2-21,A_Baseline,1,Q1FrontUp,-30.52242,34.74994,74.39817,-51.48088,-119.7279,171.8427,-36.09609,202408281349230164,
2-21,A_Baseline,1,Q1FrontUp,-30.52242,34.74994,74.39817,-51.48088,-119.7279,171.8427,-36.09609,202408281349230366,
2-21,A_Baseline,1,Q1FrontUp,-30.20033,34.82234,73.84408,-51.69833,-119.1405,171.8988,-35.83508,202408281349230604,
2-21,A_Baseline,1,Q1FrontUp,-29.8637,34.88076,73.30539,-51.87049,-118.5809,171.9354,-35.59483,202408281349230875,
2-21,A_Baseline,1,Q1FrontUp,-29.8637,34.88076,73.30539,-51.87049,-118.5809,171.9354,-35.59483,202408281349231035,
2-21,A_Baseline,1,Q1FrontUp,-29.50188,34.9725,72.70979,-52.03049,-117.9841,171.9479,-35.36209,202408281349231306,
2-21,A_Baseline,1,Q1FrontUp,-29.50188,34.9725,72.70979,-52.03049,-117.9841,171.9479,-35.36209,202408281349231473,
2-21,A_Baseline,1,Q1FrontUp,-29.17895,35.06205,72.17187,-52.17427,-117.4536,171.9628,-35.14894,202408281349231637,
2-21,A_Baseline,1,Q1FrontUp,-28.88529,35.16405,71.68195,-52.32808,-116.984,171.9721,-34.94198,202408281349231860,
2-21,A_Baseline,1,Q1FrontUp,-28.55971,35.28413,71.16925,-52.45946,-116.5122,171.972,-34.76183,202408281349232149,
2-21,A_Baseline,1,Q1FrontUp,-28.55971,35.28413,71.16925,-52.45946,-116.5122,171.972,-34.76183,202408281349232313,
2-21,A_Baseline,1,Q1FrontUp,-28.23567,35.41587,70.65298,-52.57529,-116.0516,171.9791,-34.58855,202408281349232480,
2-21,A_Baseline,1,Q1FrontUp,-27.94952,35.53629,70.14375,-52.66508,-115.5825,171.987,-34.42635,202408281349232710,
2-21,A_Baseline,1,Q1FrontUp,-27.94952,35.53629,70.14375,-52.66508,-115.5825,171.987,-34.42635,202408281349232983,
2-21,A_Baseline,1,Q1FrontUp,-27.64738,35.67485,69.62706,-52.73372,-115.1092,171.9931,-34.25652,202408281349233150,
2-21,A_Baseline,1,Q1FrontUp,-27.38238,35.8034,69.17599,-52.81869,-114.6866,172.0065,-34.08955,202408281349233465,
2-21,A_Baseline,1,Q1FrontUp,-27.38238,35.8034,69.17599,-52.81869,-114.6866,172.0065,-34.08955,202408281349233620,
2-21,A_Baseline,1,Q1FrontUp,-27.12,35.939,68.74347,-52.89561,-114.2908,172.0119,-33.92992,202408281349233819,
2-21,A_Baseline,1,Q1FrontUp,-26.83379,36.0788,68.26634,-52.96605,-113.8717,172.0146,-33.77813,202408281349234018,
2-21,A_Baseline,1,Q1FrontUp,-26.83379,36.0788,68.26634,-52.96605,-113.8717,172.0146,-33.77813,202408281349234179,
2-21,A_Baseline,1,Q1FrontUp,-26.57251,36.22212,67.79616,-53.04705,-113.4024,172.0171,-33.66611,202408281349234474,
2-21,A_Baseline,1,Q1FrontUp,-26.32142,36.33452,67.34007,-53.10667,-112.9883,172.017,-33.5745,202408281349234633,
2-21,A_Baseline,1,Q1FrontUp,-26.32142,36.33452,67.34007,-53.10667,-112.9883,172.017,-33.5745,202408281349234805,
2-21,A_Baseline,1,Q1FrontUp,-26.32142,36.33452,67.34007,-53.10667,-112.9883,172.017,-33.5745,202408281349234984,
2-21,A_Baseline,1,Q1FrontUp,-26.08626,36.48126,66.94271,-53.16589,-112.6049,172.0174,-33.48526,202408281349235193,
2-21,A_Baseline,1,Q1FrontUp,-25.85319,36.63323,66.55144,-53.23595,-112.1976,172.0169,-33.42363,202408281349235448,
2-21,A_Baseline,1,Q1FrontUp,-25.85319,36.63323,66.55144,-53.23595,-112.1976,172.0169,-33.42363,202408281349235644,
2-21,A_Baseline,1,Q1FrontUp,-25.6211,36.78703,66.17776,-53.28789,-111.8094,172.0166,-33.37934,202408281349235856,
2-21,A_Baseline,1,Q1FrontUp,-25.38491,36.91624,65.79457,-53.35154,-111.3823,172.0158,-33.34956,202408281349236151,
2-21,A_Baseline,1,Q1FrontUp,-25.1681,37.05865,65.43454,-53.41197,-110.9721,172.0144,-33.3172,202408281349236343,
2-21,A_Baseline,1,Q1FrontUp,-25.1681,37.05865,65.43454,-53.41197,-110.9721,172.0144,-33.3172,202408281349236635,
2-21,A_Baseline,1,Q1FrontUp,-25.1681,37.05865,65.43454,-53.41197,-110.9721,172.0144,-33.3172,202408281349236808,
2-21,A_Baseline,1,Q1FrontUp,-24.95522,37.18399,65.07029,-53.46882,-110.6033,172.0122,-33.28474,202408281349236970,
2-21,A_Baseline,1,Q1FrontUp,-24.72741,37.31813,64.70762,-53.52232,-110.2061,172.0118,-33.26885,202408281349237137,
2-21,A_Baseline,1,Q1FrontUp,-24.72741,37.31813,64.70762,-53.52232,-110.2061,172.0118,-33.26885,202408281349237347,
2-21,A_Baseline,1,Q1FrontUp,-24.49105,37.45041,64.34734,-53.58313,-109.7782,172.0133,-33.25984,202408281349237537,
2-21,A_Baseline,1,Q1FrontUp,-24.26757,37.5713,64.02661,-53.64296,-109.3675,172.0159,-33.25457,202408281349237823,
2-21,A_Baseline,1,Q1FrontUp,-24.26757,37.5713,64.02661,-53.64296,-109.3675,172.0159,-33.25457,202408281349237999,
2-21,A_Baseline,1,Q1FrontUp,-24.04095,37.70714,63.71181,-53.7094,-108.9638,172.0159,-33.24556,202408281349238309,
2-21,A_Baseline,1,Q1FrontUp,-23.82354,37.83867,63.41566,-53.78005,-108.6091,172.0161,-33.2141,202408281349238500,
2-21,A_Baseline,1,Q1FrontUp,-23.59506,37.96308,63.09341,-53.84948,-108.3014,172.0166,-33.16964,202408281349238696,
2-21,A_Baseline,1,Q1FrontUp,-23.37945,38.07405,62.79921,-53.90688,-108.0393,172.0163,-33.10636,202408281349238968,
2-21,A_Baseline,1,Q1FrontUp,-23.37945,38.07405,62.79921,-53.90688,-108.0393,172.0163,-33.10636,202408281349239184,
2-21,A_Baseline,1,Q1FrontUp,-23.1635,38.21255,62.52119,-53.95796,-107.7679,172.0161,-33.0395,202408281349239480,
2-21,A_Baseline,1,Q1FrontUp,-22.9589,38.33317,62.26033,-54.0184,-107.5438,172.0154,-32.97077,202408281349239654,
2-21,A_Baseline,1,Q1FrontUp,-22.9589,38.33317,62.26033,-54.0184,-107.5438,172.0154,-32.97077,202408281349239863,
2-21,A_Baseline,1,Q1FrontUp,-22.72145,38.47475,61.93408,-54.09597,-107.3987,172.0152,-32.803,202408281349240166,
2-21,A_Baseline,1,Q1FrontUp,-22.48756,38.58013,61.6,-54.18707,-107.2557,172.0155,-32.65298,202408281349240510,
2-21,A_Baseline,1,Q1FrontUp,-22.28611,38.68538,61.30186,-54.31101,-107.107,172.0149,-32.52263,202408281349240699,
2-21,A_Baseline,1,Q1FrontUp,-22.28611,38.68538,61.30186,-54.31101,-107.107,172.0149,-32.52263,202408281349240969,
2-21,A_Baseline,1,Q1FrontUp,-22.09884,38.7967,61.03796,-54.43774,-106.968,172.0147,-32.40242,202408281349241145,
2-21,A_Baseline,1,Q1FrontUp,-22.09884,38.7967,61.03796,-54.43774,-106.968,172.0147,-32.40242,202408281349241318,
2-21,A_Baseline,1,Q1FrontUp,-21.91928,38.92704,60.75547,-54.58726,-106.8084,172.015,-32.27932,202408281349241636,
2-21,A_Baseline,1,Q1FrontUp,-21.7494,39.0591,60.49052,-54.74254,-106.6329,172.0187,-32.16404,202408281349241819,
2-21,A_Baseline,1,Q1FrontUp,-21.56137,39.17128,60.17574,-54.89364,-106.4586,172.049,-32.0431,202408281349242038,
2-21,A_Baseline,1,Q1FrontUp,-21.56137,39.17128,60.17574,-54.89364,-106.4586,172.049,-32.0431,202408281349242329,
2-21,A_Baseline,1,Q1FrontUp,-21.39146,39.27165,59.88569,-55.05963,-106.262,172.0609,-31.91975,202408281349242492,
2-21,A_Baseline,1,Q1FrontUp,-21.39146,39.27165,59.88569,-55.05963,-106.262,172.0609,-31.91975,202408281349242659,
2-21,A_Baseline,1,Q1FrontUp,-21.39146,39.27165,59.88569,-55.05963,-106.262,172.0609,-31.91975,202408281349242839,
2-21,A_Baseline,1,Q1FrontUp,-21.23057,39.38073,59.60413,-55.22739,-106.0792,172.0618,-31.80346,202408281349243038,
2-21,A_Baseline,1,Q1FrontUp,-21.04849,39.51217,59.28697,-55.39898,-105.9238,172.0618,-31.68337,202408281349243327,
2-21,A_Baseline,1,Q1FrontUp,-20.87229,39.63955,59.00687,-55.54779,-105.7818,172.0613,-31.56379,202408281349243623,
2-21,A_Baseline,1,Q1FrontUp,-20.70057,39.7883,58.72699,-55.68956,-105.6356,172.0616,-31.45116,202408281349243855,
2-21,A_Baseline,1,Q1FrontUp,-20.54816,39.90659,58.42894,-55.86875,-105.4641,172.0615,-31.35837,202408281349244014,
2-21,A_Baseline,1,Q1FrontUp,-20.54816,39.90659,58.42894,-55.86875,-105.4641,172.0615,-31.35837,202408281349244307,
2-21,A_Baseline,1,Q1FrontUp,-20.27108,40.19408,57.84988,-56.2579,-105.1722,172.0612,-31.15259,202408281349244650,
2-21,A_Baseline,1,Q1FrontUp,-20.27108,40.19408,57.84988,-56.2579,-105.1722,172.0612,-31.15259,202408281349244834,
2-21,A_Baseline,1,Q1FrontUp,-20.27108,40.19408,57.84988,-56.2579,-105.1722,172.0612,-31.15259,202408281349245014,
2-21,A_Baseline,1,Q1FrontUp,-20.13879,40.34152,57.59737,-56.44559,-105.0382,172.0608,-31.06124,202408281349245202,
2-21,A_Baseline,1,Q1FrontUp,-20.13879,40.34152,57.59737,-56.44559,-105.0382,172.0608,-31.06124,202408281349245365,
2-21,A_Baseline,1,Q1FrontUp,-20.00421,40.50453,57.33905,-56.62474,-104.8649,172.0612,-30.9639,202408281349245649,
2-21,A_Baseline,1,Q1FrontUp,-19.86683,40.63517,57.06156,-56.8045,-104.6864,172.0621,-30.85201,202408281349245980,
2-21,A_Baseline,1,Q1FrontUp,-19.71474,40.80397,56.78774,-56.94764,-104.5402,172.0636,-30.69171,202408281349246152,
2-21,A_Baseline,1,Q1FrontUp,-19.56168,40.95234,56.53464,-57.05538,-104.3864,172.0634,-30.5674,202408281349246352,
2-21,A_Baseline,1,Q1FrontUp,-19.56168,40.95234,56.53464,-57.05538,-104.3864,172.0634,-30.5674,202408281349246621,
2-21,A_Baseline,1,Q1FrontUp,-19.56168,40.95234,56.53464,-57.05538,-104.3864,172.0634,-30.5674,202408281349246798,
2-21,A_Baseline,1,Q1FrontUp,-19.27295,41.27852,56.04645,-57.26702,-104.1375,172.0634,-30.34246,202408281349247000,
2-21,A_Baseline,1,Q1FrontUp,-19.27295,41.27852,56.04645,-57.26702,-104.1375,172.0634,-30.34246,202408281349247314,
2-21,A_Baseline,1,Q1FrontUp,-19.15326,41.41446,55.78276,-57.41216,-103.9489,172.1241,-30.2445,202408281349247543,
2-21,A_Baseline,1,Q1FrontUp,-19.05321,41.54515,55.52484,-57.56508,-103.747,172.244,-30.14553,202408281349247825,
2-21,A_Baseline,1,Q1FrontUp,-19.05321,41.54515,55.52484,-57.56508,-103.747,172.244,-30.14553,202408281349247994,
2-21,A_Baseline,1,Q1FrontUp,-18.95438,41.67489,55.2876,-57.70521,-103.5293,172.3534,-30.04443,202408281349248159,
2-21,A_Baseline,1,Q1FrontUp,-18.86109,41.82907,55.07009,-57.82552,-103.3132,172.4463,-29.96078,202408281349248319,
2-21,A_Baseline,1,Q1FrontUp,-18.86109,41.82907,55.07009,-57.82552,-103.3132,172.4463,-29.96078,202408281349248550,
2-21,A_Baseline,1,Q1FrontUp,-18.77086,41.96042,54.85812,-57.93407,-103.1138,172.5437,-29.88108,202408281349248788,
2-21,A_Baseline,1,Q1FrontUp,-18.77086,41.96042,54.85812,-57.93407,-103.1138,172.5437,-29.88108,202408281349248969,
2-21,A_Baseline,1,Q1FrontUp,-18.69281,42.08955,54.66901,-58.04788,-102.9162,172.6368,-29.8017,202408281349249124,
2-21,A_Baseline,1,Q1FrontUp,-18.69281,42.08955,54.66901,-58.04788,-102.9162,172.6368,-29.8017,202408281349249300,
2-21,A_Baseline,1,Q1FrontUp,-18.62262,42.21064,54.48615,-58.16009,-102.7082,172.7154,-29.7264,202408281349249472,
2-21,A_Baseline,1,Q1FrontUp,-18.62262,42.21064,54.48615,-58.16009,-102.7082,172.7154,-29.7264,202408281349249711,
2-21,A_Baseline,1,Q1FrontUp,-18.55745,42.31429,54.299,-58.27197,-102.4777,172.7845,-29.64898,202408281349249973,
2-21,A_Baseline,1,Q1FrontUp,-18.49393,42.40158,54.10826,-58.39245,-102.2324,172.8264,-29.59527,202408281349250196,
2-21,A_Baseline,1,Q1FrontUp,-18.4404,42.49522,53.95894,-58.48457,-102.0119,172.8668,-29.54051,202408281349250454,
2-21,A_Baseline,1,Q1FrontUp,-18.4404,42.49522,53.95894,-58.48457,-102.0119,172.8668,-29.54051,202408281349250648,
2-21,A_Baseline,1,Q1FrontUp,-18.39731,42.58552,53.83303,-58.55627,-101.8189,172.9045,-29.48427,202408281349250849,
2-21,A_Baseline,1,Q1FrontUp,-18.34917,42.6814,53.68572,-58.63441,-101.6598,172.9052,-29.39611,202408281349251139,
2-21,A_Baseline,1,Q1FrontUp,-18.34917,42.6814,53.68572,-58.63441,-101.6598,172.9052,-29.39611,202408281349251305,
2-21,A_Baseline,1,Q1FrontUp,-18.29969,42.77355,53.53894,-58.70953,-101.5096,172.9057,-29.31091,202408281349251648,
2-21,A_Baseline,1,Q1FrontUp,-18.25097,42.84665,53.38784,-58.79221,-101.3805,172.9059,-29.23231,202408281349251847,
2-21,A_Baseline,1,Q1FrontUp,-18.1918,42.91658,53.23552,-58.87849,-101.2515,172.9058,-29.16502,202408281349252135,
2-21,A_Baseline,1,Q1FrontUp,-18.1918,42.91658,53.23552,-58.87849,-101.2515,172.9058,-29.16502,202408281349252307,
2-21,A_Baseline,1,Q1FrontUp,-18.13554,42.99707,53.10127,-58.97243,-101.1279,172.9057,-29.10651,202408281349252480,
2-21,A_Baseline,1,Q1FrontUp,-18.13554,42.99707,53.10127,-58.97243,-101.1279,172.9057,-29.10651,202408281349252649,
2-21,A_Baseline,1,Q1FrontUp,-18.07849,43.05793,52.96109,-59.08887,-101.0237,172.9058,-29.05221,202408281349252823,
2-21,A_Baseline,1,Q1FrontUp,-18.00334,43.10645,52.79655,-59.19946,-100.9345,172.9059,-28.99925,202408281349253037,
2-21,A_Baseline,1,Q1FrontUp,-17.92019,43.1468,52.63144,-59.29645,-100.8388,172.9056,-28.94756,202408281349253413,
2-21,A_Baseline,1,Q1FrontUp,-17.84437,43.19859,52.49366,-59.38281,-100.7358,172.9056,-28.90426,202408281349253747,
2-21,A_Baseline,1,Q1FrontUp,-17.84437,43.19859,52.49366,-59.38281,-100.7358,172.9056,-28.90426,202408281349253999,
2-21,A_Baseline,1,Q1FrontUp,-17.76683,43.2587,52.36371,-59.46298,-100.6195,172.9053,-28.86837,202408281349254183,
2-21,A_Baseline,1,Q1FrontUp,-17.6999,43.30916,52.24808,-59.54068,-100.5166,172.9054,-28.82759,202408281349254448,
2-21,A_Baseline,1,Q1FrontUp,-17.6999,43.30916,52.24808,-59.54068,-100.5166,172.9054,-28.82759,202408281349254634,
2-21,A_Baseline,1,Q1FrontUp,-17.6999,43.30916,52.24808,-59.54068,-100.5166,172.9054,-28.82759,202408281349254794,
2-21,A_Baseline,1,Q1FrontUp,-17.53774,43.4151,51.99903,-59.65504,-100.2917,172.9054,-28.74102,202408281349255027,
2-21,A_Baseline,1,Q1FrontUp,-17.53774,43.4151,51.99903,-59.65504,-100.2917,172.9054,-28.74102,202408281349255203,
2-21,A_Baseline,1,Q1FrontUp,-17.43338,43.48274,51.85014,-59.68764,-100.1891,172.9053,-28.70553,202408281349255488,
2-21,A_Baseline,1,Q1FrontUp,-17.33555,43.53556,51.72102,-59.72456,-100.0971,172.9054,-28.67495,202408281349255815,
2-21,A_Baseline,1,Q1FrontUp,-17.33555,43.53556,51.72102,-59.72456,-100.0971,172.9054,-28.67495,202408281349256157,
2-21,A_Baseline,1,Q1FrontUp,-17.23808,43.59,51.6005,-59.76498,-99.99757,172.9054,-28.64306,202408281349256356,
2-21,A_Baseline,1,Q1FrontUp,-17.13753,43.6482,51.47237,-59.80001,-99.89175,172.9052,-28.60336,202408281349256520,
2-21,A_Baseline,1,Q1FrontUp,-17.03652,43.70634,51.33823,-59.82397,-99.80704,172.9053,-28.55997,202408281349256797,
2-21,A_Baseline,1,Q1FrontUp,-17.03652,43.70634,51.33823,-59.82397,-99.80704,172.9053,-28.55997,202408281349256971,
2-21,A_Baseline,1,Q1FrontUp,-16.92193,43.7621,51.18336,-59.83171,-99.72714,172.9049,-28.51146,202408281349257137,
2-21,A_Baseline,1,Q1FrontUp,-16.92193,43.7621,51.18336,-59.83171,-99.72714,172.9049,-28.51146,202408281349257311,
2-21,A_Baseline,1,Q1FrontUp,-16.8219,43.80104,51.04432,-59.83563,-99.65874,172.9043,-28.47147,202408281349257530,
2-21,A_Baseline,1,Q1FrontUp,-16.72958,43.8474,50.91824,-59.83562,-99.60133,172.9038,-28.42626,202408281349257818,
2-21,A_Baseline,1,Q1FrontUp,-16.62541,43.89484,50.7532,-59.83557,-99.54572,172.903,-28.35074,202408281349258002,
2-21,A_Baseline,1,Q1FrontUp,-16.62541,43.89484,50.7532,-59.83557,-99.54572,172.903,-28.35074,202408281349258212,
2-21,A_Baseline,1,Q1FrontUp,-16.52547,43.94713,50.58892,-59.8355,-99.49541,172.9026,-28.27152,202408281349258528,
2-21,A_Baseline,1,Q1FrontUp,-16.4354,43.99762,50.43835,-59.83601,-99.45395,172.9028,-28.20441,202408281349258800,
2-21,A_Baseline,1,Q1FrontUp,-16.4354,43.99762,50.43835,-59.83601,-99.45395,172.9028,-28.20441,202408281349258964,
2-21,A_Baseline,1,Q1FrontUp,-16.35396,44.04012,50.26909,-59.83596,-99.40242,172.9026,-28.15096,202408281349259136,
2-21,A_Baseline,1,Q1FrontUp,-16.3077,44.09198,50.12997,-59.83831,-99.37022,172.9026,-28.08725,202408281349259316,
2-21,A_Baseline,1,Q1FrontUp,-16.3077,44.09198,50.12997,-59.83831,-99.37022,172.9026,-28.08725,202408281349259473,
2-21,A_Baseline,1,Q1FrontUp,-16.27907,44.15242,49.99589,-59.83723,-99.34684,172.903,-28.0251,202408281349259683,
2-21,A_Baseline,1,Q1FrontUp,-16.27907,44.15242,49.99589,-59.83723,-99.34684,172.903,-28.0251,202408281349259859,
2-21,A_Baseline,1,Q1FrontUp,-16.2583,44.20226,49.81417,-59.83657,-99.29984,172.9029,-27.95977,202408281349260154,
2-21,A_Baseline,1,Q1FrontUp,-16.2583,44.20226,49.81417,-59.83657,-99.29984,172.9029,-27.95977,202408281349260323,
2-21,A_Baseline,1,Q1FrontUp,-16.25278,44.24504,49.62155,-59.8354,-99.25714,172.9028,-27.88862,202408281349260501,
2-21,A_Baseline,1,Q1FrontUp,-16.25278,44.24504,49.62155,-59.8354,-99.25714,172.9028,-27.88862,202408281349260698,
2-21,A_Baseline,1,Q1FrontUp,-16.25453,44.29257,49.43949,-59.83297,-99.22209,172.903,-27.8198,202408281349260992,
2-21,A_Baseline,1,Q1FrontUp,-16.26034,44.34654,49.19754,-59.82846,-99.19714,172.9026,-27.74955,202408281349261306,
2-21,A_Baseline,1,Q1FrontUp,-16.26034,44.34654,49.19754,-59.82846,-99.19714,172.9026,-27.74955,202408281349261545,
2-21,A_Baseline,1,Q1FrontUp,-16.29781,44.47014,48.72349,-59.82306,-99.16169,172.8991,-27.62437,202408281349261789,
2-21,A_Baseline,1,Q1FrontUp,-16.29781,44.47014,48.72349,-59.82306,-99.16169,172.8991,-27.62437,202408281349261965,
2-21,A_Baseline,1,Q1FrontUp,-16.32674,44.54408,48.4889,-59.81128,-99.13725,172.8779,-27.56362,202408281349262124,
2-21,A_Baseline,1,Q1FrontUp,-16.32674,44.54408,48.4889,-59.81128,-99.13725,172.8779,-27.56362,202408281349262297,
2-21,A_Baseline,1,Q1FrontUp,-16.34026,44.60929,48.23925,-59.80787,-99.10056,172.8654,-27.50963,202408281349262458,
2-21,A_Baseline,1,Q1FrontUp,-16.34026,44.60929,48.23925,-59.80787,-99.10056,172.8654,-27.50963,202408281349262653,
2-21,A_Baseline,1,Q1FrontUp,-16.34755,44.6744,47.9933,-59.80705,-99.06911,172.8517,-27.45734,202408281349262865,
2-21,A_Baseline,1,Q1FrontUp,-16.38112,44.75634,47.76641,-59.80806,-99.06928,172.8427,-27.38921,202408281349263034,
2-21,A_Baseline,1,Q1FrontUp,-16.38112,44.75634,47.76641,-59.80806,-99.06928,172.8427,-27.38921,202408281349263308,
2-21,A_Baseline,1,Q1FrontUp,-16.41514,44.82587,47.52892,-59.80925,-99.06856,172.84,-27.31742,202408281349263470,
2-21,A_Baseline,1,Q1FrontUp,-16.44811,44.89154,47.27971,-59.8093,-99.06828,172.8397,-27.23613,202408281349263825,
2-21,A_Baseline,1,Q1FrontUp,-16.44811,44.89154,47.27971,-59.8093,-99.06828,172.8397,-27.23613,202408281349264011,
2-21,A_Baseline,1,Q1FrontUp,-16.49835,44.96949,47.04976,-59.80865,-99.06784,172.8395,-27.15478,202408281349264296,
2-21,A_Baseline,1,Q1FrontUp,-16.51972,45.03632,46.78889,-59.80912,-99.05708,172.84,-27.06981,202408281349264458,
2-21,A_Baseline,1,Q1FrontUp,-16.51972,45.03632,46.78889,-59.80912,-99.05708,172.84,-27.06981,202408281349264697,
2-21,A_Baseline,1,Q1FrontUp,-16.52655,45.08059,46.50034,-59.81057,-99.04895,172.8398,-26.9841,202408281349264965,
2-21,A_Baseline,1,Q1FrontUp,-16.55717,45.12923,46.23236,-59.81516,-99.04392,172.8399,-26.92137,202408281349265191,
2-21,A_Baseline,1,Q1FrontUp,-16.59175,45.18358,45.96185,-59.81969,-99.0415,172.8399,-26.87223,202408281349265458,
2-21,A_Baseline,1,Q1FrontUp,-16.63824,45.24049,45.68411,-59.82412,-99.03534,172.8408,-26.83039,202408281349265658,
2-21,A_Baseline,1,Q1FrontUp,-16.63824,45.24049,45.68411,-59.82412,-99.03534,172.8408,-26.83039,202408281349265991,
2-21,A_Baseline,1,Q1FrontUp,-16.68826,45.29801,45.36716,-59.82571,-98.98511,172.8419,-26.80435,202408281349266175,
2-21,A_Baseline,1,Q1FrontUp,-16.73541,45.34057,45.05712,-59.82605,-98.93751,172.8422,-26.7811,202408281349266464,
2-21,A_Baseline,1,Q1FrontUp,-16.73541,45.34057,45.05712,-59.82605,-98.93751,172.8422,-26.7811,202408281349266645,
2-21,A_Baseline,1,Q1FrontUp,-16.81128,45.40105,44.782,-59.82824,-98.8931,172.8419,-26.75395,202408281349266966,
2-21,A_Baseline,1,Q1FrontUp,-16.92314,45.47049,44.46717,-59.87192,-98.89425,172.8434,-26.71431,202408281349267137,
2-21,A_Baseline,1,Q1FrontUp,-17.05943,45.53564,44.18536,-59.92724,-98.88599,172.8427,-26.705,202408281349267346,
2-21,A_Baseline,1,Q1FrontUp,-17.05943,45.53564,44.18536,-59.92724,-98.88599,172.8427,-26.705,202408281349267649,
2-21,A_Baseline,1,Q1FrontUp,-17.22201,45.61332,43.91504,-59.9901,-98.87717,172.8425,-26.70444,202408281349267852,
2-21,A_Baseline,1,Q1FrontUp,-17.37787,45.69162,43.62503,-60.02789,-98.86946,172.8423,-26.70491,202408281349268166,
2-21,A_Baseline,1,Q1FrontUp,-17.37787,45.69162,43.62503,-60.02789,-98.86946,172.8423,-26.70491,202408281349268364,
2-21,A_Baseline,1,Q1FrontUp,-17.53107,45.79913,43.32969,-60.05406,-98.86748,172.8416,-26.70429,202408281349268646,
2-21,A_Baseline,1,Q1FrontUp,-17.70576,45.90578,43.01045,-60.09201,-98.86765,172.8417,-26.69961,202408281349268971,
2-21,A_Baseline,1,Q1FrontUp,-17.87142,46.03294,42.66464,-60.0955,-98.86786,172.8418,-26.6693,202408281349269143,
2-21,A_Baseline,1,Q1FrontUp,-18.05381,46.14385,42.31989,-60.09534,-98.86774,172.8415,-26.64535,202408281349269387,
2-21,A_Baseline,1,Q1FrontUp,-18.05381,46.14385,42.31989,-60.09534,-98.86774,172.8415,-26.64535,202408281349269647,
2-21,A_Baseline,1,Q1FrontUp,-18.22441,46.27466,41.97691,-60.09771,-98.86787,172.8412,-26.62222,202408281349269816,
2-21,A_Baseline,1,Q1FrontUp,-18.22441,46.27466,41.97691,-60.09771,-98.86787,172.8412,-26.62222,202408281349269987,
2-21,A_Baseline,1,Q1FrontUp,-18.22441,46.27466,41.97691,-60.09771,-98.86787,172.8412,-26.62222,202408281349270146,
2-21,A_Baseline,1,Q1FrontUp,-18.43033,46.40156,41.72131,-60.11555,-98.86818,172.8414,-26.60572,202408281349270308,
2-21,A_Baseline,1,Q1FrontUp,-18.6358,46.54951,41.46923,-60.13904,-98.86826,172.842,-26.60229,202408281349270490,
2-21,A_Baseline,1,Q1FrontUp,-18.6358,46.54951,41.46923,-60.13904,-98.86826,172.842,-26.60229,202408281349270695,
2-21,A_Baseline,1,Q1FrontUp,-18.83766,46.65617,41.21765,-60.17123,-98.86779,172.8414,-26.60286,202408281349270984,
2-21,A_Baseline,1,Q1FrontUp,-19.02637,46.77788,40.96352,-60.1964,-98.86723,172.8409,-26.60277,202408281349271146,
2-21,A_Baseline,1,Q1FrontUp,-19.20197,46.8706,40.70125,-60.23481,-98.86065,172.8412,-26.60307,202408281349271453,
2-21,A_Baseline,1,Q1FrontUp,-19.20197,46.8706,40.70125,-60.23481,-98.86065,172.8412,-26.60307,202408281349271638,
2-21,A_Baseline,1,Q1FrontUp,-19.36688,46.96315,40.46464,-60.27865,-98.84798,172.8409,-26.60307,202408281349271849,
2-21,A_Baseline,1,Q1FrontUp,-19.52108,47.05832,40.26745,-60.30828,-98.84003,172.8405,-26.60249,202408281349272135,
2-21,A_Baseline,1,Q1FrontUp,-19.65687,47.15204,40.08145,-60.33829,-98.83175,172.8408,-26.60312,202408281349272534,
2-21,A_Baseline,1,Q1FrontUp,-19.75903,47.24207,39.91391,-60.36953,-98.82462,172.8411,-26.60306,202408281349272801,
2-21,A_Baseline,1,Q1FrontUp,-19.82894,47.31321,39.73396,-60.42459,-98.81141,172.8404,-26.6028,202408281349273023,
2-21,A_Baseline,1,Q1FrontUp,-19.82894,47.31321,39.73396,-60.42459,-98.81141,172.8404,-26.6028,202408281349273317,
2-21,A_Baseline,1,Q1FrontUp,-19.89075,47.37931,39.59307,-60.49972,-98.80815,172.841,-26.60087,202408281349273635,
2-21,A_Baseline,1,Q1FrontUp,-19.94077,47.43504,39.47253,-60.58242,-98.80817,172.8409,-26.59744,202408281349273823,
2-21,A_Baseline,1,Q1FrontUp,-19.94077,47.43504,39.47253,-60.58242,-98.80817,172.8409,-26.59744,202408281349274019,
2-21,A_Baseline,1,Q1FrontUp,-19.96241,47.49388,39.36947,-60.67171,-98.80814,172.841,-26.5976,202408281349274305,
2-21,A_Baseline,1,Q1FrontUp,-19.96351,47.54909,39.26973,-60.75603,-98.80677,172.8437,-26.59773,202408281349274479,
2-21,A_Baseline,1,Q1FrontUp,-19.96351,47.54909,39.26973,-60.75603,-98.80677,172.8437,-26.59773,202408281349274636,
2-21,A_Baseline,1,Q1FrontUp,-19.95984,47.59468,39.16369,-60.8575,-98.8058,172.8524,-26.59815,202408281349274809,
2-21,A_Baseline,1,Q1FrontUp,-19.95348,47.63974,39.07588,-60.96689,-98.80489,172.8566,-26.59818,202408281349275000,
2-21,A_Baseline,1,Q1FrontUp,-19.95348,47.63974,39.07588,-60.96689,-98.80489,172.8566,-26.59818,202408281349275206,
2-21,A_Baseline,1,Q1FrontUp,-19.95076,47.68394,38.99286,-61.076,-98.80444,172.8564,-26.59849,202408281349275461,
2-21,A_Baseline,1,Q1FrontUp,-19.95076,47.68394,38.99286,-61.076,-98.80444,172.8564,-26.59849,202408281349275691,
2-21,A_Baseline,1,Q1FrontUp,-19.94871,47.7335,38.90454,-61.18343,-98.80444,172.8559,-26.59865,202408281349275972,
2-21,A_Baseline,1,Q1FrontUp,-19.93955,47.78854,38.81611,-61.27438,-98.80424,172.8563,-26.59827,202408281349276156,
2-21,A_Baseline,1,Q1FrontUp,-19.93955,47.78854,38.81611,-61.27438,-98.80424,172.8563,-26.59827,202408281349276337,
2-21,A_Baseline,1,Q1FrontUp,-19.937,47.8424,38.74107,-61.34732,-98.80437,172.8559,-26.59837,202408281349276738,
2-21,A_Baseline,1,Q1FrontUp,-19.93433,47.90322,38.65778,-61.39754,-98.80432,172.8559,-26.59718,202408281349276959,
2-21,A_Baseline,1,Q1FrontUp,-19.93112,47.98005,38.55246,-61.41219,-98.80443,172.8566,-26.5909,202408281349277208,
2-21,A_Baseline,1,Q1FrontUp,-19.93591,48.04982,38.43767,-61.42001,-98.80434,172.8562,-26.58499,202408281349277381,
2-21,A_Baseline,1,Q1FrontUp,-19.93591,48.04982,38.43767,-61.42001,-98.80434,172.8562,-26.58499,202408281349277644,
2-21,A_Baseline,1,Q1FrontUp,-19.94753,48.10305,38.3109,-61.42433,-98.80434,172.8561,-26.58055,202408281349277823,
2-21,A_Baseline,1,Q1FrontUp,-19.94753,48.10305,38.3109,-61.42433,-98.80434,172.8561,-26.58055,202408281349278000,
2-21,A_Baseline,1,Q1FrontUp,-19.97814,48.14709,38.18633,-61.4275,-98.80441,172.8559,-26.56606,202408281349278154,
2-21,A_Baseline,1,Q1FrontUp,-19.97814,48.14709,38.18633,-61.4275,-98.80441,172.8559,-26.56606,202408281349278334,
2-21,A_Baseline,1,Q1FrontUp,-20.00747,48.19253,38.0477,-61.42797,-98.80301,172.855,-26.5576,202408281349278538,
2-21,A_Baseline,1,Q1FrontUp,-20.04074,48.23537,37.90472,-61.42741,-98.80147,172.8552,-26.54802,202408281349278795,
2-21,A_Baseline,1,Q1FrontUp,-20.08857,48.27105,37.74194,-61.42742,-98.80104,172.8554,-26.54105,202408281349279117,
2-21,A_Baseline,1,Q1FrontUp,-20.08857,48.27105,37.74194,-61.42742,-98.80104,172.8554,-26.54105,202408281349279290,
2-21,A_Baseline,1,Q1FrontUp,-20.14668,48.2973,37.57539,-61.42786,-98.8012,172.8552,-26.53797,202408281349279457,
2-21,A_Baseline,1,Q1FrontUp,-20.21989,48.33955,37.42127,-61.43045,-98.80106,172.8546,-26.53742,202408281349279680,
2-21,A_Baseline,1,Q1FrontUp,-20.21989,48.33955,37.42127,-61.43045,-98.80106,172.8546,-26.53742,202408281349279951,
2-21,A_Baseline,1,Q1FrontUp,-20.29528,48.39214,37.27777,-61.4331,-98.80086,172.8543,-26.53489,202408281349280136,
2-21,A_Baseline,1,Q1FrontUp,-20.37439,48.44907,37.1375,-61.44975,-98.80067,172.8546,-26.52689,202408281349280335,
2-21,A_Baseline,1,Q1FrontUp,-20.37439,48.44907,37.1375,-61.44975,-98.80067,172.8546,-26.52689,202408281349280693,
2-21,A_Baseline,1,Q1FrontUp,-20.44201,48.50703,37.00518,-61.47245,-98.80069,172.8547,-26.51811,202408281349280962,
2-21,A_Baseline,1,Q1FrontUp,-20.50124,48.56575,36.87192,-61.49331,-98.80083,172.8544,-26.50862,202408281349281160,
2-21,A_Baseline,1,Q1FrontUp,-20.54356,48.64088,36.73912,-61.51445,-98.80051,172.8543,-26.50725,202408281349281457,
2-21,A_Baseline,1,Q1FrontUp,-20.54356,48.64088,36.73912,-61.51445,-98.80051,172.8543,-26.50725,202408281349281634,
2-21,A_Baseline,1,Q1FrontUp,-20.57439,48.72181,36.60731,-61.53392,-98.8004,172.8547,-26.50687,202408281349281842,
2-21,A_Baseline,1,Q1FrontUp,-20.58043,48.80879,36.44559,-61.5505,-98.8005,172.8543,-26.50693,202408281349282122,
2-21,A_Baseline,1,Q1FrontUp,-20.58043,48.80879,36.44559,-61.5505,-98.8005,172.8543,-26.50693,202408281349282294,
2-21,A_Baseline,1,Q1FrontUp,-20.57452,48.8918,36.26474,-61.5746,-98.7998,172.851,-26.50674,202408281349282473,
2-21,A_Baseline,1,Q1FrontUp,-20.57452,48.8918,36.26474,-61.5746,-98.7998,172.851,-26.50674,202408281349282655,
2-21,A_Baseline,1,Q1FrontUp,-20.56039,48.98343,36.08965,-61.594,-98.79836,172.8466,-26.50689,202408281349282851,
2-21,A_Baseline,1,Q1FrontUp,-20.56039,48.98343,36.08965,-61.594,-98.79836,172.8466,-26.50689,202408281349283014,
2-21,A_Baseline,1,Q1FrontUp,-20.52875,49.09438,35.9017,-61.6026,-98.79618,172.8358,-26.50506,202408281349283357,
2-21,A_Baseline,1,Q1FrontUp,-20.51012,49.20224,35.74117,-61.62463,-98.79344,172.8304,-26.50353,202408281349283639,
2-21,A_Baseline,1,Q1FrontUp,-20.4842,49.31266,35.57677,-61.64327,-98.78259,172.8284,-26.50091,202408281349283802,
2-21,A_Baseline,1,Q1FrontUp,-20.4842,49.31266,35.57677,-61.64327,-98.78259,172.8284,-26.50091,202408281349284021,
2-21,A_Baseline,1,Q1FrontUp,-20.40323,49.41542,35.33198,-61.65902,-98.75357,172.8273,-26.49913,202408281349284302,
2-21,A_Baseline,1,Q1FrontUp,-20.33114,49.54117,35.1179,-61.68469,-98.73449,172.8277,-26.49621,202408281349284459,
2-21,A_Baseline,1,Q1FrontUp,-20.33114,49.54117,35.1179,-61.68469,-98.73449,172.8277,-26.49621,202408281349284623,
2-21,A_Baseline,1,Q1FrontUp,-20.25668,49.64397,34.91229,-61.72999,-98.71276,172.8285,-26.49416,202408281349284819,
2-21,A_Baseline,1,Q1FrontUp,-20.14513,49.76124,34.65203,-61.78593,-98.65825,172.8289,-26.49364,202408281349285035,
2-21,A_Baseline,1,Q1FrontUp,-20.14513,49.76124,34.65203,-61.78593,-98.65825,172.8289,-26.49364,202408281349285303,
2-21,A_Baseline,1,Q1FrontUp,-20.03804,49.86585,34.40991,-61.86131,-98.59099,172.8287,-26.49313,202408281349285486,
2-21,A_Baseline,1,Q1FrontUp,-20.03804,49.86585,34.40991,-61.86131,-98.59099,172.8287,-26.49313,202408281349285634,
2-21,A_Baseline,1,Q1FrontUp,-19.93174,49.98851,34.17533,-61.97163,-98.52126,172.8288,-26.4915,202408281349285800,
2-21,A_Baseline,1,Q1FrontUp,-19.81337,50.11991,33.95805,-62.09625,-98.44769,172.8288,-26.48735,202408281349285994,
2-21,A_Baseline,1,Q1FrontUp,-19.81337,50.11991,33.95805,-62.09625,-98.44769,172.8288,-26.48735,202408281349286192,
2-21,A_Baseline,1,Q1FrontUp,-19.67258,50.27809,33.72795,-62.2038,-98.38268,172.8286,-26.46068,202408281349286444,
2-21,A_Baseline,1,Q1FrontUp,-19.51674,50.42585,33.50141,-62.32865,-98.32655,172.829,-26.43294,202408281349286665,
2-21,A_Baseline,1,Q1FrontUp,-19.51674,50.42585,33.50141,-62.32865,-98.32655,172.829,-26.43294,202408281349286959,
2-21,A_Baseline,1,Q1FrontUp,-19.35282,50.59888,33.28362,-62.46304,-98.28046,172.8296,-26.39943,202408281349287119,
2-21,A_Baseline,1,Q1FrontUp,-19.35282,50.59888,33.28362,-62.46304,-98.28046,172.8296,-26.39943,202408281349287338,
2-21,A_Baseline,1,Q1FrontUp,-19.17948,50.76228,33.05411,-62.62068,-98.18362,172.8292,-26.3655,202408281349287627,
2-21,A_Baseline,1,Q1FrontUp,-19.00925,50.93771,32.85035,-62.77589,-98.05956,172.8297,-26.32957,202408281349287965,
2-21,A_Baseline,1,Q1FrontUp,-18.82201,51.12056,32.63962,-62.89965,-97.93776,172.8294,-26.29582,202408281349288193,
2-21,A_Baseline,1,Q1FrontUp,-18.59259,51.31419,32.40241,-63.00527,-97.77582,172.8292,-26.24503,202408281349288481,
2-21,A_Baseline,1,Q1FrontUp,-18.59259,51.31419,32.40241,-63.00527,-97.77582,172.8292,-26.24503,202408281349288799,
2-21,A_Baseline,1,Q1FrontUp,-18.35279,51.50151,32.18265,-63.10612,-97.59549,172.8293,-26.19082,202408281349288963,
2-21,A_Baseline,1,Q1FrontUp,-18.09939,51.70048,31.96531,-63.17896,-97.42723,172.8289,-26.13895,202408281349289119,
2-21,A_Baseline,1,Q1FrontUp,-18.09939,51.70048,31.96531,-63.17896,-97.42723,172.8289,-26.13895,202408281349289307,
2-21,A_Baseline,1,Q1FrontUp,-17.79847,51.90697,31.69955,-63.2619,-97.23742,172.829,-26.07006,202408281349289545,
2-21,A_Baseline,1,Q1FrontUp,-17.79847,51.90697,31.69955,-63.2619,-97.23742,172.829,-26.07006,202408281349289710,
2-21,A_Baseline,1,Q1FrontUp,-17.51746,52.09488,31.4361,-63.35049,-97.07538,172.8292,-26.00098,202408281349289982,
2-21,A_Baseline,1,Q1FrontUp,-17.23862,52.29004,31.17167,-63.45221,-96.90591,172.8283,-25.9389,202408281349290159,
2-21,A_Baseline,1,Q1FrontUp,-17.23862,52.29004,31.17167,-63.45221,-96.90591,172.8283,-25.9389,202408281349290334,
2-21,A_Baseline,1,Q1FrontUp,-16.98761,52.49317,30.94115,-63.56202,-96.75685,172.8284,-25.87803,202408281349290544,
2-21,A_Baseline,1,Q1FrontUp,-16.742,52.69148,30.7253,-63.67785,-96.60061,172.8285,-25.82535,202408281349290813,
2-21,A_Baseline,1,Q1FrontUp,-16.742,52.69148,30.7253,-63.67785,-96.60061,172.8285,-25.82535,202408281349290990,
2-21,A_Baseline,1,Q1FrontUp,-16.47911,52.89411,30.49363,-63.78932,-96.44711,172.8284,-25.77103,202408281349291338,
2-21,A_Baseline,1,Q1FrontUp,-16.22956,53.08462,30.27491,-63.90383,-96.27916,172.8285,-25.70976,202408281349291628,
2-21,A_Baseline,1,Q1FrontUp,-15.99756,53.26775,30.06392,-64.01416,-96.11217,172.8279,-25.63676,202408281349291959,
2-21,A_Baseline,1,Q1FrontUp,-15.76236,53.4498,29.85189,-64.12273,-95.98564,172.8277,-25.54885,202408281349292124,
2-21,A_Baseline,1,Q1FrontUp,-15.76236,53.4498,29.85189,-64.12273,-95.98564,172.8277,-25.54885,202408281349292294,
2-21,A_Baseline,1,Q1FrontUp,-15.54984,53.6455,29.66646,-64.24002,-95.8477,172.8278,-25.46709,202408281349292478,
2-21,A_Baseline,1,Q1FrontUp,-15.34442,53.82241,29.48985,-64.35016,-95.73084,172.8282,-25.38983,202408281349292700,
2-21,A_Baseline,1,Q1FrontUp,-15.34442,53.82241,29.48985,-64.35016,-95.73084,172.8282,-25.38983,202408281349292868,
2-21,A_Baseline,1,Q1FrontUp,-15.12491,54.00605,29.29285,-64.4521,-95.60606,172.8273,-25.31661,202408281349293157,
2-21,A_Baseline,1,Q1FrontUp,-15.12491,54.00605,29.29285,-64.4521,-95.60606,172.8273,-25.31661,202408281349293327,
2-21,A_Baseline,1,Q1FrontUp,-14.93262,54.17491,29.12352,-64.54838,-95.48531,172.8274,-25.24474,202408281349293681,
2-21,A_Baseline,1,Q1FrontUp,-14.75451,54.34796,28.96612,-64.63903,-95.36753,172.8277,-25.16655,202408281349293979,
2-21,A_Baseline,1,Q1FrontUp,-14.58034,54.48166,28.79215,-64.73211,-95.2533,172.8268,-25.0839,202408281349294297,
2-21,A_Baseline,1,Q1FrontUp,-14.40497,54.63351,28.59706,-64.80488,-95.13719,172.8267,-24.99894,202408281349294537,
2-21,A_Baseline,1,Q1FrontUp,-14.40497,54.63351,28.59706,-64.80488,-95.13719,172.8267,-24.99894,202408281349294717,
2-21,A_Baseline,1,Q1FrontUp,-14.22622,54.7837,28.41288,-64.87453,-95.01451,172.8271,-24.91166,202408281349294962,
2-21,A_Baseline,1,Q1FrontUp,-14.06145,54.91331,28.24542,-64.96723,-94.88249,172.8264,-24.8283,202408281349295146,
2-21,A_Baseline,1,Q1FrontUp,-13.9026,55.05589,28.08644,-65.06525,-94.74988,172.8264,-24.74547,202408281349295456,
2-21,A_Baseline,1,Q1FrontUp,-13.9026,55.05589,28.08644,-65.06525,-94.74988,172.8264,-24.74547,202408281349295644,
2-21,A_Baseline,1,Q1FrontUp,-13.73837,55.1813,27.922,-65.1539,-94.63557,172.8269,-24.67584,202408281349295849,
2-21,A_Baseline,1,Q1FrontUp,-13.5307,55.31056,27.67974,-65.23524,-94.52328,172.8262,-24.60385,202408281349296020,
2-21,A_Baseline,1,Q1FrontUp,-13.5307,55.31056,27.67974,-65.23524,-94.52328,172.8262,-24.60385,202408281349296290,
2-21,A_Baseline,1,Q1FrontUp,-13.33127,55.42727,27.44964,-65.31653,-94.41646,172.8244,-24.53521,202408281349296486,
2-21,A_Baseline,1,Q1FrontUp,-13.14549,55.55725,27.22169,-65.38493,-94.3121,172.8214,-24.47001,202408281349296790,
2-21,A_Baseline,1,Q1FrontUp,-12.96663,55.66918,26.99945,-65.46611,-94.2265,172.8054,-24.4082,202408281349297024,
2-21,A_Baseline,1,Q1FrontUp,-12.96663,55.66918,26.99945,-65.46611,-94.2265,172.8054,-24.4082,202408281349297289,
2-21,A_Baseline,1,Q1FrontUp,-12.81092,55.80087,26.78853,-65.56398,-94.12634,172.785,-24.35508,202408281349297449,
2-21,A_Baseline,1,Q1FrontUp,-12.65121,55.90528,26.56637,-65.68768,-94.02099,172.763,-24.30283,202408281349297745,
2-21,A_Baseline,1,Q1FrontUp,-12.48776,56.02132,26.32976,-65.80119,-93.91387,172.7366,-24.25292,202408281349297973,
2-21,A_Baseline,1,Q1FrontUp,-12.48776,56.02132,26.32976,-65.80119,-93.91387,172.7366,-24.25292,202408281349298186,
2-21,A_Baseline,1,Q1FrontUp,-12.3309,56.13531,26.11171,-65.90606,-93.81142,172.7139,-24.199,202408281349298449,
2-21,A_Baseline,1,Q1FrontUp,-12.16692,56.27975,25.88662,-65.97208,-93.70894,172.6873,-24.14327,202408281349298620,
2-21,A_Baseline,1,Q1FrontUp,-12.16692,56.27975,25.88662,-65.97208,-93.70894,172.6873,-24.14327,202408281349298785,
2-21,A_Baseline,1,Q1FrontUp,-12.16692,56.27975,25.88662,-65.97208,-93.70894,172.6873,-24.14327,202408281349298959,
2-21,A_Baseline,1,Q1FrontUp,-11.92925,56.41126,25.54112,-66.01417,-93.56831,172.6758,-24.05685,202408281349299185,
2-21,A_Baseline,1,Q1FrontUp,-11.72632,56.56967,25.22846,-66.05667,-93.452,172.6546,-23.98072,202408281349299458,
2-21,A_Baseline,1,Q1FrontUp,-11.72632,56.56967,25.22846,-66.05667,-93.452,172.6546,-23.98072,202408281349299615,
2-21,A_Baseline,1,Q1FrontUp,-11.54161,56.71842,24.92209,-66.11414,-93.34371,172.6328,-23.90626,202408281349299784,
2-21,A_Baseline,1,Q1FrontUp,-11.54161,56.71842,24.92209,-66.11414,-93.34371,172.6328,-23.90626,202408281349299955,
2-21,A_Baseline,1,Q1FrontUp,-11.36873,56.88198,24.63157,-66.158,-93.21298,172.6177,-23.8306,202408281349300148,
2-21,A_Baseline,1,Q1FrontUp,-11.19249,57.0534,24.33563,-66.20941,-93.09205,172.5915,-23.75107,202408281349300343,
2-21,A_Baseline,1,Q1FrontUp,-11.19249,57.0534,24.33563,-66.20941,-93.09205,172.5915,-23.75107,202408281349300604,
2-21,A_Baseline,1,Q1FrontUp,-11.19249,57.0534,24.33563,-66.20941,-93.09205,172.5915,-23.75107,202408281349300866,
2-21,A_Baseline,1,Q1FrontUp,-10.85914,57.35867,23.77244,-66.39086,-92.91185,172.4963,-23.60038,202408281349301146,
2-21,A_Baseline,1,Q1FrontUp,-10.70878,57.50872,23.4897,-66.50163,-92.82529,172.4339,-23.52232,202408281349301501,
2-21,A_Baseline,1,Q1FrontUp,-10.56704,57.66269,23.21829,-66.6195,-92.74619,172.3669,-23.45469,202408281349301803,
2-21,A_Baseline,1,Q1FrontUp,-10.56704,57.66269,23.21829,-66.6195,-92.74619,172.3669,-23.45469,202408281349301970,
2-21,A_Baseline,1,Q1FrontUp,-10.56704,57.66269,23.21829,-66.6195,-92.74619,172.3669,-23.45469,202408281349302136,
2-21,A_Baseline,1,Q1FrontUp,-10.28103,58.00524,22.70474,-66.81162,-92.60635,172.2675,-23.31298,202408281349302378,
2-21,A_Baseline,1,Q1FrontUp,-10.28103,58.00524,22.70474,-66.81162,-92.60635,172.2675,-23.31298,202408281349302656,
2-21,A_Baseline,1,Q1FrontUp,-10.14322,58.1664,22.44596,-66.88838,-92.52903,172.219,-23.2513,202408281349302798,
2-21,A_Baseline,1,Q1FrontUp,-10.14322,58.1664,22.44596,-66.88838,-92.52903,172.219,-23.2513,202408281349302998,
2-21,A_Baseline,1,Q1FrontUp,-10.01881,58.33582,22.20634,-66.97864,-92.45496,172.168,-23.18729,202408281349303320,
2-21,A_Baseline,1,Q1FrontUp,-9.89747,58.50283,21.96916,-67.07887,-92.39177,172.1261,-23.12422,202408281349303482,
2-21,A_Baseline,1,Q1FrontUp,-9.89747,58.50283,21.96916,-67.07887,-92.39177,172.1261,-23.12422,202408281349303684,
2-21,A_Baseline,1,Q1FrontUp,-9.779949,58.65791,21.75245,-67.17579,-92.3315,172.092,-23.06278,202408281349303837,
2-21,A_Baseline,1,Q1FrontUp,-9.639772,58.81593,21.50319,-67.27377,-92.27081,172.065,-23.00121,202408281349304113,
2-21,A_Baseline,1,Q1FrontUp,-9.639772,58.81593,21.50319,-67.27377,-92.27081,172.065,-23.00121,202408281349304288,
2-21,A_Baseline,1,Q1FrontUp,-9.507171,58.94942,21.2688,-67.36678,-92.19433,172.0398,-22.94479,202408281349304457,
2-21,A_Baseline,1,Q1FrontUp,-9.507171,58.94942,21.2688,-67.36678,-92.19433,172.0398,-22.94479,202408281349304626,
2-21,A_Baseline,1,Q1FrontUp,-9.373461,59.10741,21.04278,-67.44032,-92.1046,172.0099,-22.89217,202408281349304844,
2-21,A_Baseline,1,Q1FrontUp,-9.247672,59.25693,20.84644,-67.50156,-92.02723,171.9901,-22.83865,202408281349305122,
2-21,A_Baseline,1,Q1FrontUp,-9.247672,59.25693,20.84644,-67.50156,-92.02723,171.9901,-22.83865,202408281349305292,
2-21,A_Baseline,1,Q1FrontUp,-9.247672,59.25693,20.84644,-67.50156,-92.02723,171.9901,-22.83865,202408281349305568,
2-21,A_Baseline,1,Q1FrontUp,-9.030111,59.53344,20.51121,-67.61084,-91.90836,171.9518,-22.73431,202408281349305825,
2-21,A_Baseline,1,Q1FrontUp,-9.030111,59.53344,20.51121,-67.61084,-91.90836,171.9518,-22.73431,202408281349306025,
2-21,A_Baseline,1,Q1FrontUp,-8.919365,59.64157,20.35477,-67.67014,-91.85651,171.9375,-22.67863,202408281349306296,
2-21,A_Baseline,1,Q1FrontUp,-8.823941,59.75155,20.22472,-67.72456,-91.80225,171.917,-22.62168,202408281349306448,
2-21,A_Baseline,1,Q1FrontUp,-8.823941,59.75155,20.22472,-67.72456,-91.80225,171.917,-22.62168,202408281349306635,
2-21,A_Baseline,1,Q1FrontUp,-8.823941,59.75155,20.22472,-67.72456,-91.80225,171.917,-22.62168,202408281349306812,
2-21,A_Baseline,1,Q1FrontUp,-8.65503,59.91545,20.01075,-67.80888,-91.69165,171.8935,-22.50151,202408281349307045,
2-21,A_Baseline,1,Q1FrontUp,-8.65503,59.91545,20.01075,-67.80888,-91.69165,171.8935,-22.50151,202408281349307288,
2-21,A_Baseline,1,Q1FrontUp,-8.65503,59.91545,20.01075,-67.80888,-91.69165,171.8935,-22.50151,202408281349307449,
2-21,A_Baseline,1,Q1FrontUp,-8.575174,59.9836,19.91068,-67.84117,-91.63503,171.8827,-22.44795,202408281349307624,
2-21,A_Baseline,1,Q1FrontUp,-8.490121,60.03978,19.80751,-67.86629,-91.57857,171.8748,-22.40168,202408281349307796,
2-21,A_Baseline,1,Q1FrontUp,-8.490121,60.03978,19.80751,-67.86629,-91.57857,171.8748,-22.40168,202408281349307985,
2-21,A_Baseline,1,Q1FrontUp,-8.39272,60.07845,19.69199,-67.89989,-91.51394,171.8517,-22.36077,202408281349308166,
2-21,A_Baseline,1,Q1FrontUp,-8.292626,60.09687,19.57335,-67.9552,-91.419,171.8242,-22.32108,202408281349308370,
2-21,A_Baseline,1,Q1FrontUp,-8.292626,60.09687,19.57335,-67.9552,-91.419,171.8242,-22.32108,202408281349308625,
2-21,A_Baseline,1,Q1FrontUp,-8.198095,60.10528,19.46651,-68.02086,-91.31505,171.7928,-22.2829,202408281349308964,
2-21,A_Baseline,1,Q1FrontUp,-8.10425,60.11056,19.3629,-68.09897,-91.20892,171.7548,-22.24495,202408281349309283,
2-21,A_Baseline,1,Q1FrontUp,-8.019511,60.11478,19.28304,-68.18573,-91.09439,171.7085,-22.20079,202408281349309492,
2-21,A_Baseline,1,Q1FrontUp,-7.936376,60.11786,19.21014,-68.27272,-90.9775,171.6599,-22.16099,202408281349309797,
2-21,A_Baseline,1,Q1FrontUp,-7.936376,60.11786,19.21014,-68.27272,-90.9775,171.6599,-22.16099,202408281349309950,
2-21,A_Baseline,1,Q1FrontUp,-7.83623,60.12656,19.10773,-68.36687,-90.87137,171.6171,-22.11261,202408281349310194,
2-21,A_Baseline,1,Q1FrontUp,-7.732403,60.13308,19.00492,-68.48507,-90.74556,171.5829,-22.06064,202408281349310517,
2-21,A_Baseline,1,Q1FrontUp,-7.732403,60.13308,19.00492,-68.48507,-90.74556,171.5829,-22.06064,202408281349310824,
2-21,A_Baseline,1,Q1FrontUp,-7.522791,60.15659,18.81534,-68.81987,-90.47079,171.5141,-21.95212,202408281349311152,
2-21,A_Baseline,1,Q1FrontUp,-7.522791,60.15659,18.81534,-68.81987,-90.47079,171.5141,-21.95212,202408281349311521,
2-21,A_Baseline,1,Q1FrontUp,-7.312986,60.2579,18.69137,-69.14548,-90.21943,171.4201,-21.83316,202408281349311775,
2-21,A_Baseline,1,Q1FrontUp,-7.312986,60.2579,18.69137,-69.14548,-90.21943,171.4201,-21.83316,202408281349311949,
2-21,A_Baseline,1,Q1FrontUp,-7.217064,60.31303,18.63251,-69.32858,-90.10912,171.3736,-21.76424,202408281349312109,
2-21,A_Baseline,1,Q1FrontUp,-7.217064,60.31303,18.63251,-69.32858,-90.10912,171.3736,-21.76424,202408281349312285,
2-21,A_Baseline,1,Q1FrontUp,-7.120881,60.36339,18.56953,-69.55286,-89.98378,171.3189,-21.6978,202408281349312446,
2-21,A_Baseline,1,Q1FrontUp,-7.120881,60.36339,18.56953,-69.55286,-89.98378,171.3189,-21.6978,202408281349312666,
2-21,A_Baseline,1,Q1FrontUp,-7.024879,60.42078,18.50326,-69.78027,-89.8531,171.2695,-21.62992,202408281349312983,
2-21,A_Baseline,1,Q1FrontUp,-6.919414,60.48779,18.43288,-70.00886,-89.72856,171.2214,-21.55262,202408281349313145,
2-21,A_Baseline,1,Q1FrontUp,-6.919414,60.48779,18.43288,-70.00886,-89.72856,171.2214,-21.55262,202408281349313354,
2-21,A_Baseline,1,Q1FrontUp,-6.809924,60.56149,18.36407,-70.24406,-89.6196,171.1791,-21.46924,202408281349313664,
2-21,A_Baseline,1,Q1FrontUp,-6.69275,60.65839,18.30086,-70.4724,-89.50603,171.1377,-21.38324,202408281349313962,
2-21,A_Baseline,1,Q1FrontUp,-6.582218,60.78965,18.2489,-70.6625,-89.39512,171.0975,-21.30643,202408281349314121,
2-21,A_Baseline,1,Q1FrontUp,-6.582218,60.78965,18.2489,-70.6625,-89.39512,171.0975,-21.30643,202408281349314287,
2-21,A_Baseline,1,Q1FrontUp,-6.464902,60.91565,18.1826,-70.85442,-89.27296,171.0546,-21.24345,202408281349314445,
2-21,A_Baseline,1,Q1FrontUp,-6.464902,60.91565,18.1826,-70.85442,-89.27296,171.0546,-21.24345,202408281349314621,
2-21,A_Baseline,1,Q1FrontUp,-6.353524,61.04491,18.1085,-71.03345,-89.13389,171.0074,-21.1844,202408281349314859,
2-21,A_Baseline,1,Q1FrontUp,-6.239869,61.15842,18.03279,-71.21901,-88.97977,170.9535,-21.12132,202408281349315134,
2-21,A_Baseline,1,Q1FrontUp,-6.239869,61.15842,18.03279,-71.21901,-88.97977,170.9535,-21.12132,202408281349315290,
2-21,A_Baseline,1,Q1FrontUp,-6.118052,61.28057,17.95,-71.37128,-88.85439,170.9076,-21.05267,202408281349315491,
2-21,A_Baseline,1,Q1FrontUp,-5.991917,61.37853,17.8639,-71.52167,-88.72939,170.8729,-20.9861,202408281349315836,
2-21,A_Baseline,1,Q1FrontUp,-5.991917,61.37853,17.8639,-71.52167,-88.72939,170.8729,-20.9861,202408281349316003,
2-21,A_Baseline,1,Q1FrontUp,-5.855408,61.48332,17.7661,-71.651,-88.59772,170.8507,-20.91513,202408281349316294,
2-21,A_Baseline,1,Q1FrontUp,-5.731333,61.57493,17.67513,-71.76868,-88.48664,170.8326,-20.85068,202408281349316456,
2-21,A_Baseline,1,Q1FrontUp,-5.731333,61.57493,17.67513,-71.76868,-88.48664,170.8326,-20.85068,202408281349316658,
2-21,A_Baseline,1,Q1FrontUp,-5.611566,61.65582,17.57697,-71.87407,-88.38712,170.8181,-20.78339,202408281349316967,
2-21,A_Baseline,1,Q1FrontUp,-5.483592,61.74461,17.46334,-71.94073,-88.28763,170.8017,-20.70323,202408281349317162,
2-21,A_Baseline,1,Q1FrontUp,-5.35292,61.82082,17.34494,-71.97509,-88.19112,170.7866,-20.62674,202408281349317443,
2-21,A_Baseline,1,Q1FrontUp,-5.35292,61.82082,17.34494,-71.97509,-88.19112,170.7866,-20.62674,202408281349317613,
2-21,A_Baseline,1,Q1FrontUp,-5.231303,61.88563,17.24078,-72.00351,-88.09974,170.7686,-20.55602,202408281349317773,
2-21,A_Baseline,1,Q1FrontUp,-5.231303,61.88563,17.24078,-72.00351,-88.09974,170.7686,-20.55602,202408281349317938,
2-21,A_Baseline,1,Q1FrontUp,-5.105232,61.93103,17.1187,-72.02578,-87.99876,170.7446,-20.49194,202408281349318135,
2-21,A_Baseline,1,Q1FrontUp,-5.105232,61.93103,17.1187,-72.02578,-87.99876,170.7446,-20.49194,202408281349318338,
2-21,A_Baseline,1,Q1FrontUp,-4.984883,61.96668,17.00443,-72.03573,-87.90744,170.7147,-20.41134,202408281349318619,
2-21,A_Baseline,1,Q1FrontUp,-4.86711,61.99199,16.88404,-72.03704,-87.83151,170.6869,-20.33211,202408281349318954,
2-21,A_Baseline,1,Q1FrontUp,-4.745988,61.99873,16.75349,-72.03664,-87.76811,170.6723,-20.26173,202408281349319123,
2-21,A_Baseline,1,Q1FrontUp,-4.745988,61.99873,16.75349,-72.03664,-87.76811,170.6723,-20.26173,202408281349319300,
2-21,A_Baseline,1,Q1FrontUp,-4.630462,61.99961,16.63806,-72.03638,-87.7173,170.6653,-20.20286,202408281349319516,
2-21,A_Baseline,1,Q1FrontUp,-4.524912,62.00005,16.54821,-72.03564,-87.66837,170.6613,-20.14853,202408281349319786,
2-21,A_Baseline,1,Q1FrontUp,-4.524912,62.00005,16.54821,-72.03564,-87.66837,170.6613,-20.14853,202408281349320012,
2-21,A_Baseline,1,Q1FrontUp,-4.424263,61.99959,16.47677,-72.03324,-87.6372,170.659,-20.09485,202408281349320287,
2-21,A_Baseline,1,Q1FrontUp,-4.337014,61.99908,16.42828,-72.03178,-87.61111,170.6587,-20.04935,202408281349320483,
2-21,A_Baseline,1,Q1FrontUp,-4.337014,61.99908,16.42828,-72.03178,-87.61111,170.6587,-20.04935,202408281349320664,
2-21,A_Baseline,1,Q1FrontUp,-4.24458,61.99925,16.38368,-72.02654,-87.58204,170.658,-20.00173,202408281349320946,
2-21,A_Baseline,1,Q1FrontUp,-4.156077,61.99949,16.3513,-72.01141,-87.56977,170.6576,-19.95657,202408281349321122,
2-21,A_Baseline,1,Q1FrontUp,-4.156077,61.99949,16.3513,-72.01141,-87.56977,170.6576,-19.95657,202408281349321302,
2-21,A_Baseline,1,Q1FrontUp,-4.067916,61.99941,16.32814,-71.99999,-87.56139,170.6575,-19.91484,202408281349321500,
2-21,A_Baseline,1,Q1FrontUp,-3.967758,61.99889,16.3057,-71.98351,-87.55276,170.6575,-19.87982,202408281349321784,
2-21,A_Baseline,1,Q1FrontUp,-3.967758,61.99889,16.3057,-71.98351,-87.55276,170.6575,-19.87982,202408281349321952,
2-21,A_Baseline,1,Q1FrontUp,-3.816151,61.99841,16.24476,-71.9527,-87.55045,170.656,-19.85377,202408281349322127,
2-21,A_Baseline,1,Q1FrontUp,-3.816151,61.99841,16.24476,-71.9527,-87.55045,170.656,-19.85377,202408281349322291,
2-21,A_Baseline,1,Q1FrontUp,-3.663257,61.99768,16.2007,-71.9344,-87.54879,170.6558,-19.82993,202408281349322446,
2-21,A_Baseline,1,Q1FrontUp,-3.663257,61.99768,16.2007,-71.9344,-87.54879,170.6558,-19.82993,202408281349322625,
2-21,A_Baseline,1,Q1FrontUp,-3.50132,61.99815,16.17084,-71.92109,-87.54715,170.6564,-19.80799,202408281349322840,
2-21,A_Baseline,1,Q1FrontUp,-3.29644,62.00111,16.11432,-71.90899,-87.54625,170.6561,-19.78941,202408281349323116,
2-21,A_Baseline,1,Q1FrontUp,-3.29644,62.00111,16.11432,-71.90899,-87.54625,170.6561,-19.78941,202408281349323302,
2-21,A_Baseline,1,Q1FrontUp,-3.073594,62.01503,16.04167,-71.89217,-87.54601,170.656,-19.76912,202408281349323634,
2-21,A_Baseline,1,Q1FrontUp,-2.8252,62.02948,15.96625,-71.87743,-87.54569,170.6561,-19.75046,202408281349323826,
2-21,A_Baseline,1,Q1FrontUp,-2.554186,62.04763,15.87838,-71.87412,-87.54452,170.6544,-19.74022,202408281349324120,
2-21,A_Baseline,1,Q1FrontUp,-2.554186,62.04763,15.87838,-71.87412,-87.54452,170.6544,-19.74022,202408281349324286,
2-21,A_Baseline,1,Q1FrontUp,-2.260329,62.08426,15.77403,-71.86465,-87.54357,170.6533,-19.73409,202408281349324456,
2-21,A_Baseline,1,Q1FrontUp,-1.968636,62.12931,15.67901,-71.85974,-87.54345,170.6328,-19.7288,202408281349324808,
2-21,A_Baseline,1,Q1FrontUp,-1.659287,62.1929,15.59632,-71.86005,-87.54362,170.6079,-19.72427,202408281349325035,
2-21,A_Baseline,1,Q1FrontUp,-1.659287,62.1929,15.59632,-71.86005,-87.54362,170.6079,-19.72427,202408281349325308,
2-21,A_Baseline,1,Q1FrontUp,-1.356945,62.2701,15.522,-71.85935,-87.54235,170.5987,-19.71684,202408281349325462,
2-21,A_Baseline,1,Q1FrontUp,-1.356945,62.2701,15.522,-71.85935,-87.54235,170.5987,-19.71684,202408281349325649,
2-21,A_Baseline,1,Q1FrontUp,-1.06846,62.35304,15.43398,-71.86033,-87.54166,170.5902,-19.70418,202408281349325816,
2-21,A_Baseline,1,Q1FrontUp,-0.7682871,62.44228,15.32821,-71.86417,-87.54171,170.5479,-19.69013,202408281349326027,
2-21,A_Baseline,1,Q1FrontUp,-0.7682871,62.44228,15.32821,-71.86417,-87.54171,170.5479,-19.69013,202408281349326204,
2-21,A_Baseline,1,Q1FrontUp,-0.4616861,62.55166,15.22075,-71.86453,-87.54065,170.5163,-19.67494,202408281349326454,
2-21,A_Baseline,1,Q1FrontUp,-0.4616861,62.55166,15.22075,-71.86453,-87.54065,170.5163,-19.67494,202408281349326630,
2-21,A_Baseline,1,Q1FrontUp,-0.4616861,62.55166,15.22075,-71.86453,-87.54065,170.5163,-19.67494,202408281349326806,
2-21,A_Baseline,1,Q1FrontUp,0.1582372,62.77534,14.996,-71.86575,-87.5403,170.4663,-19.62674,202408281349327012,
2-21,A_Baseline,1,Q1FrontUp,0.1582372,62.77534,14.996,-71.86575,-87.5403,170.4663,-19.62674,202408281349327297,
2-21,A_Baseline,1,Q1FrontUp,0.4384488,62.89189,14.89645,-71.86581,-87.53965,170.4533,-19.59939,202408281349327459,
2-21,A_Baseline,1,Q1FrontUp,0.4384488,62.89189,14.89645,-71.86581,-87.53965,170.4533,-19.59939,202408281349327622,
2-21,A_Baseline,1,Q1FrontUp,0.7040017,63.02746,14.793,-71.86552,-87.53723,170.4404,-19.56823,202408281349327898,
2-21,A_Baseline,1,Q1FrontUp,0.9683275,63.15874,14.70592,-71.87544,-87.53613,170.4312,-19.54283,202408281349328120,
2-21,A_Baseline,1,Q1FrontUp,1.208821,63.30508,14.62815,-71.87617,-87.53511,170.4225,-19.5176,202408281349328311,
2-21,A_Baseline,1,Q1FrontUp,1.208821,63.30508,14.62815,-71.87617,-87.53511,170.4225,-19.5176,202408281349328492,
2-21,A_Baseline,1,Q1FrontUp,1.443313,63.43204,14.54765,-71.8793,-87.53501,170.4069,-19.49546,202408281349328791,
2-21,A_Baseline,1,Q1FrontUp,1.443313,63.43204,14.54765,-71.8793,-87.53501,170.4069,-19.49546,202408281349328971,
2-21,A_Baseline,1,Q1FrontUp,1.658583,63.56782,14.48421,-71.88161,-87.53526,170.3857,-19.46875,202408281349329157,
2-21,A_Baseline,1,Q1FrontUp,1.658583,63.56782,14.48421,-71.88161,-87.53526,170.3857,-19.46875,202408281349329328,
2-21,A_Baseline,1,Q1FrontUp,1.86072,63.69373,14.41399,-71.89182,-87.53516,170.3678,-19.44082,202408281349329615,
2-21,A_Baseline,1,Q1FrontUp,2.043163,63.82151,14.3379,-71.89423,-87.53494,170.3539,-19.41302,202408281349329777,
2-21,A_Baseline,1,Q1FrontUp,2.22261,63.93484,14.27025,-71.90735,-87.53496,170.3432,-19.38605,202408281349330123,
2-21,A_Baseline,1,Q1FrontUp,2.22261,63.93484,14.27025,-71.90735,-87.53496,170.3432,-19.38605,202408281349330345,
2-21,A_Baseline,1,Q1FrontUp,2.377814,64.04803,14.21702,-71.91225,-87.53475,170.3324,-19.3539,202408281349330626,
2-21,A_Baseline,1,Q1FrontUp,2.528983,64.14175,14.17248,-71.92021,-87.53391,170.3218,-19.32221,202408281349330800,
2-21,A_Baseline,1,Q1FrontUp,2.528983,64.14175,14.17248,-71.92021,-87.53391,170.3218,-19.32221,202408281349331021,
2-21,A_Baseline,1,Q1FrontUp,2.815999,64.29755,14.0559,-71.92589,-87.52245,170.2733,-19.26768,202408281349331337,
2-21,A_Baseline,1,Q1FrontUp,2.815999,64.29755,14.0559,-71.92589,-87.52245,170.2733,-19.26768,202408281349331616,
2-21,A_Baseline,1,Q1FrontUp,2.955854,64.35667,14.00338,-71.92599,-87.51969,170.2467,-19.24133,202408281349331790,
2-21,A_Baseline,1,Q1FrontUp,2.955854,64.35667,14.00338,-71.92599,-87.51969,170.2467,-19.24133,202408281349331968,
2-21,A_Baseline,1,Q1FrontUp,3.079467,64.4136,13.96433,-71.92482,-87.51951,170.222,-19.21074,202408281349332165,
2-21,A_Baseline,1,Q1FrontUp,3.190336,64.46526,13.93067,-71.92372,-87.51942,170.1909,-19.18164,202408281349332356,
2-21,A_Baseline,1,Q1FrontUp,3.190336,64.46526,13.93067,-71.92372,-87.51942,170.1909,-19.18164,202408281349332565,
2-21,A_Baseline,1,Q1FrontUp,3.190336,64.46526,13.93067,-71.92372,-87.51942,170.1909,-19.18164,202408281349332813,
2-21,A_Baseline,1,Q1FrontUp,3.289577,64.51503,13.89054,-71.92403,-87.51918,170.1554,-19.15252,202408281349332978,
2-21,A_Baseline,1,Q1FrontUp,3.380436,64.55528,13.8473,-71.924,-87.51921,170.1183,-19.12407,202408281349333326,
2-21,A_Baseline,1,Q1FrontUp,3.466289,64.5924,13.79687,-71.9243,-87.51897,170.0818,-19.09961,202408281349333516,
2-21,A_Baseline,1,Q1FrontUp,3.547063,64.61976,13.74127,-71.92406,-87.51886,170.0513,-19.07709,202408281349333804,
2-21,A_Baseline,1,Q1FrontUp,3.547063,64.61976,13.74127,-71.92406,-87.51886,170.0513,-19.07709,202408281349333973,
2-21,A_Baseline,1,Q1FrontUp,3.638116,64.6387,13.66011,-71.92393,-87.51893,170.026,-19.05528,202408281349334182,
2-21,A_Baseline,1,Q1FrontUp,3.709292,64.65033,13.5946,-71.92416,-87.51888,170.0042,-19.03971,202408281349334483,
2-21,A_Baseline,1,Q1FrontUp,3.709292,64.65033,13.5946,-71.92416,-87.51888,170.0042,-19.03971,202408281349334669,
2-21,A_Baseline,1,Q1FrontUp,3.768722,64.65824,13.54163,-71.92408,-87.51904,169.985,-19.0234,202408281349334963,
2-21,A_Baseline,1,Q1FrontUp,3.816293,64.66297,13.49254,-71.92286,-87.51878,169.964,-19.00401,202408281349335317,
2-21,A_Baseline,1,Q1FrontUp,3.850858,64.66697,13.45047,-71.91758,-87.51891,169.9409,-18.9885,202408281349335459,
2-21,A_Baseline,1,Q1FrontUp,3.876873,64.6694,13.41285,-71.90836,-87.51881,169.9236,-18.97418,202408281349335677,
2-21,A_Baseline,1,Q1FrontUp,3.876873,64.6694,13.41285,-71.90836,-87.51881,169.9236,-18.97418,202408281349335846,
2-21,A_Baseline,1,Q1FrontUp,3.889503,64.66942,13.37687,-71.89783,-87.51886,169.9094,-18.9616,202408281349336129,
2-21,A_Baseline,1,Q1FrontUp,3.889503,64.66942,13.37687,-71.89783,-87.51886,169.9094,-18.9616,202408281349336303,
2-21,A_Baseline,1,Q1FrontUp,3.892801,64.66925,13.34619,-71.88304,-87.51883,169.901,-18.95235,202408281349336462,
2-21,A_Baseline,1,Q1FrontUp,3.892801,64.66925,13.34619,-71.88304,-87.51883,169.901,-18.95235,202408281349336627,
2-21,A_Baseline,1,Q1FrontUp,3.893445,64.66973,13.31726,-71.86766,-87.51881,169.895,-18.94713,202408281349336808,
2-21,A_Baseline,1,Q1FrontUp,3.899777,64.67005,13.26702,-71.84145,-87.519,169.8868,-18.94595,202408281349337015,
2-21,A_Baseline,1,Q1FrontUp,3.899777,64.67005,13.26702,-71.84145,-87.519,169.8868,-18.94595,202408281349337302,
2-21,A_Baseline,1,Q1FrontUp,3.904528,64.66897,13.21419,-71.81667,-87.51871,169.8798,-18.94501,202408281349337525,
2-21,A_Baseline,1,Q1FrontUp,3.909211,64.66893,13.16222,-71.79196,-87.51879,169.8761,-18.94462,202408281349337818,
2-21,A_Baseline,1,Q1FrontUp,3.909211,64.66893,13.16222,-71.79196,-87.51879,169.8761,-18.94462,202408281349337993,
2-21,A_Baseline,1,Q1FrontUp,3.909211,64.66893,13.16222,-71.79196,-87.51879,169.8761,-18.94462,202408281349338193,
2-21,A_Baseline,1,Q1FrontUp,3.934078,64.67007,13.01245,-71.72673,-87.51881,169.8741,-18.94021,202408281349338479,
2-21,A_Baseline,1,Q1FrontUp,3.956001,64.67033,12.91901,-71.68121,-87.51879,169.8731,-18.93134,202408281349338813,
2-21,A_Baseline,1,Q1FrontUp,3.967797,64.67058,12.82849,-71.62717,-87.51891,169.8714,-18.92873,202408281349339024,
2-21,A_Baseline,1,Q1FrontUp,3.967797,64.67058,12.82849,-71.62717,-87.51891,169.8714,-18.92873,202408281349339301,
2-21,A_Baseline,1,Q1FrontUp,3.967797,64.67058,12.82849,-71.62717,-87.51891,169.8714,-18.92873,202408281349339468,
2-21,A_Baseline,1,Q1FrontUp,3.970011,64.67017,12.74998,-71.56966,-87.51861,169.8702,-18.92714,202408281349339627,
2-21,A_Baseline,1,Q1FrontUp,3.970201,64.66949,12.67595,-71.51475,-87.51864,169.8702,-18.92562,202408281349339801,
2-21,A_Baseline,1,Q1FrontUp,3.970201,64.66949,12.67595,-71.51475,-87.51864,169.8702,-18.92562,202408281349339955,
2-21,A_Baseline,1,Q1FrontUp,3.970221,64.6682,12.58973,-71.46005,-87.51862,169.8683,-18.9244,202408281349340153,
2-21,A_Baseline,1,Q1FrontUp,3.970221,64.6682,12.58973,-71.46005,-87.51862,169.8683,-18.9244,202408281349340363,
2-21,A_Baseline,1,Q1FrontUp,3.97056,64.65828,12.49122,-71.4287,-87.51854,169.8674,-18.92398,202408281349340527,
2-21,A_Baseline,1,Q1FrontUp,3.97056,64.65828,12.49122,-71.4287,-87.51854,169.8674,-18.92398,202408281349340798,
2-21,A_Baseline,1,Q1FrontUp,3.970033,64.64426,12.36339,-71.42239,-87.51857,169.8674,-18.92278,202408281349340980,
2-21,A_Baseline,1,Q1FrontUp,3.971114,64.61292,12.1911,-71.43714,-87.51864,169.8668,-18.92181,202408281349341148,
2-21,A_Baseline,1,Q1FrontUp,3.972455,64.57394,11.98185,-71.47381,-87.5182,169.8663,-18.92022,202408281349341358,
2-21,A_Baseline,1,Q1FrontUp,3.965256,64.54121,11.75179,-71.51784,-87.5181,169.8431,-18.91957,202408281349341637,
2-21,A_Baseline,1,Q1FrontUp,3.965256,64.54121,11.75179,-71.51784,-87.5181,169.8431,-18.91957,202408281349341960,
2-21,A_Baseline,1,Q1FrontUp,3.953253,64.51942,11.50517,-71.54782,-87.51826,169.8282,-18.91902,202408281349342202,
2-21,A_Baseline,1,Q1FrontUp,3.953253,64.51942,11.50517,-71.54782,-87.51826,169.8282,-18.91902,202408281349342370,
2-21,A_Baseline,1,Q1FrontUp,3.940056,64.49675,11.23775,-71.59523,-87.51765,169.8116,-18.91815,202408281349342635,
2-21,A_Baseline,1,Q1FrontUp,3.925317,64.47625,10.96627,-71.65598,-87.51676,169.7773,-18.9168,202408281349342826,
2-21,A_Baseline,1,Q1FrontUp,3.925317,64.47625,10.96627,-71.65598,-87.51676,169.7773,-18.9168,202408281349342993,
2-21,A_Baseline,1,Q1FrontUp,3.905182,64.4327,10.67372,-71.76212,-87.51678,169.7352,-18.91506,202408281349343310,
2-21,A_Baseline,1,Q1FrontUp,3.866149,64.37605,10.39793,-71.89789,-87.51651,169.6794,-18.91266,202408281349343525,
2-21,A_Baseline,1,Q1FrontUp,3.866149,64.37605,10.39793,-71.89789,-87.51651,169.6794,-18.91266,202408281349343680,
2-21,A_Baseline,1,Q1FrontUp,3.81191,64.31933,10.12508,-72.03615,-87.51638,169.6027,-18.90162,202408281349343952,
2-21,A_Baseline,1,Q1FrontUp,3.81191,64.31933,10.12508,-72.03615,-87.51638,169.6027,-18.90162,202408281349344125,
2-21,A_Baseline,1,Q1FrontUp,3.744197,64.23727,9.842041,-72.19329,-87.51653,169.5135,-18.8945,202408281349344291,
2-21,A_Baseline,1,Q1FrontUp,3.65174,64.12106,9.561324,-72.39051,-87.51635,169.3861,-18.88902,202408281349344471,
2-21,A_Baseline,1,Q1FrontUp,3.65174,64.12106,9.561324,-72.39051,-87.51635,169.3861,-18.88902,202408281349344702,
2-21,A_Baseline,1,Q1FrontUp,3.554918,64.00696,9.27838,-72.59778,-87.5163,169.2463,-18.88051,202408281349344955,
2-21,A_Baseline,1,Q1FrontUp,3.453687,63.86383,8.983549,-72.81329,-87.51658,169.0431,-18.87747,202408281349345149,
2-21,A_Baseline,1,Q1FrontUp,3.453687,63.86383,8.983549,-72.81329,-87.51658,169.0431,-18.87747,202408281349345364,
2-21,A_Baseline,1,Q1FrontUp,3.167371,63.62941,8.43007,-73.20406,-87.51639,168.661,-18.87416,202408281349345685,
2-21,A_Baseline,1,Q1FrontUp,3.167371,63.62941,8.43007,-73.20406,-87.51639,168.661,-18.87416,202408281349345963,
2-21,A_Baseline,1,Q1FrontUp,3.008158,63.51221,8.127851,-73.41425,-87.51637,168.3579,-18.87425,202408281349346153,
2-21,A_Baseline,1,Q1FrontUp,3.008158,63.51221,8.127851,-73.41425,-87.51637,168.3579,-18.87425,202408281349346317,
2-21,A_Baseline,1,Q1FrontUp,2.85848,63.41054,7.827454,-73.59064,-87.5163,168.0489,-18.87461,202408281349346638,
2-21,A_Baseline,1,Q1FrontUp,2.715561,63.31185,7.541726,-73.75695,-87.51649,167.7407,-18.87431,202408281349346836,
2-21,A_Baseline,1,Q1FrontUp,2.540157,63.20387,7.279264,-73.93546,-87.51624,167.4429,-18.87458,202408281349347113,
2-21,A_Baseline,1,Q1FrontUp,2.540157,63.20387,7.279264,-73.93546,-87.51624,167.4429,-18.87458,202408281349347284,
2-21,A_Baseline,1,Q1FrontUp,2.360078,63.08411,7.016143,-74.11978,-87.51635,167.1573,-18.87449,202408281349347457,
2-21,A_Baseline,1,Q1FrontUp,2.199867,63.0078,6.770432,-74.26279,-87.51634,166.8915,-18.87474,202408281349347665,
2-21,A_Baseline,1,Q1FrontUp,2.199867,63.0078,6.770432,-74.26279,-87.51634,166.8915,-18.87474,202408281349347855,
2-21,A_Baseline,1,Q1FrontUp,2.031244,62.90987,6.533666,-74.40968,-87.51603,166.5846,-18.8746,202408281349348179,
2-21,A_Baseline,1,Q1FrontUp,1.875911,62.80783,6.304937,-74.57506,-87.51604,166.3154,-18.87492,202408281349348464,
2-21,A_Baseline,1,Q1FrontUp,1.875911,62.80783,6.304937,-74.57506,-87.51604,166.3154,-18.87492,202408281349348685,
2-21,A_Baseline,1,Q1FrontUp,1.723027,62.70959,6.097541,-74.73447,-87.51594,166.0671,-18.87468,202408281349348868,
2-21,A_Baseline,1,Q1FrontUp,1.577162,62.62156,5.921639,-74.87543,-87.51586,165.8274,-18.87517,202408281349349163,
2-21,A_Baseline,1,Q1FrontUp,1.436208,62.54977,5.757467,-74.99435,-87.51604,165.582,-18.87468,202408281349349460,
2-21,A_Baseline,1,Q1FrontUp,1.309592,62.47721,5.596835,-75.08113,-87.51602,165.3692,-18.87504,202408281349349792,
2-21,A_Baseline,1,Q1FrontUp,1.309592,62.47721,5.596835,-75.08113,-87.51602,165.3692,-18.87504,202408281349350001,
2-21,A_Baseline,1,Q1FrontUp,1.2103,62.4258,5.437613,-75.13012,-87.51585,165.1935,-18.87513,202408281349350179,
2-21,A_Baseline,1,Q1FrontUp,1.111111,62.37888,5.295248,-75.17839,-87.51611,165.0259,-18.87503,202408281349350446,
2-21,A_Baseline,1,Q1FrontUp,1.111111,62.37888,5.295248,-75.17839,-87.51611,165.0259,-18.87503,202408281349350644,
2-21,A_Baseline,1,Q1FrontUp,1.013985,62.33816,5.176228,-75.22478,-87.51569,164.867,-18.8754,202408281349350981,
2-21,A_Baseline,1,Q1FrontUp,0.9213991,62.30641,5.062992,-75.26102,-87.51589,164.6958,-18.87578,202408281349351179,
2-21,A_Baseline,1,Q1FrontUp,0.8446605,62.2874,4.95723,-75.28064,-87.51572,164.5338,-18.87505,202408281349351471,
2-21,A_Baseline,1,Q1FrontUp,0.8446605,62.2874,4.95723,-75.28064,-87.51572,164.5338,-18.87505,202408281349351634,
2-21,A_Baseline,1,Q1FrontUp,0.7854121,62.28098,4.849407,-75.28634,-87.5155,164.3987,-18.87511,202408281349351843,
2-21,A_Baseline,1,Q1FrontUp,0.7358373,62.2826,4.73581,-75.29132,-87.51566,164.261,-18.87522,202408281349352134,
2-21,A_Baseline,1,Q1FrontUp,0.7358373,62.2826,4.73581,-75.29132,-87.51566,164.261,-18.87522,202408281349352345,
2-21,A_Baseline,1,Q1FrontUp,0.7002106,62.28375,4.646506,-75.30151,-87.51569,164.149,-18.87509,202408281349352633,
2-21,A_Baseline,1,Q1FrontUp,0.6663768,62.28346,4.580868,-75.31055,-87.51566,164.0572,-18.87509,202408281349352971,
2-21,A_Baseline,1,Q1FrontUp,0.6393586,62.28247,4.522376,-75.31573,-87.51572,163.9706,-18.87543,202408281349353117,
2-21,A_Baseline,1,Q1FrontUp,0.6393586,62.28247,4.522376,-75.31573,-87.51572,163.9706,-18.87543,202408281349353330,
2-21,A_Baseline,1,Q1FrontUp,0.6299037,62.28252,4.478959,-75.31648,-87.51579,163.9012,-18.87551,202408281349353524,
2-21,A_Baseline,1,Q1FrontUp,0.6295393,62.28329,4.452998,-75.31622,-87.51643,163.8431,-18.87527,202408281349353805,
2-21,A_Baseline,1,Q1FrontUp,0.6295393,62.28329,4.452998,-75.31622,-87.51643,163.8431,-18.87527,202408281349353981,
2-21,A_Baseline,1,Q1FrontUp,0.6317395,62.28312,4.454514,-75.313,-87.51665,163.788,-18.87513,202408281349354284,
2-21,A_Baseline,1,Q1FrontUp,0.6423851,62.28339,4.462107,-75.30472,-87.51717,163.7552,-18.87517,202408281349354451,
2-21,A_Baseline,1,Q1FrontUp,0.6423851,62.28339,4.462107,-75.30472,-87.51717,163.7552,-18.87517,202408281349354689,
2-21,A_Baseline,1,Q1FrontUp,0.6579648,62.28389,4.480487,-75.28304,-87.51763,163.7345,-18.87525,202408281349354958,
2-21,A_Baseline,1,Q1FrontUp,0.6838306,62.28392,4.504842,-75.24812,-87.5186,163.7288,-18.87569,202408281349355199,
2-21,A_Baseline,1,Q1FrontUp,0.7208151,62.28431,4.528749,-75.1975,-87.52763,163.7238,-18.87563,202408281349355509,
2-21,A_Baseline,1,Q1FrontUp,0.7678774,62.28451,4.555919,-75.13035,-87.54082,163.7209,-18.87577,202408281349355706,
2-21,A_Baseline,1,Q1FrontUp,0.7678774,62.28451,4.555919,-75.13035,-87.54082,163.7209,-18.87577,202408281349355974,
2-21,A_Baseline,1,Q1FrontUp,0.8272417,62.28394,4.582598,-75.05225,-87.54345,163.7195,-18.87545,202408281349356137,
2-21,A_Baseline,1,Q1FrontUp,0.8846506,62.28304,4.617416,-74.97318,-87.54426,163.7189,-18.87559,202408281349356451,
2-21,A_Baseline,1,Q1FrontUp,0.9451684,62.28259,4.650297,-74.90101,-87.54578,163.7188,-18.87577,202408281349356703,
2-21,A_Baseline,1,Q1FrontUp,0.9451684,62.28259,4.650297,-74.90101,-87.54578,163.7188,-18.87577,202408281349356958,
2-21,A_Baseline,1,Q1FrontUp,1.013624,62.28312,4.687522,-74.81991,-87.54899,163.7184,-18.87527,202408281349357123,
