mpan31415/robot-x-ar/study2/data/raw_all_participants/Participant_2-15_1.csv
ParticipantID,Condition,Trial,PostureID,J1,J2,J3,J4,J5,J6,J7,Timestamp,
2-15,A_Baseline,1,Q3FrontUp,-54.76619,35.37406,84.85155,-55.67722,-143.8673,134.5943,-57.54964,202408221539203935,
2-15,A_Baseline,1,Q3FrontUp,-54.76612,35.37384,84.85165,-55.67738,-143.8671,134.5946,-57.54931,202408221539204382,
2-15,A_Baseline,1,Q3FrontUp,-54.70572,35.37518,84.80276,-55.6279,-143.8672,134.5948,-57.55034,202408221539204682,
2-15,A_Baseline,1,Q3FrontUp,-54.70572,35.37518,84.80276,-55.6279,-143.8672,134.5948,-57.55034,202408221539205011,
2-15,A_Baseline,1,Q3FrontUp,-54.62089,35.37587,84.77062,-55.57389,-143.8672,134.5942,-57.55471,202408221539205346,
2-15,A_Baseline,1,Q3FrontUp,-54.62089,35.37587,84.77062,-55.57389,-143.8672,134.5942,-57.55471,202408221539205706,
2-15,A_Baseline,1,Q3FrontUp,-54.54668,35.38083,84.76254,-55.5767,-143.8674,134.5947,-57.56453,202408221539206026,
2-15,A_Baseline,1,Q3FrontUp,-54.54668,35.38083,84.76254,-55.5767,-143.8674,134.5947,-57.56453,202408221539206314,
2-15,A_Baseline,1,Q3FrontUp,-54.51002,35.38155,84.75052,-55.57515,-143.8673,134.5946,-57.56932,202408221539206616,
2-15,A_Baseline,1,Q3FrontUp,-54.47704,35.38223,84.74434,-55.5753,-143.8674,134.5945,-57.57087,202408221539206825,
2-15,A_Baseline,1,Q3FrontUp,-54.44683,35.38336,84.73907,-55.57627,-143.8674,134.5946,-57.57209,202408221539207117,
2-15,A_Baseline,1,Q3FrontUp,-54.44683,35.38336,84.73907,-55.57627,-143.8674,134.5946,-57.57209,202408221539207311,
2-15,A_Baseline,1,Q3FrontUp,-54.42525,35.384,84.73891,-55.57607,-143.8674,134.5946,-57.57174,202408221539207586,
2-15,A_Baseline,1,Q3FrontUp,-54.40461,35.38442,84.73741,-55.57581,-143.8674,134.5946,-57.57218,202408221539207753,
2-15,A_Baseline,1,Q3FrontUp,-54.40461,35.38442,84.73741,-55.57581,-143.8674,134.5946,-57.57218,202408221539207917,
2-15,A_Baseline,1,Q3FrontUp,-54.38721,35.38474,84.7362,-55.57623,-143.8672,134.5947,-57.57261,202408221539208136,
2-15,A_Baseline,1,Q3FrontUp,-54.38721,35.38474,84.7362,-55.57623,-143.8672,134.5947,-57.57261,202408221539208319,
2-15,A_Baseline,1,Q3FrontUp,-54.3763,35.38429,84.73622,-55.57539,-143.8673,134.5945,-57.57278,202408221539208593,
2-15,A_Baseline,1,Q3FrontUp,-54.36859,35.38408,84.7362,-55.57505,-143.8674,134.5947,-57.5727,202408221539208778,
2-15,A_Baseline,1,Q3FrontUp,-54.36859,35.38408,84.7362,-55.57505,-143.8674,134.5947,-57.5727,202408221539208967,
2-15,A_Baseline,1,Q3FrontUp,-54.36085,35.38456,84.73491,-55.57487,-143.8672,134.5946,-57.57261,202408221539209197,
2-15,A_Baseline,1,Q3FrontUp,-54.35405,35.3847,84.72758,-55.57507,-143.8672,134.5946,-57.57307,202408221539209455,
2-15,A_Baseline,1,Q3FrontUp,-54.34868,35.38493,84.72264,-55.5751,-143.8671,134.5947,-57.57268,202408221539209780,
2-15,A_Baseline,1,Q3FrontUp,-54.34868,35.38493,84.72264,-55.5751,-143.8671,134.5947,-57.57268,202408221539209989,
2-15,A_Baseline,1,Q3FrontUp,-54.34314,35.3852,84.71815,-55.57556,-143.8673,134.5947,-57.57242,202408221539210175,
2-15,A_Baseline,1,Q3FrontUp,-54.33824,35.38586,84.71589,-55.57553,-143.8672,134.5945,-57.57265,202408221539210437,
2-15,A_Baseline,1,Q3FrontUp,-54.33824,35.38586,84.71589,-55.57553,-143.8672,134.5945,-57.57265,202408221539210594,
2-15,A_Baseline,1,Q3FrontUp,-54.3339,35.38586,84.71382,-55.57504,-143.8674,134.5947,-57.57264,202408221539210771,
2-15,A_Baseline,1,Q3FrontUp,-54.3339,35.38586,84.71382,-55.57504,-143.8674,134.5947,-57.57264,202408221539210950,
2-15,A_Baseline,1,Q3FrontUp,-54.32981,35.38575,84.71344,-55.57521,-143.8673,134.5946,-57.57265,202408221539211108,
2-15,A_Baseline,1,Q3FrontUp,-54.32981,35.38575,84.71344,-55.57521,-143.8673,134.5946,-57.57265,202408221539211337,
2-15,A_Baseline,1,Q3FrontUp,-54.32613,35.38584,84.7133,-55.57536,-143.8672,134.5945,-57.57294,202408221539211618,
2-15,A_Baseline,1,Q3FrontUp,-54.32613,35.38584,84.7133,-55.57536,-143.8672,134.5945,-57.57294,202408221539211773,
2-15,A_Baseline,1,Q3FrontUp,-54.31654,35.38589,84.7084,-55.5753,-143.8672,134.5947,-57.57319,202408221539212114,
2-15,A_Baseline,1,Q3FrontUp,-54.31654,35.38589,84.7084,-55.5753,-143.8672,134.5947,-57.57319,202408221539212338,
2-15,A_Baseline,1,Q3FrontUp,-54.31176,35.38626,84.70598,-55.5753,-143.8672,134.5946,-57.573,202408221539212603,
2-15,A_Baseline,1,Q3FrontUp,-54.30717,35.38746,84.70503,-55.5755,-143.8674,134.5946,-57.57315,202408221539212956,
2-15,A_Baseline,1,Q3FrontUp,-54.2998,35.3909,84.70264,-55.57454,-143.8673,134.5943,-57.57391,202408221539213211,
2-15,A_Baseline,1,Q3FrontUp,-54.28582,35.39788,84.69656,-55.57457,-143.8672,134.5945,-57.57589,202408221539213500,
2-15,A_Baseline,1,Q3FrontUp,-54.28582,35.39788,84.69656,-55.57457,-143.8672,134.5945,-57.57589,202408221539213814,
2-15,A_Baseline,1,Q3FrontUp,-54.25702,35.41164,84.68732,-55.57468,-143.8674,134.5945,-57.57779,202408221539214119,
2-15,A_Baseline,1,Q3FrontUp,-54.25702,35.41164,84.68732,-55.57468,-143.8674,134.5945,-57.57779,202408221539214290,
2-15,A_Baseline,1,Q3FrontUp,-54.23899,35.4217,84.68591,-55.57457,-143.8671,134.5944,-57.58001,202408221539214474,
2-15,A_Baseline,1,Q3FrontUp,-54.21022,35.42645,84.66198,-55.5674,-143.8672,134.5946,-57.58162,202408221539214756,
2-15,A_Baseline,1,Q3FrontUp,-54.21022,35.42645,84.66198,-55.5674,-143.8672,134.5946,-57.58162,202408221539214953,
2-15,A_Baseline,1,Q3FrontUp,-54.17216,35.4281,84.62553,-55.54909,-143.8668,134.5952,-57.58174,202408221539215262,
2-15,A_Baseline,1,Q3FrontUp,-54.1265,35.42772,84.58556,-55.51487,-143.8667,134.595,-57.58207,202408221539215457,
2-15,A_Baseline,1,Q3FrontUp,-54.08275,35.42695,84.54011,-55.48554,-143.8667,134.5952,-57.58205,202408221539215702,
2-15,A_Baseline,1,Q3FrontUp,-54.08275,35.42695,84.54011,-55.48554,-143.8667,134.5952,-57.58205,202408221539215934,
2-15,A_Baseline,1,Q3FrontUp,-54.0401,35.42645,84.49141,-55.46112,-143.8664,134.5953,-57.582,202408221539216118,
2-15,A_Baseline,1,Q3FrontUp,-54.0401,35.42645,84.49141,-55.46112,-143.8664,134.5953,-57.582,202408221539216359,
2-15,A_Baseline,1,Q3FrontUp,-54.0013,35.42688,84.44086,-55.44202,-143.8664,134.5954,-57.58205,202408221539216611,
2-15,A_Baseline,1,Q3FrontUp,-53.98006,35.42657,84.40384,-55.43295,-143.8662,134.5955,-57.58248,202408221539216867,
2-15,A_Baseline,1,Q3FrontUp,-53.96416,35.42739,84.36755,-55.4316,-143.8658,134.5956,-57.58231,202408221539217103,
2-15,A_Baseline,1,Q3FrontUp,-53.94912,35.42778,84.3252,-55.43206,-143.8661,134.5954,-57.58247,202408221539217422,
2-15,A_Baseline,1,Q3FrontUp,-53.94912,35.42778,84.3252,-55.43206,-143.8661,134.5954,-57.58247,202408221539217591,
2-15,A_Baseline,1,Q3FrontUp,-53.93847,35.42719,84.27695,-55.43254,-143.866,134.5956,-57.58291,202408221539217780,
2-15,A_Baseline,1,Q3FrontUp,-53.93847,35.42719,84.27695,-55.43254,-143.866,134.5956,-57.58291,202408221539217996,
2-15,A_Baseline,1,Q3FrontUp,-53.93381,35.427,84.23206,-55.43176,-143.8659,134.5958,-57.58295,202408221539218292,
2-15,A_Baseline,1,Q3FrontUp,-53.93272,35.42719,84.18751,-55.43154,-143.8658,134.596,-57.58246,202408221539218635,
2-15,A_Baseline,1,Q3FrontUp,-53.93327,35.42785,84.14492,-55.4316,-143.866,134.5961,-57.58298,202408221539219035,
2-15,A_Baseline,1,Q3FrontUp,-53.93327,35.42785,84.14492,-55.4316,-143.866,134.5961,-57.58298,202408221539219265,
2-15,A_Baseline,1,Q3FrontUp,-53.93349,35.42957,84.07828,-55.43205,-143.8659,134.5962,-57.58262,202408221539219439,
2-15,A_Baseline,1,Q3FrontUp,-53.93349,35.42957,84.07828,-55.43205,-143.8659,134.5962,-57.58262,202408221539219650,
2-15,A_Baseline,1,Q3FrontUp,-53.93323,35.42941,84.05361,-55.43275,-143.866,134.5963,-57.58246,202408221539219950,
2-15,A_Baseline,1,Q3FrontUp,-53.93333,35.42952,84.03693,-55.43279,-143.8657,134.5961,-57.58274,202408221539220194,
2-15,A_Baseline,1,Q3FrontUp,-53.93313,35.42905,84.02792,-55.43256,-143.8659,134.5963,-57.58373,202408221539220523,
2-15,A_Baseline,1,Q3FrontUp,-53.93345,35.42886,84.02146,-55.43264,-143.8652,134.5968,-57.58428,202408221539220702,
2-15,A_Baseline,1,Q3FrontUp,-53.93345,35.42886,84.02146,-55.43264,-143.8652,134.5968,-57.58428,202408221539220936,
2-15,A_Baseline,1,Q3FrontUp,-53.9335,35.42886,84.01787,-55.43335,-143.8651,134.5975,-57.58485,202408221539221192,
2-15,A_Baseline,1,Q3FrontUp,-53.93295,35.42886,84.0157,-55.43511,-143.8649,134.5982,-57.58534,202408221539221353,
2-15,A_Baseline,1,Q3FrontUp,-53.93295,35.42886,84.0157,-55.43511,-143.8649,134.5982,-57.58534,202408221539221655,
2-15,A_Baseline,1,Q3FrontUp,-53.9334,35.42916,84.01437,-55.43844,-143.8647,134.5998,-57.58664,202408221539221951,
2-15,A_Baseline,1,Q3FrontUp,-53.93328,35.42916,84.01278,-55.44114,-143.8645,134.6042,-57.5889,202408221539222108,
2-15,A_Baseline,1,Q3FrontUp,-53.93328,35.42916,84.01278,-55.44114,-143.8645,134.6042,-57.5889,202408221539222282,
2-15,A_Baseline,1,Q3FrontUp,-53.93338,35.42905,84.01251,-55.44354,-143.8632,134.6144,-57.59037,202408221539222536,
2-15,A_Baseline,1,Q3FrontUp,-53.93332,35.42838,84.01254,-55.44428,-143.8631,134.6204,-57.59067,202408221539222777,
2-15,A_Baseline,1,Q3FrontUp,-53.93332,35.42838,84.01254,-55.44428,-143.8631,134.6204,-57.59067,202408221539222944,
2-15,A_Baseline,1,Q3FrontUp,-53.93338,35.42864,84.01252,-55.44414,-143.8614,134.6323,-57.59145,202408221539223113,
2-15,A_Baseline,1,Q3FrontUp,-53.93338,35.42864,84.01252,-55.44414,-143.8614,134.6323,-57.59145,202408221539223281,
2-15,A_Baseline,1,Q3FrontUp,-53.93379,35.42874,84.01233,-55.44413,-143.8568,134.6569,-57.59203,202408221539223462,
2-15,A_Baseline,1,Q3FrontUp,-53.93379,35.42874,84.01233,-55.44413,-143.8568,134.6569,-57.59203,202408221539223674,
2-15,A_Baseline,1,Q3FrontUp,-53.93359,35.42874,84.01256,-55.44427,-143.8556,134.6717,-57.59208,202408221539223976,
2-15,A_Baseline,1,Q3FrontUp,-53.93422,35.42878,84.0128,-55.44586,-143.8549,134.6905,-57.592,202408221539224158,
2-15,A_Baseline,1,Q3FrontUp,-53.93422,35.42878,84.0128,-55.44586,-143.8549,134.6905,-57.592,202408221539224316,
2-15,A_Baseline,1,Q3FrontUp,-53.93487,35.42901,84.01317,-55.45337,-143.8543,134.7174,-57.59193,202408221539224630,
2-15,A_Baseline,1,Q3FrontUp,-53.94158,35.42931,84.02132,-55.46643,-143.8534,134.7476,-57.59186,202408221539224836,
2-15,A_Baseline,1,Q3FrontUp,-53.95087,35.42952,84.0313,-55.48248,-143.8526,134.7813,-57.59216,202408221539225121,
2-15,A_Baseline,1,Q3FrontUp,-53.95087,35.42952,84.0313,-55.48248,-143.8526,134.7813,-57.59216,202408221539225285,
2-15,A_Baseline,1,Q3FrontUp,-53.96241,35.4305,84.05242,-55.49949,-143.8505,134.8219,-57.59179,202408221539225592,
2-15,A_Baseline,1,Q3FrontUp,-53.98772,35.43724,84.09261,-55.53106,-143.8443,134.8678,-57.59227,202408221539225781,
2-15,A_Baseline,1,Q3FrontUp,-53.98772,35.43724,84.09261,-55.53106,-143.8443,134.8678,-57.59227,202408221539226028,
2-15,A_Baseline,1,Q3FrontUp,-54.01828,35.44345,84.13474,-55.56911,-143.836,134.9168,-57.59198,202408221539226343,
2-15,A_Baseline,1,Q3FrontUp,-54.05272,35.45138,84.18517,-55.61996,-143.8268,134.928,-57.59188,202408221539226632,
2-15,A_Baseline,1,Q3FrontUp,-54.09202,35.45692,84.24203,-55.67191,-143.8223,134.939,-57.59207,202408221539226834,
2-15,A_Baseline,1,Q3FrontUp,-54.09202,35.45692,84.24203,-55.67191,-143.8223,134.939,-57.59207,202408221539227012,
2-15,A_Baseline,1,Q3FrontUp,-54.14315,35.46668,84.30329,-55.72709,-143.8186,135.0618,-57.59192,202408221539227303,
2-15,A_Baseline,1,Q3FrontUp,-54.20344,35.4861,84.39681,-55.80717,-143.8124,135.1564,-57.59168,202408221539227567,
2-15,A_Baseline,1,Q3FrontUp,-54.20344,35.4861,84.39681,-55.80717,-143.8124,135.1564,-57.59168,202408221539227790,
2-15,A_Baseline,1,Q3FrontUp,-54.25784,35.50436,84.48196,-55.88794,-143.8026,135.246,-57.59202,202408221539227966,
2-15,A_Baseline,1,Q3FrontUp,-54.31845,35.52102,84.57072,-55.97314,-143.7916,135.3378,-57.59166,202408221539228207,
2-15,A_Baseline,1,Q3FrontUp,-54.31845,35.52102,84.57072,-55.97314,-143.7916,135.3378,-57.59166,202408221539228463,
2-15,A_Baseline,1,Q3FrontUp,-54.38947,35.53526,84.66886,-56.07095,-143.7812,135.4392,-57.59145,202408221539228635,
2-15,A_Baseline,1,Q3FrontUp,-54.43061,35.54721,84.72192,-56.1416,-143.7735,135.5601,-57.59185,202408221539228988,
2-15,A_Baseline,1,Q3FrontUp,-54.43061,35.54721,84.72192,-56.1416,-143.7735,135.5601,-57.59185,202408221539229177,
2-15,A_Baseline,1,Q3FrontUp,-54.50814,35.56596,84.82682,-56.24649,-143.7539,135.7927,-57.59151,202408221539229453,
2-15,A_Baseline,1,Q3FrontUp,-54.50814,35.56596,84.82682,-56.24649,-143.7539,135.7927,-57.59151,202408221539229618,
2-15,A_Baseline,1,Q3FrontUp,-54.54485,35.57391,84.87666,-56.29749,-143.7413,135.8977,-57.59132,202408221539229915,
2-15,A_Baseline,1,Q3FrontUp,-54.58081,35.57548,84.91223,-56.3481,-143.7341,135.985,-57.59121,202408221539230090,
2-15,A_Baseline,1,Q3FrontUp,-54.58081,35.57548,84.91223,-56.3481,-143.7341,135.985,-57.59121,202408221539230315,
2-15,A_Baseline,1,Q3FrontUp,-54.61409,35.57584,84.94234,-56.40033,-143.7296,136.0585,-57.59106,202408221539230582,
2-15,A_Baseline,1,Q3FrontUp,-54.66314,35.57685,84.99887,-56.45957,-143.7281,136.1293,-57.59093,202408221539230812,
2-15,A_Baseline,1,Q3FrontUp,-54.70504,35.57993,85.05189,-56.51765,-143.7264,136.1917,-57.59105,202408221539231159,
2-15,A_Baseline,1,Q3FrontUp,-54.70504,35.57993,85.05189,-56.51765,-143.7264,136.1917,-57.59105,202408221539231342,
2-15,A_Baseline,1,Q3FrontUp,-54.72758,35.58398,85.09412,-56.56168,-143.7248,136.2399,-57.59074,202408221539231636,
2-15,A_Baseline,1,Q3FrontUp,-54.74152,35.58666,85.13448,-56.60083,-143.7197,136.2775,-57.59088,202408221539231812,
2-15,A_Baseline,1,Q3FrontUp,-54.74601,35.58619,85.1655,-56.63043,-143.7111,136.3064,-57.59091,202408221539232127,
2-15,A_Baseline,1,Q3FrontUp,-54.74601,35.58619,85.1655,-56.63043,-143.7111,136.3064,-57.59091,202408221539232314,
2-15,A_Baseline,1,Q3FrontUp,-54.74515,35.58548,85.1852,-56.65376,-143.7092,136.3332,-57.59052,202408221539232524,
2-15,A_Baseline,1,Q3FrontUp,-54.74536,35.58569,85.20553,-56.6756,-143.7082,136.3586,-57.59066,202408221539232855,
2-15,A_Baseline,1,Q3FrontUp,-54.74602,35.58638,85.22483,-56.69877,-143.7075,136.3785,-57.59091,202408221539233034,
2-15,A_Baseline,1,Q3FrontUp,-54.74602,35.58638,85.22483,-56.69877,-143.7075,136.3785,-57.59091,202408221539233306,
2-15,A_Baseline,1,Q3FrontUp,-54.74699,35.58768,85.24632,-56.72026,-143.7071,136.3933,-57.59078,202408221539233462,
2-15,A_Baseline,1,Q3FrontUp,-54.74918,35.58788,85.27067,-56.74297,-143.7069,136.4134,-57.59087,202408221539233701,
2-15,A_Baseline,1,Q3FrontUp,-54.74918,35.58788,85.27067,-56.74297,-143.7069,136.4134,-57.59087,202408221539234043,
2-15,A_Baseline,1,Q3FrontUp,-54.74986,35.58797,85.29634,-56.76499,-143.7067,136.4312,-57.59106,202408221539234313,
2-15,A_Baseline,1,Q3FrontUp,-54.75099,35.58785,85.32798,-56.7808,-143.7063,136.4548,-57.59056,202408221539234604,
2-15,A_Baseline,1,Q3FrontUp,-54.75115,35.5873,85.35021,-56.79112,-143.7061,136.4804,-57.59084,202408221539234820,
2-15,A_Baseline,1,Q3FrontUp,-54.75115,35.5873,85.35021,-56.79112,-143.7061,136.4804,-57.59084,202408221539235094,
2-15,A_Baseline,1,Q3FrontUp,-54.75117,35.58641,85.3799,-56.79839,-143.7053,136.5386,-57.59096,202408221539235500,
2-15,A_Baseline,1,Q3FrontUp,-54.75117,35.58641,85.3799,-56.79839,-143.7053,136.5386,-57.59096,202408221539235757,
2-15,A_Baseline,1,Q3FrontUp,-54.75144,35.58667,85.38575,-56.79846,-143.7052,136.5677,-57.59071,202408221539236002,
2-15,A_Baseline,1,Q3FrontUp,-54.7524,35.58716,85.38716,-56.79874,-143.7044,136.5949,-57.59042,202408221539236281,
2-15,A_Baseline,1,Q3FrontUp,-54.75228,35.58739,85.38759,-56.79922,-143.7045,136.6203,-57.59068,202408221539236447,
2-15,A_Baseline,1,Q3FrontUp,-54.75209,35.58712,85.38749,-56.7989,-143.7018,136.6393,-57.59058,202408221539236780,
2-15,A_Baseline,1,Q3FrontUp,-54.75209,35.58712,85.38749,-56.7989,-143.7018,136.6393,-57.59058,202408221539236987,
2-15,A_Baseline,1,Q3FrontUp,-54.75225,35.58734,85.38757,-56.79841,-143.6858,136.6548,-57.59049,202408221539237247,
2-15,A_Baseline,1,Q3FrontUp,-54.75213,35.5868,85.38731,-56.79773,-143.6759,136.6663,-57.59076,202408221539237410,
2-15,A_Baseline,1,Q3FrontUp,-54.75213,35.5868,85.38731,-56.79773,-143.6759,136.6663,-57.59076,202408221539237572,
2-15,A_Baseline,1,Q3FrontUp,-54.75196,35.58693,85.38698,-56.79502,-143.6722,136.6826,-57.59092,202408221539237735,
2-15,A_Baseline,1,Q3FrontUp,-54.75196,35.58693,85.38698,-56.79502,-143.6722,136.6826,-57.59092,202408221539237921,
2-15,A_Baseline,1,Q3FrontUp,-54.75161,35.58663,85.38606,-56.79184,-143.6691,136.7032,-57.59045,202408221539238143,
2-15,A_Baseline,1,Q3FrontUp,-54.75161,35.58663,85.38606,-56.79184,-143.6691,136.7032,-57.59045,202408221539238442,
2-15,A_Baseline,1,Q3FrontUp,-54.75158,35.58686,85.3843,-56.78864,-143.6653,136.7325,-57.59064,202408221539238676,
2-15,A_Baseline,1,Q3FrontUp,-54.75158,35.58686,85.3843,-56.78864,-143.6653,136.7325,-57.59064,202408221539238956,
2-15,A_Baseline,1,Q3FrontUp,-54.7517,35.58684,85.38453,-56.78842,-143.6628,136.7445,-57.59051,202408221539239173,
2-15,A_Baseline,1,Q3FrontUp,-54.75166,35.58661,85.38462,-56.78809,-143.6603,136.7557,-57.59069,202408221539239445,
2-15,A_Baseline,1,Q3FrontUp,-54.75174,35.58665,85.38433,-56.78779,-143.6594,136.7718,-57.59089,202408221539239786,
2-15,A_Baseline,1,Q3FrontUp,-54.75133,35.58657,85.38366,-56.78712,-143.6582,136.7905,-57.59066,202408221539240172,
2-15,A_Baseline,1,Q3FrontUp,-54.75148,35.58673,85.3812,-56.78468,-143.6571,136.8161,-57.59058,202408221539240492,
2-15,A_Baseline,1,Q3FrontUp,-54.75135,35.5865,85.37851,-56.78182,-143.6553,136.8364,-57.5911,202408221539240753,
2-15,A_Baseline,1,Q3FrontUp,-54.75135,35.5865,85.37851,-56.78182,-143.6553,136.8364,-57.5911,202408221539240904,
2-15,A_Baseline,1,Q3FrontUp,-54.75134,35.58669,85.37672,-56.78045,-143.6539,136.8584,-57.59083,202408221539241085,
2-15,A_Baseline,1,Q3FrontUp,-54.75134,35.58669,85.37672,-56.78045,-143.6539,136.8584,-57.59083,202408221539241282,
2-15,A_Baseline,1,Q3FrontUp,-54.75117,35.5867,85.37256,-56.77861,-143.6525,136.8824,-57.59061,202408221539241490,
2-15,A_Baseline,1,Q3FrontUp,-54.75117,35.5867,85.37256,-56.77861,-143.6525,136.8824,-57.59061,202408221539241685,
2-15,A_Baseline,1,Q3FrontUp,-54.75061,35.5861,85.36745,-56.77441,-143.6493,136.9048,-57.59079,202408221539241940,
2-15,A_Baseline,1,Q3FrontUp,-54.75089,35.58626,85.3645,-56.77111,-143.6394,136.9333,-57.59061,202408221539242159,
2-15,A_Baseline,1,Q3FrontUp,-54.75089,35.58626,85.3645,-56.77111,-143.6394,136.9333,-57.59061,202408221539242481,
2-15,A_Baseline,1,Q3FrontUp,-54.75166,35.58649,85.36589,-56.7631,-143.6185,137.0175,-57.59106,202408221539242762,
2-15,A_Baseline,1,Q3FrontUp,-54.75166,35.58649,85.36589,-56.7631,-143.6185,137.0175,-57.59106,202408221539242940,
2-15,A_Baseline,1,Q3FrontUp,-54.761,35.58507,85.38538,-56.76133,-143.5877,137.0845,-57.59098,202408221539243345,
2-15,A_Baseline,1,Q3FrontUp,-54.7777,35.58464,85.4388,-56.75825,-143.5448,137.1915,-57.59093,202408221539243514,
2-15,A_Baseline,1,Q3FrontUp,-54.7777,35.58464,85.4388,-56.75825,-143.5448,137.1915,-57.59093,202408221539243783,
2-15,A_Baseline,1,Q3FrontUp,-54.82988,35.57011,85.58862,-56.75781,-143.4414,137.4064,-57.5909,202408221539244113,
2-15,A_Baseline,1,Q3FrontUp,-54.82988,35.57011,85.58862,-56.75781,-143.4414,137.4064,-57.5909,202408221539244294,
2-15,A_Baseline,1,Q3FrontUp,-54.89939,35.56404,85.77657,-56.75987,-143.3285,137.5814,-57.59111,202408221539244450,
2-15,A_Baseline,1,Q3FrontUp,-54.89939,35.56404,85.77657,-56.75987,-143.3285,137.5814,-57.59111,202408221539244644,
2-15,A_Baseline,1,Q3FrontUp,-55.02206,35.5377,86.05765,-56.77256,-143.1456,137.7808,-57.60876,202408221539244814,
2-15,A_Baseline,1,Q3FrontUp,-55.16183,35.50458,86.37826,-56.78255,-142.9384,137.9897,-57.61157,202408221539245098,
2-15,A_Baseline,1,Q3FrontUp,-55.16183,35.50458,86.37826,-56.78255,-142.9384,137.9897,-57.61157,202408221539245255,
2-15,A_Baseline,1,Q3FrontUp,-55.31362,35.438,86.70103,-56.79108,-142.7334,138.2108,-57.61188,202408221539245601,
2-15,A_Baseline,1,Q3FrontUp,-55.4919,35.33024,87.07368,-56.78579,-142.4872,138.3848,-57.61203,202408221539245826,
2-15,A_Baseline,1,Q3FrontUp,-55.67213,35.20639,87.45924,-56.78732,-142.2473,138.5292,-57.6129,202408221539246094,
2-15,A_Baseline,1,Q3FrontUp,-55.67213,35.20639,87.45924,-56.78732,-142.2473,138.5292,-57.6129,202408221539246269,
2-15,A_Baseline,1,Q3FrontUp,-55.67213,35.20639,87.45924,-56.78732,-142.2473,138.5292,-57.6129,202408221539246469,
2-15,A_Baseline,1,Q3FrontUp,-55.8494,35.07017,87.90025,-56.78954,-141.9997,138.6473,-57.61372,202408221539246642,
2-15,A_Baseline,1,Q3FrontUp,-56.01567,34.92997,88.36132,-56.81209,-141.7576,138.743,-57.61388,202408221539246936,
2-15,A_Baseline,1,Q3FrontUp,-56.16016,34.77249,88.76121,-56.81926,-141.5571,138.7945,-57.61594,202408221539247255,
2-15,A_Baseline,1,Q3FrontUp,-56.26912,34.61333,89.1207,-56.83012,-141.4058,138.7959,-57.63148,202408221539247433,
2-15,A_Baseline,1,Q3FrontUp,-56.26912,34.61333,89.1207,-56.83012,-141.4058,138.7959,-57.63148,202408221539247772,
2-15,A_Baseline,1,Q3FrontUp,-56.3658,34.42787,89.48578,-56.83137,-141.2706,138.7965,-57.63839,202408221539247984,
2-15,A_Baseline,1,Q3FrontUp,-56.42905,34.2413,89.8194,-56.83114,-141.1348,138.7949,-57.64238,202408221539248254,
2-15,A_Baseline,1,Q3FrontUp,-56.42905,34.2413,89.8194,-56.83114,-141.1348,138.7949,-57.64238,202408221539248423,
2-15,A_Baseline,1,Q3FrontUp,-56.45949,34.08278,90.09309,-56.8315,-140.9958,138.7921,-57.64244,202408221539248592,
2-15,A_Baseline,1,Q3FrontUp,-56.46498,33.89576,90.30367,-56.8342,-140.8599,138.7452,-57.64503,202408221539248773,
2-15,A_Baseline,1,Q3FrontUp,-56.46498,33.89576,90.30367,-56.8342,-140.8599,138.7452,-57.64503,202408221539248947,
2-15,A_Baseline,1,Q3FrontUp,-56.45126,33.7151,90.48156,-56.83508,-140.7137,138.6699,-57.64935,202408221539249167,
2-15,A_Baseline,1,Q3FrontUp,-56.42273,33.53308,90.60392,-56.8334,-140.574,138.5569,-57.65495,202408221539249480,
2-15,A_Baseline,1,Q3FrontUp,-56.3992,33.39108,90.73369,-56.84433,-140.4174,138.4496,-57.67426,202408221539249762,
2-15,A_Baseline,1,Q3FrontUp,-56.39428,33.25483,90.85294,-56.86143,-140.2695,138.3481,-57.68523,202408221539250082,
2-15,A_Baseline,1,Q3FrontUp,-56.39428,33.25483,90.85294,-56.86143,-140.2695,138.3481,-57.68523,202408221539250293,
2-15,A_Baseline,1,Q3FrontUp,-56.39441,33.13109,90.97117,-56.88891,-140.138,138.2327,-57.69536,202408221539250578,
2-15,A_Baseline,1,Q3FrontUp,-56.39653,33.03159,91.09453,-56.92837,-140.0205,138.0741,-57.71209,202408221539250739,
2-15,A_Baseline,1,Q3FrontUp,-56.39653,33.03159,91.09453,-56.92837,-140.0205,138.0741,-57.71209,202408221539250912,
2-15,A_Baseline,1,Q3FrontUp,-56.39826,32.95992,91.23312,-56.96955,-139.9035,137.9261,-57.73457,202408221539251147,
2-15,A_Baseline,1,Q3FrontUp,-56.40244,32.88429,91.37052,-57.0018,-139.797,137.7683,-57.75683,202408221539251448,
2-15,A_Baseline,1,Q3FrontUp,-56.40244,32.88429,91.37052,-57.0018,-139.797,137.7683,-57.75683,202408221539251611,
2-15,A_Baseline,1,Q3FrontUp,-56.40244,32.88429,91.37052,-57.0018,-139.797,137.7683,-57.75683,202408221539251776,
2-15,A_Baseline,1,Q3FrontUp,-56.40244,32.88429,91.37052,-57.0018,-139.797,137.7683,-57.75683,202408221539251945,
2-15,A_Baseline,1,Q3FrontUp,-56.4097,32.77312,91.62636,-57.06229,-139.5897,137.2777,-57.76314,202408221539252245,
2-15,A_Baseline,1,Q3FrontUp,-56.4097,32.77312,91.62636,-57.06229,-139.5897,137.2777,-57.76314,202408221539252500,
2-15,A_Baseline,1,Q3FrontUp,-56.41003,32.68236,91.80003,-57.10948,-139.4787,136.712,-57.76052,202408221539252747,
2-15,A_Baseline,1,Q3FrontUp,-56.41003,32.68236,91.80003,-57.10948,-139.4787,136.712,-57.76052,202408221539252916,
2-15,A_Baseline,1,Q3FrontUp,-56.41013,32.63177,91.85396,-57.11646,-139.4538,136.3904,-57.75618,202408221539253081,
2-15,A_Baseline,1,Q3FrontUp,-56.41013,32.63177,91.85396,-57.11646,-139.4538,136.3904,-57.75618,202408221539253297,
2-15,A_Baseline,1,Q3FrontUp,-56.4103,32.58519,91.89175,-57.11797,-139.4431,136.0898,-57.74623,202408221539253511,
2-15,A_Baseline,1,Q3FrontUp,-56.41028,32.54842,91.92156,-57.12011,-139.4337,135.8362,-57.73851,202408221539253768,
2-15,A_Baseline,1,Q3FrontUp,-56.41404,32.52671,91.95921,-57.12473,-139.4233,135.6262,-57.68544,202408221539254098,
2-15,A_Baseline,1,Q3FrontUp,-56.41404,32.52671,91.95921,-57.12473,-139.4233,135.6262,-57.68544,202408221539254313,
2-15,A_Baseline,1,Q3FrontUp,-56.41697,32.52323,92.02144,-57.12827,-139.4063,135.4754,-57.58432,202408221539254590,
2-15,A_Baseline,1,Q3FrontUp,-56.41485,32.5187,92.05715,-57.13853,-139.3766,135.3528,-57.53444,202408221539254762,
2-15,A_Baseline,1,Q3FrontUp,-56.41468,32.5126,92.08966,-57.15343,-139.3436,135.2257,-57.49449,202408221539255093,
2-15,A_Baseline,1,Q3FrontUp,-56.41468,32.5126,92.08966,-57.15343,-139.3436,135.2257,-57.49449,202408221539255251,
2-15,A_Baseline,1,Q3FrontUp,-56.41337,32.50872,92.11465,-57.17413,-139.3143,135.1085,-57.45491,202408221539255420,
2-15,A_Baseline,1,Q3FrontUp,-56.41337,32.50872,92.11465,-57.17413,-139.3143,135.1085,-57.45491,202408221539255638,
2-15,A_Baseline,1,Q3FrontUp,-56.38704,32.50968,92.10851,-57.18968,-139.2674,135.0289,-57.43456,202408221539255822,
2-15,A_Baseline,1,Q3FrontUp,-56.35416,32.51024,92.08438,-57.21125,-139.2158,134.9641,-57.42006,202408221539256088,
2-15,A_Baseline,1,Q3FrontUp,-56.35416,32.51024,92.08438,-57.21125,-139.2158,134.9641,-57.42006,202408221539256285,
2-15,A_Baseline,1,Q3FrontUp,-56.31952,32.51069,92.03177,-57.26691,-139.16,134.9266,-57.41549,202408221539256452,
2-15,A_Baseline,1,Q3FrontUp,-56.31952,32.51069,92.03177,-57.26691,-139.16,134.9266,-57.41549,202408221539256632,
2-15,A_Baseline,1,Q3FrontUp,-56.28223,32.51203,91.98316,-57.32924,-139.1076,134.896,-57.4127,202408221539256908,
2-15,A_Baseline,1,Q3FrontUp,-56.28223,32.51203,91.98316,-57.32924,-139.1076,134.896,-57.4127,202408221539257111,
2-15,A_Baseline,1,Q3FrontUp,-56.16446,32.52712,91.77695,-57.50159,-139.0835,134.846,-57.48192,202408221539257481,
2-15,A_Baseline,1,Q3FrontUp,-56.16446,32.52712,91.77695,-57.50159,-139.0835,134.846,-57.48192,202408221539257635,
2-15,A_Baseline,1,Q3FrontUp,-56.10632,32.53724,91.65263,-57.60737,-139.0838,134.8252,-57.52908,202408221539257924,
2-15,A_Baseline,1,Q3FrontUp,-56.06622,32.55998,91.5539,-57.7285,-139.0845,134.805,-57.57505,202408221539258138,
2-15,A_Baseline,1,Q3FrontUp,-56.06622,32.55998,91.5539,-57.7285,-139.0845,134.805,-57.57505,202408221539258304,
2-15,A_Baseline,1,Q3FrontUp,-56.04268,32.59507,91.47152,-57.87134,-139.0849,134.7843,-57.61742,202408221539258507,
2-15,A_Baseline,1,Q3FrontUp,-56.01052,32.6435,91.37611,-58.02783,-139.0845,134.781,-57.61512,202408221539258832,
2-15,A_Baseline,1,Q3FrontUp,-56.01052,32.6435,91.37611,-58.02783,-139.0845,134.781,-57.61512,202408221539258993,
2-15,A_Baseline,1,Q3FrontUp,-55.97703,32.69707,91.27559,-58.19443,-139.0839,134.7808,-57.61292,202408221539259283,
2-15,A_Baseline,1,Q3FrontUp,-55.9301,32.73886,91.14117,-58.35482,-139.0833,134.781,-57.61351,202408221539259603,
2-15,A_Baseline,1,Q3FrontUp,-55.86724,32.77885,90.98366,-58.50136,-139.0834,134.7808,-57.60715,202408221539259769,
2-15,A_Baseline,1,Q3FrontUp,-55.86724,32.77885,90.98366,-58.50136,-139.0834,134.7808,-57.60715,202408221539259963,
2-15,A_Baseline,1,Q3FrontUp,-55.79668,32.81713,90.80466,-58.66329,-139.0757,134.7806,-57.60123,202408221539260258,
2-15,A_Baseline,1,Q3FrontUp,-55.79668,32.81713,90.80466,-58.66329,-139.0757,134.7806,-57.60123,202408221539260432,
2-15,A_Baseline,1,Q3FrontUp,-55.72612,32.86625,90.63702,-58.84329,-139.0574,134.7819,-57.59243,202408221539260624,
2-15,A_Baseline,1,Q3FrontUp,-55.66899,32.92925,90.47594,-59.06016,-139.0247,134.7836,-57.57665,202408221539260922,
2-15,A_Baseline,1,Q3FrontUp,-55.66899,32.92925,90.47594,-59.06016,-139.0247,134.7836,-57.57665,202408221539261134,
2-15,A_Baseline,1,Q3FrontUp,-55.49181,33.05041,90.09753,-59.46245,-138.9601,134.8083,-57.56946,202408221539261436,
2-15,A_Baseline,1,Q3FrontUp,-55.49181,33.05041,90.09753,-59.46245,-138.9601,134.8083,-57.56946,202408221539261604,
2-15,A_Baseline,1,Q3FrontUp,-55.39035,33.11578,89.89769,-59.65494,-138.9418,134.8132,-57.56904,202408221539261756,
2-15,A_Baseline,1,Q3FrontUp,-55.39035,33.11578,89.89769,-59.65494,-138.9418,134.8132,-57.56904,202408221539261944,
2-15,A_Baseline,1,Q3FrontUp,-55.29072,33.20111,89.70479,-59.85888,-138.9238,134.8152,-57.5688,202408221539262146,
2-15,A_Baseline,1,Q3FrontUp,-55.29072,33.20111,89.70479,-59.85888,-138.9238,134.8152,-57.5688,202408221539262425,
2-15,A_Baseline,1,Q3FrontUp,-55.16983,33.30827,89.51397,-60.03355,-138.9086,134.818,-57.56886,202408221539262583,
2-15,A_Baseline,1,Q3FrontUp,-55.0548,33.43103,89.33363,-60.19845,-138.8955,134.8174,-57.56936,202408221539262751,
2-15,A_Baseline,1,Q3FrontUp,-55.0548,33.43103,89.33363,-60.19845,-138.8955,134.8174,-57.56936,202408221539262908,
2-15,A_Baseline,1,Q3FrontUp,-54.95735,33.58322,89.19391,-60.37208,-138.8763,134.8172,-57.56969,202408221539263094,
2-15,A_Baseline,1,Q3FrontUp,-54.95735,33.58322,89.19391,-60.37208,-138.8763,134.8172,-57.56969,202408221539263301,
2-15,A_Baseline,1,Q3FrontUp,-54.89199,33.71817,89.06226,-60.56142,-138.8483,134.8175,-57.57012,202408221539263592,
2-15,A_Baseline,1,Q3FrontUp,-54.82425,33.84945,88.93296,-60.73785,-138.8178,134.8179,-57.56981,202408221539263832,
2-15,A_Baseline,1,Q3FrontUp,-54.76273,33.9576,88.76963,-60.93374,-138.7562,134.8152,-57.55904,202408221539264127,
2-15,A_Baseline,1,Q3FrontUp,-54.74534,34.05406,88.60884,-61.22817,-138.6612,134.8172,-57.51441,202408221539264326,
2-15,A_Baseline,1,Q3FrontUp,-54.74534,34.05406,88.60884,-61.22817,-138.6612,134.8172,-57.51441,202408221539264593,
2-15,A_Baseline,1,Q3FrontUp,-54.71293,34.1251,88.41982,-61.55241,-138.5169,134.8168,-57.47604,202408221539264770,
2-15,A_Baseline,1,Q3FrontUp,-54.67358,34.20416,88.23804,-61.8989,-138.3738,134.8168,-57.43872,202408221539265078,
2-15,A_Baseline,1,Q3FrontUp,-54.67358,34.20416,88.23804,-61.8989,-138.3738,134.8168,-57.43872,202408221539265247,
2-15,A_Baseline,1,Q3FrontUp,-54.62643,34.28314,88.07128,-62.23982,-138.2251,134.8168,-57.4059,202408221539265488,
2-15,A_Baseline,1,Q3FrontUp,-54.53615,34.32901,87.81554,-62.60426,-138.0599,134.816,-57.33865,202408221539265735,
2-15,A_Baseline,1,Q3FrontUp,-54.53615,34.32901,87.81554,-62.60426,-138.0599,134.816,-57.33865,202408221539265912,
2-15,A_Baseline,1,Q3FrontUp,-54.43991,34.35172,87.52581,-63.02071,-137.9163,134.8158,-57.26864,202408221539266081,
2-15,A_Baseline,1,Q3FrontUp,-54.43991,34.35172,87.52581,-63.02071,-137.9163,134.8158,-57.26864,202408221539266246,
2-15,A_Baseline,1,Q3FrontUp,-54.29459,34.34685,87.15627,-63.47791,-137.7704,134.8163,-57.18774,202408221539266434,
2-15,A_Baseline,1,Q3FrontUp,-54.29459,34.34685,87.15627,-63.47791,-137.7704,134.8163,-57.18774,202408221539266677,
2-15,A_Baseline,1,Q3FrontUp,-54.14314,34.34816,86.85793,-63.90332,-137.638,134.8162,-57.12114,202408221539266976,
2-15,A_Baseline,1,Q3FrontUp,-53.96558,34.35162,86.55385,-64.36767,-137.49,134.8156,-57.03162,202408221539267264,
2-15,A_Baseline,1,Q3FrontUp,-53.79906,34.34864,86.22492,-64.89848,-137.3263,134.8166,-56.9155,202408221539267576,
2-15,A_Baseline,1,Q3FrontUp,-53.79906,34.34864,86.22492,-64.89848,-137.3263,134.8166,-56.9155,202408221539267799,
2-15,A_Baseline,1,Q3FrontUp,-53.44388,34.35375,85.62321,-65.96674,-137.0034,134.8255,-56.71741,202408221539268093,
2-15,A_Baseline,1,Q3FrontUp,-53.44388,34.35375,85.62321,-65.96674,-137.0034,134.8255,-56.71741,202408221539268260,
2-15,A_Baseline,1,Q3FrontUp,-53.2714,34.35431,85.39955,-66.47427,-136.8448,134.8398,-56.63896,202408221539268434,
2-15,A_Baseline,1,Q3FrontUp,-53.2714,34.35431,85.39955,-66.47427,-136.8448,134.8398,-56.63896,202408221539268650,
2-15,A_Baseline,1,Q3FrontUp,-53.13878,34.36477,85.23161,-66.99813,-136.6667,134.8482,-56.57987,202408221539268846,
2-15,A_Baseline,1,Q3FrontUp,-53.13878,34.36477,85.23161,-66.99813,-136.6667,134.8482,-56.57987,202408221539269124,
2-15,A_Baseline,1,Q3FrontUp,-53.01781,34.37645,85.08884,-67.55302,-136.481,134.8663,-56.51115,202408221539269278,
2-15,A_Baseline,1,Q3FrontUp,-52.91869,34.3844,84.98335,-68.09832,-136.2976,134.8805,-56.43953,202408221539269614,
2-15,A_Baseline,1,Q3FrontUp,-52.82249,34.38536,84.8589,-68.60748,-136.09,134.8994,-56.35985,202408221539270002,
2-15,A_Baseline,1,Q3FrontUp,-52.71275,34.38618,84.75074,-69.0838,-135.8622,134.9297,-56.26816,202408221539270242,
2-15,A_Baseline,1,Q3FrontUp,-52.57946,34.38723,84.62972,-69.49829,-135.6761,134.9726,-56.16682,202408221539270418,
2-15,A_Baseline,1,Q3FrontUp,-52.45182,34.38615,84.51527,-69.88049,-135.5136,135.0095,-56.07312,202408221539270736,
2-15,A_Baseline,1,Q3FrontUp,-52.45182,34.38615,84.51527,-69.88049,-135.5136,135.0095,-56.07312,202408221539270923,
2-15,A_Baseline,1,Q3FrontUp,-52.31376,34.38822,84.39024,-70.23686,-135.3456,135.0497,-55.98849,202408221539271136,
2-15,A_Baseline,1,Q3FrontUp,-52.15955,34.38714,84.22044,-70.57708,-135.1626,135.1007,-55.90538,202408221539271434,
2-15,A_Baseline,1,Q3FrontUp,-52.15955,34.38714,84.22044,-70.57708,-135.1626,135.1007,-55.90538,202408221539271607,
2-15,A_Baseline,1,Q3FrontUp,-52.15955,34.38714,84.22044,-70.57708,-135.1626,135.1007,-55.90538,202408221539271817,
2-15,A_Baseline,1,Q3FrontUp,-51.82759,34.3884,83.86022,-71.13216,-134.7785,135.26,-55.74833,202408221539272146,
2-15,A_Baseline,1,Q3FrontUp,-51.65713,34.39024,83.67299,-71.36302,-134.6127,135.3678,-55.66182,202408221539272434,
2-15,A_Baseline,1,Q3FrontUp,-51.65713,34.39024,83.67299,-71.36302,-134.6127,135.3678,-55.66182,202408221539272596,
2-15,A_Baseline,1,Q3FrontUp,-51.47047,34.39635,83.44669,-71.60331,-134.4656,135.4818,-55.59242,202408221539272770,
2-15,A_Baseline,1,Q3FrontUp,-51.47047,34.39635,83.44669,-71.60331,-134.4656,135.4818,-55.59242,202408221539272922,
2-15,A_Baseline,1,Q3FrontUp,-51.47047,34.39635,83.44669,-71.60331,-134.4656,135.4818,-55.59242,202408221539273101,
2-15,A_Baseline,1,Q3FrontUp,-51.27783,34.39966,83.22108,-71.84033,-134.3265,135.5912,-55.51675,202408221539273351,
2-15,A_Baseline,1,Q3FrontUp,-51.03782,34.41854,82.95422,-72.05907,-134.1959,135.7197,-55.4357,202408221539273610,
2-15,A_Baseline,1,Q3FrontUp,-50.75195,34.44006,82.64001,-72.24118,-134.0558,135.8265,-55.36205,202408221539273775,
2-15,A_Baseline,1,Q3FrontUp,-50.75195,34.44006,82.64001,-72.24118,-134.0558,135.8265,-55.36205,202408221539273936,
2-15,A_Baseline,1,Q3FrontUp,-50.49791,34.45396,82.35622,-72.41673,-133.9285,135.9007,-55.2941,202408221539274124,
2-15,A_Baseline,1,Q3FrontUp,-50.49791,34.45396,82.35622,-72.41673,-133.9285,135.9007,-55.2941,202408221539274325,
2-15,A_Baseline,1,Q3FrontUp,-50.23552,34.50806,82.07476,-72.60291,-133.7993,135.9579,-55.22022,202408221539274599,
2-15,A_Baseline,1,Q3FrontUp,-49.94092,34.58049,81.75735,-72.74698,-133.673,136.0505,-55.14447,202408221539274923,
2-15,A_Baseline,1,Q3FrontUp,-49.61598,34.66128,81.42886,-72.86726,-133.5477,136.1333,-55.0742,202408221539275151,
2-15,A_Baseline,1,Q3FrontUp,-49.26462,34.74198,81.08837,-72.96649,-133.4475,136.1873,-55.0118,202408221539275432,
2-15,A_Baseline,1,Q3FrontUp,-49.26462,34.74198,81.08837,-72.96649,-133.4475,136.1873,-55.0118,202408221539275586,
2-15,A_Baseline,1,Q3FrontUp,-48.92148,34.84027,80.74271,-73.03065,-133.3454,136.2375,-54.96773,202408221539275764,
2-15,A_Baseline,1,Q3FrontUp,-48.92148,34.84027,80.74271,-73.03065,-133.3454,136.2375,-54.96773,202408221539275912,
2-15,A_Baseline,1,Q3FrontUp,-48.56731,34.96627,80.37465,-73.08001,-133.2449,136.2908,-54.92088,202408221539276094,
2-15,A_Baseline,1,Q3FrontUp,-48.56731,34.96627,80.37465,-73.08001,-133.2449,136.2908,-54.92088,202408221539276288,
2-15,A_Baseline,1,Q3FrontUp,-48.23802,35.11113,80.0574,-73.13223,-133.1517,136.3835,-54.87663,202408221539276495,
2-15,A_Baseline,1,Q3FrontUp,-48.23802,35.11113,80.0574,-73.13223,-133.1517,136.3835,-54.87663,202408221539276662,
2-15,A_Baseline,1,Q3FrontUp,-47.89652,35.27638,79.73666,-73.16895,-133.0904,136.4829,-54.83108,202408221539276933,
2-15,A_Baseline,1,Q3FrontUp,-47.59577,35.43689,79.43794,-73.21825,-133.0238,136.6119,-54.78311,202408221539277260,
2-15,A_Baseline,1,Q3FrontUp,-47.32133,35.6264,79.14613,-73.26331,-132.9429,136.7864,-54.72955,202408221539277435,
2-15,A_Baseline,1,Q3FrontUp,-47.32133,35.6264,79.14613,-73.26331,-132.9429,136.7864,-54.72955,202408221539277633,
2-15,A_Baseline,1,Q3FrontUp,-47.32133,35.6264,79.14613,-73.26331,-132.9429,136.7864,-54.72955,202408221539277909,
2-15,A_Baseline,1,Q3FrontUp,-46.86424,35.98101,78.65208,-73.35221,-132.8036,137.0961,-54.63416,202408221539278091,
2-15,A_Baseline,1,Q3FrontUp,-46.86424,35.98101,78.65208,-73.35221,-132.8036,137.0961,-54.63416,202408221539278309,
2-15,A_Baseline,1,Q3FrontUp,-46.6528,36.14912,78.43114,-73.38911,-132.7419,137.1625,-54.59885,202408221539278591,
2-15,A_Baseline,1,Q3FrontUp,-46.42077,36.30608,78.18446,-73.41064,-132.6833,137.2367,-54.57064,202408221539278808,
2-15,A_Baseline,1,Q3FrontUp,-46.22423,36.44704,77.95704,-73.4323,-132.6248,137.3186,-54.53712,202408221539279097,
2-15,A_Baseline,1,Q3FrontUp,-46.22423,36.44704,77.95704,-73.4323,-132.6248,137.3186,-54.53712,202408221539279262,
2-15,A_Baseline,1,Q3FrontUp,-46.04576,36.60347,77.75973,-73.45102,-132.5738,137.3748,-54.50092,202408221539279417,
2-15,A_Baseline,1,Q3FrontUp,-46.04576,36.60347,77.75973,-73.45102,-132.5738,137.3748,-54.50092,202408221539279602,
2-15,A_Baseline,1,Q3FrontUp,-45.84962,36.74171,77.52738,-73.45692,-132.5108,137.4308,-54.46839,202408221539279785,
2-15,A_Baseline,1,Q3FrontUp,-45.6386,36.87613,77.27466,-73.46072,-132.4623,137.4796,-54.4345,202408221539280083,
2-15,A_Baseline,1,Q3FrontUp,-45.40221,36.9893,76.98631,-73.47158,-132.426,137.5148,-54.3979,202408221539280420,
2-15,A_Baseline,1,Q3FrontUp,-45.40221,36.9893,76.98631,-73.47158,-132.426,137.5148,-54.3979,202408221539280591,
2-15,A_Baseline,1,Q3FrontUp,-45.14993,37.09647,76.70655,-73.48531,-132.3952,137.5578,-54.36325,202408221539280773,
2-15,A_Baseline,1,Q3FrontUp,-45.14993,37.09647,76.70655,-73.48531,-132.3952,137.5578,-54.36325,202408221539281020,
2-15,A_Baseline,1,Q3FrontUp,-44.87228,37.18783,76.41729,-73.48785,-132.3656,137.5954,-54.32584,202408221539281278,
2-15,A_Baseline,1,Q3FrontUp,-44.55779,37.29654,76.07465,-73.48897,-132.3411,137.6198,-54.28859,202408221539281478,
2-15,A_Baseline,1,Q3FrontUp,-44.55779,37.29654,76.07465,-73.48897,-132.3411,137.6198,-54.28859,202408221539281790,
2-15,A_Baseline,1,Q3FrontUp,-44.19149,37.38748,75.6645,-73.47659,-132.3046,137.6489,-54.25247,202408221539281968,
2-15,A_Baseline,1,Q3FrontUp,-43.80252,37.46217,75.25455,-73.47146,-132.2675,137.6817,-54.22582,202408221539282264,
2-15,A_Baseline,1,Q3FrontUp,-43.35222,37.53747,74.82074,-73.46803,-132.2216,137.7143,-54.20684,202408221539282434,
2-15,A_Baseline,1,Q3FrontUp,-43.35222,37.53747,74.82074,-73.46803,-132.2216,137.7143,-54.20684,202408221539282590,
2-15,A_Baseline,1,Q3FrontUp,-42.86546,37.63245,74.34898,-73.45332,-132.1529,137.7552,-54.18591,202408221539282756,
2-15,A_Baseline,1,Q3FrontUp,-42.86546,37.63245,74.34898,-73.45332,-132.1529,137.7552,-54.18591,202408221539282932,
2-15,A_Baseline,1,Q3FrontUp,-42.33966,37.73323,73.85141,-73.44597,-132.063,137.797,-54.16924,202408221539283150,
2-15,A_Baseline,1,Q3FrontUp,-41.75282,37.82762,73.34661,-73.42602,-131.9611,137.8433,-54.15274,202408221539283424,
2-15,A_Baseline,1,Q3FrontUp,-41.75282,37.82762,73.34661,-73.42602,-131.9611,137.8433,-54.15274,202408221539283592,
2-15,A_Baseline,1,Q3FrontUp,-41.13854,37.93949,72.8025,-73.38451,-131.8213,137.9044,-54.13628,202408221539283776,
2-15,A_Baseline,1,Q3FrontUp,-41.13854,37.93949,72.8025,-73.38451,-131.8213,137.9044,-54.13628,202408221539283952,
2-15,A_Baseline,1,Q3FrontUp,-40.45538,38.07668,72.25016,-73.36322,-131.6753,137.9989,-54.12262,202408221539284133,
2-15,A_Baseline,1,Q3FrontUp,-39.78637,38.17962,71.67169,-73.34133,-131.5374,138.1263,-54.09901,202408221539284425,
2-15,A_Baseline,1,Q3FrontUp,-39.78637,38.17962,71.67169,-73.34133,-131.5374,138.1263,-54.09901,202408221539284618,
2-15,A_Baseline,1,Q3FrontUp,-39.07869,38.3273,71.09319,-73.35023,-131.3773,138.2342,-54.07475,202408221539284900,
2-15,A_Baseline,1,Q3FrontUp,-38.38046,38.46031,70.54679,-73.35976,-131.2545,138.3458,-54.04524,202408221539285173,
2-15,A_Baseline,1,Q3FrontUp,-37.71096,38.58662,69.99603,-73.37102,-131.1654,138.4429,-54.008,202408221539285433,
2-15,A_Baseline,1,Q3FrontUp,-37.71096,38.58662,69.99603,-73.37102,-131.1654,138.4429,-54.008,202408221539285593,
2-15,A_Baseline,1,Q3FrontUp,-37.00802,38.7342,69.4236,-73.38496,-131.0896,138.5481,-53.95632,202408221539285933,
2-15,A_Baseline,1,Q3FrontUp,-36.3096,38.86567,68.84663,-73.40182,-131.0338,138.6715,-53.89553,202408221539286132,
2-15,A_Baseline,1,Q3FrontUp,-35.63055,38.9832,68.30592,-73.43021,-131.0035,138.7972,-53.82917,202408221539286311,
2-15,A_Baseline,1,Q3FrontUp,-35.63055,38.9832,68.30592,-73.43021,-131.0035,138.7972,-53.82917,202408221539286595,
2-15,A_Baseline,1,Q3FrontUp,-35.0022,39.12773,67.77723,-73.47865,-130.9484,138.9055,-53.79625,202408221539286796,
2-15,A_Baseline,1,Q3FrontUp,-34.38008,39.23534,67.29188,-73.5556,-130.9011,139.02,-53.76449,202408221539287090,
2-15,A_Baseline,1,Q3FrontUp,-34.38008,39.23534,67.29188,-73.5556,-130.9011,139.02,-53.76449,202408221539287267,
2-15,A_Baseline,1,Q3FrontUp,-33.79974,39.38937,66.83439,-73.63658,-130.8583,139.1427,-53.73976,202408221539287471,
2-15,A_Baseline,1,Q3FrontUp,-33.30979,39.51355,66.47114,-73.74139,-130.7976,139.2482,-53.72926,202408221539287766,
2-15,A_Baseline,1,Q3FrontUp,-33.30979,39.51355,66.47114,-73.74139,-130.7976,139.2482,-53.72926,202408221539287988,
2-15,A_Baseline,1,Q3FrontUp,-32.8203,39.63596,66.1321,-73.87033,-130.7293,139.3422,-53.72235,202408221539288240,
2-15,A_Baseline,1,Q3FrontUp,-32.8203,39.63596,66.1321,-73.87033,-130.7293,139.3422,-53.72235,202408221539288444,
2-15,A_Baseline,1,Q3FrontUp,-32.41604,39.72313,65.85146,-74.0257,-130.6716,139.3982,-53.72205,202408221539288647,
2-15,A_Baseline,1,Q3FrontUp,-32.03663,39.82516,65.59718,-74.17912,-130.6337,139.4453,-53.72114,202408221539288936,
2-15,A_Baseline,1,Q3FrontUp,-32.03663,39.82516,65.59718,-74.17912,-130.6337,139.4453,-53.72114,202408221539289107,
2-15,A_Baseline,1,Q3FrontUp,-31.33105,39.92023,65.13837,-74.41179,-130.5833,139.5791,-53.7212,202408221539289483,
2-15,A_Baseline,1,Q3FrontUp,-31.33105,39.92023,65.13837,-74.41179,-130.5833,139.5791,-53.7212,202408221539289654,
2-15,A_Baseline,1,Q3FrontUp,-31.00792,39.93956,64.93414,-74.51009,-130.5651,139.6368,-53.72165,202408221539289926,
2-15,A_Baseline,1,Q3FrontUp,-30.71396,39.94202,64.73272,-74.5789,-130.5468,139.6867,-53.72152,202408221539290246,
2-15,A_Baseline,1,Q3FrontUp,-30.71396,39.94202,64.73272,-74.5789,-130.5468,139.6867,-53.72152,202408221539290419,
2-15,A_Baseline,1,Q3FrontUp,-30.42683,39.93984,64.55363,-74.65497,-130.5291,139.7483,-53.72181,202408221539290605,
2-15,A_Baseline,1,Q3FrontUp,-30.16875,39.93968,64.43163,-74.72417,-130.5089,139.8033,-53.72523,202408221539290822,
2-15,A_Baseline,1,Q3FrontUp,-30.16875,39.93968,64.43163,-74.72417,-130.5089,139.8033,-53.72523,202408221539290988,
2-15,A_Baseline,1,Q3FrontUp,-29.89901,39.94104,64.3213,-74.77736,-130.4958,139.8716,-53.72765,202408221539291277,
2-15,A_Baseline,1,Q3FrontUp,-29.65001,39.94128,64.22065,-74.81409,-130.4925,139.9737,-53.72751,202408221539291596,
2-15,A_Baseline,1,Q3FrontUp,-29.65001,39.94128,64.22065,-74.81409,-130.4925,139.9737,-53.72751,202408221539291790,
2-15,A_Baseline,1,Q3FrontUp,-29.40666,39.94003,64.11749,-74.84074,-130.4902,140.0649,-53.7271,202408221539291972,
2-15,A_Baseline,1,Q3FrontUp,-29.15985,39.93544,64.02531,-74.85723,-130.4893,140.159,-53.72707,202408221539292261,
2-15,A_Baseline,1,Q3FrontUp,-28.91914,39.92046,63.92899,-74.87952,-130.4894,140.2684,-53.72712,202408221539292425,
2-15,A_Baseline,1,Q3FrontUp,-28.91914,39.92046,63.92899,-74.87952,-130.4894,140.2684,-53.72712,202408221539292635,
2-15,A_Baseline,1,Q3FrontUp,-28.65546,39.90413,63.78662,-74.88133,-130.4893,140.3673,-53.72683,202408221539292934,
2-15,A_Baseline,1,Q3FrontUp,-28.36838,39.88317,63.64204,-74.8801,-130.4895,140.45,-53.72707,202408221539293156,
2-15,A_Baseline,1,Q3FrontUp,-28.10917,39.87325,63.49356,-74.88049,-130.4892,140.519,-53.72694,202408221539293444,
2-15,A_Baseline,1,Q3FrontUp,-28.10917,39.87325,63.49356,-74.88049,-130.4892,140.519,-53.72694,202408221539293619,
2-15,A_Baseline,1,Q3FrontUp,-27.81703,39.85762,63.30759,-74.87321,-130.4879,140.5845,-53.72689,202408221539293964,
2-15,A_Baseline,1,Q3FrontUp,-27.52156,39.84003,63.13097,-74.87392,-130.4844,140.644,-53.72678,202408221539294161,
2-15,A_Baseline,1,Q3FrontUp,-27.21651,39.83276,62.98004,-74.87473,-130.4701,140.6983,-53.72716,202408221539294436,
2-15,A_Baseline,1,Q3FrontUp,-26.92011,39.83135,62.85992,-74.87614,-130.4591,140.7447,-53.72747,202408221539294749,
2-15,A_Baseline,1,Q3FrontUp,-26.92011,39.83135,62.85992,-74.87614,-130.4591,140.7447,-53.72747,202408221539294911,
2-15,A_Baseline,1,Q3FrontUp,-26.6287,39.83267,62.76497,-74.87584,-130.4412,140.7849,-53.72705,202408221539295092,
2-15,A_Baseline,1,Q3FrontUp,-26.6287,39.83267,62.76497,-74.87584,-130.4412,140.7849,-53.72705,202408221539295314,
2-15,A_Baseline,1,Q3FrontUp,-26.35031,39.83088,62.66165,-74.87661,-130.4153,140.8145,-53.72707,202408221539295603,
2-15,A_Baseline,1,Q3FrontUp,-26.35031,39.83088,62.66165,-74.87661,-130.4153,140.8145,-53.72707,202408221539295811,
2-15,A_Baseline,1,Q3FrontUp,-25.76631,39.8005,62.41019,-74.89605,-130.3903,140.9125,-53.72655,202408221539296139,
2-15,A_Baseline,1,Q3FrontUp,-25.76631,39.8005,62.41019,-74.89605,-130.3903,140.9125,-53.72655,202408221539296325,
2-15,A_Baseline,1,Q3FrontUp,-25.43394,39.78194,62.2506,-74.89952,-130.3743,140.9798,-53.72648,202408221539296607,
2-15,A_Baseline,1,Q3FrontUp,-25.09825,39.76877,62.06841,-74.89886,-130.3558,141.0302,-53.72659,202408221539296778,
2-15,A_Baseline,1,Q3FrontUp,-24.73713,39.75233,61.82236,-74.89249,-130.3372,141.0724,-53.72648,202408221539297113,
2-15,A_Baseline,1,Q3FrontUp,-24.73713,39.75233,61.82236,-74.89249,-130.3372,141.0724,-53.72648,202408221539297297,
2-15,A_Baseline,1,Q3FrontUp,-24.35979,39.72192,61.54939,-74.89509,-130.3211,141.1232,-53.72648,202408221539297581,
2-15,A_Baseline,1,Q3FrontUp,-23.96215,39.71307,61.27817,-74.88803,-130.3056,141.222,-53.72588,202408221539297908,
2-15,A_Baseline,1,Q3FrontUp,-23.57228,39.71264,61.01034,-74.88638,-130.2898,141.3489,-53.72535,202408221539298075,
2-15,A_Baseline,1,Q3FrontUp,-23.57228,39.71264,61.01034,-74.88638,-130.2898,141.3489,-53.72535,202408221539298250,
2-15,A_Baseline,1,Q3FrontUp,-23.21007,39.71474,60.7594,-74.88833,-130.2757,141.4576,-53.72532,202408221539298470,
2-15,A_Baseline,1,Q3FrontUp,-22.86765,39.71756,60.5456,-74.89291,-130.2632,141.5555,-53.72529,202408221539298747,
2-15,A_Baseline,1,Q3FrontUp,-22.86765,39.71756,60.5456,-74.89291,-130.2632,141.5555,-53.72529,202408221539298982,
2-15,A_Baseline,1,Q3FrontUp,-22.52159,39.7156,60.34143,-74.89363,-130.2547,141.6305,-53.7249,202408221539299283,
2-15,A_Baseline,1,Q3FrontUp,-22.18322,39.71319,60.16792,-74.89328,-130.2478,141.693,-53.72394,202408221539299482,
2-15,A_Baseline,1,Q3FrontUp,-21.90238,39.71198,60.0191,-74.88998,-130.2395,141.7468,-53.72387,202408221539299757,
2-15,A_Baseline,1,Q3FrontUp,-21.90238,39.71198,60.0191,-74.88998,-130.2395,141.7468,-53.72387,202408221539300077,
2-15,A_Baseline,1,Q3FrontUp,-21.60865,39.70985,59.87519,-74.88882,-130.2264,141.8045,-53.72359,202408221539300242,
2-15,A_Baseline,1,Q3FrontUp,-21.35064,39.70928,59.76094,-74.88871,-130.2101,141.8563,-53.72342,202408221539300462,
2-15,A_Baseline,1,Q3FrontUp,-21.35064,39.70928,59.76094,-74.88871,-130.2101,141.8563,-53.72342,202408221539300635,
2-15,A_Baseline,1,Q3FrontUp,-21.09154,39.70964,59.64002,-74.88554,-130.1971,141.8965,-53.72384,202408221539300935,
2-15,A_Baseline,1,Q3FrontUp,-21.09154,39.70964,59.64002,-74.88554,-130.1971,141.8965,-53.72384,202408221539301105,
2-15,A_Baseline,1,Q3FrontUp,-20.85089,39.70925,59.53485,-74.88665,-130.19,141.947,-53.72335,202408221539301281,
2-15,A_Baseline,1,Q3FrontUp,-20.64394,39.70897,59.45857,-74.88581,-130.1877,142.0467,-53.72366,202408221539301451,
2-15,A_Baseline,1,Q3FrontUp,-20.64394,39.70897,59.45857,-74.88581,-130.1877,142.0467,-53.72366,202408221539301853,
2-15,A_Baseline,1,Q3FrontUp,-20.31393,39.69341,59.34351,-74.88429,-130.1855,142.2327,-53.72357,202408221539302091,
2-15,A_Baseline,1,Q3FrontUp,-20.31393,39.69341,59.34351,-74.88429,-130.1855,142.2327,-53.72357,202408221539302262,
2-15,A_Baseline,1,Q3FrontUp,-20.19006,39.69354,59.3412,-74.88428,-130.1839,142.3271,-53.72379,202408221539302576,
2-15,A_Baseline,1,Q3FrontUp,-20.09519,39.68679,59.34466,-74.88543,-130.1744,142.4231,-53.72342,202408221539302761,
2-15,A_Baseline,1,Q3FrontUp,-20.09519,39.68679,59.34466,-74.88543,-130.1744,142.4231,-53.72342,202408221539302985,
2-15,A_Baseline,1,Q3FrontUp,-20.03288,39.66747,59.36034,-74.88998,-130.1645,142.5241,-53.72372,202408221539303259,
2-15,A_Baseline,1,Q3FrontUp,-20.00748,39.65204,59.37816,-74.8985,-130.1609,142.604,-53.72416,202408221539303435,
2-15,A_Baseline,1,Q3FrontUp,-20.00748,39.65204,59.37816,-74.8985,-130.1609,142.604,-53.72416,202408221539303650,
2-15,A_Baseline,1,Q3FrontUp,-20.00451,39.62363,59.39854,-74.91077,-130.1571,142.6511,-53.72346,202408221539303988,
2-15,A_Baseline,1,Q3FrontUp,-20.00923,39.59966,59.40639,-74.9143,-130.1504,142.6824,-53.72229,202408221539304279,
2-15,A_Baseline,1,Q3FrontUp,-20.02487,39.58502,59.4148,-74.91758,-130.137,142.6872,-53.7193,202408221539304442,
2-15,A_Baseline,1,Q3FrontUp,-20.02487,39.58502,59.4148,-74.91758,-130.137,142.6872,-53.7193,202408221539304617,
2-15,A_Baseline,1,Q3FrontUp,-20.04033,39.57584,59.41624,-74.92009,-130.1249,142.6896,-53.7109,202408221539304970,
2-15,A_Baseline,1,Q3FrontUp,-20.05712,39.57279,59.41698,-74.92136,-130.1167,142.6909,-53.70819,202408221539305252,
2-15,A_Baseline,1,Q3FrontUp,-20.08045,39.57294,59.41631,-74.9231,-130.1081,142.6909,-53.70772,202408221539305418,
2-15,A_Baseline,1,Q3FrontUp,-20.08045,39.57294,59.41631,-74.9231,-130.1081,142.6909,-53.70772,202408221539305584,
2-15,A_Baseline,1,Q3FrontUp,-20.11253,39.57386,59.41589,-74.92584,-130.1029,142.6923,-53.70517,202408221539305750,
2-15,A_Baseline,1,Q3FrontUp,-20.11253,39.57386,59.41589,-74.92584,-130.1029,142.6923,-53.70517,202408221539305917,
2-15,A_Baseline,1,Q3FrontUp,-20.15953,39.57433,59.42721,-74.92868,-130.0982,142.6988,-53.702,202408221539306165,
2-15,A_Baseline,1,Q3FrontUp,-20.15953,39.57433,59.42721,-74.92868,-130.0982,142.6988,-53.702,202408221539306445,
2-15,A_Baseline,1,Q3FrontUp,-20.22404,39.57578,59.45831,-74.93172,-130.0907,142.7228,-53.69239,202408221539306606,
2-15,A_Baseline,1,Q3FrontUp,-20.31284,39.5778,59.51956,-74.93871,-130.0716,142.752,-53.69212,202408221539306806,
2-15,A_Baseline,1,Q3FrontUp,-20.41879,39.58123,59.60415,-74.94006,-130.0517,142.7841,-53.69185,202408221539307139,
2-15,A_Baseline,1,Q3FrontUp,-20.5435,39.58455,59.71861,-74.93933,-130.0382,142.8015,-53.69183,202408221539307414,
2-15,A_Baseline,1,Q3FrontUp,-20.5435,39.58455,59.71861,-74.93933,-130.0382,142.8015,-53.69183,202408221539307584,
2-15,A_Baseline,1,Q3FrontUp,-20.669,39.58462,59.8285,-74.93825,-130.0221,142.817,-53.69153,202408221539307906,
2-15,A_Baseline,1,Q3FrontUp,-20.81852,39.58614,59.95345,-74.938,-130.0059,142.833,-53.69199,202408221539308081,
2-15,A_Baseline,1,Q3FrontUp,-20.81852,39.58614,59.95345,-74.938,-130.0059,142.833,-53.69199,202408221539308299,
2-15,A_Baseline,1,Q3FrontUp,-20.97171,39.59406,60.08503,-74.93563,-129.9903,142.8583,-53.69229,202408221539308472,
2-15,A_Baseline,1,Q3FrontUp,-21.12916,39.61352,60.22387,-74.93508,-129.9678,142.9067,-53.69265,202408221539308787,
2-15,A_Baseline,1,Q3FrontUp,-21.12916,39.61352,60.22387,-74.93508,-129.9678,142.9067,-53.69265,202408221539308952,
2-15,A_Baseline,1,Q3FrontUp,-21.29618,39.64075,60.39784,-74.93332,-129.936,142.953,-53.69247,202408221539309131,
2-15,A_Baseline,1,Q3FrontUp,-21.29618,39.64075,60.39784,-74.93332,-129.936,142.953,-53.69247,202408221539309315,
2-15,A_Baseline,1,Q3FrontUp,-21.47132,39.68068,60.60052,-74.93303,-129.8992,142.9861,-53.69259,202408221539309596,
2-15,A_Baseline,1,Q3FrontUp,-21.64006,39.72851,60.80849,-74.92993,-129.8699,143.028,-53.69286,202408221539309922,
2-15,A_Baseline,1,Q3FrontUp,-21.78465,39.78222,60.98481,-74.91203,-129.8371,143.0801,-53.69323,202408221539310145,
2-15,A_Baseline,1,Q3FrontUp,-21.78465,39.78222,60.98481,-74.91203,-129.8371,143.0801,-53.69323,202408221539310303,
2-15,A_Baseline,1,Q3FrontUp,-21.92192,39.83573,61.15794,-74.89024,-129.8088,143.1303,-53.6931,202408221539310587,
2-15,A_Baseline,1,Q3FrontUp,-22.04477,39.87916,61.31897,-74.87765,-129.7797,143.1759,-53.69297,202408221539310765,
2-15,A_Baseline,1,Q3FrontUp,-22.04477,39.87916,61.31897,-74.87765,-129.7797,143.1759,-53.69297,202408221539310924,
2-15,A_Baseline,1,Q3FrontUp,-22.15068,39.9209,61.45393,-74.86703,-129.7544,143.2245,-53.6935,202408221539311106,
2-15,A_Baseline,1,Q3FrontUp,-22.15068,39.9209,61.45393,-74.86703,-129.7544,143.2245,-53.6935,202408221539311278,
2-15,A_Baseline,1,Q3FrontUp,-22.23483,39.96327,61.55731,-74.84441,-129.7278,143.2817,-53.69312,202408221539311498,
2-15,A_Baseline,1,Q3FrontUp,-22.23483,39.96327,61.55731,-74.84441,-129.7278,143.2817,-53.69312,202408221539311680,
2-15,A_Baseline,1,Q3FrontUp,-22.29266,40.00102,61.62277,-74.81579,-129.6904,143.3616,-53.69326,202408221539311988,
2-15,A_Baseline,1,Q3FrontUp,-22.3291,40.02738,61.66585,-74.78191,-129.6413,143.4455,-53.69342,202408221539312140,
2-15,A_Baseline,1,Q3FrontUp,-22.3291,40.02738,61.66585,-74.78191,-129.6413,143.4455,-53.69342,202408221539312456,
2-15,A_Baseline,1,Q3FrontUp,-22.33998,40.08323,61.69084,-74.68858,-129.5146,143.6874,-53.69278,202408221539312749,
2-15,A_Baseline,1,Q3FrontUp,-22.33998,40.08323,61.69084,-74.68858,-129.5146,143.6874,-53.69278,202408221539312913,
2-15,A_Baseline,1,Q3FrontUp,-22.32921,40.11785,61.68857,-74.64014,-129.4487,143.8334,-53.69254,202408221539313101,
2-15,A_Baseline,1,Q3FrontUp,-22.32921,40.11785,61.68857,-74.64014,-129.4487,143.8334,-53.69254,202408221539313333,
2-15,A_Baseline,1,Q3FrontUp,-22.30886,40.15334,61.69054,-74.57969,-129.3851,143.9879,-53.69228,202408221539313490,
2-15,A_Baseline,1,Q3FrontUp,-22.30886,40.15334,61.69054,-74.57969,-129.3851,143.9879,-53.69228,202408221539313746,
2-15,A_Baseline,1,Q3FrontUp,-22.29074,40.18853,61.69086,-74.52399,-129.3237,144.1366,-53.69255,202408221539313917,
2-15,A_Baseline,1,Q3FrontUp,-22.26731,40.21832,61.68927,-74.46792,-129.2592,144.2822,-53.69236,202408221539314094,
2-15,A_Baseline,1,Q3FrontUp,-22.26731,40.21832,61.68927,-74.46792,-129.2592,144.2822,-53.69236,202408221539314277,
2-15,A_Baseline,1,Q3FrontUp,-22.19196,40.29506,61.68927,-74.35516,-129.132,144.6643,-53.69128,202408221539314670,
2-15,A_Baseline,1,Q3FrontUp,-22.19196,40.29506,61.68927,-74.35516,-129.132,144.6643,-53.69128,202408221539314922,
2-15,A_Baseline,1,Q3FrontUp,-22.13355,40.33475,61.685,-74.29076,-129.0779,144.9063,-53.688,202408221539315234,
2-15,A_Baseline,1,Q3FrontUp,-22.05997,40.36374,61.68068,-74.23448,-129.0384,145.1132,-53.68436,202408221539315408,
2-15,A_Baseline,1,Q3FrontUp,-22.05997,40.36374,61.68068,-74.23448,-129.0384,145.1132,-53.68436,202408221539315589,
2-15,A_Baseline,1,Q3FrontUp,-21.95975,40.3826,61.65219,-74.18375,-129.0035,145.3111,-53.68283,202408221539315816,
2-15,A_Baseline,1,Q3FrontUp,-21.82726,40.38689,61.59816,-74.14079,-128.9623,145.5125,-53.6816,202408221539316094,
2-15,A_Baseline,1,Q3FrontUp,-21.82726,40.38689,61.59816,-74.14079,-128.9623,145.5125,-53.6816,202408221539316272,
2-15,A_Baseline,1,Q3FrontUp,-21.82726,40.38689,61.59816,-74.14079,-128.9623,145.5125,-53.6816,202408221539316490,
2-15,A_Baseline,1,Q3FrontUp,-21.47834,40.38284,61.41187,-74.07538,-128.8731,145.899,-53.67945,202408221539316810,
2-15,A_Baseline,1,Q3FrontUp,-21.25675,40.37926,61.27829,-74.06251,-128.825,146.0514,-53.67955,202408221539317086,
2-15,A_Baseline,1,Q3FrontUp,-21.25675,40.37926,61.27829,-74.06251,-128.825,146.0514,-53.67955,202408221539317264,
2-15,A_Baseline,1,Q3FrontUp,-20.96744,40.36988,61.05585,-74.04044,-128.7709,146.1716,-53.67953,202408221539317427,
2-15,A_Baseline,1,Q3FrontUp,-20.96744,40.36988,61.05585,-74.04044,-128.7709,146.1716,-53.67953,202408221539317581,
2-15,A_Baseline,1,Q3FrontUp,-20.96744,40.36988,61.05585,-74.04044,-128.7709,146.1716,-53.67953,202408221539317754,
2-15,A_Baseline,1,Q3FrontUp,-20.69826,40.3705,60.85497,-74.03898,-128.7173,146.2903,-53.67964,202408221539317961,
2-15,A_Baseline,1,Q3FrontUp,-20.40218,40.37134,60.60973,-74.02599,-128.6733,146.3958,-53.67912,202408221539318120,
2-15,A_Baseline,1,Q3FrontUp,-20.02083,40.3569,60.22336,-73.97684,-128.6408,146.4948,-53.6776,202408221539318416,
2-15,A_Baseline,1,Q3FrontUp,-20.02083,40.3569,60.22336,-73.97684,-128.6408,146.4948,-53.6776,202408221539318579,
2-15,A_Baseline,1,Q3FrontUp,-19.58373,40.32935,59.76177,-73.88615,-128.5985,146.6272,-53.6614,202408221539318775,
2-15,A_Baseline,1,Q3FrontUp,-19.58373,40.32935,59.76177,-73.88615,-128.5985,146.6272,-53.6614,202408221539318920,
2-15,A_Baseline,1,Q3FrontUp,-19.07928,40.2945,59.21181,-73.78063,-128.5526,146.7606,-53.6402,202408221539319166,
2-15,A_Baseline,1,Q3FrontUp,-18.54846,40.22644,58.57383,-73.66814,-128.5067,146.9093,-53.60468,202408221539319442,
2-15,A_Baseline,1,Q3FrontUp,-18.03884,40.14089,57.92868,-73.57749,-128.4703,147.0737,-53.57489,202408221539319789,
2-15,A_Baseline,1,Q3FrontUp,-17.49929,40.05807,57.22853,-73.50073,-128.4475,147.2204,-53.54124,202408221539320135,
2-15,A_Baseline,1,Q3FrontUp,-16.97758,39.92796,56.51418,-73.41907,-128.4414,147.3601,-53.50287,202408221539320420,
2-15,A_Baseline,1,Q3FrontUp,-16.97758,39.92796,56.51418,-73.41907,-128.4414,147.3601,-53.50287,202408221539320583,
2-15,A_Baseline,1,Q3FrontUp,-16.51437,39.82706,55.87304,-73.35317,-128.4346,147.4927,-53.4687,202408221539320916,
2-15,A_Baseline,1,Q3FrontUp,-16.03091,39.70268,55.22268,-73.28461,-128.4295,147.6291,-53.42157,202408221539321082,
2-15,A_Baseline,1,Q3FrontUp,-16.03091,39.70268,55.22268,-73.28461,-128.4295,147.6291,-53.42157,202408221539321315,
2-15,A_Baseline,1,Q3FrontUp,-15.57473,39.59432,54.55209,-73.18759,-128.4293,147.7775,-53.36165,202408221539321605,
2-15,A_Baseline,1,Q3FrontUp,-15.21777,39.51086,54.0326,-73.13506,-128.4267,147.9071,-53.30608,202408221539321942,
2-15,A_Baseline,1,Q3FrontUp,-14.93294,39.42291,53.6247,-73.10603,-128.4261,148.0152,-53.24613,202408221539322122,
2-15,A_Baseline,1,Q3FrontUp,-14.93294,39.42291,53.6247,-73.10603,-128.4261,148.0152,-53.24613,202408221539322310,
2-15,A_Baseline,1,Q3FrontUp,-14.7318,39.36736,53.33765,-73.10607,-128.4241,148.1252,-53.18302,202408221539322568,
2-15,A_Baseline,1,Q3FrontUp,-14.64464,39.31893,53.18995,-73.11185,-128.3949,148.2281,-53.1421,202408221539322746,
2-15,A_Baseline,1,Q3FrontUp,-14.64464,39.31893,53.18995,-73.11185,-128.3949,148.2281,-53.1421,202408221539322968,
2-15,A_Baseline,1,Q3FrontUp,-14.58677,39.27834,53.0798,-73.11067,-128.3715,148.3157,-53.11117,202408221539323245,
2-15,A_Baseline,1,Q3FrontUp,-14.53701,39.20504,52.97758,-73.10031,-128.3538,148.3812,-53.08156,202408221539323475,
2-15,A_Baseline,1,Q3FrontUp,-14.45896,39.13851,52.83019,-73.04511,-128.3453,148.448,-53.0545,202408221539323764,
2-15,A_Baseline,1,Q3FrontUp,-14.45896,39.13851,52.83019,-73.04511,-128.3453,148.448,-53.0545,202408221539323931,
2-15,A_Baseline,1,Q3FrontUp,-14.37304,39.07951,52.67561,-72.9649,-128.3382,148.5015,-53.02556,202408221539324109,
2-15,A_Baseline,1,Q3FrontUp,-14.37304,39.07951,52.67561,-72.9649,-128.3382,148.5015,-53.02556,202408221539324281,
2-15,A_Baseline,1,Q3FrontUp,-14.28489,39.03861,52.53393,-72.86123,-128.3357,148.5519,-52.98683,202408221539324479,
2-15,A_Baseline,1,Q3FrontUp,-14.21475,39.01436,52.42181,-72.76701,-128.3333,148.5934,-52.95236,202408221539324750,
2-15,A_Baseline,1,Q3FrontUp,-14.21475,39.01436,52.42181,-72.76701,-128.3333,148.5934,-52.95236,202408221539324915,
2-15,A_Baseline,1,Q3FrontUp,-14.17696,38.99794,52.33503,-72.68836,-128.3262,148.6336,-52.91366,202408221539325091,
2-15,A_Baseline,1,Q3FrontUp,-14.17696,38.99794,52.33503,-72.68836,-128.3262,148.6336,-52.91366,202408221539325254,
2-15,A_Baseline,1,Q3FrontUp,-14.16587,38.99326,52.29296,-72.63577,-128.3054,148.6861,-52.87531,202408221539325444,
2-15,A_Baseline,1,Q3FrontUp,-14.16587,38.99326,52.29296,-72.63577,-128.3054,148.6861,-52.87531,202408221539325654,
2-15,A_Baseline,1,Q3FrontUp,-14.17774,38.98448,52.29239,-72.62817,-128.2667,148.7526,-52.84779,202408221539325921,
2-15,A_Baseline,1,Q3FrontUp,-14.20959,38.97642,52.32014,-72.62972,-128.2276,148.8365,-52.82112,202408221539326140,
2-15,A_Baseline,1,Q3FrontUp,-14.20959,38.97642,52.32014,-72.62972,-128.2276,148.8365,-52.82112,202408221539326447,
2-15,A_Baseline,1,Q3FrontUp,-14.24014,38.97398,52.38784,-72.62796,-128.1889,148.9234,-52.80849,202408221539326625,
2-15,A_Baseline,1,Q3FrontUp,-14.27518,38.97351,52.48785,-72.62844,-128.1211,149.0624,-52.80197,202408221539326814,
2-15,A_Baseline,1,Q3FrontUp,-14.30933,38.97346,52.59867,-72.62939,-128.0328,149.2319,-52.79845,202408221539327096,
2-15,A_Baseline,1,Q3FrontUp,-14.33426,38.9698,52.69894,-72.62868,-127.944,149.4274,-52.79475,202408221539327436,
2-15,A_Baseline,1,Q3FrontUp,-14.33426,38.9698,52.69894,-72.62868,-127.944,149.4274,-52.79475,202408221539327639,
2-15,A_Baseline,1,Q3FrontUp,-14.36191,38.95873,52.82306,-72.63136,-127.8747,149.6002,-52.76862,202408221539327910,
2-15,A_Baseline,1,Q3FrontUp,-14.39125,38.9487,52.96964,-72.63425,-127.816,149.7421,-52.75388,202408221539328081,
2-15,A_Baseline,1,Q3FrontUp,-14.39125,38.9487,52.96964,-72.63425,-127.816,149.7421,-52.75388,202408221539328234,
2-15,A_Baseline,1,Q3FrontUp,-14.43153,38.93926,53.16924,-72.63482,-127.7571,149.8426,-52.74293,202408221539328412,
2-15,A_Baseline,1,Q3FrontUp,-14.43153,38.93926,53.16924,-72.63482,-127.7571,149.8426,-52.74293,202408221539328586,
2-15,A_Baseline,1,Q3FrontUp,-14.4549,38.92998,53.34199,-72.63534,-127.7023,149.937,-52.73454,202408221539328778,
2-15,A_Baseline,1,Q3FrontUp,-14.47551,38.90706,53.50941,-72.63967,-127.6529,150.0419,-52.72237,202408221539328989,
2-15,A_Baseline,1,Q3FrontUp,-14.47551,38.90706,53.50941,-72.63967,-127.6529,150.0419,-52.72237,202408221539329276,
2-15,A_Baseline,1,Q3FrontUp,-14.51239,38.88893,53.71804,-72.65035,-127.6054,150.1726,-52.7023,202408221539329445,
2-15,A_Baseline,1,Q3FrontUp,-14.51239,38.88893,53.71804,-72.65035,-127.6054,150.1726,-52.7023,202408221539329757,
2-15,A_Baseline,1,Q3FrontUp,-14.56295,38.8714,53.95014,-72.67073,-127.5693,150.3036,-52.68806,202408221539329934,
2-15,A_Baseline,1,Q3FrontUp,-14.61471,38.85294,54.17326,-72.69492,-127.5307,150.4491,-52.67513,202408221539330143,
2-15,A_Baseline,1,Q3FrontUp,-14.61471,38.85294,54.17326,-72.69492,-127.5307,150.4491,-52.67513,202408221539330413,
2-15,A_Baseline,1,Q3FrontUp,-14.66175,38.82703,54.37669,-72.73074,-127.5026,150.5662,-52.6611,202408221539330581,
2-15,A_Baseline,1,Q3FrontUp,-14.71369,38.79229,54.62101,-72.77876,-127.4792,150.679,-52.636,202408221539330804,
2-15,A_Baseline,1,Q3FrontUp,-14.71369,38.79229,54.62101,-72.77876,-127.4792,150.679,-52.636,202408221539331101,
2-15,A_Baseline,1,Q3FrontUp,-14.75605,38.75152,54.83543,-72.82861,-127.4558,150.7843,-52.61753,202408221539331326,
2-15,A_Baseline,1,Q3FrontUp,-14.79027,38.68747,55.03046,-72.89546,-127.4288,150.8926,-52.60596,202408221539331602,
2-15,A_Baseline,1,Q3FrontUp,-14.82104,38.61871,55.22287,-72.97005,-127.4043,150.9705,-52.59371,202408221539331772,
2-15,A_Baseline,1,Q3FrontUp,-14.84918,38.55181,55.42152,-73.04546,-127.3644,151.0548,-52.58007,202408221539332082,
2-15,A_Baseline,1,Q3FrontUp,-14.84918,38.55181,55.42152,-73.04546,-127.3644,151.0548,-52.58007,202408221539332276,
2-15,A_Baseline,1,Q3FrontUp,-14.86558,38.47078,55.59842,-73.10738,-127.3163,151.1449,-52.56473,202408221539332456,
2-15,A_Baseline,1,Q3FrontUp,-14.86732,38.38034,55.74387,-73.16457,-127.2634,151.2394,-52.54852,202408221539332736,
2-15,A_Baseline,1,Q3FrontUp,-14.86732,38.38034,55.74387,-73.16457,-127.2634,151.2394,-52.54852,202408221539332914,
2-15,A_Baseline,1,Q3FrontUp,-14.86864,38.29865,55.90818,-73.21293,-127.2168,151.3219,-52.53066,202408221539333077,
2-15,A_Baseline,1,Q3FrontUp,-14.86864,38.29865,55.90818,-73.21293,-127.2168,151.3219,-52.53066,202408221539333233,
2-15,A_Baseline,1,Q3FrontUp,-14.86941,38.22846,56.09513,-73.24438,-127.165,151.4102,-52.51585,202408221539333419,
2-15,A_Baseline,1,Q3FrontUp,-14.86941,38.22846,56.09513,-73.24438,-127.165,151.4102,-52.51585,202408221539333649,
2-15,A_Baseline,1,Q3FrontUp,-14.88135,38.1687,56.29953,-73.26823,-127.0901,151.4848,-52.5098,202408221539334025,
2-15,A_Baseline,1,Q3FrontUp,-14.89088,38.11351,56.50722,-73.2759,-127.0048,151.5499,-52.50569,202408221539334275,
2-15,A_Baseline,1,Q3FrontUp,-14.90389,38.08087,56.73522,-73.27927,-126.9163,151.5941,-52.50362,202408221539334448,
2-15,A_Baseline,1,Q3FrontUp,-14.90389,38.08087,56.73522,-73.27927,-126.9163,151.5941,-52.50362,202408221539334644,
2-15,A_Baseline,1,Q3FrontUp,-14.92599,38.06575,56.97128,-73.28181,-126.8582,151.6345,-52.44706,202408221539334910,
2-15,A_Baseline,1,Q3FrontUp,-14.92599,38.06575,56.97128,-73.28181,-126.8582,151.6345,-52.44706,202408221539335076,
2-15,A_Baseline,1,Q3FrontUp,-14.94458,38.02152,57.39433,-73.28005,-126.7575,151.7251,-52.32946,202408221539335433,
2-15,A_Baseline,1,Q3FrontUp,-14.94458,38.02152,57.39433,-73.28005,-126.7575,151.7251,-52.32946,202408221539335651,
2-15,A_Baseline,1,Q3FrontUp,-14.94381,38.00681,57.60694,-73.28068,-126.7166,151.7649,-52.27356,202408221539335919,
2-15,A_Baseline,1,Q3FrontUp,-14.93961,37.98861,57.8135,-73.28101,-126.6774,151.803,-52.20667,202408221539336110,
2-15,A_Baseline,1,Q3FrontUp,-14.93961,37.98861,57.8135,-73.28101,-126.6774,151.803,-52.20667,202408221539336287,
2-15,A_Baseline,1,Q3FrontUp,-14.92459,37.95544,57.96952,-73.28134,-126.6502,151.8435,-52.12794,202408221539336457,
2-15,A_Baseline,1,Q3FrontUp,-14.91161,37.90325,58.12396,-73.28053,-126.6339,151.8853,-52.02596,202408221539336775,
2-15,A_Baseline,1,Q3FrontUp,-14.91161,37.90325,58.12396,-73.28053,-126.6339,151.8853,-52.02596,202408221539336971,
2-15,A_Baseline,1,Q3FrontUp,-14.89468,37.84731,58.24776,-73.27936,-126.6204,151.9187,-51.92963,202408221539337158,
2-15,A_Baseline,1,Q3FrontUp,-14.86546,37.77899,58.34302,-73.27965,-126.6115,151.9456,-51.8219,202408221539337411,
2-15,A_Baseline,1,Q3FrontUp,-14.86546,37.77899,58.34302,-73.27965,-126.6115,151.9456,-51.8219,202408221539337593,
2-15,A_Baseline,1,Q3FrontUp,-14.81609,37.69577,58.39082,-73.27415,-126.5962,151.9693,-51.68729,202408221539337756,
2-15,A_Baseline,1,Q3FrontUp,-14.81609,37.69577,58.39082,-73.27415,-126.5962,151.9693,-51.68729,202408221539337917,
2-15,A_Baseline,1,Q3FrontUp,-14.75839,37.60489,58.41532,-73.26922,-126.5694,151.989,-51.57113,202408221539338159,
2-15,A_Baseline,1,Q3FrontUp,-14.6974,37.52192,58.44592,-73.25575,-126.5168,152.0175,-51.48166,202408221539338445,
2-15,A_Baseline,1,Q3FrontUp,-14.6974,37.52192,58.44592,-73.25575,-126.5168,152.0175,-51.48166,202408221539338597,
2-15,A_Baseline,1,Q3FrontUp,-14.64141,37.43922,58.47646,-73.2492,-126.4623,152.0486,-51.39959,202408221539338804,
2-15,A_Baseline,1,Q3FrontUp,-14.57946,37.35949,58.49498,-73.24535,-126.4073,152.0854,-51.31836,202408221539339136,
2-15,A_Baseline,1,Q3FrontUp,-14.50537,37.29492,58.50763,-73.22569,-126.3549,152.1243,-51.24993,202408221539339424,
2-15,A_Baseline,1,Q3FrontUp,-14.50537,37.29492,58.50763,-73.22569,-126.3549,152.1243,-51.24993,202408221539339592,
2-15,A_Baseline,1,Q3FrontUp,-14.39557,37.2439,58.508,-73.17707,-126.2975,152.1557,-51.17139,202408221539339757,
2-15,A_Baseline,1,Q3FrontUp,-14.25311,37.19081,58.48977,-73.11634,-126.2374,152.1849,-51.09205,202408221539340076,
2-15,A_Baseline,1,Q3FrontUp,-14.25311,37.19081,58.48977,-73.11634,-126.2374,152.1849,-51.09205,202408221539340263,
2-15,A_Baseline,1,Q3FrontUp,-14.25311,37.19081,58.48977,-73.11634,-126.2374,152.1849,-51.09205,202408221539340478,
2-15,A_Baseline,1,Q3FrontUp,-13.85557,37.0637,58.34971,-72.94741,-126.1307,152.2388,-50.9538,202408221539340758,
2-15,A_Baseline,1,Q3FrontUp,-13.85557,37.0637,58.34971,-72.94741,-126.1307,152.2388,-50.9538,202408221539340915,
2-15,A_Baseline,1,Q3FrontUp,-13.57905,36.98827,58.21532,-72.83572,-126.0882,152.2633,-50.88653,202408221539341247,
2-15,A_Baseline,1,Q3FrontUp,-13.24918,36.88411,58.02701,-72.69881,-126.0543,152.3017,-50.81776,202408221539341419,
2-15,A_Baseline,1,Q3FrontUp,-13.24918,36.88411,58.02701,-72.69881,-126.0543,152.3017,-50.81776,202408221539341656,
2-15,A_Baseline,1,Q3FrontUp,-12.94642,36.793,57.86816,-72.5803,-126.0234,152.3368,-50.74679,202408221539341985,
2-15,A_Baseline,1,Q3FrontUp,-12.61658,36.68932,57.70977,-72.46908,-126.0021,152.3666,-50.66356,202408221539342264,
2-15,A_Baseline,1,Q3FrontUp,-12.26762,36.59364,57.51699,-72.35365,-125.9945,152.4045,-50.58894,202408221539342419,
2-15,A_Baseline,1,Q3FrontUp,-12.26762,36.59364,57.51699,-72.35365,-125.9945,152.4045,-50.58894,202408221539342634,
2-15,A_Baseline,1,Q3FrontUp,-11.91045,36.50245,57.33772,-72.22975,-125.9871,152.449,-50.51716,202408221539342912,
2-15,A_Baseline,1,Q3FrontUp,-11.57204,36.39584,57.19068,-72.12704,-125.966,152.483,-50.46305,202408221539343083,
2-15,A_Baseline,1,Q3FrontUp,-11.57204,36.39584,57.19068,-72.12704,-125.966,152.483,-50.46305,202408221539343257,
2-15,A_Baseline,1,Q3FrontUp,-11.26907,36.30672,57.08356,-72.04685,-125.9174,152.4874,-50.43312,202408221539343434,
2-15,A_Baseline,1,Q3FrontUp,-11.26907,36.30672,57.08356,-72.04685,-125.9174,152.4874,-50.43312,202408221539343657,
2-15,A_Baseline,1,Q3FrontUp,-11.05453,36.21807,57.07709,-71.99825,-125.8881,152.4897,-50.40099,202408221539343918,
2-15,A_Baseline,1,Q3FrontUp,-10.87647,36.12095,57.09513,-71.97289,-125.8392,152.4916,-50.38109,202408221539344102,
2-15,A_Baseline,1,Q3FrontUp,-10.73592,36.02301,57.14421,-71.95566,-125.7734,152.4925,-50.38069,202408221539344432,
2-15,A_Baseline,1,Q3FrontUp,-10.73592,36.02301,57.14421,-71.95566,-125.7734,152.4925,-50.38069,202408221539344612,
2-15,A_Baseline,1,Q3FrontUp,-10.62029,35.90184,57.1763,-71.92697,-125.7156,152.4922,-50.38084,202408221539344797,
2-15,A_Baseline,1,Q3FrontUp,-10.62029,35.90184,57.1763,-71.92697,-125.7156,152.4922,-50.38084,202408221539345079,
2-15,A_Baseline,1,Q3FrontUp,-10.53883,35.77814,57.22766,-71.89978,-125.6853,152.492,-50.38089,202408221539345286,
2-15,A_Baseline,1,Q3FrontUp,-10.49611,35.65131,57.31689,-71.87028,-125.6787,152.4923,-50.38035,202408221539345588,
2-15,A_Baseline,1,Q3FrontUp,-10.49611,35.65131,57.31689,-71.87028,-125.6787,152.4923,-50.38035,202408221539345770,
2-15,A_Baseline,1,Q3FrontUp,-10.47343,35.52715,57.39663,-71.84041,-125.6735,152.4926,-50.38079,202408221539345985,
2-15,A_Baseline,1,Q3FrontUp,-10.47254,35.38218,57.46971,-71.80462,-125.6698,152.4922,-50.38052,202408221539346258,
2-15,A_Baseline,1,Q3FrontUp,-10.47254,35.38218,57.46971,-71.80462,-125.6698,152.4922,-50.38052,202408221539346442,
2-15,A_Baseline,1,Q3FrontUp,-10.47426,35.25204,57.53139,-71.76227,-125.6701,152.4921,-50.38052,202408221539346607,
2-15,A_Baseline,1,Q3FrontUp,-10.47561,35.09571,57.58964,-71.7117,-125.6701,152.492,-50.38077,202408221539346821,
2-15,A_Baseline,1,Q3FrontUp,-10.47561,35.09571,57.58964,-71.7117,-125.6701,152.492,-50.38077,202408221539346978,
2-15,A_Baseline,1,Q3FrontUp,-10.48416,34.97948,57.64917,-71.64114,-125.6707,152.4917,-50.38103,202408221539347254,
2-15,A_Baseline,1,Q3FrontUp,-10.5008,34.83265,57.69785,-71.57356,-125.6709,152.4909,-50.38097,202408221539347568,
2-15,A_Baseline,1,Q3FrontUp,-10.5008,34.83265,57.69785,-71.57356,-125.6709,152.4909,-50.38097,202408221539347732,
2-15,A_Baseline,1,Q3FrontUp,-10.52266,34.70682,57.73726,-71.51099,-125.6711,152.4907,-50.3812,202408221539347924,
2-15,A_Baseline,1,Q3FrontUp,-10.56874,34.55087,57.7886,-71.45041,-125.6721,152.4901,-50.38126,202408221539348141,
2-15,A_Baseline,1,Q3FrontUp,-10.56874,34.55087,57.7886,-71.45041,-125.6721,152.4901,-50.38126,202408221539348314,
2-15,A_Baseline,1,Q3FrontUp,-10.64093,34.40191,57.85751,-71.40511,-125.6721,152.4905,-50.38126,202408221539348593,
2-15,A_Baseline,1,Q3FrontUp,-10.73704,34.24138,57.94822,-71.35989,-125.6726,152.4892,-50.38126,202408221539348909,
2-15,A_Baseline,1,Q3FrontUp,-10.73704,34.24138,57.94822,-71.35989,-125.6726,152.4892,-50.38126,202408221539349102,
2-15,A_Baseline,1,Q3FrontUp,-10.86858,34.06116,58.06277,-71.30746,-125.6729,152.4881,-50.38105,202408221539349312,
2-15,A_Baseline,1,Q3FrontUp,-11.00871,33.88616,58.17405,-71.24504,-125.6727,152.4825,-50.38103,202408221539349589,
2-15,A_Baseline,1,Q3FrontUp,-11.17486,33.68303,58.30617,-71.16343,-125.6734,152.4433,-50.37783,202408221539349763,
2-15,A_Baseline,1,Q3FrontUp,-11.17486,33.68303,58.30617,-71.16343,-125.6734,152.4433,-50.37783,202408221539349957,
2-15,A_Baseline,1,Q3FrontUp,-11.33725,33.48663,58.43267,-71.06853,-125.6737,152.4016,-50.37105,202408221539350248,
2-15,A_Baseline,1,Q3FrontUp,-11.33725,33.48663,58.43267,-71.06853,-125.6737,152.4016,-50.37105,202408221539350461,
2-15,A_Baseline,1,Q3FrontUp,-11.68151,33.04228,58.65996,-70.9102,-125.6744,152.3773,-50.36652,202408221539350755,
2-15,A_Baseline,1,Q3FrontUp,-11.68151,33.04228,58.65996,-70.9102,-125.6744,152.3773,-50.36652,202408221539350921,
2-15,A_Baseline,1,Q3FrontUp,-11.88588,32.81889,58.79207,-70.82967,-125.6755,152.3799,-50.36652,202408221539351087,
2-15,A_Baseline,1,Q3FrontUp,-11.88588,32.81889,58.79207,-70.82967,-125.6755,152.3799,-50.36652,202408221539351290,
2-15,A_Baseline,1,Q3FrontUp,-12.11973,32.61181,58.97837,-70.74469,-125.6754,152.3867,-50.3665,202408221539351490,
2-15,A_Baseline,1,Q3FrontUp,-12.35476,32.40174,59.16152,-70.66128,-125.6757,152.3894,-50.36692,202408221539351783,
2-15,A_Baseline,1,Q3FrontUp,-12.35476,32.40174,59.16152,-70.66128,-125.6757,152.3894,-50.36692,202408221539351930,
2-15,A_Baseline,1,Q3FrontUp,-12.59826,32.2052,59.36034,-70.58149,-125.6786,152.3911,-50.36615,202408221539352254,
2-15,A_Baseline,1,Q3FrontUp,-12.86004,32.01497,59.60108,-70.49132,-125.6826,152.3908,-50.363,202408221539352620,
2-15,A_Baseline,1,Q3FrontUp,-13.09903,31.84473,59.82658,-70.40311,-125.6849,152.3911,-50.35757,202408221539352916,
2-15,A_Baseline,1,Q3FrontUp,-13.38109,31.67724,60.05234,-70.32464,-125.6918,152.3903,-50.34199,202408221539353151,
2-15,A_Baseline,1,Q3FrontUp,-13.65816,31.49903,60.23451,-70.26253,-125.7026,152.3882,-50.32251,202408221539353450,
2-15,A_Baseline,1,Q3FrontUp,-13.65816,31.49903,60.23451,-70.26253,-125.7026,152.3882,-50.32251,202408221539353662,
2-15,A_Baseline,1,Q3FrontUp,-13.90002,31.32346,60.41242,-70.19991,-125.7033,152.3887,-50.30699,202408221539353919,
2-15,A_Baseline,1,Q3FrontUp,-14.14683,31.19534,60.61291,-70.13299,-125.7034,152.3882,-50.28154,202408221539354099,
2-15,A_Baseline,1,Q3FrontUp,-14.14683,31.19534,60.61291,-70.13299,-125.7034,152.3882,-50.28154,202408221539354270,
2-15,A_Baseline,1,Q3FrontUp,-14.37191,31.05959,60.805,-70.06377,-125.7034,152.3883,-50.25085,202408221539354646,
2-15,A_Baseline,1,Q3FrontUp,-14.56571,30.94934,60.96014,-69.99883,-125.7035,152.3888,-50.22192,202408221539354799,
2-15,A_Baseline,1,Q3FrontUp,-14.81093,30.83608,61.16208,-69.95759,-125.7036,152.3886,-50.1946,202408221539355091,
2-15,A_Baseline,1,Q3FrontUp,-14.81093,30.83608,61.16208,-69.95759,-125.7036,152.3886,-50.1946,202408221539355252,
2-15,A_Baseline,1,Q3FrontUp,-15.10231,30.77774,61.44378,-69.95094,-125.7037,152.3899,-50.17882,202408221539355430,
2-15,A_Baseline,1,Q3FrontUp,-15.10231,30.77774,61.44378,-69.95094,-125.7037,152.3899,-50.17882,202408221539355589,
2-15,A_Baseline,1,Q3FrontUp,-15.10231,30.77774,61.44378,-69.95094,-125.7037,152.3899,-50.17882,202408221539355776,
2-15,A_Baseline,1,Q3FrontUp,-15.64027,30.65489,61.93713,-69.94447,-125.704,152.3934,-50.14867,202408221539355992,
2-15,A_Baseline,1,Q3FrontUp,-15.64027,30.65489,61.93713,-69.94447,-125.704,152.3934,-50.14867,202408221539356161,
2-15,A_Baseline,1,Q3FrontUp,-15.90096,30.62034,62.20365,-69.94122,-125.7037,152.3955,-50.14272,202408221539356462,
2-15,A_Baseline,1,Q3FrontUp,-16.18272,30.61339,62.49641,-69.94733,-125.7055,152.4081,-50.12339,202408221539356757,
2-15,A_Baseline,1,Q3FrontUp,-16.18272,30.61339,62.49641,-69.94733,-125.7055,152.4081,-50.12339,202408221539356936,
2-15,A_Baseline,1,Q3FrontUp,-16.18272,30.61339,62.49641,-69.94733,-125.7055,152.4081,-50.12339,202408221539357133,
2-15,A_Baseline,1,Q3FrontUp,-16.91902,30.623,63.2099,-69.94692,-125.7168,152.478,-50.07378,202408221539357419,
2-15,A_Baseline,1,Q3FrontUp,-17.26636,30.62189,63.53527,-69.94479,-125.7194,152.5083,-50.04844,202408221539357784,
2-15,A_Baseline,1,Q3FrontUp,-17.63594,30.6221,63.89191,-69.93684,-125.7208,152.5359,-50.01843,202408221539358081,
2-15,A_Baseline,1,Q3FrontUp,-17.63594,30.6221,63.89191,-69.93684,-125.7208,152.5359,-50.01843,202408221539358281,
2-15,A_Baseline,1,Q3FrontUp,-18.01533,30.62514,64.24702,-69.93146,-125.7217,152.5846,-49.99133,202408221539358607,
2-15,A_Baseline,1,Q3FrontUp,-18.43182,30.62882,64.65157,-69.9246,-125.7287,152.6074,-49.97055,202408221539358934,
2-15,A_Baseline,1,Q3FrontUp,-18.8337,30.63888,65.04121,-69.91371,-125.7355,152.6383,-49.95086,202408221539359118,
2-15,A_Baseline,1,Q3FrontUp,-18.8337,30.63888,65.04121,-69.91371,-125.7355,152.6383,-49.95086,202408221539359320,
2-15,A_Baseline,1,Q3FrontUp,-19.24533,30.65159,65.4266,-69.90778,-125.7479,152.667,-49.93523,202408221539359600,
2-15,A_Baseline,1,Q3FrontUp,-19.68665,30.66011,65.8082,-69.90419,-125.7712,152.6949,-49.91412,202408221539359903,
2-15,A_Baseline,1,Q3FrontUp,-19.68665,30.66011,65.8082,-69.90419,-125.7712,152.6949,-49.91412,202408221539360089,
2-15,A_Baseline,1,Q3FrontUp,-20.15365,30.67657,66.20287,-69.89834,-125.7986,152.7289,-49.87881,202408221539360254,
2-15,A_Baseline,1,Q3FrontUp,-20.60409,30.69171,66.58878,-69.87711,-125.8438,152.7663,-49.81696,202408221539360494,
2-15,A_Baseline,1,Q3FrontUp,-21.07973,30.72438,66.97881,-69.85234,-125.9055,152.7936,-49.73579,202408221539360758,
2-15,A_Baseline,1,Q3FrontUp,-21.07973,30.72438,66.97881,-69.85234,-125.9055,152.7936,-49.73579,202408221539360991,
2-15,A_Baseline,1,Q3FrontUp,-21.57665,30.7633,67.37583,-69.82097,-125.9449,152.828,-49.66549,202408221539361279,
2-15,A_Baseline,1,Q3FrontUp,-22.03253,30.79917,67.72941,-69.78144,-125.9556,152.8496,-49.61389,202408221539361496,
2-15,A_Baseline,1,Q3FrontUp,-22.50294,30.82543,68.05322,-69.72234,-125.9555,152.8614,-49.59309,202408221539361776,
2-15,A_Baseline,1,Q3FrontUp,-22.50294,30.82543,68.05322,-69.72234,-125.9555,152.8614,-49.59309,202408221539361936,
2-15,A_Baseline,1,Q3FrontUp,-22.93769,30.85956,68.35391,-69.65384,-125.9546,152.8649,-49.57969,202408221539362271,
2-15,A_Baseline,1,Q3FrontUp,-23.34331,30.88799,68.60151,-69.60613,-125.9543,152.8649,-49.5782,202408221539362472,
2-15,A_Baseline,1,Q3FrontUp,-23.73185,30.91124,68.83852,-69.55726,-125.9542,152.865,-49.57641,202408221539362733,
2-15,A_Baseline,1,Q3FrontUp,-23.73185,30.91124,68.83852,-69.55726,-125.9542,152.865,-49.57641,202408221539362905,
2-15,A_Baseline,1,Q3FrontUp,-24.1118,30.95596,69.04017,-69.50635,-125.9498,152.865,-49.57533,202408221539363069,
2-15,A_Baseline,1,Q3FrontUp,-24.1118,30.95596,69.04017,-69.50635,-125.9498,152.865,-49.57533,202408221539363243,
2-15,A_Baseline,1,Q3FrontUp,-24.44337,31.00236,69.19185,-69.4444,-125.9413,152.8651,-49.57393,202408221539363407,
2-15,A_Baseline,1,Q3FrontUp,-24.44337,31.00236,69.19185,-69.4444,-125.9413,152.8651,-49.57393,202408221539363578,
2-15,A_Baseline,1,Q3FrontUp,-24.73696,31.06314,69.33138,-69.38897,-125.8961,152.8639,-49.57432,202408221539363801,
2-15,A_Baseline,1,Q3FrontUp,-24.73696,31.06314,69.33138,-69.38897,-125.8961,152.8639,-49.57432,202408221539363976,
2-15,A_Baseline,1,Q3FrontUp,-24.99305,31.14006,69.44339,-69.31625,-125.8655,152.8637,-49.57467,202408221539364276,
2-15,A_Baseline,1,Q3FrontUp,-25.22302,31.23436,69.51295,-69.24322,-125.8459,152.8628,-49.57499,202408221539364440,
2-15,A_Baseline,1,Q3FrontUp,-25.41483,31.33851,69.53951,-69.13693,-125.8433,152.846,-49.57454,202408221539364799,
2-15,A_Baseline,1,Q3FrontUp,-25.56843,31.44088,69.54153,-69.03216,-125.8427,152.8265,-49.57455,202408221539365085,
2-15,A_Baseline,1,Q3FrontUp,-25.56843,31.44088,69.54153,-69.03216,-125.8427,152.8265,-49.57455,202408221539365245,
2-15,A_Baseline,1,Q3FrontUp,-25.72729,31.56601,69.54369,-68.92416,-125.842,152.8195,-49.5746,202408221539365421,
2-15,A_Baseline,1,Q3FrontUp,-25.72729,31.56601,69.54369,-68.92416,-125.842,152.8195,-49.5746,202408221539365650,
2-15,A_Baseline,1,Q3FrontUp,-25.86193,31.68822,69.5368,-68.83625,-125.8418,152.8107,-49.57424,202408221539365826,
2-15,A_Baseline,1,Q3FrontUp,-25.98775,31.83272,69.51985,-68.77625,-125.8408,152.8082,-49.57445,202408221539366113,
2-15,A_Baseline,1,Q3FrontUp,-25.98775,31.83272,69.51985,-68.77625,-125.8408,152.8082,-49.57445,202408221539366448,
2-15,A_Baseline,1,Q3FrontUp,-26.22383,32.09801,69.42001,-68.67095,-125.8413,152.8058,-49.57449,202408221539366783,
2-15,A_Baseline,1,Q3FrontUp,-26.22383,32.09801,69.42001,-68.67095,-125.8413,152.8058,-49.57449,202408221539366981,
2-15,A_Baseline,1,Q3FrontUp,-26.31978,32.23405,69.32669,-68.6174,-125.8411,152.8035,-49.57458,202408221539367144,
2-15,A_Baseline,1,Q3FrontUp,-26.39981,32.38643,69.21039,-68.56603,-125.8411,152.8036,-49.57447,202408221539367532,
2-15,A_Baseline,1,Q3FrontUp,-26.48719,32.5419,69.09248,-68.52922,-125.8378,152.8021,-49.5745,202408221539367773,
2-15,A_Baseline,1,Q3FrontUp,-26.59011,32.7053,68.99685,-68.50809,-125.831,152.8009,-49.57481,202408221539368121,
2-15,A_Baseline,1,Q3FrontUp,-26.59011,32.7053,68.99685,-68.50809,-125.831,152.8009,-49.57481,202408221539368424,
2-15,A_Baseline,1,Q3FrontUp,-26.80307,33.03576,68.83395,-68.469,-125.8288,152.7989,-49.57431,202408221539368798,
2-15,A_Baseline,1,Q3FrontUp,-26.9094,33.19081,68.76057,-68.44524,-125.8287,152.7988,-49.57472,202408221539369095,
2-15,A_Baseline,1,Q3FrontUp,-26.9094,33.19081,68.76057,-68.44524,-125.8287,152.7988,-49.57472,202408221539369332,
2-15,A_Baseline,1,Q3FrontUp,-26.99842,33.36148,68.68584,-68.42096,-125.8281,152.7994,-49.57437,202408221539369589,
2-15,A_Baseline,1,Q3FrontUp,-26.99842,33.36148,68.68584,-68.42096,-125.8281,152.7994,-49.57437,202408221539369757,
2-15,A_Baseline,1,Q3FrontUp,-27.14581,33.65971,68.54693,-68.36594,-125.8274,152.7994,-49.57484,202408221539370085,
2-15,A_Baseline,1,Q3FrontUp,-27.14581,33.65971,68.54693,-68.36594,-125.8274,152.7994,-49.57484,202408221539370301,
2-15,A_Baseline,1,Q3FrontUp,-27.19777,33.80986,68.45258,-68.33629,-125.8268,152.799,-49.57484,202408221539370468,
2-15,A_Baseline,1,Q3FrontUp,-27.25285,33.93427,68.36748,-68.31442,-125.827,152.7988,-49.57562,202408221539370766,
2-15,A_Baseline,1,Q3FrontUp,-27.25285,33.93427,68.36748,-68.31442,-125.827,152.7988,-49.57562,202408221539370942,
2-15,A_Baseline,1,Q3FrontUp,-27.30877,34.07196,68.29382,-68.29922,-125.8267,152.7995,-49.57597,202408221539371280,
2-15,A_Baseline,1,Q3FrontUp,-27.3637,34.18363,68.22637,-68.28476,-125.827,152.7996,-49.57622,202408221539371445,
2-15,A_Baseline,1,Q3FrontUp,-27.3637,34.18363,68.22637,-68.28476,-125.827,152.7996,-49.57622,202408221539371638,
2-15,A_Baseline,1,Q3FrontUp,-27.41987,34.30287,68.16822,-68.27445,-125.8268,152.7998,-49.57806,202408221539371835,
2-15,A_Baseline,1,Q3FrontUp,-27.47975,34.39231,68.11008,-68.26968,-125.8266,152.7997,-49.58024,202408221539372083,
2-15,A_Baseline,1,Q3FrontUp,-27.47975,34.39231,68.11008,-68.26968,-125.8266,152.7997,-49.58024,202408221539372247,
2-15,A_Baseline,1,Q3FrontUp,-27.53237,34.48307,68.05492,-68.26984,-125.8266,152.7999,-49.58189,202408221539372414,
2-15,A_Baseline,1,Q3FrontUp,-27.53237,34.48307,68.05492,-68.26984,-125.8266,152.7999,-49.58189,202408221539372593,
2-15,A_Baseline,1,Q3FrontUp,-27.58319,34.57065,68.01018,-68.26941,-125.8253,152.8,-49.58244,202408221539372787,
2-15,A_Baseline,1,Q3FrontUp,-27.58319,34.57065,68.01018,-68.26941,-125.8253,152.8,-49.58244,202408221539373065,
2-15,A_Baseline,1,Q3FrontUp,-27.63064,34.63388,67.9678,-68.27078,-125.8237,152.8039,-49.58205,202408221539373253,
2-15,A_Baseline,1,Q3FrontUp,-27.6716,34.6921,67.93269,-68.27029,-125.8211,152.8193,-49.58213,202408221539373517,
2-15,A_Baseline,1,Q3FrontUp,-27.6716,34.6921,67.93269,-68.27029,-125.8211,152.8193,-49.58213,202408221539373797,
2-15,A_Baseline,1,Q3FrontUp,-27.70621,34.74149,67.90117,-68.26972,-125.8158,152.8257,-49.58216,202408221539373968,
2-15,A_Baseline,1,Q3FrontUp,-27.73037,34.79886,67.87524,-68.2695,-125.8118,152.8287,-49.58187,202408221539374251,
2-15,A_Baseline,1,Q3FrontUp,-27.74199,34.84517,67.84875,-68.26982,-125.8109,152.836,-49.58191,202408221539374441,
2-15,A_Baseline,1,Q3FrontUp,-27.74317,34.88203,67.81486,-68.26996,-125.8043,152.8444,-49.58187,202408221539374762,
2-15,A_Baseline,1,Q3FrontUp,-27.74317,34.88203,67.81486,-68.26996,-125.8043,152.8444,-49.58187,202408221539374966,
2-15,A_Baseline,1,Q3FrontUp,-27.73118,34.91733,67.76342,-68.26929,-125.7941,152.849,-49.58219,202408221539375143,
2-15,A_Baseline,1,Q3FrontUp,-27.70546,34.94913,67.68784,-68.27017,-125.783,152.8495,-49.58243,202408221539375424,
2-15,A_Baseline,1,Q3FrontUp,-27.70546,34.94913,67.68784,-68.27017,-125.783,152.8495,-49.58243,202408221539375591,
2-15,A_Baseline,1,Q3FrontUp,-27.65989,34.98292,67.58652,-68.26976,-125.7803,152.8497,-49.58226,202408221539375754,
2-15,A_Baseline,1,Q3FrontUp,-27.65989,34.98292,67.58652,-68.26976,-125.7803,152.8497,-49.58226,202408221539375934,
2-15,A_Baseline,1,Q3FrontUp,-27.60797,35.01634,67.48265,-68.26601,-125.7772,152.8494,-49.58204,202408221539376141,
2-15,A_Baseline,1,Q3FrontUp,-27.60797,35.01634,67.48265,-68.26601,-125.7772,152.8494,-49.58204,202408221539376316,
2-15,A_Baseline,1,Q3FrontUp,-27.54323,35.05772,67.3549,-68.26384,-125.7747,152.8495,-49.58204,202408221539376501,
2-15,A_Baseline,1,Q3FrontUp,-27.48108,35.10526,67.24268,-68.26498,-125.7727,152.8492,-49.5821,202408221539376780,
2-15,A_Baseline,1,Q3FrontUp,-27.41925,35.15768,67.12234,-68.26524,-125.772,152.8492,-49.58198,202408221539377110,
2-15,A_Baseline,1,Q3FrontUp,-27.41925,35.15768,67.12234,-68.26524,-125.772,152.8492,-49.58198,202408221539377291,
2-15,A_Baseline,1,Q3FrontUp,-27.35938,35.21467,67.00912,-68.26615,-125.7722,152.8491,-49.58234,202408221539377578,
2-15,A_Baseline,1,Q3FrontUp,-27.35938,35.21467,67.00912,-68.26615,-125.7722,152.8491,-49.58234,202408221539377740,
2-15,A_Baseline,1,Q3FrontUp,-27.29675,35.27863,66.89401,-68.26579,-125.7716,152.8491,-49.5826,202408221539377912,
2-15,A_Baseline,1,Q3FrontUp,-27.23157,35.33403,66.7865,-68.26436,-125.7701,152.8489,-49.58411,202408221539378153,
2-15,A_Baseline,1,Q3FrontUp,-27.23157,35.33403,66.7865,-68.26436,-125.7701,152.8489,-49.58411,202408221539378407,
2-15,A_Baseline,1,Q3FrontUp,-27.15921,35.37976,66.67354,-68.26543,-125.7699,152.8485,-49.5852,202408221539378579,
2-15,A_Baseline,1,Q3FrontUp,-27.04484,35.42107,66.51595,-68.26335,-125.7551,152.8485,-49.59428,202408221539378767,
2-15,A_Baseline,1,Q3FrontUp,-27.04484,35.42107,66.51595,-68.26335,-125.7551,152.8485,-49.59428,202408221539378936,
2-15,A_Baseline,1,Q3FrontUp,-26.90781,35.45815,66.34274,-68.26265,-125.7429,152.8486,-49.59817,202408221539379280,
2-15,A_Baseline,1,Q3FrontUp,-26.75253,35.50251,66.16368,-68.26295,-125.7373,152.8487,-49.59789,202408221539379466,
2-15,A_Baseline,1,Q3FrontUp,-26.75253,35.50251,66.16368,-68.26295,-125.7373,152.8487,-49.59789,202408221539379643,
2-15,A_Baseline,1,Q3FrontUp,-26.60446,35.54593,66.00058,-68.26335,-125.7342,152.849,-49.59824,202408221539379919,
2-15,A_Baseline,1,Q3FrontUp,-26.45631,35.59951,65.85441,-68.26274,-125.7331,152.849,-49.59933,202408221539380090,
2-15,A_Baseline,1,Q3FrontUp,-26.45631,35.59951,65.85441,-68.26274,-125.7331,152.849,-49.59933,202408221539380247,
2-15,A_Baseline,1,Q3FrontUp,-26.3145,35.66707,65.73183,-68.26389,-125.7326,152.8489,-49.60031,202408221539380420,
2-15,A_Baseline,1,Q3FrontUp,-26.3145,35.66707,65.73183,-68.26389,-125.7326,152.8489,-49.60031,202408221539380622,
2-15,A_Baseline,1,Q3FrontUp,-26.18188,35.73656,65.63255,-68.26875,-125.7314,152.8489,-49.60627,202408221539380912,
2-15,A_Baseline,1,Q3FrontUp,-26.18188,35.73656,65.63255,-68.26875,-125.7314,152.8489,-49.60627,202408221539381082,
2-15,A_Baseline,1,Q3FrontUp,-26.06157,35.81129,65.55773,-68.27795,-125.7308,152.8495,-49.61411,202408221539381318,
2-15,A_Baseline,1,Q3FrontUp,-25.96057,35.86248,65.50002,-68.2921,-125.731,152.851,-49.61794,202408221539381588,
2-15,A_Baseline,1,Q3FrontUp,-25.87424,35.9002,65.44507,-68.30386,-125.7305,152.852,-49.62032,202408221539381808,
2-15,A_Baseline,1,Q3FrontUp,-25.77952,35.93456,65.38149,-68.30971,-125.7304,152.8519,-49.62093,202408221539382097,
2-15,A_Baseline,1,Q3FrontUp,-25.77952,35.93456,65.38149,-68.30971,-125.7304,152.8519,-49.62093,202408221539382261,
2-15,A_Baseline,1,Q3FrontUp,-25.77952,35.93456,65.38149,-68.30971,-125.7304,152.8519,-49.62093,202408221539382433,
2-15,A_Baseline,1,Q3FrontUp,-25.69088,35.96299,65.3319,-68.31226,-125.7305,152.8524,-49.62108,202408221539382611,
2-15,A_Baseline,1,Q3FrontUp,-25.57868,35.98702,65.26299,-68.31211,-125.7303,152.8528,-49.62115,202408221539382817,
2-15,A_Baseline,1,Q3FrontUp,-25.45213,36.00059,65.1824,-68.31058,-125.7297,152.853,-49.62211,202408221539383087,
2-15,A_Baseline,1,Q3FrontUp,-25.29893,36.01418,65.07536,-68.31326,-125.7299,152.853,-49.62391,202408221539383422,
2-15,A_Baseline,1,Q3FrontUp,-25.29893,36.01418,65.07536,-68.31326,-125.7299,152.853,-49.62391,202408221539383607,
2-15,A_Baseline,1,Q3FrontUp,-25.15071,36.03614,64.98069,-68.31309,-125.7297,152.8529,-49.62506,202408221539383755,
2-15,A_Baseline,1,Q3FrontUp,-25.15071,36.03614,64.98069,-68.31309,-125.7297,152.8529,-49.62506,202408221539383987,
2-15,A_Baseline,1,Q3FrontUp,-24.98737,36.0535,64.85429,-68.3119,-125.7295,152.8532,-49.62578,202408221539384266,
2-15,A_Baseline,1,Q3FrontUp,-24.81733,36.05932,64.70598,-68.31358,-125.7296,152.8533,-49.62725,202408221539384476,
2-15,A_Baseline,1,Q3FrontUp,-24.64551,36.06934,64.57621,-68.3149,-125.7299,152.8535,-49.62664,202408221539384778,
2-15,A_Baseline,1,Q3FrontUp,-24.64551,36.06934,64.57621,-68.3149,-125.7299,152.8535,-49.62664,202408221539384979,
2-15,A_Baseline,1,Q3FrontUp,-24.49487,36.08373,64.47888,-68.32167,-125.7295,152.8542,-49.62693,202408221539385244,
2-15,A_Baseline,1,Q3FrontUp,-24.35867,36.09521,64.40038,-68.33147,-125.7297,152.8544,-49.6267,202408221539385410,
2-15,A_Baseline,1,Q3FrontUp,-24.35867,36.09521,64.40038,-68.33147,-125.7297,152.8544,-49.6267,202408221539385583,
2-15,A_Baseline,1,Q3FrontUp,-24.2267,36.10945,64.32935,-68.34187,-125.7298,152.8543,-49.62714,202408221539385755,
2-15,A_Baseline,1,Q3FrontUp,-24.2267,36.10945,64.32935,-68.34187,-125.7298,152.8543,-49.62714,202408221539385934,
2-15,A_Baseline,1,Q3FrontUp,-24.10163,36.11732,64.2739,-68.35644,-125.7297,152.8546,-49.62708,202408221539386164,
2-15,A_Baseline,1,Q3FrontUp,-24.10163,36.11732,64.2739,-68.35644,-125.7297,152.8546,-49.62708,202408221539386443,
2-15,A_Baseline,1,Q3FrontUp,-23.98569,36.11687,64.23808,-68.37632,-125.7297,152.8546,-49.62711,202408221539386612,
2-15,A_Baseline,1,Q3FrontUp,-23.85551,36.116,64.18857,-68.38451,-125.7295,152.855,-49.62679,202408221539386785,
2-15,A_Baseline,1,Q3FrontUp,-23.85551,36.116,64.18857,-68.38451,-125.7295,152.855,-49.62679,202408221539386954,
2-15,A_Baseline,1,Q3FrontUp,-23.85551,36.116,64.18857,-68.38451,-125.7295,152.855,-49.62679,202408221539387143,
2-15,A_Baseline,1,Q3FrontUp,-23.55303,36.11361,64.0183,-68.38813,-125.7298,152.8551,-49.62716,202408221539387417,
2-15,A_Baseline,1,Q3FrontUp,-23.55303,36.11361,64.0183,-68.38813,-125.7298,152.8551,-49.62716,202408221539387588,
2-15,A_Baseline,1,Q3FrontUp,-23.38965,36.11387,63.90941,-68.38144,-125.7297,152.8547,-49.63007,202408221539387802,
2-15,A_Baseline,1,Q3FrontUp,-23.21797,36.11553,63.80191,-68.38247,-125.73,152.855,-49.63955,202408221539388102,
2-15,A_Baseline,1,Q3FrontUp,-23.21797,36.11553,63.80191,-68.38247,-125.73,152.855,-49.63955,202408221539388315,
2-15,A_Baseline,1,Q3FrontUp,-23.05711,36.11766,63.71224,-68.38708,-125.7299,152.855,-49.64388,202408221539388588,
2-15,A_Baseline,1,Q3FrontUp,-22.92222,36.1185,63.64131,-68.38907,-125.7304,152.855,-49.6443,202408221539388779,
2-15,A_Baseline,1,Q3FrontUp,-22.92222,36.1185,63.64131,-68.38907,-125.7304,152.855,-49.6443,202408221539388970,
2-15,A_Baseline,1,Q3FrontUp,-22.80611,36.11837,63.5903,-68.39074,-125.7309,152.8551,-49.64424,202408221539389336,
2-15,A_Baseline,1,Q3FrontUp,-22.7198,36.11743,63.57795,-68.38895,-125.7308,152.8553,-49.6447,202408221539389571,
2-15,A_Baseline,1,Q3FrontUp,-22.66375,36.11464,63.57884,-68.38817,-125.7306,152.8557,-49.64491,202408221539389761,
2-15,A_Baseline,1,Q3FrontUp,-22.60863,36.10954,63.57727,-68.38292,-125.731,152.8554,-49.64462,202408221539390079,
2-15,A_Baseline,1,Q3FrontUp,-22.60863,36.10954,63.57727,-68.38292,-125.731,152.8554,-49.64462,202408221539390270,
2-15,A_Baseline,1,Q3FrontUp,-22.55573,36.10768,63.57803,-68.37472,-125.7308,152.8558,-49.64533,202408221539390486,
2-15,A_Baseline,1,Q3FrontUp,-22.50333,36.10733,63.57843,-68.37097,-125.7306,152.8558,-49.64554,202408221539390756,
2-15,A_Baseline,1,Q3FrontUp,-22.50333,36.10733,63.57843,-68.37097,-125.7306,152.8558,-49.64554,202408221539390972,
2-15,A_Baseline,1,Q3FrontUp,-22.44336,36.10746,63.56998,-68.36652,-125.7309,152.8554,-49.6456,202408221539391267,
2-15,A_Baseline,1,Q3FrontUp,-22.36755,36.10641,63.54262,-68.36629,-125.7309,152.856,-49.6457,202408221539391506,
2-15,A_Baseline,1,Q3FrontUp,-22.28375,36.10268,63.50444,-68.36195,-125.731,152.8563,-49.64536,202408221539391788,
2-15,A_Baseline,1,Q3FrontUp,-22.19521,36.09772,63.45936,-68.35047,-125.7309,152.8566,-49.64563,202408221539392079,
2-15,A_Baseline,1,Q3FrontUp,-22.19521,36.09772,63.45936,-68.35047,-125.7309,152.8566,-49.64563,202408221539392250,
2-15,A_Baseline,1,Q3FrontUp,-22.19521,36.09772,63.45936,-68.35047,-125.7309,152.8566,-49.64563,202408221539392460,
2-15,A_Baseline,1,Q3FrontUp,-22.10427,36.09481,63.41811,-68.34294,-125.7309,152.8562,-49.64546,202408221539392632,
2-15,A_Baseline,1,Q3FrontUp,-22.02317,36.09526,63.39578,-68.34021,-125.7311,152.8564,-49.64506,202408221539392909,
2-15,A_Baseline,1,Q3FrontUp,-21.94753,36.09607,63.38476,-68.34042,-125.731,152.8568,-49.64477,202408221539393074,
2-15,A_Baseline,1,Q3FrontUp,-21.94753,36.09607,63.38476,-68.34042,-125.731,152.8568,-49.64477,202408221539393237,
2-15,A_Baseline,1,Q3FrontUp,-21.8773,36.09523,63.38749,-68.33963,-125.7311,152.8574,-49.64425,202408221539393405,
2-15,A_Baseline,1,Q3FrontUp,-21.8773,36.09523,63.38749,-68.33963,-125.7311,152.8574,-49.64425,202408221539393577,
2-15,A_Baseline,1,Q3FrontUp,-21.81183,36.09444,63.39207,-68.33862,-125.731,152.858,-49.64385,202408221539393803,
2-15,A_Baseline,1,Q3FrontUp,-21.75305,36.09288,63.41121,-68.33809,-125.731,152.8578,-49.64377,202408221539394082,
2-15,A_Baseline,1,Q3FrontUp,-21.75305,36.09288,63.41121,-68.33809,-125.731,152.8578,-49.64377,202408221539394321,
2-15,A_Baseline,1,Q3FrontUp,-21.71017,36.09088,63.45255,-68.33807,-125.7311,152.8577,-49.64352,202408221539394583,
2-15,A_Baseline,1,Q3FrontUp,-21.63758,36.08762,63.45664,-68.31178,-125.7312,152.8583,-49.64383,202408221539394810,
2-15,A_Baseline,1,Q3FrontUp,-21.63758,36.08762,63.45664,-68.31178,-125.7312,152.8583,-49.64383,202408221539395082,
2-15,A_Baseline,1,Q3FrontUp,-21.5485,36.08395,63.44109,-68.27026,-125.731,152.858,-49.64378,202408221539395247,
2-15,A_Baseline,1,Q3FrontUp,-21.44896,36.07808,63.40006,-68.22207,-125.7312,152.8578,-49.64373,202408221539395409,
2-15,A_Baseline,1,Q3FrontUp,-21.44896,36.07808,63.40006,-68.22207,-125.7312,152.8578,-49.64373,202408221539395577,
2-15,A_Baseline,1,Q3FrontUp,-21.44896,36.07808,63.40006,-68.22207,-125.7312,152.8578,-49.64373,202408221539395753,
2-15,A_Baseline,1,Q3FrontUp,-21.35521,36.07001,63.37465,-68.18533,-125.7311,152.858,-49.64338,202408221539396005,
2-15,A_Baseline,1,Q3FrontUp,-21.24651,36.06615,63.33794,-68.14606,-125.7313,152.8579,-49.64251,202408221539396369,
2-15,A_Baseline,1,Q3FrontUp,-21.11991,36.0625,63.28313,-68.10163,-125.7315,152.8596,-49.64096,202408221539396599,
2-15,A_Baseline,1,Q3FrontUp,-20.98107,36.05273,63.22126,-68.07652,-125.7312,152.8659,-49.64033,202408221539396790,
2-15,A_Baseline,1,Q3FrontUp,-20.98107,36.05273,63.22126,-68.07652,-125.7312,152.8659,-49.64033,202408221539396963,
2-15,A_Baseline,1,Q3FrontUp,-20.84495,36.04105,63.16586,-68.06594,-125.7323,152.8975,-49.63737,202408221539397120,
2-15,A_Baseline,1,Q3FrontUp,-20.7031,36.03035,63.11085,-68.05949,-125.7336,152.9004,-49.61251,202408221539397478,
2-15,A_Baseline,1,Q3FrontUp,-20.55263,36.01758,63.04118,-68.04906,-125.7339,152.9041,-49.61158,202408221539397752,
2-15,A_Baseline,1,Q3FrontUp,-20.55263,36.01758,63.04118,-68.04906,-125.7339,152.9041,-49.61158,202408221539397916,
2-15,A_Baseline,1,Q3FrontUp,-20.38002,36.00139,62.95776,-68.03339,-125.734,152.906,-49.61143,202408221539398141,
2-15,A_Baseline,1,Q3FrontUp,-20.19953,35.98269,62.87142,-68.0114,-125.7343,152.906,-49.61107,202408221539398414,
2-15,A_Baseline,1,Q3FrontUp,-20.19953,35.98269,62.87142,-68.0114,-125.7343,152.906,-49.61107,202408221539398564,
2-15,A_Baseline,1,Q3FrontUp,-20.19953,35.98269,62.87142,-68.0114,-125.7343,152.906,-49.61107,202408221539398745,
2-15,A_Baseline,1,Q3FrontUp,-20.04231,35.96153,62.81688,-68.00055,-125.7503,152.9151,-49.59607,202408221539398910,
2-15,A_Baseline,1,Q3FrontUp,-19.8911,35.93877,62.76527,-67.99409,-125.7585,152.9367,-49.58387,202408221539399144,
2-15,A_Baseline,1,Q3FrontUp,-19.74622,35.91053,62.71577,-67.98547,-125.7661,152.9536,-49.57192,202408221539399436,
2-15,A_Baseline,1,Q3FrontUp,-19.74622,35.91053,62.71577,-67.98547,-125.7661,152.9536,-49.57192,202408221539399589,
2-15,A_Baseline,1,Q3FrontUp,-19.64614,35.87582,62.70539,-67.98364,-125.766,152.9598,-49.57278,202408221539399934,
2-15,A_Baseline,1,Q3FrontUp,-19.56268,35.83822,62.7057,-67.98387,-125.766,152.9645,-49.57285,202408221539400265,
2-15,A_Baseline,1,Q3FrontUp,-19.56268,35.83822,62.7057,-67.98387,-125.766,152.9645,-49.57285,202408221539400472,
2-15,A_Baseline,1,Q3FrontUp,-19.4956,35.79866,62.70678,-67.98229,-125.7655,152.9719,-49.57298,202408221539400622,
2-15,A_Baseline,1,Q3FrontUp,-19.41623,35.75128,62.6575,-67.94955,-125.7657,152.9867,-49.57339,202408221539400916,
2-15,A_Baseline,1,Q3FrontUp,-19.32291,35.69299,62.56175,-67.88707,-125.7657,153.0037,-49.57335,202408221539401080,
2-15,A_Baseline,1,Q3FrontUp,-19.32291,35.69299,62.56175,-67.88707,-125.7657,153.0037,-49.57335,202408221539401240,
2-15,A_Baseline,1,Q3FrontUp,-19.20849,35.61834,62.40299,-67.77698,-125.7656,153.0187,-49.57327,202408221539401440,
2-15,A_Baseline,1,Q3FrontUp,-19.20849,35.61834,62.40299,-67.77698,-125.7656,153.0187,-49.57327,202408221539401659,
2-15,A_Baseline,1,Q3FrontUp,-19.11188,35.55831,62.25964,-67.65768,-125.7657,153.0232,-49.57308,202408221539401929,
2-15,A_Baseline,1,Q3FrontUp,-19.03764,35.51103,62.14065,-67.53895,-125.7654,153.0253,-49.57202,202408221539402307,
2-15,A_Baseline,1,Q3FrontUp,-19.0008,35.46514,62.0652,-67.4568,-125.7656,153.0252,-49.57064,202408221539402597,
2-15,A_Baseline,1,Q3FrontUp,-18.97113,35.41467,61.98826,-67.38689,-125.7656,153.0253,-49.5693,202408221539402796,
2-15,A_Baseline,1,Q3FrontUp,-18.97023,35.36258,61.93596,-67.34485,-125.7586,153.0255,-49.56894,202408221539403076,
2-15,A_Baseline,1,Q3FrontUp,-18.97023,35.36258,61.93596,-67.34485,-125.7586,153.0255,-49.56894,202408221539403258,
2-15,A_Baseline,1,Q3FrontUp,-19.00052,35.33436,61.93851,-67.34471,-125.743,153.0425,-49.56895,202408221539403433,
2-15,A_Baseline,1,Q3FrontUp,-19.00052,35.33436,61.93851,-67.34471,-125.743,153.0425,-49.56895,202408221539403605,
2-15,A_Baseline,1,Q3FrontUp,-19.05134,35.32563,61.98775,-67.35229,-125.7302,153.0457,-49.5691,202408221539403826,
2-15,A_Baseline,1,Q3FrontUp,-19.10336,35.3247,62.03259,-67.35153,-125.7264,153.0468,-49.57057,202408221539404091,
2-15,A_Baseline,1,Q3FrontUp,-19.10336,35.3247,62.03259,-67.35153,-125.7264,153.0468,-49.57057,202408221539404259,
2-15,A_Baseline,1,Q3FrontUp,-19.10336,35.3247,62.03259,-67.35153,-125.7264,153.0468,-49.57057,202408221539404447,
2-15,A_Baseline,1,Q3FrontUp,-19.16927,35.328,62.03823,-67.34621,-125.7156,153.0481,-49.57122,202408221539404759,
2-15,A_Baseline,1,Q3FrontUp,-19.16927,35.328,62.03823,-67.34621,-125.7156,153.0481,-49.57122,202408221539404967,
2-15,A_Baseline,1,Q3FrontUp,-19.19918,35.33552,62.03616,-67.34633,-125.7156,153.0482,-49.57128,202408221539405244,
2-15,A_Baseline,1,Q3FrontUp,-19.22967,35.34119,62.03612,-67.34561,-125.7158,153.0484,-49.57129,202408221539405462,
