mpan31415/robot-x-ar/study2/data/raw_all_participants/Participant_2-9_1.csv
ParticipantID,Condition,Trial,PostureID,J1,J2,J3,J4,J5,J6,J7,Timestamp
2-Sep,C_HumanVertical,1,Q1FrontUp,-26.98511,23.87716,69.48044,-17.74504,-111.1815,150.7519,-52.14774,202408271626268734
2-Sep,C_HumanVertical,1,Q1FrontUp,-26.98522,23.87755,69.48507,-17.7448,-111.1817,150.7517,-52.15408,202408271626269127
2-Sep,C_HumanVertical,1,Q1FrontUp,-26.98538,23.87729,69.48627,-17.74472,-111.1819,150.7518,-52.16045,202408271626269357
2-Sep,C_HumanVertical,1,Q1FrontUp,-26.98515,23.87711,69.48761,-17.74462,-111.1816,150.7517,-52.16431,202408271626269703
2-Sep,C_HumanVertical,1,Q1FrontUp,-26.98515,23.87711,69.48761,-17.74462,-111.1816,150.7517,-52.16431,202408271626269858
2-Sep,C_HumanVertical,1,Q1FrontUp,-27.01348,23.87619,69.48738,-17.75393,-111.2992,150.752,-52.16671,202408271626270023
2-Sep,C_HumanVertical,1,Q1FrontUp,-27.03316,23.87764,69.48823,-17.76267,-111.3797,150.7511,-52.16932,202408271626270293
2-Sep,C_HumanVertical,1,Q1FrontUp,-27.03316,23.87764,69.48823,-17.76267,-111.3797,150.7511,-52.16932,202408271626270479
2-Sep,C_HumanVertical,1,Q1FrontUp,-27.04077,23.87957,69.49002,-17.76254,-111.3882,150.7514,-52.17238,202408271626270725
2-Sep,C_HumanVertical,1,Q1FrontUp,-27.05112,23.87995,69.49222,-17.7621,-111.3936,150.7512,-52.17459,202408271626270976
2-Sep,C_HumanVertical,1,Q1FrontUp,-27.05112,23.87995,69.49222,-17.7621,-111.3936,150.7512,-52.17459,202408271626271159
2-Sep,C_HumanVertical,1,Q1FrontUp,-27.05112,23.87995,69.49222,-17.7621,-111.3936,150.7512,-52.17459,202408271626271490
2-Sep,C_HumanVertical,1,Q1FrontUp,-27.06027,23.87913,69.49428,-17.7787,-111.4693,150.7515,-52.18344,202408271626271706
2-Sep,C_HumanVertical,1,Q1FrontUp,-27.06696,23.87811,69.49452,-17.78088,-111.5134,150.7513,-52.19162,202408271626271961
2-Sep,C_HumanVertical,1,Q1FrontUp,-27.06696,23.87811,69.49452,-17.78088,-111.5134,150.7513,-52.19162,202408271626272133
2-Sep,C_HumanVertical,1,Q1FrontUp,-27.07547,23.87874,69.4951,-17.78024,-111.5395,150.7511,-52.19793,202408271626272319
2-Sep,C_HumanVertical,1,Q1FrontUp,-27.07547,23.87874,69.4951,-17.78024,-111.5395,150.7511,-52.19793,202408271626272472
2-Sep,C_HumanVertical,1,Q1FrontUp,-27.07532,23.87902,69.49819,-17.77974,-111.5396,150.7509,-52.20216,202408271626272638
2-Sep,C_HumanVertical,1,Q1FrontUp,-27.07532,23.87902,69.49819,-17.77974,-111.5396,150.7509,-52.20216,202408271626272870
2-Sep,C_HumanVertical,1,Q1FrontUp,-27.10469,23.87826,69.49788,-17.78765,-111.6814,150.7516,-52.20499,202408271626273135
2-Sep,C_HumanVertical,1,Q1FrontUp,-27.12448,23.88057,69.49991,-17.79434,-111.7995,150.7506,-52.20668,202408271626273356
2-Sep,C_HumanVertical,1,Q1FrontUp,-27.12652,23.88172,69.50548,-17.79354,-111.8086,150.7512,-52.20741,202408271626273614
2-Sep,C_HumanVertical,1,Q1FrontUp,-27.12652,23.88172,69.50548,-17.79354,-111.8086,150.7512,-52.20741,202408271626273801
2-Sep,C_HumanVertical,1,Q1FrontUp,-27.12652,23.88172,69.50548,-17.79354,-111.8086,150.7512,-52.20741,202408271626274024
2-Sep,C_HumanVertical,1,Q1FrontUp,-27.13171,23.88047,69.51308,-17.79145,-111.8138,150.751,-52.20959,202408271626274307
2-Sep,C_HumanVertical,1,Q1FrontUp,-27.13007,23.87714,69.52588,-17.79516,-111.8148,150.7514,-52.21005,202408271626274622
2-Sep,C_HumanVertical,1,Q1FrontUp,-27.13159,23.87714,69.54784,-17.79306,-111.8168,150.7511,-52.21042,202408271626274868
2-Sep,C_HumanVertical,1,Q1FrontUp,-27.13159,23.87714,69.54784,-17.79306,-111.8168,150.7511,-52.21042,202408271626275023
2-Sep,C_HumanVertical,1,Q1FrontUp,-27.13363,23.87772,69.56558,-17.79225,-111.8198,150.751,-52.21116,202408271626275302
2-Sep,C_HumanVertical,1,Q1FrontUp,-27.13363,23.87772,69.56558,-17.79225,-111.8198,150.751,-52.21116,202408271626275481
2-Sep,C_HumanVertical,1,Q1FrontUp,-27.13614,23.87794,69.57861,-17.79266,-111.8285,150.751,-52.21163,202408271626275631
2-Sep,C_HumanVertical,1,Q1FrontUp,-27.13614,23.87794,69.57861,-17.79266,-111.8285,150.751,-52.21163,202408271626275803
2-Sep,C_HumanVertical,1,Q1FrontUp,-27.13673,23.87804,69.58765,-17.79351,-111.8317,150.7511,-52.21203,202408271626275983
2-Sep,C_HumanVertical,1,Q1FrontUp,-27.13673,23.87804,69.58765,-17.79351,-111.8317,150.7511,-52.21203,202408271626276186
2-Sep,C_HumanVertical,1,Q1FrontUp,-27.13652,23.87785,69.60286,-17.79557,-111.8341,150.7511,-52.21222,202408271626276354
2-Sep,C_HumanVertical,1,Q1FrontUp,-27.13744,23.87914,69.6151,-17.79474,-111.8355,150.751,-52.21208,202408271626276628
2-Sep,C_HumanVertical,1,Q1FrontUp,-27.13744,23.87914,69.6151,-17.79474,-111.8355,150.751,-52.21208,202408271626276796
2-Sep,C_HumanVertical,1,Q1FrontUp,-27.13964,23.87896,69.62132,-17.79417,-111.837,150.751,-52.21235,202408271626276967
2-Sep,C_HumanVertical,1,Q1FrontUp,-27.13964,23.87896,69.62132,-17.79417,-111.837,150.751,-52.21235,202408271626277137
2-Sep,C_HumanVertical,1,Q1FrontUp,-27.13964,23.87896,69.62132,-17.79417,-111.837,150.751,-52.21235,202408271626277350
2-Sep,C_HumanVertical,1,Q1FrontUp,-27.14184,23.87794,69.64346,-17.79419,-111.8378,150.7511,-52.21275,202408271626277640
2-Sep,C_HumanVertical,1,Q1FrontUp,-27.14184,23.87794,69.64346,-17.79419,-111.8378,150.7511,-52.21275,202408271626277808
2-Sep,C_HumanVertical,1,Q1FrontUp,-27.14184,23.87794,69.64346,-17.79419,-111.8378,150.7511,-52.21275,202408271626278026
2-Sep,C_HumanVertical,1,Q1FrontUp,-27.14297,23.87792,69.66896,-17.79398,-111.8384,150.751,-52.21255,202408271626278327
2-Sep,C_HumanVertical,1,Q1FrontUp,-27.14297,23.87792,69.66896,-17.79398,-111.8384,150.751,-52.21255,202408271626278541
2-Sep,C_HumanVertical,1,Q1FrontUp,-27.14559,23.87868,69.68607,-17.79456,-111.8387,150.751,-52.21294,202408271626278809
2-Sep,C_HumanVertical,1,Q1FrontUp,-27.14536,23.8781,69.68552,-17.79414,-111.8386,150.751,-52.21314,202408271626278972
2-Sep,C_HumanVertical,1,Q1FrontUp,-27.14536,23.8781,69.68552,-17.79414,-111.8386,150.751,-52.21314,202408271626279135
2-Sep,C_HumanVertical,1,Q1FrontUp,-27.14446,23.87559,69.68491,-17.79366,-111.8372,150.751,-52.21286,202408271626279300
2-Sep,C_HumanVertical,1,Q1FrontUp,-27.14446,23.87559,69.68491,-17.79366,-111.8372,150.751,-52.21286,202408271626279475
2-Sep,C_HumanVertical,1,Q1FrontUp,-27.14307,23.87053,69.68499,-17.79386,-111.8361,150.7512,-52.21281,202408271626279685
2-Sep,C_HumanVertical,1,Q1FrontUp,-27.14919,23.86747,69.72801,-17.79693,-111.8361,150.7469,-52.22737,202408271626279972
2-Sep,C_HumanVertical,1,Q1FrontUp,-27.14919,23.86747,69.72801,-17.79693,-111.8361,150.7469,-52.22737,202408271626280122
2-Sep,C_HumanVertical,1,Q1FrontUp,-27.14924,23.85522,69.80265,-17.80322,-111.755,150.7149,-52.24538,202408271626280298
2-Sep,C_HumanVertical,1,Q1FrontUp,-27.14924,23.85522,69.80265,-17.80322,-111.755,150.7149,-52.24538,202408271626280449
2-Sep,C_HumanVertical,1,Q1FrontUp,-27.13172,23.83661,69.90914,-17.80189,-111.5442,150.7085,-52.24712,202408271626280627
2-Sep,C_HumanVertical,1,Q1FrontUp,-27.13172,23.83661,69.90914,-17.80189,-111.5442,150.7085,-52.24712,202408271626280848
2-Sep,C_HumanVertical,1,Q1FrontUp,-27.10117,23.80689,70.00302,-17.80199,-111.3789,150.7043,-52.24934,202408271626281147
2-Sep,C_HumanVertical,1,Q1FrontUp,-27.02612,23.74698,70.05762,-17.80319,-111.0655,150.6994,-52.25156,202408271626281350
2-Sep,C_HumanVertical,1,Q1FrontUp,-26.89164,23.67156,70.0588,-17.79237,-110.6003,150.7021,-52.25344,202408271626281637
2-Sep,C_HumanVertical,1,Q1FrontUp,-26.89164,23.67156,70.0588,-17.79237,-110.6003,150.7021,-52.25344,202408271626281848
2-Sep,C_HumanVertical,1,Q1FrontUp,-26.75044,23.55218,70.05885,-17.79027,-110.1073,150.7028,-52.25514,202408271626282130
2-Sep,C_HumanVertical,1,Q1FrontUp,-26.59846,23.40425,70.08105,-17.83017,-109.3617,150.786,-52.24783,202408271626282306
2-Sep,C_HumanVertical,1,Q1FrontUp,-26.59846,23.40425,70.08105,-17.83017,-109.3617,150.786,-52.24783,202408271626282469
2-Sep,C_HumanVertical,1,Q1FrontUp,-26.4121,23.25004,70.17268,-17.89927,-108.1469,151.0307,-52.18782,202408271626282634
2-Sep,C_HumanVertical,1,Q1FrontUp,-26.4121,23.25004,70.17268,-17.89927,-108.1469,151.0307,-52.18782,202408271626282806
2-Sep,C_HumanVertical,1,Q1FrontUp,-26.20338,23.08701,70.29211,-17.98224,-107.0138,151.2683,-52.14073,202408271626283024
2-Sep,C_HumanVertical,1,Q1FrontUp,-26.02024,22.85203,70.48269,-18.11303,-105.7363,151.5507,-52.10346,202408271626283288
2-Sep,C_HumanVertical,1,Q1FrontUp,-26.02024,22.85203,70.48269,-18.11303,-105.7363,151.5507,-52.10346,202408271626283458
2-Sep,C_HumanVertical,1,Q1FrontUp,-25.85056,22.59098,70.75408,-18.34648,-104.35,151.9201,-52.06939,202408271626283650
2-Sep,C_HumanVertical,1,Q1FrontUp,-25.85056,22.59098,70.75408,-18.34648,-104.35,151.9201,-52.06939,202408271626283822
2-Sep,C_HumanVertical,1,Q1FrontUp,-25.76797,22.29512,71.18027,-18.63195,-103.1116,152.284,-51.99222,202408271626284021
2-Sep,C_HumanVertical,1,Q1FrontUp,-25.71005,21.9696,71.63239,-18.90372,-101.9665,152.6678,-51.91316,202408271626284280
2-Sep,C_HumanVertical,1,Q1FrontUp,-25.71005,21.9696,71.63239,-18.90372,-101.9665,152.6678,-51.91316,202408271626284467
2-Sep,C_HumanVertical,1,Q1FrontUp,-25.66064,21.63751,72.13115,-19.21336,-101.0298,153.0625,-51.8361,202408271626284694
2-Sep,C_HumanVertical,1,Q1FrontUp,-25.49825,21.37696,72.23177,-19.33479,-100.9213,153.1201,-51.83295,202408271626284972
2-Sep,C_HumanVertical,1,Q1FrontUp,-25.49825,21.37696,72.23177,-19.33479,-100.9213,153.1201,-51.83295,202408271626285177
2-Sep,C_HumanVertical,1,Q1FrontUp,-25.38082,21.09654,72.24117,-19.38288,-100.9251,153.1251,-51.83456,202408271626285462
2-Sep,C_HumanVertical,1,Q1FrontUp,-25.38082,21.09654,72.24117,-19.38288,-100.9251,153.1251,-51.83456,202408271626285629
2-Sep,C_HumanVertical,1,Q1FrontUp,-25.38082,21.09654,72.24117,-19.38288,-100.9251,153.1251,-51.83456,202408271626285813
2-Sep,C_HumanVertical,1,Q1FrontUp,-25.2795,20.70235,72.31225,-19.41471,-100.8311,153.1356,-51.83414,202408271626285979
2-Sep,C_HumanVertical,1,Q1FrontUp,-25.28628,20.64875,72.37013,-19.41557,-100.6751,153.1595,-51.83283,202408271626286194
2-Sep,C_HumanVertical,1,Q1FrontUp,-25.28628,20.64875,72.37013,-19.41557,-100.6751,153.1595,-51.83283,202408271626286467
2-Sep,C_HumanVertical,1,Q1FrontUp,-25.28336,20.6237,72.46769,-19.46476,-100.4528,153.2196,-51.83147,202408271626286632
2-Sep,C_HumanVertical,1,Q1FrontUp,-25.28336,20.6237,72.46769,-19.46476,-100.4528,153.2196,-51.83147,202408271626286798
2-Sep,C_HumanVertical,1,Q1FrontUp,-25.28962,20.58907,72.63733,-19.54618,-100.0415,153.3266,-51.81438,202408271626286985
2-Sep,C_HumanVertical,1,Q1FrontUp,-25.28962,20.58907,72.63733,-19.54618,-100.0415,153.3266,-51.81438,202408271626287150
2-Sep,C_HumanVertical,1,Q1FrontUp,-25.29564,20.56904,72.82341,-19.62306,-99.58092,153.4607,-51.78778,202408271626287365
2-Sep,C_HumanVertical,1,Q1FrontUp,-25.29605,20.55437,73.02191,-19.74443,-99.06578,153.6446,-51.75006,202408271626287632
2-Sep,C_HumanVertical,1,Q1FrontUp,-25.29988,20.49463,73.28064,-19.91684,-98.46041,153.8572,-51.702,202408271626287903
2-Sep,C_HumanVertical,1,Q1FrontUp,-25.29988,20.49463,73.28064,-19.91684,-98.46041,153.8572,-51.702,202408271626288140
2-Sep,C_HumanVertical,1,Q1FrontUp,-25.30083,20.4164,73.56626,-20.0817,-97.80233,154.1041,-51.65076,202408271626288319
2-Sep,C_HumanVertical,1,Q1FrontUp,-25.29686,20.31384,73.82834,-20.23836,-97.16341,154.3437,-51.59734,202408271626288517
2-Sep,C_HumanVertical,1,Q1FrontUp,-25.29686,20.31384,73.82834,-20.23836,-97.16341,154.3437,-51.59734,202408271626288806
2-Sep,C_HumanVertical,1,Q1FrontUp,-25.29563,20.18353,74.10329,-20.41639,-96.53938,154.5684,-51.53909,202408271626288975
2-Sep,C_HumanVertical,1,Q1FrontUp,-25.29563,20.18353,74.10329,-20.41639,-96.53938,154.5684,-51.53909,202408271626289135
2-Sep,C_HumanVertical,1,Q1FrontUp,-25.28915,20.03607,74.37263,-20.58351,-95.96337,154.8042,-51.48267,202408271626289360
2-Sep,C_HumanVertical,1,Q1FrontUp,-25.28915,20.03607,74.37263,-20.58351,-95.96337,154.8042,-51.48267,202408271626289529
2-Sep,C_HumanVertical,1,Q1FrontUp,-25.28831,19.86773,74.57968,-20.71685,-95.41882,155.0214,-51.4345,202408271626289808
2-Sep,C_HumanVertical,1,Q1FrontUp,-25.28831,19.86773,74.57968,-20.71685,-95.41882,155.0214,-51.4345,202408271626289974
2-Sep,C_HumanVertical,1,Q1FrontUp,-24.66586,19.78043,74.0173,-20.85782,-95.13943,155.1876,-51.42327,202408271626290137
2-Sep,C_HumanVertical,1,Q1FrontUp,-23.75173,19.6052,73.16621,-20.91708,-94.89545,155.2951,-51.41768,202408271626290304
2-Sep,C_HumanVertical,1,Q1FrontUp,-23.75173,19.6052,73.16621,-20.91708,-94.89545,155.2951,-51.41768,202408271626290484
2-Sep,C_HumanVertical,1,Q1FrontUp,-22.68969,19.51047,72.2774,-21.05733,-94.64806,155.4378,-51.40981,202408271626290706
2-Sep,C_HumanVertical,1,Q1FrontUp,-22.68969,19.51047,72.2774,-21.05733,-94.64806,155.4378,-51.40981,202408271626290866
2-Sep,C_HumanVertical,1,Q1FrontUp,-21.35381,19.41327,71.26004,-21.37563,-94.36937,155.5708,-51.40268,202408271626291132
2-Sep,C_HumanVertical,1,Q1FrontUp,-19.97017,19.38257,70.33561,-21.83523,-94.15461,155.7271,-51.34783,202408271626291304
2-Sep,C_HumanVertical,1,Q1FrontUp,-18.75768,19.44049,69.51494,-22.40464,-94.0262,155.924,-51.24398,202408271626291633
2-Sep,C_HumanVertical,1,Q1FrontUp,-18.75768,19.44049,69.51494,-22.40464,-94.0262,155.924,-51.24398,202408271626291848
2-Sep,C_HumanVertical,1,Q1FrontUp,-17.50647,19.45687,68.65191,-23.04972,-93.83393,156.0645,-51.17372,202408271626292132
2-Sep,C_HumanVertical,1,Q1FrontUp,-17.50647,19.45687,68.65191,-23.04972,-93.83393,156.0645,-51.17372,202408271626292319
2-Sep,C_HumanVertical,1,Q1FrontUp,-16.27794,19.45004,67.82106,-23.72685,-93.60056,156.2067,-51.1106,202408271626292526
2-Sep,C_HumanVertical,1,Q1FrontUp,-15.17916,19.46495,67.05256,-24.44959,-93.36037,156.3486,-51.05561,202408271626292806
2-Sep,C_HumanVertical,1,Q1FrontUp,-14.12316,19.48137,66.34669,-25.17588,-93.13047,156.4646,-51.00967,202408271626293024
2-Sep,C_HumanVertical,1,Q1FrontUp,-13.10922,19.47221,65.69144,-25.90359,-92.93431,156.5725,-50.96739,202408271626293313
2-Sep,C_HumanVertical,1,Q1FrontUp,-12.16156,19.47533,65.02435,-26.61192,-92.71872,156.6604,-50.91695,202408271626293639
2-Sep,C_HumanVertical,1,Q1FrontUp,-11.31694,19.47685,64.46357,-27.38162,-92.52773,156.7541,-50.84956,202408271626294031
2-Sep,C_HumanVertical,1,Q1FrontUp,-10.58525,19.46367,63.98178,-28.10626,-92.31607,156.8305,-50.78633,202408271626294281
2-Sep,C_HumanVertical,1,Q1FrontUp,-10.58525,19.46367,63.98178,-28.10626,-92.31607,156.8305,-50.78633,202408271626294466
2-Sep,C_HumanVertical,1,Q1FrontUp,-9.891884,19.45742,63.51914,-28.82051,-92.09829,156.9032,-50.73341,202408271626294620
2-Sep,C_HumanVertical,1,Q1FrontUp,-9.891884,19.45742,63.51914,-28.82051,-92.09829,156.9032,-50.73341,202408271626294803
2-Sep,C_HumanVertical,1,Q1FrontUp,-9.257558,19.46046,63.07638,-29.47994,-91.90155,156.9816,-50.68213,202408271626294980
2-Sep,C_HumanVertical,1,Q1FrontUp,-9.257558,19.46046,63.07638,-29.47994,-91.90155,156.9816,-50.68213,202408271626295156
2-Sep,C_HumanVertical,1,Q1FrontUp,-9.257558,19.46046,63.07638,-29.47994,-91.90155,156.9816,-50.68213,202408271626295352
2-Sep,C_HumanVertical,1,Q1FrontUp,-7.834593,19.46404,61.98519,-30.77548,-91.46178,157.0492,-50.56965,202408271626295632
2-Sep,C_HumanVertical,1,Q1FrontUp,-7.834593,19.46404,61.98519,-30.77548,-91.46178,157.0492,-50.56965,202408271626295848
2-Sep,C_HumanVertical,1,Q1FrontUp,-7.834593,19.46404,61.98519,-30.77548,-91.46178,157.0492,-50.56965,202408271626296125
2-Sep,C_HumanVertical,1,Q1FrontUp,-6.382858,19.4689,60.88079,-31.99378,-90.93354,157.0957,-50.49877,202408271626296305
2-Sep,C_HumanVertical,1,Q1FrontUp,-6.382858,19.4689,60.88079,-31.99378,-90.93354,157.0957,-50.49877,202408271626296524
2-Sep,C_HumanVertical,1,Q1FrontUp,-5.640726,19.47605,60.32946,-32.58979,-90.66174,157.1219,-50.49873,202408271626296793
2-Sep,C_HumanVertical,1,Q1FrontUp,-4.936758,19.49267,59.77416,-33.18015,-90.33835,157.1666,-50.57027,202408271626297121
2-Sep,C_HumanVertical,1,Q1FrontUp,-4.228474,19.5034,59.20138,-33.78825,-90.026,157.2493,-50.60618,202408271626297283
2-Sep,C_HumanVertical,1,Q1FrontUp,-4.228474,19.5034,59.20138,-33.78825,-90.026,157.2493,-50.60618,202408271626297527
2-Sep,C_HumanVertical,1,Q1FrontUp,-3.492137,19.49742,58.54748,-34.40835,-89.7304,157.4339,-50.60458,202408271626297693
2-Sep,C_HumanVertical,1,Q1FrontUp,-2.774032,19.49454,57.97569,-35.11191,-89.57606,157.6113,-50.52459,202408271626297966
2-Sep,C_HumanVertical,1,Q1FrontUp,-2.774032,19.49454,57.97569,-35.11191,-89.57606,157.6113,-50.52459,202408271626298147
2-Sep,C_HumanVertical,1,Q1FrontUp,-2.112812,19.48981,57.37588,-35.81975,-89.45956,157.7442,-50.41963,202408271626298306
2-Sep,C_HumanVertical,1,Q1FrontUp,-2.112812,19.48981,57.37588,-35.81975,-89.45956,157.7442,-50.41963,202408271626298470
2-Sep,C_HumanVertical,1,Q1FrontUp,-1.387553,19.49139,56.79034,-36.62252,-89.37758,157.8505,-50.24859,202408271626298635
2-Sep,C_HumanVertical,1,Q1FrontUp,-1.387553,19.49139,56.79034,-36.62252,-89.37758,157.8505,-50.24859,202408271626298858
2-Sep,C_HumanVertical,1,Q1FrontUp,-0.7360904,19.50099,56.26604,-37.37266,-89.30516,157.9572,-50.0993,202408271626299024
2-Sep,C_HumanVertical,1,Q1FrontUp,-0.1489564,19.53198,55.84227,-38.14535,-89.25299,158.0484,-49.97055,202408271626299307
2-Sep,C_HumanVertical,1,Q1FrontUp,0.343969,19.55588,55.5187,-38.98177,-89.1955,158.1491,-49.867,202408271626299621
2-Sep,C_HumanVertical,1,Q1FrontUp,0.343969,19.55588,55.5187,-38.98177,-89.1955,158.1491,-49.867,202408271626299810
2-Sep,C_HumanVertical,1,Q1FrontUp,0.8312811,19.58526,55.22328,-39.80317,-89.10722,158.2281,-49.78459,202408271626300017
2-Sep,C_HumanVertical,1,Q1FrontUp,1.283787,19.61428,54.86681,-40.58285,-89.02786,158.3062,-49.71091,202408271626300298
2-Sep,C_HumanVertical,1,Q1FrontUp,1.283787,19.61428,54.86681,-40.58285,-89.02786,158.3062,-49.71091,202408271626300464
2-Sep,C_HumanVertical,1,Q1FrontUp,1.283787,19.61428,54.86681,-40.58285,-89.02786,158.3062,-49.71091,202408271626300671
2-Sep,C_HumanVertical,1,Q1FrontUp,2.347955,19.67313,54.02079,-42.09502,-88.89295,158.4557,-49.59259,202408271626300985
2-Sep,C_HumanVertical,1,Q1FrontUp,2.947116,19.73675,53.5728,-42.81959,-88.83334,158.5191,-49.53549,202408271626301228
2-Sep,C_HumanVertical,1,Q1FrontUp,2.947116,19.73675,53.5728,-42.81959,-88.83334,158.5191,-49.53549,202408271626301485
2-Sep,C_HumanVertical,1,Q1FrontUp,3.571131,19.80648,53.04248,-43.43258,-88.76215,158.5563,-49.48994,202408271626301814
2-Sep,C_HumanVertical,1,Q1FrontUp,4.209744,19.90661,52.56855,-44.02832,-88.69361,158.5988,-49.4472,202408271626301983
2-Sep,C_HumanVertical,1,Q1FrontUp,4.209744,19.90661,52.56855,-44.02832,-88.69361,158.5988,-49.4472,202408271626302187
2-Sep,C_HumanVertical,1,Q1FrontUp,4.888872,20.0438,52.07573,-44.60816,-88.6369,158.6559,-49.36755,202408271626302474
2-Sep,C_HumanVertical,1,Q1FrontUp,5.610482,20.212,51.50632,-45.09943,-88.59958,158.7751,-49.23662,202408271626302655
2-Sep,C_HumanVertical,1,Q1FrontUp,5.610482,20.212,51.50632,-45.09943,-88.59958,158.7751,-49.23662,202408271626302802
2-Sep,C_HumanVertical,1,Q1FrontUp,6.440753,20.38328,50.88074,-45.59052,-88.5836,158.9345,-49.08072,202408271626302980
2-Sep,C_HumanVertical,1,Q1FrontUp,7.229567,20.57406,50.2714,-46.04471,-88.57755,159.073,-48.92367,202408271626303322
2-Sep,C_HumanVertical,1,Q1FrontUp,7.229567,20.57406,50.2714,-46.04471,-88.57755,159.073,-48.92367,202408271626303534
2-Sep,C_HumanVertical,1,Q1FrontUp,7.993545,20.78979,49.75827,-46.52004,-88.57416,159.2205,-48.77588,202408271626303802
2-Sep,C_HumanVertical,1,Q1FrontUp,8.920284,21.04571,49.0332,-46.87488,-88.51991,159.2716,-48.72935,202408271626303971
2-Sep,C_HumanVertical,1,Q1FrontUp,8.920284,21.04571,49.0332,-46.87488,-88.51991,159.2716,-48.72935,202408271626304132
2-Sep,C_HumanVertical,1,Q1FrontUp,9.843606,21.2847,48.27959,-47.20715,-88.46922,159.2872,-48.69558,202408271626304318
2-Sep,C_HumanVertical,1,Q1FrontUp,9.843606,21.2847,48.27959,-47.20715,-88.46922,159.2872,-48.69558,202408271626304483
2-Sep,C_HumanVertical,1,Q1FrontUp,10.70387,21.51399,47.61229,-47.48621,-88.42027,159.2867,-48.6851,202408271626304690
2-Sep,C_HumanVertical,1,Q1FrontUp,11.5645,21.75549,46.91987,-47.75224,-88.31203,159.2834,-48.68423,202408271626304950
2-Sep,C_HumanVertical,1,Q1FrontUp,11.5645,21.75549,46.91987,-47.75224,-88.31203,159.2834,-48.68423,202408271626305131
2-Sep,C_HumanVertical,1,Q1FrontUp,11.5645,21.75549,46.91987,-47.75224,-88.31203,159.2834,-48.68423,202408271626305353
2-Sep,C_HumanVertical,1,Q1FrontUp,13.34702,22.22195,45.396,-48.24554,-88.00587,159.2793,-48.67964,202408271626305646
2-Sep,C_HumanVertical,1,Q1FrontUp,13.34702,22.22195,45.396,-48.24554,-88.00587,159.2793,-48.67964,202408271626305868
2-Sep,C_HumanVertical,1,Q1FrontUp,14.19045,22.44313,44.69813,-48.50318,-87.84531,159.2787,-48.6731,202408271626306131
2-Sep,C_HumanVertical,1,Q1FrontUp,14.95435,22.65116,44.06649,-48.78191,-87.68806,159.2802,-48.66482,202408271626306310
2-Sep,C_HumanVertical,1,Q1FrontUp,15.60105,22.82856,43.52084,-49.11452,-87.54038,159.2794,-48.65213,202408271626306622
2-Sep,C_HumanVertical,1,Q1FrontUp,15.60105,22.82856,43.52084,-49.11452,-87.54038,159.2794,-48.65213,202408271626306801
2-Sep,C_HumanVertical,1,Q1FrontUp,16.04812,23.01194,43.2417,-49.46838,-87.51445,159.2805,-48.63827,202408271626307016
2-Sep,C_HumanVertical,1,Q1FrontUp,16.51843,23.21728,42.96302,-49.80843,-87.49414,159.2813,-48.61689,202408271626307309
2-Sep,C_HumanVertical,1,Q1FrontUp,16.51843,23.21728,42.96302,-49.80843,-87.49414,159.2813,-48.61689,202408271626307477
2-Sep,C_HumanVertical,1,Q1FrontUp,16.92964,23.38381,42.66223,-50.13669,-87.46937,159.2809,-48.58825,202408271626307627
2-Sep,C_HumanVertical,1,Q1FrontUp,16.92964,23.38381,42.66223,-50.13669,-87.46937,159.2809,-48.58825,202408271626307808
2-Sep,C_HumanVertical,1,Q1FrontUp,17.25459,23.57545,42.44242,-50.45202,-87.46799,159.2805,-48.57345,202408271626308025
2-Sep,C_HumanVertical,1,Q1FrontUp,17.61625,23.77062,42.1515,-50.77605,-87.46454,159.2811,-48.56112,202408271626308301
2-Sep,C_HumanVertical,1,Q1FrontUp,17.61625,23.77062,42.1515,-50.77605,-87.46454,159.2811,-48.56112,202408271626308523
2-Sep,C_HumanVertical,1,Q1FrontUp,18.0451,23.96984,41.77906,-51.02413,-87.46308,159.2793,-48.55277,202408271626308805
2-Sep,C_HumanVertical,1,Q1FrontUp,18.47746,24.18809,41.38696,-51.24204,-87.45259,159.2785,-48.53593,202408271626308965
2-Sep,C_HumanVertical,1,Q1FrontUp,18.47746,24.18809,41.38696,-51.24204,-87.45259,159.2785,-48.53593,202408271626309170
2-Sep,C_HumanVertical,1,Q1FrontUp,18.89006,24.40189,41.00349,-51.47242,-87.43369,159.2674,-48.52475,202408271626309475
2-Sep,C_HumanVertical,1,Q1FrontUp,19.2767,24.61371,40.65238,-51.71241,-87.40907,159.2359,-48.52515,202408271626309632
2-Sep,C_HumanVertical,1,Q1FrontUp,19.2767,24.61371,40.65238,-51.71241,-87.40907,159.2359,-48.52515,202408271626309814
2-Sep,C_HumanVertical,1,Q1FrontUp,19.65355,24.83749,40.35172,-51.94141,-87.40591,159.2137,-48.52482,202408271626310051
2-Sep,C_HumanVertical,1,Q1FrontUp,19.98728,25.04344,40.06647,-52.21706,-87.40488,159.2006,-48.51946,202408271626310317
2-Sep,C_HumanVertical,1,Q1FrontUp,19.98728,25.04344,40.06647,-52.21706,-87.40488,159.2006,-48.51946,202408271626310485
2-Sep,C_HumanVertical,1,Q1FrontUp,20.28496,25.22067,39.79036,-52.5064,-87.40494,159.2005,-48.49753,202408271626310632
2-Sep,C_HumanVertical,1,Q1FrontUp,20.28496,25.22067,39.79036,-52.5064,-87.40494,159.2005,-48.49753,202408271626310809
2-Sep,C_HumanVertical,1,Q1FrontUp,20.55325,25.43939,39.56193,-52.77704,-87.40498,159.2006,-48.47635,202408271626310974
2-Sep,C_HumanVertical,1,Q1FrontUp,20.55325,25.43939,39.56193,-52.77704,-87.40498,159.2006,-48.47635,202408271626311149
2-Sep,C_HumanVertical,1,Q1FrontUp,20.79702,25.62263,39.32563,-53.05478,-87.40492,159.2007,-48.45229,202408271626311409
2-Sep,C_HumanVertical,1,Q1FrontUp,21.04083,25.7827,39.10002,-53.32047,-87.40512,159.2005,-48.42872,202408271626311687
2-Sep,C_HumanVertical,1,Q1FrontUp,21.23544,25.92719,38.92746,-53.58249,-87.40524,159.2005,-48.41311,202408271626311961
2-Sep,C_HumanVertical,1,Q1FrontUp,21.23544,25.92719,38.92746,-53.58249,-87.40524,159.2005,-48.41311,202408271626312126
2-Sep,C_HumanVertical,1,Q1FrontUp,21.40689,26.08124,38.75794,-53.82862,-87.40536,159.1995,-48.39787,202408271626312324
2-Sep,C_HumanVertical,1,Q1FrontUp,21.40689,26.08124,38.75794,-53.82862,-87.40536,159.1995,-48.39787,202408271626312522
2-Sep,C_HumanVertical,1,Q1FrontUp,21.60224,26.23938,38.57755,-54.01678,-87.40519,159.1995,-48.37325,202408271626312801
2-Sep,C_HumanVertical,1,Q1FrontUp,21.78743,26.37633,38.40742,-54.18031,-87.40508,159.2001,-48.35374,202408271626312975
2-Sep,C_HumanVertical,1,Q1FrontUp,21.96021,26.52528,38.25911,-54.33319,-87.39742,159.199,-48.33393,202408271626313190
2-Sep,C_HumanVertical,1,Q1FrontUp,21.96021,26.52528,38.25911,-54.33319,-87.39742,159.199,-48.33393,202408271626313471
2-Sep,C_HumanVertical,1,Q1FrontUp,22.13702,26.6469,38.12377,-54.45559,-87.37243,159.1983,-48.33035,202408271626313667
2-Sep,C_HumanVertical,1,Q1FrontUp,22.35926,26.74117,37.87428,-54.57907,-87.31992,159.1976,-48.32735,202408271626313970
2-Sep,C_HumanVertical,1,Q1FrontUp,22.60705,26.80779,37.60215,-54.69754,-87.27109,159.1968,-48.32211,202408271626314295
2-Sep,C_HumanVertical,1,Q1FrontUp,22.60705,26.80779,37.60215,-54.69754,-87.27109,159.1968,-48.32211,202408271626314493
2-Sep,C_HumanVertical,1,Q1FrontUp,22.8245,26.87654,37.37225,-54.80935,-87.22209,159.1958,-48.30664,202408271626314685
2-Sep,C_HumanVertical,1,Q1FrontUp,23.05694,26.96161,37.13925,-54.92798,-87.19821,159.1849,-48.30252,202408271626314968
2-Sep,C_HumanVertical,1,Q1FrontUp,23.27245,27.03584,36.90535,-55.04379,-87.18322,159.1767,-48.29927,202408271626315284
2-Sep,C_HumanVertical,1,Q1FrontUp,23.27245,27.03584,36.90535,-55.04379,-87.18322,159.1767,-48.29927,202408271626315461
2-Sep,C_HumanVertical,1,Q1FrontUp,23.45837,27.11403,36.71285,-55.15925,-87.17991,159.1668,-48.29635,202408271626315656
2-Sep,C_HumanVertical,1,Q1FrontUp,23.45837,27.11403,36.71285,-55.15925,-87.17991,159.1668,-48.29635,202408271626315838
2-Sep,C_HumanVertical,1,Q1FrontUp,23.64137,27.20249,36.54815,-55.27724,-87.17435,159.1585,-48.2934,202408271626316117
2-Sep,C_HumanVertical,1,Q1FrontUp,23.86522,27.29293,36.34145,-55.37426,-87.1545,159.1546,-48.28923,202408271626316338
2-Sep,C_HumanVertical,1,Q1FrontUp,23.86522,27.29293,36.34145,-55.37426,-87.1545,159.1546,-48.28923,202408271626316633
2-Sep,C_HumanVertical,1,Q1FrontUp,24.12104,27.38342,36.10138,-55.42241,-87.11462,159.1454,-48.27757,202408271626316801
2-Sep,C_HumanVertical,1,Q1FrontUp,24.37304,27.50622,35.89875,-55.44884,-87.06741,159.1366,-48.26223,202408271626317003
2-Sep,C_HumanVertical,1,Q1FrontUp,24.63295,27.6396,35.7236,-55.46844,-87.03032,159.1327,-48.24784,202408271626317303
2-Sep,C_HumanVertical,1,Q1FrontUp,24.63295,27.6396,35.7236,-55.46844,-87.03032,159.1327,-48.24784,202408271626317470
2-Sep,C_HumanVertical,1,Q1FrontUp,24.88963,27.79431,35.54777,-55.48298,-86.98947,159.1311,-48.22908,202408271626317624
2-Sep,C_HumanVertical,1,Q1FrontUp,24.88963,27.79431,35.54777,-55.48298,-86.98947,159.1311,-48.22908,202408271626317858
2-Sep,C_HumanVertical,1,Q1FrontUp,25.13918,27.92729,35.40348,-55.51467,-86.94731,159.1312,-48.21369,202408271626318004
2-Sep,C_HumanVertical,1,Q1FrontUp,25.40453,28.09698,35.26558,-55.52936,-86.89529,159.1285,-48.19374,202408271626318316
2-Sep,C_HumanVertical,1,Q1FrontUp,25.40453,28.09698,35.26558,-55.52936,-86.89529,159.1285,-48.19374,202408271626318489
2-Sep,C_HumanVertical,1,Q1FrontUp,25.69196,28.27049,35.13984,-55.52985,-86.83766,159.1284,-48.17445,202408271626318795
2-Sep,C_HumanVertical,1,Q1FrontUp,25.978,28.44641,34.98032,-55.52663,-86.77267,159.1262,-48.15425,202408271626318975
2-Sep,C_HumanVertical,1,Q1FrontUp,25.978,28.44641,34.98032,-55.52663,-86.77267,159.1262,-48.15425,202408271626319180
2-Sep,C_HumanVertical,1,Q1FrontUp,26.28194,28.62274,34.82032,-55.5295,-86.7156,159.1167,-48.13314,202408271626319357
2-Sep,C_HumanVertical,1,Q1FrontUp,26.58018,28.82777,34.71544,-55.53318,-86.66951,159.0971,-48.11244,202408271626319627
2-Sep,C_HumanVertical,1,Q1FrontUp,26.58018,28.82777,34.71544,-55.53318,-86.66951,159.0971,-48.11244,202408271626319792
2-Sep,C_HumanVertical,1,Q1FrontUp,26.86325,29.01765,34.62598,-55.53959,-86.63144,159.0875,-48.09032,202408271626319991
2-Sep,C_HumanVertical,1,Q1FrontUp,26.86325,29.01765,34.62598,-55.53959,-86.63144,159.0875,-48.09032,202408271626320193
2-Sep,C_HumanVertical,1,Q1FrontUp,27.17943,29.223,34.52686,-55.5416,-86.58276,159.077,-48.0718,202408271626320527
2-Sep,C_HumanVertical,1,Q1FrontUp,27.50438,29.41051,34.37824,-55.54496,-86.52047,159.0714,-48.0541,202408271626320794
2-Sep,C_HumanVertical,1,Q1FrontUp,27.81902,29.62456,34.23927,-55.55054,-86.46941,159.0708,-48.02901,202408271626321026
2-Sep,C_HumanVertical,1,Q1FrontUp,28.12357,29.84501,34.10922,-55.57711,-86.42211,159.0714,-48.00737,202408271626321295
2-Sep,C_HumanVertical,1,Q1FrontUp,28.12357,29.84501,34.10922,-55.57711,-86.42211,159.0714,-48.00737,202408271626321465
2-Sep,C_HumanVertical,1,Q1FrontUp,28.44334,30.07307,33.98843,-55.60506,-86.3843,159.0715,-47.98411,202408271626321622
2-Sep,C_HumanVertical,1,Q1FrontUp,28.44334,30.07307,33.98843,-55.60506,-86.3843,159.0715,-47.98411,202408271626321806
2-Sep,C_HumanVertical,1,Q1FrontUp,28.74041,30.27068,33.84981,-55.68973,-86.3552,159.0707,-47.97484,202408271626321962
2-Sep,C_HumanVertical,1,Q1FrontUp,28.74041,30.27068,33.84981,-55.68973,-86.3552,159.0707,-47.97484,202408271626322137
2-Sep,C_HumanVertical,1,Q1FrontUp,29.00668,30.44717,33.71674,-55.80932,-86.33308,159.0699,-47.96138,202408271626322355
2-Sep,C_HumanVertical,1,Q1FrontUp,29.24154,30.61955,33.58997,-55.9568,-86.31867,159.0681,-47.9492,202408271626322520
2-Sep,C_HumanVertical,1,Q1FrontUp,29.24154,30.61955,33.58997,-55.9568,-86.31867,159.0681,-47.9492,202408271626322805
2-Sep,C_HumanVertical,1,Q1FrontUp,29.47545,30.78972,33.46241,-56.14735,-86.29977,159.069,-47.94618,202408271626323133
2-Sep,C_HumanVertical,1,Q1FrontUp,29.68655,30.97993,33.37098,-56.34118,-86.29475,159.0691,-47.94396,202408271626323351
2-Sep,C_HumanVertical,1,Q1FrontUp,29.84381,31.17525,33.37079,-56.5258,-86.29493,159.0686,-47.94344,202408271626323630
2-Sep,C_HumanVertical,1,Q1FrontUp,29.84381,31.17525,33.37079,-56.5258,-86.29493,159.0686,-47.94344,202408271626323789
2-Sep,C_HumanVertical,1,Q1FrontUp,30.09121,31.4045,33.25421,-56.63888,-86.29513,159.0689,-47.94318,202408271626324178
2-Sep,C_HumanVertical,1,Q1FrontUp,30.37283,31.65597,33.07956,-56.71449,-86.29385,159.068,-47.94298,202408271626324392
2-Sep,C_HumanVertical,1,Q1FrontUp,30.70397,31.9276,32.85392,-56.72713,-86.29202,159.0683,-47.94312,202408271626324618
2-Sep,C_HumanVertical,1,Q1FrontUp,30.70397,31.9276,32.85392,-56.72713,-86.29202,159.0683,-47.94312,202408271626324790
2-Sep,C_HumanVertical,1,Q1FrontUp,31.01736,32.20274,32.68821,-56.74893,-86.29099,159.068,-47.94317,202408271626324958
2-Sep,C_HumanVertical,1,Q1FrontUp,31.01736,32.20274,32.68821,-56.74893,-86.29099,159.068,-47.94317,202408271626325121
2-Sep,C_HumanVertical,1,Q1FrontUp,31.38578,32.48457,32.4847,-56.77049,-86.29311,159.0676,-47.92357,202408271626325301
2-Sep,C_HumanVertical,1,Q1FrontUp,31.78291,32.75325,32.25008,-56.79534,-86.29728,159.067,-47.86882,202408271626325523
2-Sep,C_HumanVertical,1,Q1FrontUp,31.78291,32.75325,32.25008,-56.79534,-86.29728,159.067,-47.86882,202408271626325697
2-Sep,C_HumanVertical,1,Q1FrontUp,32.17686,33.0303,32.02112,-56.79256,-86.2994,159.0671,-47.83279,202408271626325973
2-Sep,C_HumanVertical,1,Q1FrontUp,32.60548,33.30767,31.76879,-56.79145,-86.30008,159.0676,-47.80969,202408271626326293
2-Sep,C_HumanVertical,1,Q1FrontUp,32.60548,33.30767,31.76879,-56.79145,-86.30008,159.0676,-47.80969,202408271626326469
2-Sep,C_HumanVertical,1,Q1FrontUp,32.60548,33.30767,31.76879,-56.79145,-86.30008,159.0676,-47.80969,202408271626326690
2-Sep,C_HumanVertical,1,Q1FrontUp,33.515,33.82676,31.28405,-56.77637,-86.29932,159.0668,-47.80199,202408271626326967
2-Sep,C_HumanVertical,1,Q1FrontUp,33.99389,34.09864,31.0186,-56.75833,-86.29908,159.0662,-47.80189,202408271626327331
2-Sep,C_HumanVertical,1,Q1FrontUp,34.4869,34.35821,30.75217,-56.74082,-86.29877,159.065,-47.80267,202408271626327630
2-Sep,C_HumanVertical,1,Q1FrontUp,34.4869,34.35821,30.75217,-56.74082,-86.29877,159.065,-47.80267,202408271626327833
2-Sep,C_HumanVertical,1,Q1FrontUp,34.95952,34.62002,30.54168,-56.72861,-86.29897,159.0647,-47.80218,202408271626328124
2-Sep,C_HumanVertical,1,Q1FrontUp,35.4562,34.88197,30.28259,-56.71671,-86.29852,159.0669,-47.80238,202408271626328294
2-Sep,C_HumanVertical,1,Q1FrontUp,35.4562,34.88197,30.28259,-56.71671,-86.29852,159.0669,-47.80238,202408271626328460
2-Sep,C_HumanVertical,1,Q1FrontUp,35.95919,35.12399,30.01098,-56.68942,-86.29884,159.0665,-47.80246,202408271626328634
2-Sep,C_HumanVertical,1,Q1FrontUp,35.95919,35.12399,30.01098,-56.68942,-86.29884,159.0665,-47.80246,202408271626328857
2-Sep,C_HumanVertical,1,Q1FrontUp,36.43396,35.37212,29.80218,-56.66382,-86.29887,159.0665,-47.80204,202408271626329117
2-Sep,C_HumanVertical,1,Q1FrontUp,36.91075,35.63399,29.57413,-56.64488,-86.29871,159.0683,-47.80199,202408271626329297
2-Sep,C_HumanVertical,1,Q1FrontUp,36.91075,35.63399,29.57413,-56.64488,-86.29871,159.0683,-47.80199,202408271626329450
2-Sep,C_HumanVertical,1,Q1FrontUp,37.36184,35.88744,29.3697,-56.61407,-86.29879,159.0718,-47.8022,202408271626329612
2-Sep,C_HumanVertical,1,Q1FrontUp,37.36184,35.88744,29.3697,-56.61407,-86.29879,159.0718,-47.8022,202408271626329794
2-Sep,C_HumanVertical,1,Q1FrontUp,37.83125,36.14951,29.15129,-56.57642,-86.29863,159.0817,-47.80198,202408271626329994
2-Sep,C_HumanVertical,1,Q1FrontUp,38.22622,36.39142,28.9861,-56.558,-86.32037,159.0847,-47.80254,202408271626330290
2-Sep,C_HumanVertical,1,Q1FrontUp,38.22622,36.39142,28.9861,-56.558,-86.32037,159.0847,-47.80254,202408271626330538
2-Sep,C_HumanVertical,1,Q1FrontUp,38.56952,36.64211,28.90776,-56.55489,-86.34722,159.084,-47.80208,202408271626330803
2-Sep,C_HumanVertical,1,Q1FrontUp,38.88727,36.87383,28.8271,-56.54745,-86.36187,159.0837,-47.80215,202408271626331016
2-Sep,C_HumanVertical,1,Q1FrontUp,38.88727,36.87383,28.8271,-56.54745,-86.36187,159.0837,-47.80215,202408271626331294
2-Sep,C_HumanVertical,1,Q1FrontUp,39.57508,37.29505,28.53539,-56.52749,-86.36562,159.0871,-47.80217,202408271626331621
2-Sep,C_HumanVertical,1,Q1FrontUp,39.57508,37.29505,28.53539,-56.52749,-86.36562,159.0871,-47.80217,202408271626331784
2-Sep,C_HumanVertical,1,Q1FrontUp,39.57508,37.29505,28.53539,-56.52749,-86.36562,159.0871,-47.80217,202408271626332022
2-Sep,C_HumanVertical,1,Q1FrontUp,40.19979,37.69487,28.27674,-56.49753,-86.36152,159.0879,-47.80191,202408271626332200
2-Sep,C_HumanVertical,1,Q1FrontUp,40.19979,37.69487,28.27674,-56.49753,-86.36152,159.0879,-47.80191,202408271626332457
2-Sep,C_HumanVertical,1,Q1FrontUp,40.54287,37.88401,28.18844,-56.46078,-86.35181,159.0893,-47.8022,202408271626332623
2-Sep,C_HumanVertical,1,Q1FrontUp,40.54287,37.88401,28.18844,-56.46078,-86.35181,159.0893,-47.8022,202408271626332805
2-Sep,C_HumanVertical,1,Q1FrontUp,40.89716,38.08117,28.09612,-56.3798,-86.35156,159.0907,-47.80211,202408271626333142
2-Sep,C_HumanVertical,1,Q1FrontUp,41.27199,38.29855,27.97347,-56.22742,-86.35154,159.0964,-47.80237,202408271626333348
2-Sep,C_HumanVertical,1,Q1FrontUp,41.68475,38.5293,27.82365,-56.05154,-86.35183,159.1091,-47.80227,202408271626333624
2-Sep,C_HumanVertical,1,Q1FrontUp,41.68475,38.5293,27.82365,-56.05154,-86.35183,159.1091,-47.80227,202408271626333787
2-Sep,C_HumanVertical,1,Q1FrontUp,42.10985,38.73638,27.70486,-55.86128,-86.35236,159.1127,-47.80209,202408271626333957
2-Sep,C_HumanVertical,1,Q1FrontUp,42.10985,38.73638,27.70486,-55.86128,-86.35236,159.1127,-47.80209,202408271626334127
2-Sep,C_HumanVertical,1,Q1FrontUp,42.52662,38.97011,27.57314,-55.63454,-86.35247,159.1156,-47.80209,202408271626334321
2-Sep,C_HumanVertical,1,Q1FrontUp,42.93904,39.18727,27.41794,-55.38815,-86.35263,159.1303,-47.80228,202408271626334522
2-Sep,C_HumanVertical,1,Q1FrontUp,42.93904,39.18727,27.41794,-55.38815,-86.35263,159.1303,-47.80228,202408271626334795
2-Sep,C_HumanVertical,1,Q1FrontUp,43.33623,39.38787,27.27506,-55.20261,-86.35242,159.1464,-47.80214,202408271626334966
2-Sep,C_HumanVertical,1,Q1FrontUp,43.73272,39.5614,27.14405,-55.02597,-86.35263,159.1592,-47.80218,202408271626335176
2-Sep,C_HumanVertical,1,Q1FrontUp,43.73272,39.5614,27.14405,-55.02597,-86.35263,159.1592,-47.80218,202408271626335469
2-Sep,C_HumanVertical,1,Q1FrontUp,44.09925,39.73321,27.01584,-54.83442,-86.35271,159.1605,-47.80232,202408271626335677
2-Sep,C_HumanVertical,1,Q1FrontUp,44.09925,39.73321,27.01584,-54.83442,-86.35271,159.1605,-47.80232,202408271626335957
2-Sep,C_HumanVertical,1,Q1FrontUp,44.09925,39.73321,27.01584,-54.83442,-86.35271,159.1605,-47.80232,202408271626336128
2-Sep,C_HumanVertical,1,Q1FrontUp,44.73837,40.03522,26.80293,-54.52488,-86.3553,159.1612,-47.80203,202408271626336295
2-Sep,C_HumanVertical,1,Q1FrontUp,44.73837,40.03522,26.80293,-54.52488,-86.3553,159.1612,-47.80203,202408271626336461
2-Sep,C_HumanVertical,1,Q1FrontUp,44.73837,40.03522,26.80293,-54.52488,-86.3553,159.1612,-47.80203,202408271626336635
2-Sep,C_HumanVertical,1,Q1FrontUp,45.05784,40.16022,26.69216,-54.41187,-86.35968,159.1618,-47.80192,202408271626336840
2-Sep,C_HumanVertical,1,Q1FrontUp,45.33147,40.2636,26.59715,-54.3283,-86.36135,159.1615,-47.8021,202408271626337118
2-Sep,C_HumanVertical,1,Q1FrontUp,45.60855,40.3533,26.47776,-54.22902,-86.3616,159.1616,-47.80182,202408271626337288
2-Sep,C_HumanVertical,1,Q1FrontUp,45.60855,40.3533,26.47776,-54.22902,-86.3616,159.1616,-47.80182,202408271626337434
2-Sep,C_HumanVertical,1,Q1FrontUp,45.87596,40.45465,26.34241,-54.10297,-86.36183,159.1616,-47.80182,202408271626337622
2-Sep,C_HumanVertical,1,Q1FrontUp,45.87596,40.45465,26.34241,-54.10297,-86.36183,159.1616,-47.80182,202408271626337795
2-Sep,C_HumanVertical,1,Q1FrontUp,46.11741,40.55228,26.24608,-53.98354,-86.36166,159.1622,-47.80229,202408271626338021
2-Sep,C_HumanVertical,1,Q1FrontUp,46.35924,40.64743,26.1498,-53.86958,-86.36245,159.1627,-47.8021,202408271626338307
2-Sep,C_HumanVertical,1,Q1FrontUp,46.35924,40.64743,26.1498,-53.86958,-86.36245,159.1627,-47.8021,202408271626338510
2-Sep,C_HumanVertical,1,Q1FrontUp,46.60878,40.75896,26.06444,-53.72322,-86.36288,159.163,-47.80221,202408271626338812
2-Sep,C_HumanVertical,1,Q1FrontUp,46.82907,40.87878,25.99831,-53.55679,-86.36407,159.1628,-47.80208,202408271626339023
2-Sep,C_HumanVertical,1,Q1FrontUp,46.82907,40.87878,25.99831,-53.55679,-86.36407,159.1628,-47.80208,202408271626339290
2-Sep,C_HumanVertical,1,Q1FrontUp,47.28364,41.16057,25.80866,-53.1284,-86.3705,159.1637,-47.80195,202408271626339619
2-Sep,C_HumanVertical,1,Q1FrontUp,47.28364,41.16057,25.80866,-53.1284,-86.3705,159.1637,-47.80195,202408271626339805
2-Sep,C_HumanVertical,1,Q1FrontUp,47.48083,41.3033,25.72397,-52.9349,-86.37441,159.163,-47.80193,202408271626340021
2-Sep,C_HumanVertical,1,Q1FrontUp,47.67427,41.43601,25.64567,-52.74676,-86.37616,159.1641,-47.80229,202408271626340304
2-Sep,C_HumanVertical,1,Q1FrontUp,47.67427,41.43601,25.64567,-52.74676,-86.37616,159.1641,-47.80229,202408271626340625
2-Sep,C_HumanVertical,1,Q1FrontUp,47.88326,41.60829,25.57031,-52.47901,-86.37621,159.163,-47.8038,202408271626340796
2-Sep,C_HumanVertical,1,Q1FrontUp,48.08235,41.78671,25.50775,-52.19194,-86.37624,159.1622,-47.85265,202408271626340957
2-Sep,C_HumanVertical,1,Q1FrontUp,48.08235,41.78671,25.50775,-52.19194,-86.37624,159.1622,-47.85265,202408271626341139
2-Sep,C_HumanVertical,1,Q1FrontUp,48.27824,42.00031,25.44628,-51.84307,-86.39407,159.1622,-47.87484,202408271626341356
2-Sep,C_HumanVertical,1,Q1FrontUp,48.27824,42.00031,25.44628,-51.84307,-86.39407,159.1622,-47.87484,202408271626341557
2-Sep,C_HumanVertical,1,Q1FrontUp,48.47433,42.2256,25.39136,-51.42767,-86.4159,159.1617,-47.87352,202408271626341794
2-Sep,C_HumanVertical,1,Q1FrontUp,48.64837,42.4572,25.36153,-50.94287,-86.41515,159.1614,-47.878,202408271626341962
2-Sep,C_HumanVertical,1,Q1FrontUp,48.64837,42.4572,25.36153,-50.94287,-86.41515,159.1614,-47.878,202408271626342133
2-Sep,C_HumanVertical,1,Q1FrontUp,48.81567,42.69461,25.35725,-50.45664,-86.41563,159.1612,-47.88135,202408271626342308
2-Sep,C_HumanVertical,1,Q1FrontUp,48.96721,42.92669,25.3587,-49.96661,-86.41657,159.1601,-47.8714,202408271626342550
2-Sep,C_HumanVertical,1,Q1FrontUp,48.96721,42.92669,25.3587,-49.96661,-86.41657,159.1601,-47.8714,202408271626342796
2-Sep,C_HumanVertical,1,Q1FrontUp,49.11115,43.1403,25.35824,-49.46558,-86.41653,159.1606,-47.86841,202408271626342957
2-Sep,C_HumanVertical,1,Q1FrontUp,49.11115,43.1403,25.35824,-49.46558,-86.41653,159.1606,-47.86841,202408271626343179
2-Sep,C_HumanVertical,1,Q1FrontUp,49.25243,43.33018,25.35929,-48.99965,-86.41588,159.1615,-47.8657,202408271626343453
2-Sep,C_HumanVertical,1,Q1FrontUp,49.37363,43.5043,25.36028,-48.55515,-86.41502,159.1621,-47.86404,202408271626343664
2-Sep,C_HumanVertical,1,Q1FrontUp,49.48417,43.66698,25.36347,-48.10254,-86.45364,159.1609,-47.81531,202408271626343958
2-Sep,C_HumanVertical,1,Q1FrontUp,49.48417,43.66698,25.36347,-48.10254,-86.45364,159.1609,-47.81531,202408271626344127
2-Sep,C_HumanVertical,1,Q1FrontUp,49.59448,43.82991,25.3669,-47.6564,-86.47353,159.162,-47.78375,202408271626344280
2-Sep,C_HumanVertical,1,Q1FrontUp,49.59448,43.82991,25.3669,-47.6564,-86.47353,159.162,-47.78375,202408271626344464
2-Sep,C_HumanVertical,1,Q1FrontUp,49.70993,43.9887,25.3674,-47.19306,-86.47344,159.1628,-47.76574,202408271626344673
2-Sep,C_HumanVertical,1,Q1FrontUp,49.80507,44.12837,25.36586,-46.76939,-86.4728,159.1624,-47.74254,202408271626344963
2-Sep,C_HumanVertical,1,Q1FrontUp,49.80507,44.12837,25.36586,-46.76939,-86.4728,159.1624,-47.74254,202408271626345120
2-Sep,C_HumanVertical,1,Q1FrontUp,49.80507,44.12837,25.36586,-46.76939,-86.4728,159.1624,-47.74254,202408271626345295
2-Sep,C_HumanVertical,1,Q1FrontUp,49.953,44.36134,25.35156,-46.0661,-86.47223,159.1929,-47.65392,202408271626345631
2-Sep,C_HumanVertical,1,Q1FrontUp,49.953,44.36134,25.35156,-46.0661,-86.47223,159.1929,-47.65392,202408271626345832
2-Sep,C_HumanVertical,1,Q1FrontUp,50.02326,44.44217,25.33348,-45.80677,-86.47307,159.1933,-47.64888,202408271626346118
2-Sep,C_HumanVertical,1,Q1FrontUp,50.08379,44.51834,25.32022,-45.56513,-86.4821,159.1929,-47.63515,202408271626346339
2-Sep,C_HumanVertical,1,Q1FrontUp,50.08379,44.51834,25.32022,-45.56513,-86.4821,159.1929,-47.63515,202408271626346648
2-Sep,C_HumanVertical,1,Q1FrontUp,50.12968,44.57314,25.314,-45.38342,-86.50347,159.1926,-47.60378,202408271626346829
2-Sep,C_HumanVertical,1,Q1FrontUp,50.17604,44.62009,25.3058,-45.21122,-86.5223,159.1925,-47.57396,202408271626347093
2-Sep,C_HumanVertical,1,Q1FrontUp,50.23508,44.67227,25.29481,-45.0145,-86.52757,159.1929,-47.55468,202408271626347277
2-Sep,C_HumanVertical,1,Q1FrontUp,50.23508,44.67227,25.29481,-45.0145,-86.52757,159.1929,-47.55468,202408271626347431
2-Sep,C_HumanVertical,1,Q1FrontUp,50.23508,44.67227,25.29481,-45.0145,-86.52757,159.1929,-47.55468,202408271626347612
2-Sep,C_HumanVertical,1,Q1FrontUp,50.2964,44.73462,25.28358,-44.81353,-86.52303,159.1932,-47.55347,202408271626347773
2-Sep,C_HumanVertical,1,Q1FrontUp,50.36275,44.84191,25.27382,-44.55792,-86.52628,159.1923,-47.54464,202408271626348008
2-Sep,C_HumanVertical,1,Q1FrontUp,50.36275,44.84191,25.27382,-44.55792,-86.52628,159.1923,-47.54464,202408271626348184
2-Sep,C_HumanVertical,1,Q1FrontUp,50.43417,44.94255,25.25606,-44.32553,-86.53491,159.1936,-47.53214,202408271626348459
2-Sep,C_HumanVertical,1,Q1FrontUp,50.55181,45.10544,25.17572,-43.96649,-86.56236,159.1931,-47.49566,202408271626348781
2-Sep,C_HumanVertical,1,Q1FrontUp,50.64592,45.25287,25.11333,-43.66457,-86.58037,159.1933,-47.45314,202408271626348932
2-Sep,C_HumanVertical,1,Q1FrontUp,50.64592,45.25287,25.11333,-43.66457,-86.58037,159.1933,-47.45314,202408271626349120
2-Sep,C_HumanVertical,1,Q1FrontUp,50.64592,45.25287,25.11333,-43.66457,-86.58037,159.1933,-47.45314,202408271626349332
2-Sep,C_HumanVertical,1,Q1FrontUp,50.7442,45.40595,25.03433,-43.37084,-86.59278,159.1934,-47.41239,202408271626349527
2-Sep,C_HumanVertical,1,Q1FrontUp,50.83223,45.54123,24.94983,-43.16234,-86.59873,159.1936,-47.37681,202408271626349775
2-Sep,C_HumanVertical,1,Q1FrontUp,50.83223,45.54123,24.94983,-43.16234,-86.59873,159.1936,-47.37681,202408271626349931
2-Sep,C_HumanVertical,1,Q1FrontUp,50.91631,45.67122,24.88397,-42.97726,-86.70501,159.1844,-47.33168,202408271626350107
2-Sep,C_HumanVertical,1,Q1FrontUp,50.99006,45.81842,24.84057,-42.79518,-86.79704,159.1659,-47.28616,202408271626350281
2-Sep,C_HumanVertical,1,Q1FrontUp,50.99006,45.81842,24.84057,-42.79518,-86.79704,159.1659,-47.28616,202408271626350498
2-Sep,C_HumanVertical,1,Q1FrontUp,51.06195,45.95332,24.80481,-42.65023,-86.88168,159.1533,-47.24316,202408271626350781
2-Sep,C_HumanVertical,1,Q1FrontUp,51.12414,46.06866,24.74885,-42.5507,-86.87426,159.1575,-47.22022,202408271626350948
2-Sep,C_HumanVertical,1,Q1FrontUp,51.12414,46.06866,24.74885,-42.5507,-86.87426,159.1575,-47.22022,202408271626351175
2-Sep,C_HumanVertical,1,Q1FrontUp,51.18484,46.17143,24.69039,-42.4778,-86.87875,159.1596,-47.19433,202408271626351504
2-Sep,C_HumanVertical,1,Q1FrontUp,51.23767,46.27263,24.63421,-42.3989,-86.89368,159.1589,-47.16022,202408271626351792
2-Sep,C_HumanVertical,1,Q1FrontUp,51.29791,46.36998,24.57977,-42.29234,-86.93079,159.1578,-47.14638,202408271626351960
2-Sep,C_HumanVertical,1,Q1FrontUp,51.29791,46.36998,24.57977,-42.29234,-86.93079,159.1578,-47.14638,202408271626352123
2-Sep,C_HumanVertical,1,Q1FrontUp,51.3556,46.48079,24.53781,-42.15491,-86.94662,159.1601,-47.14027,202408271626352288
2-Sep,C_HumanVertical,1,Q1FrontUp,51.3556,46.48079,24.53781,-42.15491,-86.94662,159.1601,-47.14027,202408271626352476
2-Sep,C_HumanVertical,1,Q1FrontUp,51.41704,46.6005,24.51432,-41.96839,-86.93968,159.199,-47.13997,202408271626352676
2-Sep,C_HumanVertical,1,Q1FrontUp,51.47024,46.69804,24.4874,-41.82151,-86.93498,159.2309,-47.14016,202408271626352966
2-Sep,C_HumanVertical,1,Q1FrontUp,51.47024,46.69804,24.4874,-41.82151,-86.93498,159.2309,-47.14016,202408271626353123
2-Sep,C_HumanVertical,1,Q1FrontUp,51.52349,46.78408,24.46138,-41.69613,-86.9046,159.2673,-47.14,202408271626353300
2-Sep,C_HumanVertical,1,Q1FrontUp,51.52349,46.78408,24.46138,-41.69613,-86.9046,159.2673,-47.14,202408271626353458
2-Sep,C_HumanVertical,1,Q1FrontUp,51.57813,46.8532,24.44102,-41.58213,-86.86591,159.3265,-47.13832,202408271626353628
2-Sep,C_HumanVertical,1,Q1FrontUp,51.63433,46.91194,24.40047,-41.47781,-86.86224,159.3835,-47.13752,202408271626353850
2-Sep,C_HumanVertical,1,Q1FrontUp,51.63433,46.91194,24.40047,-41.47781,-86.86224,159.3835,-47.13752,202408271626354112
2-Sep,C_HumanVertical,1,Q1FrontUp,51.70126,46.96846,24.36193,-41.35697,-86.88381,159.415,-47.13591,202408271626354324
2-Sep,C_HumanVertical,1,Q1FrontUp,51.76116,47.04199,24.32917,-41.21228,-86.91396,159.4144,-47.13269,202408271626354639
2-Sep,C_HumanVertical,1,Q1FrontUp,51.76116,47.04199,24.32917,-41.21228,-86.91396,159.4144,-47.13269,202408271626354805
2-Sep,C_HumanVertical,1,Q1FrontUp,51.81369,47.09674,24.29909,-41.09731,-86.92846,159.4143,-47.12585,202408271626355026
2-Sep,C_HumanVertical,1,Q1FrontUp,51.85641,47.14429,24.26703,-41.01195,-86.92813,159.4181,-47.12029,202408271626355315
2-Sep,C_HumanVertical,1,Q1FrontUp,51.85641,47.14429,24.26703,-41.01195,-86.92813,159.4181,-47.12029,202408271626355467
2-Sep,C_HumanVertical,1,Q1FrontUp,51.89124,47.19487,24.23843,-40.93538,-86.91229,159.455,-47.11924,202408271626355849
2-Sep,C_HumanVertical,1,Q1FrontUp,51.93155,47.28354,24.18136,-40.80581,-86.91227,159.5079,-47.10945,202408271626356012
2-Sep,C_HumanVertical,1,Q1FrontUp,51.97479,47.36444,24.12872,-40.67808,-86.9273,159.5324,-47.09978,202408271626356287
2-Sep,C_HumanVertical,1,Q1FrontUp,51.97479,47.36444,24.12872,-40.67808,-86.9273,159.5324,-47.09978,202408271626356476
2-Sep,C_HumanVertical,1,Q1FrontUp,52.00431,47.45713,24.09185,-40.54832,-86.96006,159.5323,-47.08971,202408271626356792
2-Sep,C_HumanVertical,1,Q1FrontUp,52.02881,47.54655,24.05264,-40.42879,-86.97686,159.532,-47.08746,202408271626356974
2-Sep,C_HumanVertical,1,Q1FrontUp,52.02881,47.54655,24.05264,-40.42879,-86.97686,159.532,-47.08746,202408271626357179
2-Sep,C_HumanVertical,1,Q1FrontUp,52.03565,47.61947,24.00885,-40.34992,-86.98928,159.532,-47.08655,202408271626357452
2-Sep,C_HumanVertical,1,Q1FrontUp,52.03893,47.67804,23.96903,-40.29408,-87.00146,159.5317,-47.08509,202408271626357612
2-Sep,C_HumanVertical,1,Q1FrontUp,52.03893,47.67804,23.96903,-40.29408,-87.00146,159.5317,-47.08509,202408271626357790
2-Sep,C_HumanVertical,1,Q1FrontUp,52.03833,47.71355,23.94143,-40.28522,-86.99311,159.5392,-47.08463,202408271626358112
2-Sep,C_HumanVertical,1,Q1FrontUp,52.03852,47.74992,23.90648,-40.28393,-86.99262,159.5459,-47.08363,202408271626358318
2-Sep,C_HumanVertical,1,Q1FrontUp,52.03852,47.78463,23.87779,-40.28432,-86.99848,159.5457,-47.08123,202408271626358583
2-Sep,C_HumanVertical,1,Q1FrontUp,52.03852,47.78463,23.87779,-40.28432,-86.99848,159.5457,-47.08123,202408271626358761
2-Sep,C_HumanVertical,1,Q1FrontUp,52.03999,47.81396,23.85869,-40.28445,-87.00409,159.5453,-47.07814,202408271626358968
2-Sep,C_HumanVertical,1,Q1FrontUp,52.04025,47.84179,23.84743,-40.28492,-87.01094,159.5454,-47.06526,202408271626359250
2-Sep,C_HumanVertical,1,Q1FrontUp,52.04025,47.84179,23.84743,-40.28492,-87.01094,159.5454,-47.06526,202408271626359466
2-Sep,C_HumanVertical,1,Q1FrontUp,52.03875,47.86267,23.83725,-40.2845,-87.02056,159.5451,-47.06161,202408271626359779
2-Sep,C_HumanVertical,1,Q1FrontUp,52.03943,47.9111,23.83701,-40.23614,-87.02225,159.5446,-47.05923,202408271626359931
2-Sep,C_HumanVertical,1,Q1FrontUp,52.03943,47.9111,23.83701,-40.23614,-87.02225,159.5446,-47.05923,202408271626360100
2-Sep,C_HumanVertical,1,Q1FrontUp,52.05123,47.98035,23.83906,-40.15324,-87.02235,159.5449,-47.0578,202408271626360284
2-Sep,C_HumanVertical,1,Q1FrontUp,52.05123,47.98035,23.83906,-40.15324,-87.02235,159.5449,-47.0578,202408271626360498
2-Sep,C_HumanVertical,1,Q1FrontUp,52.05123,47.98035,23.83906,-40.15324,-87.02235,159.5449,-47.0578,202408271626360755
2-Sep,C_HumanVertical,1,Q1FrontUp,52.10667,48.17219,23.83866,-39.87427,-87.0192,159.5479,-47.05714,202408271626360940
2-Sep,C_HumanVertical,1,Q1FrontUp,52.10667,48.17219,23.83866,-39.87427,-87.0192,159.5479,-47.05714,202408271626361257
2-Sep,C_HumanVertical,1,Q1FrontUp,52.14519,48.30388,23.83712,-39.69448,-87.06332,159.55,-47.0571,202408271626361426
2-Sep,C_HumanVertical,1,Q1FrontUp,52.18949,48.42712,23.8273,-39.53047,-87.15795,159.5405,-47.05678,202408271626361657
2-Sep,C_HumanVertical,1,Q1FrontUp,52.18949,48.42712,23.8273,-39.53047,-87.15795,159.5405,-47.05678,202408271626361917
2-Sep,C_HumanVertical,1,Q1FrontUp,52.23293,48.55769,23.82237,-39.38071,-87.24828,159.5325,-47.05643,202408271626362123
2-Sep,C_HumanVertical,1,Q1FrontUp,52.29097,48.68032,23.81067,-39.24481,-87.34884,159.5294,-47.05569,202408271626362406
2-Sep,C_HumanVertical,1,Q1FrontUp,52.29097,48.68032,23.81067,-39.24481,-87.34884,159.5294,-47.05569,202408271626362593
2-Sep,C_HumanVertical,1,Q1FrontUp,52.35064,48.82179,23.78078,-39.11881,-87.46326,159.5291,-47.05632,202408271626362803
2-Sep,C_HumanVertical,1,Q1FrontUp,52.41497,48.92532,23.72435,-39.07315,-87.56415,159.5291,-47.05641,202408271626363094
2-Sep,C_HumanVertical,1,Q1FrontUp,52.47681,49.02624,23.64793,-39.05954,-87.64224,159.5289,-47.05602,202408271626363413
2-Sep,C_HumanVertical,1,Q1FrontUp,52.54361,49.1135,23.58044,-39.06281,-87.70026,159.5295,-47.05629,202408271626363588
2-Sep,C_HumanVertical,1,Q1FrontUp,52.54361,49.1135,23.58044,-39.06281,-87.70026,159.5295,-47.05629,202408271626363808
2-Sep,C_HumanVertical,1,Q1FrontUp,52.54361,49.1135,23.58044,-39.06281,-87.70026,159.5295,-47.05629,202408271626363966
2-Sep,C_HumanVertical,1,Q1FrontUp,52.64337,49.26264,23.44754,-39.08966,-87.83096,159.5288,-47.0563,202408271626364235
2-Sep,C_HumanVertical,1,Q1FrontUp,52.64337,49.26264,23.44754,-39.08966,-87.83096,159.5288,-47.0563,202408271626364408
2-Sep,C_HumanVertical,1,Q1FrontUp,52.67682,49.3032,23.38344,-39.15932,-87.90235,159.5288,-47.057,202408271626364578
2-Sep,C_HumanVertical,1,Q1FrontUp,52.67682,49.3032,23.38344,-39.15932,-87.90235,159.5288,-47.057,202408271626364775
2-Sep,C_HumanVertical,1,Q1FrontUp,52.68866,49.31648,23.35877,-39.2766,-87.93114,159.5296,-47.05702,202408271626364930
2-Sep,C_HumanVertical,1,Q1FrontUp,52.68866,49.31648,23.35877,-39.2766,-87.93114,159.5296,-47.05702,202408271626365146
2-Sep,C_HumanVertical,1,Q1FrontUp,52.6952,49.3226,23.34,-39.39169,-87.95478,159.5296,-47.05703,202408271626365308
2-Sep,C_HumanVertical,1,Q1FrontUp,52.70635,49.32376,23.32648,-39.50062,-87.98151,159.53,-47.05693,202408271626365615
2-Sep,C_HumanVertical,1,Q1FrontUp,52.70635,49.32376,23.32648,-39.50062,-87.98151,159.53,-47.05693,202408271626365783
2-Sep,C_HumanVertical,1,Q1FrontUp,52.71313,49.32728,23.32299,-39.59315,-88.02505,159.53,-47.0568,202408271626365966
2-Sep,C_HumanVertical,1,Q1FrontUp,52.71313,49.32728,23.32299,-39.59315,-88.02505,159.53,-47.0568,202408271626366158
2-Sep,C_HumanVertical,1,Q1FrontUp,52.72628,49.32752,23.31263,-39.67118,-88.07239,159.5302,-47.05671,202408271626366449
2-Sep,C_HumanVertical,1,Q1FrontUp,52.74035,49.32758,23.29469,-39.73439,-88.11957,159.53,-47.05677,202408271626366611
2-Sep,C_HumanVertical,1,Q1FrontUp,52.74035,49.32758,23.29469,-39.73439,-88.11957,159.53,-47.05677,202408271626366793
2-Sep,C_HumanVertical,1,Q1FrontUp,52.75183,49.32769,23.27636,-39.78988,-88.16764,159.5304,-47.05688,202408271626366999
2-Sep,C_HumanVertical,1,Q1FrontUp,52.75183,49.32769,23.27636,-39.78988,-88.16764,159.5304,-47.05688,202408271626367267
2-Sep,C_HumanVertical,1,Q1FrontUp,52.76059,49.32765,23.25231,-39.83958,-88.20943,159.5302,-47.05692,202408271626367436
2-Sep,C_HumanVertical,1,Q1FrontUp,52.76979,49.32743,23.22284,-39.87974,-88.23441,159.5301,-47.05703,202408271626367609
2-Sep,C_HumanVertical,1,Q1FrontUp,52.76979,49.32743,23.22284,-39.87974,-88.23441,159.5301,-47.05703,202408271626367778
2-Sep,C_HumanVertical,1,Q1FrontUp,52.76979,49.32743,23.22284,-39.87974,-88.23441,159.5301,-47.05703,202408271626367949
2-Sep,C_HumanVertical,1,Q1FrontUp,52.77682,49.32755,23.19761,-39.91771,-88.25669,159.53,-47.05685,202408271626368120
2-Sep,C_HumanVertical,1,Q1FrontUp,52.77966,49.32791,23.17459,-39.95482,-88.28194,159.5294,-47.05678,202408271626368335
2-Sep,C_HumanVertical,1,Q1FrontUp,52.77993,49.32767,23.15909,-39.98569,-88.30402,159.5291,-47.05665,202408271626368597
2-Sep,C_HumanVertical,1,Q1FrontUp,52.77993,49.32767,23.15909,-39.98569,-88.30402,159.5291,-47.05665,202408271626368776
2-Sep,C_HumanVertical,1,Q1FrontUp,52.79316,49.32903,23.13454,-39.99258,-88.33186,159.529,-47.05702,202408271626368937
2-Sep,C_HumanVertical,1,Q1FrontUp,52.79316,49.32903,23.13454,-39.99258,-88.33186,159.529,-47.05702,202408271626369111
2-Sep,C_HumanVertical,1,Q1FrontUp,52.80317,49.32928,23.12159,-39.99319,-88.36665,159.529,-47.05683,202408271626369286
2-Sep,C_HumanVertical,1,Q1FrontUp,52.80317,49.32928,23.12159,-39.99319,-88.36665,159.529,-47.05683,202408271626369496
2-Sep,C_HumanVertical,1,Q1FrontUp,52.80932,49.32753,23.12079,-39.99136,-88.40999,159.5294,-47.05577,202408271626369798
2-Sep,C_HumanVertical,1,Q1FrontUp,52.84538,49.35018,23.11864,-39.92327,-88.43567,159.5296,-47.05352,202408271626369951
2-Sep,C_HumanVertical,1,Q1FrontUp,52.84538,49.35018,23.11864,-39.92327,-88.43567,159.5296,-47.05352,202408271626370167
2-Sep,C_HumanVertical,1,Q1FrontUp,52.901,49.40343,23.11624,-39.79208,-88.46283,159.5296,-47.05158,202408271626370458
2-Sep,C_HumanVertical,1,Q1FrontUp,52.98194,49.47953,23.11412,-39.59293,-88.48843,159.5297,-47.05096,202408271626370663
2-Sep,C_HumanVertical,1,Q1FrontUp,53.06924,49.57703,23.09527,-39.39531,-88.4898,159.535,-47.05104,202408271626370960
2-Sep,C_HumanVertical,1,Q1FrontUp,53.06924,49.57703,23.09527,-39.39531,-88.4898,159.535,-47.05104,202408271626371113
2-Sep,C_HumanVertical,1,Q1FrontUp,53.06924,49.57703,23.09527,-39.39531,-88.4898,159.535,-47.05104,202408271626371292
2-Sep,C_HumanVertical,1,Q1FrontUp,53.19013,49.66658,23.04998,-39.19646,-88.48915,159.5617,-47.05135,202408271626371454
2-Sep,C_HumanVertical,1,Q1FrontUp,53.3249,49.76689,22.95721,-38.98358,-88.4893,159.5957,-47.05077,202408271626371668
2-Sep,C_HumanVertical,1,Q1FrontUp,53.3249,49.76689,22.95721,-38.98358,-88.4893,159.5957,-47.05077,202408271626371833
2-Sep,C_HumanVertical,1,Q1FrontUp,53.4798,49.84282,22.83614,-38.80983,-88.58308,159.5942,-47.05037,202408271626372123
2-Sep,C_HumanVertical,1,Q1FrontUp,53.62379,49.90302,22.7084,-38.70569,-88.63326,159.5949,-47.04915,202408271626372289
2-Sep,C_HumanVertical,1,Q1FrontUp,53.62379,49.90302,22.7084,-38.70569,-88.63326,159.5949,-47.04915,202408271626372455
2-Sep,C_HumanVertical,1,Q1FrontUp,53.75861,49.93808,22.60982,-38.66637,-88.63335,159.6304,-47.04897,202408271626372623
2-Sep,C_HumanVertical,1,Q1FrontUp,53.75861,49.93808,22.60982,-38.66637,-88.63335,159.6304,-47.04897,202408271626372795
2-Sep,C_HumanVertical,1,Q1FrontUp,53.88722,49.97993,22.53796,-38.62991,-88.633,159.6732,-47.04893,202408271626373032
2-Sep,C_HumanVertical,1,Q1FrontUp,53.88722,49.97993,22.53796,-38.62991,-88.633,159.6732,-47.04893,202408271626373274
2-Sep,C_HumanVertical,1,Q1FrontUp,54.03531,50.01218,22.44803,-38.6017,-88.66846,159.6905,-47.04539,202408271626373429
2-Sep,C_HumanVertical,1,Q1FrontUp,54.18769,50.0364,22.33298,-38.59034,-88.75077,159.6786,-47.02351,202408271626373608
2-Sep,C_HumanVertical,1,Q1FrontUp,54.18769,50.0364,22.33298,-38.59034,-88.75077,159.6786,-47.02351,202408271626373798
2-Sep,C_HumanVertical,1,Q1FrontUp,54.33987,50.04129,22.19841,-38.58952,-88.87607,159.6509,-47.01123,202408271626374010
2-Sep,C_HumanVertical,1,Q1FrontUp,54.33987,50.04129,22.19841,-38.58952,-88.87607,159.6509,-47.01123,202408271626374182
2-Sep,C_HumanVertical,1,Q1FrontUp,54.50048,50.04053,22.02531,-38.58802,-88.98181,159.6401,-46.98842,202408271626374434
2-Sep,C_HumanVertical,1,Q1FrontUp,54.6694,50.04016,21.8306,-38.58503,-89.06711,159.6401,-46.94493,202408271626374609
2-Sep,C_HumanVertical,1,Q1FrontUp,54.6694,50.04016,21.8306,-38.58503,-89.06711,159.6401,-46.94493,202408271626374836
2-Sep,C_HumanVertical,1,Q1FrontUp,54.83796,50.04189,21.66302,-38.58244,-89.0737,159.6437,-46.92536,202408271626374993
2-Sep,C_HumanVertical,1,Q1FrontUp,55.01576,50.04317,21.47403,-38.57823,-89.07391,159.646,-46.90142,202408271626375290
2-Sep,C_HumanVertical,1,Q1FrontUp,55.01576,50.04317,21.47403,-38.57823,-89.07391,159.646,-46.90142,202408271626375457
2-Sep,C_HumanVertical,1,Q1FrontUp,55.21595,50.04352,21.25272,-38.55936,-89.07422,159.6473,-46.87697,202408271626375612
2-Sep,C_HumanVertical,1,Q1FrontUp,55.21595,50.04352,21.25272,-38.55936,-89.07422,159.6473,-46.87697,202408271626375787
2-Sep,C_HumanVertical,1,Q1FrontUp,55.21595,50.04352,21.25272,-38.55936,-89.07422,159.6473,-46.87697,202408271626375968
2-Sep,C_HumanVertical,1,Q1FrontUp,55.41724,50.04414,21.05379,-38.54756,-89.07484,159.6476,-46.8512,202408271626376161
2-Sep,C_HumanVertical,1,Q1FrontUp,55.62458,50.04586,20.87029,-38.53495,-89.10683,159.6476,-46.83554,202408271626376334
2-Sep,C_HumanVertical,1,Q1FrontUp,55.62458,50.04586,20.87029,-38.53495,-89.10683,159.6476,-46.83554,202408271626376612
2-Sep,C_HumanVertical,1,Q1FrontUp,55.82977,50.05479,20.6862,-38.50843,-89.17506,159.6457,-46.83332,202408271626376788
2-Sep,C_HumanVertical,1,Q1FrontUp,56.02585,50.05605,20.49864,-38.50356,-89.25308,159.6458,-46.83162,202408271626377124
2-Sep,C_HumanVertical,1,Q1FrontUp,56.23565,50.06134,20.28708,-38.50138,-89.32436,159.6469,-46.83049,202408271626377331
2-Sep,C_HumanVertical,1,Q1FrontUp,56.44958,50.07157,20.06734,-38.50023,-89.37274,159.6475,-46.83026,202408271626377604
2-Sep,C_HumanVertical,1,Q1FrontUp,56.44958,50.07157,20.06734,-38.50023,-89.37274,159.6475,-46.83026,202408271626377771
2-Sep,C_HumanVertical,1,Q1FrontUp,56.68448,50.07784,19.79498,-38.50006,-89.49072,159.6471,-46.83039,202408271626377984
2-Sep,C_HumanVertical,1,Q1FrontUp,56.94498,50.08043,19.49628,-38.50136,-89.65665,159.6454,-46.82972,202408271626378276
2-Sep,C_HumanVertical,1,Q1FrontUp,56.94498,50.08043,19.49628,-38.50136,-89.65665,159.6454,-46.82972,202408271626378484
2-Sep,C_HumanVertical,1,Q1FrontUp,57.1894,50.08738,19.22387,-38.50901,-89.84986,159.6334,-46.82767,202408271626378790
2-Sep,C_HumanVertical,1,Q1FrontUp,57.41599,50.09402,18.95402,-38.5145,-90.03728,159.6207,-46.82599,202408271626379110
2-Sep,C_HumanVertical,1,Q1FrontUp,57.41599,50.09402,18.95402,-38.5145,-90.03728,159.6207,-46.82599,202408271626379293
2-Sep,C_HumanVertical,1,Q1FrontUp,57.64744,50.09815,18.66396,-38.5232,-90.2413,159.6084,-46.82281,202408271626379495
2-Sep,C_HumanVertical,1,Q1FrontUp,57.8779,50.09997,18.34743,-38.53887,-90.44481,159.6059,-46.81702,202408271626379785
2-Sep,C_HumanVertical,1,Q1FrontUp,58.12211,50.09733,18.03103,-38.56361,-90.63106,159.6055,-46.81644,202408271626379951
2-Sep,C_HumanVertical,1,Q1FrontUp,58.12211,50.09733,18.03103,-38.56361,-90.63106,159.6055,-46.81644,202408271626380130
2-Sep,C_HumanVertical,1,Q1FrontUp,58.34753,50.0997,17.77217,-38.59544,-90.79729,159.6058,-46.81614,202408271626380459
2-Sep,C_HumanVertical,1,Q1FrontUp,58.57031,50.10106,17.5236,-38.63554,-90.92564,159.606,-46.81617,202408271626380670
2-Sep,C_HumanVertical,1,Q1FrontUp,58.78303,50.09971,17.31889,-38.68247,-90.98443,159.6058,-46.81581,202408271626380955
2-Sep,C_HumanVertical,1,Q1FrontUp,58.78303,50.09971,17.31889,-38.68247,-90.98443,159.6058,-46.81581,202408271626381162
2-Sep,C_HumanVertical,1,Q1FrontUp,58.98867,50.1008,17.1357,-38.73343,-91.04797,159.606,-46.81524,202408271626381436
2-Sep,C_HumanVertical,1,Q1FrontUp,59.19609,50.1003,16.9691,-38.78378,-91.11691,159.6059,-46.81406,202408271626381627
2-Sep,C_HumanVertical,1,Q1FrontUp,59.19609,50.1003,16.9691,-38.78378,-91.11691,159.6059,-46.81406,202408271626381827
2-Sep,C_HumanVertical,1,Q1FrontUp,59.42688,50.09893,16.77681,-38.83406,-91.1983,159.607,-46.81414,202408271626382118
2-Sep,C_HumanVertical,1,Q1FrontUp,59.65646,50.09893,16.59839,-38.88143,-91.2945,159.6079,-46.81355,202408271626382286
2-Sep,C_HumanVertical,1,Q1FrontUp,59.65646,50.09893,16.59839,-38.88143,-91.2945,159.6079,-46.81355,202408271626382439
2-Sep,C_HumanVertical,1,Q1FrontUp,59.89318,50.10013,16.43483,-38.91667,-91.40292,159.6075,-46.81298,202408271626382616
2-Sep,C_HumanVertical,1,Q1FrontUp,60.11426,50.10109,16.29824,-38.94735,-91.52085,159.6077,-46.81201,202408271626382841
2-Sep,C_HumanVertical,1,Q1FrontUp,60.11426,50.10109,16.29824,-38.94735,-91.52085,159.6077,-46.81201,202408271626383004
2-Sep,C_HumanVertical,1,Q1FrontUp,60.31878,50.1005,16.15668,-38.97036,-91.63437,159.6081,-46.81124,202408271626383280
2-Sep,C_HumanVertical,1,Q1FrontUp,60.31878,50.1005,16.15668,-38.97036,-91.63437,159.6081,-46.81124,202408271626383450
2-Sep,C_HumanVertical,1,Q1FrontUp,60.51889,50.10007,15.99698,-38.98768,-91.75033,159.6083,-46.81042,202408271626383609
2-Sep,C_HumanVertical,1,Q1FrontUp,60.51889,50.10007,15.99698,-38.98768,-91.75033,159.6083,-46.81042,202408271626383786
2-Sep,C_HumanVertical,1,Q1FrontUp,60.70871,50.09785,15.85279,-39.00183,-91.84908,159.6096,-46.81054,202408271626383953
2-Sep,C_HumanVertical,1,Q1FrontUp,60.70871,50.09785,15.85279,-39.00183,-91.84908,159.6096,-46.81054,202408271626384172
2-Sep,C_HumanVertical,1,Q1FrontUp,60.89657,50.09757,15.72409,-39.02089,-91.93836,159.6106,-46.81019,202408271626384337
2-Sep,C_HumanVertical,1,Q1FrontUp,60.89657,50.09757,15.72409,-39.02089,-91.93836,159.6106,-46.81019,202408271626384613
2-Sep,C_HumanVertical,1,Q1FrontUp,60.89657,50.09757,15.72409,-39.02089,-91.93836,159.6106,-46.81019,202408271626384775
2-Sep,C_HumanVertical,1,Q1FrontUp,61.30373,50.09884,15.41435,-39.04274,-92.04321,159.6139,-46.81041,202408271626384962
2-Sep,C_HumanVertical,1,Q1FrontUp,61.30373,50.09884,15.41435,-39.04274,-92.04321,159.6139,-46.81041,202408271626385161
2-Sep,C_HumanVertical,1,Q1FrontUp,61.30373,50.09884,15.41435,-39.04274,-92.04321,159.6139,-46.81041,202408271626385428
2-Sep,C_HumanVertical,1,Q1FrontUp,61.76016,50.09847,15.07645,-39.04446,-92.12163,159.6307,-46.8103,202408271626385606
2-Sep,C_HumanVertical,1,Q1FrontUp,61.76016,50.09847,15.07645,-39.04446,-92.12163,159.6307,-46.8103,202408271626385780
2-Sep,C_HumanVertical,1,Q1FrontUp,61.76016,50.09847,15.07645,-39.04446,-92.12163,159.6307,-46.8103,202408271626386005
2-Sep,C_HumanVertical,1,Q1FrontUp,62.17958,50.09842,14.83266,-39.04689,-92.20434,159.6433,-46.81075,202408271626386279
2-Sep,C_HumanVertical,1,Q1FrontUp,62.17958,50.09842,14.83266,-39.04689,-92.20434,159.6433,-46.81075,202408271626386442
2-Sep,C_HumanVertical,1,Q1FrontUp,62.37585,50.09885,14.72961,-39.04757,-92.24788,159.6643,-46.81087,202408271626386619
2-Sep,C_HumanVertical,1,Q1FrontUp,62.37585,50.09885,14.72961,-39.04757,-92.24788,159.6643,-46.81087,202408271626386782
2-Sep,C_HumanVertical,1,Q1FrontUp,62.58787,50.09885,14.6136,-39.04772,-92.29848,159.6841,-46.81112,202408271626387122
2-Sep,C_HumanVertical,1,Q1FrontUp,62.80275,50.09769,14.50304,-39.04654,-92.34006,159.7058,-46.81127,202408271626387326
2-Sep,C_HumanVertical,1,Q1FrontUp,63.02444,50.09663,14.40584,-39.04694,-92.37946,159.7478,-46.81149,202408271626387612
2-Sep,C_HumanVertical,1,Q1FrontUp,63.02444,50.09663,14.40584,-39.04694,-92.37946,159.7478,-46.81149,202408271626387779
2-Sep,C_HumanVertical,1,Q1FrontUp,63.25568,50.09783,14.30397,-39.04776,-92.436,159.7798,-46.81153,202408271626387952
2-Sep,C_HumanVertical,1,Q1FrontUp,63.25568,50.09783,14.30397,-39.04776,-92.436,159.7798,-46.81153,202408271626388111
2-Sep,C_HumanVertical,1,Q1FrontUp,63.47628,50.09781,14.19349,-39.04726,-92.50311,159.8051,-46.81182,202408271626388290
2-Sep,C_HumanVertical,1,Q1FrontUp,63.47628,50.09781,14.19349,-39.04726,-92.50311,159.8051,-46.81182,202408271626388498
2-Sep,C_HumanVertical,1,Q1FrontUp,63.70235,50.09685,14.07056,-39.04666,-92.58415,159.8455,-46.81163,202408271626388792
2-Sep,C_HumanVertical,1,Q1FrontUp,63.92994,50.09711,13.96206,-39.04698,-92.67033,159.8755,-46.81146,202408271626388961
2-Sep,C_HumanVertical,1,Q1FrontUp,63.92994,50.09711,13.96206,-39.04698,-92.67033,159.8755,-46.81146,202408271626389168
2-Sep,C_HumanVertical,1,Q1FrontUp,64.15184,50.0975,13.85222,-39.04808,-92.75281,159.9044,-46.81162,202408271626389435
2-Sep,C_HumanVertical,1,Q1FrontUp,64.37949,50.09753,13.74638,-39.04821,-92.82151,159.9291,-46.81112,202408271626389637
2-Sep,C_HumanVertical,1,Q1FrontUp,64.62791,50.09523,13.61607,-39.04799,-92.88006,159.9653,-46.81118,202408271626389950
2-Sep,C_HumanVertical,1,Q1FrontUp,64.62791,50.09523,13.61607,-39.04799,-92.88006,159.9653,-46.81118,202408271626390116
2-Sep,C_HumanVertical,1,Q1FrontUp,64.84614,50.09124,13.50197,-39.0575,-92.93803,159.9928,-46.81136,202408271626390290
2-Sep,C_HumanVertical,1,Q1FrontUp,64.84614,50.09124,13.50197,-39.0575,-92.93803,159.9928,-46.81136,202408271626390460
2-Sep,C_HumanVertical,1,Q1FrontUp,65.05413,50.09,13.38237,-39.07682,-93.00368,160.0205,-46.81126,202408271626390668
2-Sep,C_HumanVertical,1,Q1FrontUp,65.2608,50.08938,13.28462,-39.10124,-93.06284,160.0427,-46.81108,202408271626390940
2-Sep,C_HumanVertical,1,Q1FrontUp,65.2608,50.08938,13.28462,-39.10124,-93.06284,160.0427,-46.81108,202408271626391097
2-Sep,C_HumanVertical,1,Q1FrontUp,65.45086,50.08048,13.1783,-39.14163,-93.10541,160.0733,-46.81128,202408271626391268
2-Sep,C_HumanVertical,1,Q1FrontUp,65.45086,50.08048,13.1783,-39.14163,-93.10541,160.0733,-46.81128,202408271626391430
2-Sep,C_HumanVertical,1,Q1FrontUp,65.64524,50.06111,13.04396,-39.20756,-93.14107,160.1051,-46.81134,202408271626391609
2-Sep,C_HumanVertical,1,Q1FrontUp,65.64524,50.06111,13.04396,-39.20756,-93.14107,160.1051,-46.81134,202408271626391817
2-Sep,C_HumanVertical,1,Q1FrontUp,65.86649,49.9881,12.83767,-39.36633,-93.16871,160.1477,-46.81123,202408271626392106
2-Sep,C_HumanVertical,1,Q1FrontUp,66.07994,49.87702,12.65594,-39.60134,-93.18348,160.1911,-46.8107,202408271626392308
2-Sep,C_HumanVertical,1,Q1FrontUp,66.28201,49.75686,12.50863,-39.84518,-93.18288,160.2384,-46.80993,202408271626392599
2-Sep,C_HumanVertical,1,Q1FrontUp,66.28201,49.75686,12.50863,-39.84518,-93.18288,160.2384,-46.80993,202408271626392774
2-Sep,C_HumanVertical,1,Q1FrontUp,66.52965,49.60751,12.30353,-40.11171,-93.16819,160.2659,-46.81023,202408271626392976
2-Sep,C_HumanVertical,1,Q1FrontUp,66.77772,49.47724,12.11708,-40.35762,-93.15805,160.2943,-46.81033,202408271626393286
2-Sep,C_HumanVertical,1,Q1FrontUp,66.77772,49.47724,12.11708,-40.35762,-93.15805,160.2943,-46.81033,202408271626393458
2-Sep,C_HumanVertical,1,Q1FrontUp,67.31915,49.27822,11.8628,-40.71118,-93.15641,160.3635,-46.80958,202408271626393846
2-Sep,C_HumanVertical,1,Q1FrontUp,67.31915,49.27822,11.8628,-40.71118,-93.15641,160.3635,-46.80958,202408271626394097
2-Sep,C_HumanVertical,1,Q1FrontUp,67.60373,49.18398,11.76171,-40.84259,-93.1563,160.3999,-46.80742,202408271626394271
2-Sep,C_HumanVertical,1,Q1FrontUp,67.60373,49.18398,11.76171,-40.84259,-93.1563,160.3999,-46.80742,202408271626394432
2-Sep,C_HumanVertical,1,Q1FrontUp,67.86406,49.08934,11.6465,-40.96134,-93.15617,160.4556,-46.78683,202408271626394611
2-Sep,C_HumanVertical,1,Q1FrontUp,67.86406,49.08934,11.6465,-40.96134,-93.15617,160.4556,-46.78683,202408271626394769
2-Sep,C_HumanVertical,1,Q1FrontUp,68.11051,48.99149,11.52488,-41.06994,-93.15644,160.5063,-46.77512,202408271626394942
2-Sep,C_HumanVertical,1,Q1FrontUp,68.11051,48.99149,11.52488,-41.06994,-93.15644,160.5063,-46.77512,202408271626395148
2-Sep,C_HumanVertical,1,Q1FrontUp,68.11051,48.99149,11.52488,-41.06994,-93.15644,160.5063,-46.77512,202408271626395322
2-Sep,C_HumanVertical,1,Q1FrontUp,68.52454,48.8423,11.4,-41.1895,-93.15606,160.5901,-46.74953,202408271626395605
2-Sep,C_HumanVertical,1,Q1FrontUp,68.52454,48.8423,11.4,-41.1895,-93.15606,160.5901,-46.74953,202408271626395774
2-Sep,C_HumanVertical,1,Q1FrontUp,68.6911,48.79704,11.38586,-41.1993,-93.15591,160.6097,-46.74194,202408271626395931
2-Sep,C_HumanVertical,1,Q1FrontUp,68.6911,48.79704,11.38586,-41.1993,-93.15591,160.6097,-46.74194,202408271626396109
2-Sep,C_HumanVertical,1,Q1FrontUp,68.8555,48.75531,11.37247,-41.20177,-93.15558,160.6221,-46.73608,202408271626396326
2-Sep,C_HumanVertical,1,Q1FrontUp,68.99526,48.71852,11.36323,-41.20397,-93.15548,160.6404,-46.7296,202408271626396614
2-Sep,C_HumanVertical,1,Q1FrontUp,68.99526,48.71852,11.36323,-41.20397,-93.15548,160.6404,-46.7296,202408271626396785
2-Sep,C_HumanVertical,1,Q1FrontUp,69.1086,48.68879,11.36337,-41.2034,-93.1511,160.6575,-46.71778,202408271626396993
2-Sep,C_HumanVertical,1,Q1FrontUp,69.20486,48.66391,11.36607,-41.2038,-93.13993,160.6775,-46.71301,202408271626397327
2-Sep,C_HumanVertical,1,Q1FrontUp,69.27767,48.64,11.36892,-41.20374,-93.12885,160.7006,-46.71284,202408271626397622
2-Sep,C_HumanVertical,1,Q1FrontUp,69.27767,48.64,11.36892,-41.20374,-93.12885,160.7006,-46.71284,202408271626397792
2-Sep,C_HumanVertical,1,Q1FrontUp,69.31636,48.62394,11.39784,-41.19775,-93.1282,160.714,-46.7129,202408271626397950
2-Sep,C_HumanVertical,1,Q1FrontUp,69.31636,48.62394,11.39784,-41.19775,-93.1282,160.714,-46.7129,202408271626398122
2-Sep,C_HumanVertical,1,Q1FrontUp,69.33386,48.61747,11.43004,-41.18378,-93.12905,160.722,-46.7126,202408271626398295
2-Sep,C_HumanVertical,1,Q1FrontUp,69.33386,48.61747,11.43004,-41.18378,-93.12905,160.722,-46.7126,202408271626398500
2-Sep,C_HumanVertical,1,Q1FrontUp,69.33217,48.61458,11.46475,-41.15889,-93.12933,160.7315,-46.71073,202408271626398773
2-Sep,C_HumanVertical,1,Q1FrontUp,69.30766,48.62077,11.50649,-41.10253,-93.13434,160.7322,-46.71082,202408271626398939
2-Sep,C_HumanVertical,1,Q1FrontUp,69.30766,48.62077,11.50649,-41.10253,-93.13434,160.7322,-46.71082,202408271626399110
2-Sep,C_HumanVertical,1,Q1FrontUp,69.27157,48.61871,11.53976,-41.046,-93.13725,160.7327,-46.71109,202408271626399281
2-Sep,C_HumanVertical,1,Q1FrontUp,69.27157,48.61871,11.53976,-41.046,-93.13725,160.7327,-46.71109,202408271626399464
2-Sep,C_HumanVertical,1,Q1FrontUp,69.22615,48.61837,11.5593,-40.98969,-93.13824,160.7328,-46.71091,202408271626399664
2-Sep,C_HumanVertical,1,Q1FrontUp,69.22615,48.61837,11.5593,-40.98969,-93.13824,160.7328,-46.71091,202408271626399954
2-Sep,C_HumanVertical,1,Q1FrontUp,69.16917,48.62214,11.59293,-40.9128,-93.13805,160.7326,-46.71119,202408271626400177
2-Sep,C_HumanVertical,1,Q1FrontUp,69.10444,48.62419,11.63817,-40.82955,-93.13798,160.7325,-46.71082,202408271626400457
2-Sep,C_HumanVertical,1,Q1FrontUp,69.10444,48.62419,11.63817,-40.82955,-93.13798,160.7325,-46.71082,202408271626400622
2-Sep,C_HumanVertical,1,Q1FrontUp,69.03533,48.6253,11.69443,-40.74623,-93.13799,160.7324,-46.71117,202408271626400828
2-Sep,C_HumanVertical,1,Q1FrontUp,68.95118,48.62889,11.77297,-40.67076,-93.1377,160.7323,-46.71141,202408271626401122
2-Sep,C_HumanVertical,1,Q1FrontUp,68.95118,48.62889,11.77297,-40.67076,-93.1377,160.7323,-46.71141,202408271626401286
2-Sep,C_HumanVertical,1,Q1FrontUp,68.86237,48.63341,11.86515,-40.58926,-93.13787,160.7323,-46.71092,202408271626401486
2-Sep,C_HumanVertical,1,Q1FrontUp,68.78003,48.64341,11.95218,-40.50468,-93.13792,160.7323,-46.71119,202408271626401701
2-Sep,C_HumanVertical,1,Q1FrontUp,68.78003,48.64341,11.95218,-40.50468,-93.13792,160.7323,-46.71119,202408271626401896
2-Sep,C_HumanVertical,1,Q1FrontUp,68.7009,48.65396,12.02783,-40.43054,-93.13806,160.7324,-46.71108,202408271626402121
2-Sep,C_HumanVertical,1,Q1FrontUp,68.61683,48.66779,12.09505,-40.36826,-93.13824,160.7332,-46.71119,202408271626402284
2-Sep,C_HumanVertical,1,Q1FrontUp,68.61683,48.66779,12.09505,-40.36826,-93.13824,160.7332,-46.71119,202408271626402449
2-Sep,C_HumanVertical,1,Q1FrontUp,68.61683,48.66779,12.09505,-40.36826,-93.13824,160.7332,-46.71119,202408271626402612
2-Sep,C_HumanVertical,1,Q1FrontUp,68.53062,48.6843,12.14884,-40.3044,-93.13818,160.7328,-46.71118,202408271626402793
2-Sep,C_HumanVertical,1,Q1FrontUp,68.45154,48.70329,12.17886,-40.25427,-93.13803,160.7325,-46.71131,202408271626403006
2-Sep,C_HumanVertical,1,Q1FrontUp,68.36423,48.73008,12.20747,-40.21178,-93.13796,160.7328,-46.71159,202408271626403275
2-Sep,C_HumanVertical,1,Q1FrontUp,68.36423,48.73008,12.20747,-40.21178,-93.13796,160.7328,-46.71159,202408271626403429
2-Sep,C_HumanVertical,1,Q1FrontUp,68.27378,48.76321,12.23515,-40.17263,-93.13793,160.7324,-46.71118,202408271626403610
2-Sep,C_HumanVertical,1,Q1FrontUp,68.27378,48.76321,12.23515,-40.17263,-93.13793,160.7324,-46.71118,202408271626403772
2-Sep,C_HumanVertical,1,Q1FrontUp,68.18855,48.79944,12.24848,-40.1392,-93.13757,160.7325,-46.71101,202408271626403953
2-Sep,C_HumanVertical,1,Q1FrontUp,68.18855,48.79944,12.24848,-40.1392,-93.13757,160.7325,-46.71101,202408271626404167
2-Sep,C_HumanVertical,1,Q1FrontUp,68.10925,48.8316,12.26535,-40.11522,-93.13748,160.7326,-46.71119,202408271626404447
2-Sep,C_HumanVertical,1,Q1FrontUp,68.03007,48.86055,12.28573,-40.0929,-93.13732,160.7323,-46.71103,202408271626404611
2-Sep,C_HumanVertical,1,Q1FrontUp,68.03007,48.86055,12.28573,-40.0929,-93.13732,160.7323,-46.71103,202408271626404822
2-Sep,C_HumanVertical,1,Q1FrontUp,67.95026,48.8834,12.30502,-40.07153,-93.13718,160.7323,-46.71146,202408271626405170
2-Sep,C_HumanVertical,1,Q1FrontUp,67.95026,48.8834,12.30502,-40.07153,-93.13718,160.7323,-46.71146,202408271626405457
2-Sep,C_HumanVertical,1,Q1FrontUp,67.78812,48.9279,12.38733,-39.99599,-93.12692,160.7321,-46.71118,202408271626405611
2-Sep,C_HumanVertical,1,Q1FrontUp,67.78812,48.9279,12.38733,-39.99599,-93.12692,160.7321,-46.71118,202408271626405775
2-Sep,C_HumanVertical,1,Q1FrontUp,67.78812,48.9279,12.38733,-39.99599,-93.12692,160.7321,-46.71118,202408271626405950
2-Sep,C_HumanVertical,1,Q1FrontUp,67.70494,48.94717,12.42974,-39.94079,-93.12385,160.7318,-46.71112,202408271626406112
2-Sep,C_HumanVertical,1,Q1FrontUp,67.61923,48.97351,12.48331,-39.86627,-93.11864,160.7322,-46.71132,202408271626406324
2-Sep,C_HumanVertical,1,Q1FrontUp,67.61923,48.97351,12.48331,-39.86627,-93.11864,160.7322,-46.71132,202408271626406601
2-Sep,C_HumanVertical,1,Q1FrontUp,67.53155,49.01331,12.55082,-39.75291,-93.10872,160.7316,-46.71114,202408271626406788
2-Sep,C_HumanVertical,1,Q1FrontUp,67.41706,49.05871,12.67375,-39.62822,-93.10007,160.7296,-46.71105,202408271626406952
2-Sep,C_HumanVertical,1,Q1FrontUp,67.41706,49.05871,12.67375,-39.62822,-93.10007,160.7296,-46.71105,202408271626407287
2-Sep,C_HumanVertical,1,Q1FrontUp,67.28852,49.09221,12.83081,-39.52462,-93.09708,160.7294,-46.71138,202408271626407496
2-Sep,C_HumanVertical,1,Q1FrontUp,67.14296,49.12445,13.00843,-39.41434,-93.09512,160.729,-46.71087,202408271626407819
2-Sep,C_HumanVertical,1,Q1FrontUp,66.97062,49.16329,13.21065,-39.27875,-93.07964,160.729,-46.71114,202408271626408113
2-Sep,C_HumanVertical,1,Q1FrontUp,66.79595,49.19719,13.42309,-39.13134,-93.07339,160.7287,-46.71025,202408271626408301
2-Sep,C_HumanVertical,1,Q1FrontUp,66.79595,49.19719,13.42309,-39.13134,-93.07339,160.7287,-46.71025,202408271626408494
2-Sep,C_HumanVertical,1,Q1FrontUp,66.61623,49.2321,13.61377,-38.97047,-93.07069,160.7278,-46.70908,202408271626408785
2-Sep,C_HumanVertical,1,Q1FrontUp,66.43391,49.25562,13.7665,-38.83017,-93.06703,160.7266,-46.70814,202408271626408944
2-Sep,C_HumanVertical,1,Q1FrontUp,66.23516,49.26788,13.92223,-38.73048,-93.06609,160.7214,-46.70738,202408271626409270
2-Sep,C_HumanVertical,1,Q1FrontUp,66.23516,49.26788,13.92223,-38.73048,-93.06609,160.7214,-46.70738,202408271626409482
2-Sep,C_HumanVertical,1,Q1FrontUp,66.0222,49.27277,14.10543,-38.64489,-93.06615,160.7116,-46.70761,202408271626409649
2-Sep,C_HumanVertical,1,Q1FrontUp,65.82115,49.28348,14.25046,-38.55104,-93.06079,160.694,-46.70774,202408271626409946
2-Sep,C_HumanVertical,1,Q1FrontUp,65.82115,49.28348,14.25046,-38.55104,-93.06079,160.694,-46.70774,202408271626410110
2-Sep,C_HumanVertical,1,Q1FrontUp,65.61658,49.29493,14.38331,-38.46063,-93.03016,160.6836,-46.70723,202408271626410277
2-Sep,C_HumanVertical,1,Q1FrontUp,65.61658,49.29493,14.38331,-38.46063,-93.03016,160.6836,-46.70723,202408271626410433
2-Sep,C_HumanVertical,1,Q1FrontUp,65.4174,49.3093,14.49741,-38.37088,-92.98009,160.6836,-46.7071,202408271626410606
2-Sep,C_HumanVertical,1,Q1FrontUp,65.4174,49.3093,14.49741,-38.37088,-92.98009,160.6836,-46.7071,202408271626410812
2-Sep,C_HumanVertical,1,Q1FrontUp,65.23402,49.32208,14.58789,-38.27356,-92.85374,160.6846,-46.70746,202408271626410995
2-Sep,C_HumanVertical,1,Q1FrontUp,65.23402,49.32208,14.58789,-38.27356,-92.85374,160.6846,-46.70746,202408271626411272
2-Sep,C_HumanVertical,1,Q1FrontUp,65.06703,49.33198,14.653,-38.17778,-92.73074,160.6842,-46.70755,202408271626411429
2-Sep,C_HumanVertical,1,Q1FrontUp,64.90474,49.33807,14.68442,-38.08855,-92.63196,160.683,-46.70716,202408271626411617
2-Sep,C_HumanVertical,1,Q1FrontUp,64.90474,49.33807,14.68442,-38.08855,-92.63196,160.683,-46.70716,202408271626411837
2-Sep,C_HumanVertical,1,Q1FrontUp,64.73513,49.34151,14.72016,-38.01635,-92.53852,160.6821,-46.70733,202408271626412113
2-Sep,C_HumanVertical,1,Q1FrontUp,64.57706,49.34374,14.75991,-37.94204,-92.47042,160.6544,-46.70919,202408271626412282
2-Sep,C_HumanVertical,1,Q1FrontUp,64.57706,49.34374,14.75991,-37.94204,-92.47042,160.6544,-46.70919,202408271626412447
2-Sep,C_HumanVertical,1,Q1FrontUp,64.42458,49.34439,14.80843,-37.85527,-92.42248,160.5696,-46.71551,202408271626412663
2-Sep,C_HumanVertical,1,Q1FrontUp,64.27416,49.34623,14.84948,-37.76796,-92.36678,160.4852,-46.71736,202408271626412949
2-Sep,C_HumanVertical,1,Q1FrontUp,64.27416,49.34623,14.84948,-37.76796,-92.36678,160.4852,-46.71736,202408271626413111
2-Sep,C_HumanVertical,1,Q1FrontUp,64.27416,49.34623,14.84948,-37.76796,-92.36678,160.4852,-46.71736,202408271626413281
2-Sep,C_HumanVertical,1,Q1FrontUp,64.11636,49.34566,14.90597,-37.69008,-92.32414,160.4134,-46.71767,202408271626413449
2-Sep,C_HumanVertical,1,Q1FrontUp,63.94924,49.34289,14.9812,-37.61604,-92.3022,160.3739,-46.71695,202408271626413619
2-Sep,C_HumanVertical,1,Q1FrontUp,63.94924,49.34289,14.9812,-37.61604,-92.3022,160.3739,-46.71695,202408271626413787
2-Sep,C_HumanVertical,1,Q1FrontUp,63.7924,49.34629,15.04223,-37.51514,-92.2408,160.3036,-46.71814,202408271626413996
2-Sep,C_HumanVertical,1,Q1FrontUp,63.7924,49.34629,15.04223,-37.51514,-92.2408,160.3036,-46.71814,202408271626414158
2-Sep,C_HumanVertical,1,Q1FrontUp,63.6279,49.34608,15.10313,-37.42089,-92.17159,160.2192,-46.71992,202408271626414429
2-Sep,C_HumanVertical,1,Q1FrontUp,63.45576,49.34269,15.15851,-37.34277,-92.10787,160.1524,-46.72054,202408271626414606
2-Sep,C_HumanVertical,1,Q1FrontUp,63.45576,49.34269,15.15851,-37.34277,-92.10787,160.1524,-46.72054,202408271626414777
2-Sep,C_HumanVertical,1,Q1FrontUp,63.24501,49.34462,15.18059,-37.26586,-92.10415,160.1136,-46.72116,202408271626414937
2-Sep,C_HumanVertical,1,Q1FrontUp,63.24501,49.34462,15.18059,-37.26586,-92.10415,160.1136,-46.72116,202408271626415139
2-Sep,C_HumanVertical,1,Q1FrontUp,63.24501,49.34462,15.18059,-37.26586,-92.10415,160.1136,-46.72116,202408271626415424
2-Sep,C_HumanVertical,1,Q1FrontUp,62.81783,49.34428,15.2493,-37.10466,-92.08411,160.0646,-46.73677,202408271626415607
2-Sep,C_HumanVertical,1,Q1FrontUp,62.81783,49.34428,15.2493,-37.10466,-92.08411,160.0646,-46.73677,202408271626415821
2-Sep,C_HumanVertical,1,Q1FrontUp,62.57903,49.34441,15.28112,-37.03944,-92.07182,160.0475,-46.74317,202408271626416159
2-Sep,C_HumanVertical,1,Q1FrontUp,62.33976,49.34493,15.32437,-36.98149,-92.06339,160.0225,-46.74652,202408271626416452
2-Sep,C_HumanVertical,1,Q1FrontUp,62.11716,49.34298,15.38124,-36.92738,-92.05705,159.9906,-46.74692,202408271626416611
2-Sep,C_HumanVertical,1,Q1FrontUp,62.11716,49.34298,15.38124,-36.92738,-92.05705,159.9906,-46.74692,202408271626416793
2-Sep,C_HumanVertical,1,Q1FrontUp,61.90311,49.34281,15.44173,-36.86179,-92.05663,159.9617,-46.74672,202408271626416951
2-Sep,C_HumanVertical,1,Q1FrontUp,61.90311,49.34281,15.44173,-36.86179,-92.05663,159.9617,-46.74672,202408271626417163
2-Sep,C_HumanVertical,1,Q1FrontUp,61.67078,49.34528,15.49768,-36.79035,-92.04137,159.9312,-46.74672,202408271626417424
2-Sep,C_HumanVertical,1,Q1FrontUp,61.45584,49.3448,15.53443,-36.7357,-92.01641,159.8909,-46.7469,202408271626417597
2-Sep,C_HumanVertical,1,Q1FrontUp,61.45584,49.3448,15.53443,-36.7357,-92.01641,159.8909,-46.7469,202408271626417775
2-Sep,C_HumanVertical,1,Q1FrontUp,61.45584,49.3448,15.53443,-36.7357,-92.01641,159.8909,-46.7469,202408271626417934
2-Sep,C_HumanVertical,1,Q1FrontUp,61.24416,49.34228,15.59454,-36.68795,-91.97642,159.8575,-46.74712,202408271626418109
2-Sep,C_HumanVertical,1,Q1FrontUp,61.04711,49.34282,15.66556,-36.63994,-91.92586,159.8369,-46.7476,202408271626418325
2-Sep,C_HumanVertical,1,Q1FrontUp,60.84615,49.34256,15.75306,-36.60713,-91.86434,159.8166,-46.74774,202408271626418609
2-Sep,C_HumanVertical,1,Q1FrontUp,60.84615,49.34256,15.75306,-36.60713,-91.86434,159.8166,-46.74774,202408271626418787
2-Sep,C_HumanVertical,1,Q1FrontUp,60.67167,49.34288,15.82449,-36.58263,-91.80385,159.7968,-46.7476,202408271626418995
2-Sep,C_HumanVertical,1,Q1FrontUp,60.49696,49.34177,15.89021,-36.55788,-91.74149,159.7779,-46.74777,202408271626419327
2-Sep,C_HumanVertical,1,Q1FrontUp,60.32417,49.34236,15.95233,-36.54519,-91.6795,159.7555,-46.74802,202408271626419613
2-Sep,C_HumanVertical,1,Q1FrontUp,60.32417,49.34236,15.95233,-36.54519,-91.6795,159.7555,-46.74802,202408271626419782
2-Sep,C_HumanVertical,1,Q1FrontUp,60.14079,49.34414,16.06867,-36.54472,-91.59026,159.7467,-46.74811,202408271626419947
2-Sep,C_HumanVertical,1,Q1FrontUp,60.14079,49.34414,16.06867,-36.54472,-91.59026,159.7467,-46.74811,202408271626420113
2-Sep,C_HumanVertical,1,Q1FrontUp,59.95426,49.34469,16.20643,-36.54495,-91.51082,159.7452,-46.74776,202408271626420291
2-Sep,C_HumanVertical,1,Q1FrontUp,59.95426,49.34469,16.20643,-36.54495,-91.51082,159.7452,-46.74776,202408271626420499
2-Sep,C_HumanVertical,1,Q1FrontUp,59.7613,49.34331,16.37654,-36.5439,-91.42087,159.7445,-46.7478,202408271626420782
2-Sep,C_HumanVertical,1,Q1FrontUp,59.57483,49.34516,16.56053,-36.54507,-91.26968,159.7441,-46.74777,202408271626420956
2-Sep,C_HumanVertical,1,Q1FrontUp,59.57483,49.34516,16.56053,-36.54507,-91.26968,159.7441,-46.74777,202408271626421116
2-Sep,C_HumanVertical,1,Q1FrontUp,59.40444,49.34209,16.72891,-36.54409,-91.12033,159.7444,-46.74768,202408271626421284
2-Sep,C_HumanVertical,1,Q1FrontUp,59.40444,49.34209,16.72891,-36.54409,-91.12033,159.7444,-46.74768,202408271626421458
2-Sep,C_HumanVertical,1,Q1FrontUp,59.24907,49.33522,16.87251,-36.54233,-90.97031,159.744,-46.74786,202408271626421657
2-Sep,C_HumanVertical,1,Q1FrontUp,59.24907,49.33522,16.87251,-36.54233,-90.97031,159.744,-46.74786,202408271626421948
2-Sep,C_HumanVertical,1,Q1FrontUp,59.08945,49.33328,17.05279,-36.54335,-90.846,159.7438,-46.74799,202408271626422160
2-Sep,C_HumanVertical,1,Q1FrontUp,58.93806,49.33288,17.23016,-36.54345,-90.73626,159.7434,-46.74828,202408271626422460
2-Sep,C_HumanVertical,1,Q1FrontUp,58.79291,49.33085,17.38397,-36.54287,-90.63799,159.7431,-46.74805,202408271626422625
2-Sep,C_HumanVertical,1,Q1FrontUp,58.79291,49.33085,17.38397,-36.54287,-90.63799,159.7431,-46.74805,202408271626422867
2-Sep,C_HumanVertical,1,Q1FrontUp,58.63871,49.32946,17.52088,-36.54272,-90.54646,159.7426,-46.74791,202408271626423112
2-Sep,C_HumanVertical,1,Q1FrontUp,58.4981,49.32892,17.65014,-36.5424,-90.46653,159.7426,-46.7482,202408271626423280
2-Sep,C_HumanVertical,1,Q1FrontUp,58.4981,49.32892,17.65014,-36.5424,-90.46653,159.7426,-46.7482,202408271626423460
2-Sep,C_HumanVertical,1,Q1FrontUp,58.36587,49.33023,17.77634,-36.54283,-90.39892,159.7425,-46.74814,202408271626423666
2-Sep,C_HumanVertical,1,Q1FrontUp,58.36587,49.33023,17.77634,-36.54283,-90.39892,159.7425,-46.74814,202408271626423838
2-Sep,C_HumanVertical,1,Q1FrontUp,58.23042,49.33126,17.89792,-36.54304,-90.30643,159.7441,-46.72303,202408271626424117
2-Sep,C_HumanVertical,1,Q1FrontUp,58.10717,49.33026,17.98783,-36.54282,-90.21179,159.7455,-46.70982,202408271626424278
2-Sep,C_HumanVertical,1,Q1FrontUp,58.10717,49.33026,17.98783,-36.54282,-90.21179,159.7455,-46.70982,202408271626424458
2-Sep,C_HumanVertical,1,Q1FrontUp,58.10717,49.33026,17.98783,-36.54282,-90.21179,159.7455,-46.70982,202408271626424615
2-Sep,C_HumanVertical,1,Q1FrontUp,58.10717,49.33026,17.98783,-36.54282,-90.21179,159.7455,-46.70982,202408271626424795
2-Sep,C_HumanVertical,1,Q1FrontUp,57.87389,49.32814,18.11652,-36.54221,-90.02951,159.7714,-46.69471,202408271626425005
2-Sep,C_HumanVertical,1,Q1FrontUp,57.87389,49.32814,18.11652,-36.54221,-90.02951,159.7714,-46.69471,202408271626425286
2-Sep,C_HumanVertical,1,Q1FrontUp,57.87389,49.32814,18.11652,-36.54221,-90.02951,159.7714,-46.69471,202408271626425458
2-Sep,C_HumanVertical,1,Q1FrontUp,57.63553,49.33319,18.25053,-36.53774,-89.85355,159.7861,-46.67104,202408271626425799
2-Sep,C_HumanVertical,1,Q1FrontUp,57.63553,49.33319,18.25053,-36.53774,-89.85355,159.7861,-46.67104,202408271626425997
2-Sep,C_HumanVertical,1,Q1FrontUp,57.39034,49.33977,18.40406,-36.49983,-89.70853,159.7799,-46.66813,202408271626426295
2-Sep,C_HumanVertical,1,Q1FrontUp,57.28097,49.35293,18.50734,-36.42029,-89.65359,159.7485,-46.69788,202408271626426610
2-Sep,C_HumanVertical,1,Q1FrontUp,57.28097,49.35293,18.50734,-36.42029,-89.65359,159.7485,-46.69788,202408271626426817
2-Sep,C_HumanVertical,1,Q1FrontUp,57.20429,49.40329,18.60639,-36.22537,-89.54906,159.7203,-46.72352,202408271626426986
2-Sep,C_HumanVertical,1,Q1FrontUp,57.15018,49.50852,18.69449,-35.89882,-89.45844,159.7086,-46.74768,202408271626427283
2-Sep,C_HumanVertical,1,Q1FrontUp,57.15018,49.50852,18.69449,-35.89882,-89.45844,159.7086,-46.74768,202408271626427450
2-Sep,C_HumanVertical,1,Q1FrontUp,57.13155,49.65347,18.75858,-35.4834,-89.3914,159.6967,-46.7631,202408271626427792
2-Sep,C_HumanVertical,1,Q1FrontUp,57.14499,49.85695,18.76657,-34.96093,-89.31075,159.6941,-46.77074,202408271626427957
2-Sep,C_HumanVertical,1,Q1FrontUp,57.14499,49.85695,18.76657,-34.96093,-89.31075,159.6941,-46.77074,202408271626428151
2-Sep,C_HumanVertical,1,Q1FrontUp,57.18214,50.07187,18.76854,-34.36018,-89.26559,159.6919,-46.78075,202408271626428309
2-Sep,C_HumanVertical,1,Q1FrontUp,57.21695,50.34451,18.76884,-33.70541,-89.23568,159.6768,-46.79815,202408271626428602
2-Sep,C_HumanVertical,1,Q1FrontUp,57.21695,50.34451,18.76884,-33.70541,-89.23568,159.6768,-46.79815,202408271626428770
2-Sep,C_HumanVertical,1,Q1FrontUp,57.23958,50.63973,18.78577,-33.01139,-89.23345,159.658,-46.80198,202408271626428937
2-Sep,C_HumanVertical,1,Q1FrontUp,57.23958,50.63973,18.78577,-33.01139,-89.23345,159.658,-46.80198,202408271626429123
2-Sep,C_HumanVertical,1,Q1FrontUp,57.25632,50.93825,18.80397,-32.35881,-89.23357,159.6421,-46.81721,202408271626429335
2-Sep,C_HumanVertical,1,Q1FrontUp,57.25988,51.20913,18.81573,-31.77492,-89.23348,159.6263,-46.82366,202408271626429718
2-Sep,C_HumanVertical,1,Q1FrontUp,57.25988,51.20913,18.81573,-31.77492,-89.23348,159.6263,-46.82366,202408271626429993
2-Sep,C_HumanVertical,1,Q1FrontUp,57.27325,51.86644,18.87223,-30.42533,-89.24284,159.601,-46.83462,202408271626430299
2-Sep,C_HumanVertical,1,Q1FrontUp,57.27325,51.86644,18.87223,-30.42533,-89.24284,159.601,-46.83462,202408271626430493
2-Sep,C_HumanVertical,1,Q1FrontUp,57.28451,52.17979,18.88444,-29.77987,-89.25843,159.5811,-46.83506,202408271626430782
2-Sep,C_HumanVertical,1,Q1FrontUp,57.29801,52.49702,18.88431,-29.1954,-89.26588,159.5513,-46.83924,202408271626430948
2-Sep,C_HumanVertical,1,Q1FrontUp,57.29801,52.49702,18.88431,-29.1954,-89.26588,159.5513,-46.83924,202408271626431130
2-Sep,C_HumanVertical,1,Q1FrontUp,57.3004,52.7774,18.89664,-28.68114,-89.29009,159.5177,-46.8435,202408271626431309
2-Sep,C_HumanVertical,1,Q1FrontUp,57.3004,52.7774,18.89664,-28.68114,-89.29009,159.5177,-46.8435,202408271626431498
2-Sep,C_HumanVertical,1,Q1FrontUp,57.30023,53.03652,18.92133,-28.22524,-89.31854,159.4799,-46.8473,202408271626431771
2-Sep,C_HumanVertical,1,Q1FrontUp,57.31839,53.27226,18.92234,-27.84969,-89.32014,159.4699,-46.85216,202408271626431934
2-Sep,C_HumanVertical,1,Q1FrontUp,57.31839,53.27226,18.92234,-27.84969,-89.32014,159.4699,-46.85216,202408271626432100
2-Sep,C_HumanVertical,1,Q1FrontUp,57.3544,53.53433,18.8759,-27.4444,-89.34501,159.4705,-46.85824,202408271626432261
2-Sep,C_HumanVertical,1,Q1FrontUp,57.3544,53.53433,18.8759,-27.4444,-89.34501,159.4705,-46.85824,202408271626432440
2-Sep,C_HumanVertical,1,Q1FrontUp,57.41866,53.82387,18.77815,-26.95554,-89.39297,159.468,-46.86752,202408271626432649
2-Sep,C_HumanVertical,1,Q1FrontUp,57.48671,54.11737,18.69749,-26.51433,-89.42754,159.467,-46.87347,202408271626432952
2-Sep,C_HumanVertical,1,Q1FrontUp,57.48671,54.11737,18.69749,-26.51433,-89.42754,159.467,-46.87347,202408271626433163
2-Sep,C_HumanVertical,1,Q1FrontUp,57.54608,54.43855,18.58175,-26.02659,-89.63472,159.4765,-46.88342,202408271626433445
2-Sep,C_HumanVertical,1,Q1FrontUp,57.61638,54.82761,18.40386,-25.33665,-90.00513,159.4698,-46.88934,202408271626433658
2-Sep,C_HumanVertical,1,Q1FrontUp,57.65989,55.29094,18.37578,-24.58296,-90.41528,159.4672,-46.89051,202408271626433935
2-Sep,C_HumanVertical,1,Q1FrontUp,57.65989,55.29094,18.37578,-24.58296,-90.41528,159.4672,-46.89051,202408271626434107
2-Sep,C_HumanVertical,1,Q1FrontUp,57.67074,55.78096,18.40712,-23.78226,-90.87045,159.4662,-46.89062,202408271626434265
2-Sep,C_HumanVertical,1,Q1FrontUp,57.67074,55.78096,18.40712,-23.78226,-90.87045,159.4662,-46.89062,202408271626434440
2-Sep,C_HumanVertical,1,Q1FrontUp,57.66351,56.25732,18.48557,-23.0346,-91.28249,159.4648,-46.89013,202408271626434624
2-Sep,C_HumanVertical,1,Q1FrontUp,57.66351,56.25732,18.48557,-23.0346,-91.28249,159.4648,-46.89013,202408271626434828
2-Sep,C_HumanVertical,1,Q1FrontUp,57.62967,56.76984,18.58024,-22.26257,-91.79285,159.4554,-46.89083,202408271626435112
2-Sep,C_HumanVertical,1,Q1FrontUp,57.62442,57.24559,18.65923,-21.59426,-92.23281,159.4471,-46.89094,202408271626435283
2-Sep,C_HumanVertical,1,Q1FrontUp,57.62442,57.24559,18.65923,-21.59426,-92.23281,159.4471,-46.89094,202408271626435458
2-Sep,C_HumanVertical,1,Q1FrontUp,57.6176,57.67323,18.71928,-20.96038,-92.67037,159.4255,-46.89253,202408271626435611
2-Sep,C_HumanVertical,1,Q1FrontUp,57.6176,57.67323,18.71928,-20.96038,-92.67037,159.4255,-46.89253,202408271626435798
2-Sep,C_HumanVertical,1,Q1FrontUp,57.6176,57.67323,18.71928,-20.96038,-92.67037,159.4255,-46.89253,202408271626436007
2-Sep,C_HumanVertical,1,Q1FrontUp,57.60527,58.48933,18.79389,-19.92285,-93.38661,159.3766,-46.89317,202408271626436292
2-Sep,C_HumanVertical,1,Q1FrontUp,57.60527,58.48933,18.79389,-19.92285,-93.38661,159.3766,-46.89317,202408271626436506
2-Sep,C_HumanVertical,1,Q1FrontUp,57.59138,58.82381,18.80173,-19.5368,-93.60295,159.3732,-46.89304,202408271626436797
2-Sep,C_HumanVertical,1,Q1FrontUp,57.58362,59.11671,18.80178,-19.22749,-93.80173,159.3577,-46.8931,202408271626436996
2-Sep,C_HumanVertical,1,Q1FrontUp,57.58362,59.11671,18.80178,-19.22749,-93.80173,159.3577,-46.8931,202408271626437294
2-Sep,C_HumanVertical,1,Q1FrontUp,57.572,59.37781,18.80064,-18.99702,-93.96673,159.3337,-46.89393,202408271626437463
2-Sep,C_HumanVertical,1,Q1FrontUp,57.56452,59.61221,18.7981,-18.81951,-94.11089,159.3218,-46.89453,202408271626437782
2-Sep,C_HumanVertical,1,Q1FrontUp,57.55481,59.80574,18.7748,-18.69247,-94.23655,159.2977,-46.89769,202408271626437955
2-Sep,C_HumanVertical,1,Q1FrontUp,57.55481,59.80574,18.7748,-18.69247,-94.23655,159.2977,-46.89769,202408271626438170
2-Sep,C_HumanVertical,1,Q1FrontUp,57.5493,59.96424,18.75885,-18.59799,-94.3392,159.2733,-46.91396,202408271626438458
2-Sep,C_HumanVertical,1,Q1FrontUp,57.54472,60.11106,18.75097,-18.52068,-94.43607,159.2531,-46.92,202408271626438781
2-Sep,C_HumanVertical,1,Q1FrontUp,57.54489,60.23121,18.73753,-18.45326,-94.58219,159.2386,-46.92027,202408271626439113
2-Sep,C_HumanVertical,1,Q1FrontUp,57.54838,60.33738,18.71536,-18.37752,-94.74246,159.2251,-46.9204,202408271626439315
2-Sep,C_HumanVertical,1,Q1FrontUp,57.5512,60.40475,18.68375,-18.33369,-94.91233,159.2172,-46.92093,202408271626439604
2-Sep,C_HumanVertical,1,Q1FrontUp,57.5512,60.40475,18.68375,-18.33369,-94.91233,159.2172,-46.92093,202408271626439816
2-Sep,C_HumanVertical,1,Q1FrontUp,57.55827,60.45014,18.59995,-18.26148,-95.11555,159.1979,-46.92057,202408271626440127
2-Sep,C_HumanVertical,1,Q1FrontUp,57.56038,60.47538,18.52221,-18.1731,-95.30717,159.181,-46.921,202408271626440327
2-Sep,C_HumanVertical,1,Q1FrontUp,57.56033,60.47938,18.44016,-18.07143,-95.46759,159.1648,-46.92059,202408271626440614
2-Sep,C_HumanVertical,1,Q1FrontUp,57.56033,60.47938,18.44016,-18.07143,-95.46759,159.1648,-46.92059,202408271626440790
2-Sep,C_HumanVertical,1,Q1FrontUp,57.55493,60.4762,18.3959,-17.94495,-95.58788,159.1571,-46.92072,202408271626440951
2-Sep,C_HumanVertical,1,Q1FrontUp,57.55493,60.4762,18.3959,-17.94495,-95.58788,159.1571,-46.92072,202408271626441121
2-Sep,C_HumanVertical,1,Q1FrontUp,57.54581,60.47126,18.3692,-17.81826,-95.69422,159.1532,-46.92009,202408271626441336
2-Sep,C_HumanVertical,1,Q1FrontUp,57.54581,60.47126,18.3692,-17.81826,-95.69422,159.1532,-46.92009,202408271626441494
2-Sep,C_HumanVertical,1,Q1FrontUp,57.53865,60.45753,18.34866,-17.70409,-95.79109,159.149,-46.92026,202408271626441781
2-Sep,C_HumanVertical,1,Q1FrontUp,57.53998,60.44147,18.29782,-17.58015,-95.90689,159.1398,-46.91958,202408271626441951
2-Sep,C_HumanVertical,1,Q1FrontUp,57.53998,60.44147,18.29782,-17.58015,-95.90689,159.1398,-46.91958,202408271626442123
2-Sep,C_HumanVertical,1,Q1FrontUp,57.53994,60.41807,18.24273,-17.46641,-96.02377,159.1251,-46.91925,202408271626442288
2-Sep,C_HumanVertical,1,Q1FrontUp,57.53994,60.41807,18.24273,-17.46641,-96.02377,159.1251,-46.91925,202408271626442465
2-Sep,C_HumanVertical,1,Q1FrontUp,57.53994,60.41807,18.24273,-17.46641,-96.02377,159.1251,-46.91925,202408271626442667
2-Sep,C_HumanVertical,1,Q1FrontUp,57.53712,60.39186,18.18745,-17.34511,-96.12185,159.0882,-46.91914,202408271626442827
2-Sep,C_HumanVertical,1,Q1FrontUp,57.52674,60.36009,18.14095,-17.24437,-96.20879,159.0495,-46.91861,202408271626443121
2-Sep,C_HumanVertical,1,Q1FrontUp,57.51326,60.32609,18.1172,-17.14716,-96.25992,158.9996,-46.91815,202408271626443285
2-Sep,C_HumanVertical,1,Q1FrontUp,57.51326,60.32609,18.1172,-17.14716,-96.25992,158.9996,-46.91815,202408271626443449
2-Sep,C_HumanVertical,1,Q1FrontUp,57.49954,60.29527,18.11616,-17.05957,-96.26502,158.9366,-46.91791,202408271626443616
2-Sep,C_HumanVertical,1,Q1FrontUp,57.49954,60.29527,18.11616,-17.05957,-96.26502,158.9366,-46.91791,202408271626443834
2-Sep,C_HumanVertical,1,Q1FrontUp,57.48515,60.26789,18.11607,-16.98926,-96.26717,158.878,-46.9183,202408271626444101
2-Sep,C_HumanVertical,1,Q1FrontUp,57.46954,60.23608,18.11683,-16.94087,-96.26761,158.8285,-46.91885,202408271626444279
2-Sep,C_HumanVertical,1,Q1FrontUp,57.46954,60.23608,18.11683,-16.94087,-96.26761,158.8285,-46.91885,202408271626444477
2-Sep,C_HumanVertical,1,Q1FrontUp,57.44525,60.19352,18.11679,-16.93947,-96.26741,158.7806,-46.92029,202408271626444795
2-Sep,C_HumanVertical,1,Q1FrontUp,57.42327,60.15368,18.11668,-16.93916,-96.26736,158.7443,-46.92194,202408271626445005
2-Sep,C_HumanVertical,1,Q1FrontUp,57.39326,60.11825,18.10641,-16.94216,-96.25964,158.7141,-46.92308,202408271626445283
2-Sep,C_HumanVertical,1,Q1FrontUp,57.39326,60.11825,18.10641,-16.94216,-96.25964,158.7141,-46.92308,202408271626445433
2-Sep,C_HumanVertical,1,Q1FrontUp,57.3636,60.08976,18.0779,-16.94398,-96.24674,158.6997,-46.92244,202408271626445613
2-Sep,C_HumanVertical,1,Q1FrontUp,57.3636,60.08976,18.0779,-16.94398,-96.24674,158.6997,-46.92244,202408271626445780
2-Sep,C_HumanVertical,1,Q1FrontUp,57.32602,60.06798,18.05867,-16.96114,-96.2065,158.6705,-46.92233,202408271626446007
2-Sep,C_HumanVertical,1,Q1FrontUp,57.27819,60.05077,18.10445,-16.99838,-96.16997,158.6393,-46.92247,202408271626446292
2-Sep,C_HumanVertical,1,Q1FrontUp,57.27819,60.05077,18.10445,-16.99838,-96.16997,158.6393,-46.92247,202408271626446447
2-Sep,C_HumanVertical,1,Q1FrontUp,57.27819,60.05077,18.10445,-16.99838,-96.16997,158.6393,-46.92247,202408271626446614
2-Sep,C_HumanVertical,1,Q1FrontUp,57.27819,60.05077,18.10445,-16.99838,-96.16997,158.6393,-46.92247,202408271626446785
2-Sep,C_HumanVertical,1,Q1FrontUp,57.16672,60.0398,18.13928,-17.12539,-96.00576,158.5987,-46.92302,202408271626446956
2-Sep,C_HumanVertical,1,Q1FrontUp,57.16672,60.0398,18.13928,-17.12539,-96.00576,158.5987,-46.92302,202408271626447118
2-Sep,C_HumanVertical,1,Q1FrontUp,57.11324,60.05806,18.10991,-17.16268,-95.87007,158.5975,-46.92334,202408271626447324
2-Sep,C_HumanVertical,1,Q1FrontUp,57.11324,60.05806,18.10991,-17.16268,-95.87007,158.5975,-46.92334,202408271626447509
2-Sep,C_HumanVertical,1,Q1FrontUp,57.04279,60.09536,18.15042,-17.16886,-95.7082,158.5979,-46.92441,202408271626447785
2-Sep,C_HumanVertical,1,Q1FrontUp,57.04279,60.09536,18.15042,-17.16886,-95.7082,158.5979,-46.92441,202408271626447957
2-Sep,C_HumanVertical,1,Q1FrontUp,56.96751,60.12643,18.17612,-17.17476,-95.55643,158.5979,-46.9254,202408271626448131
2-Sep,C_HumanVertical,1,Q1FrontUp,56.88745,60.16291,18.18828,-17.1677,-95.43476,158.5988,-46.92738,202408271626448334
2-Sep,C_HumanVertical,1,Q1FrontUp,56.80584,60.19985,18.18845,-17.15079,-95.35796,158.5983,-46.93359,202408271626448609
2-Sep,C_HumanVertical,1,Q1FrontUp,56.80584,60.19985,18.18845,-17.15079,-95.35796,158.5983,-46.93359,202408271626448781
2-Sep,C_HumanVertical,1,Q1FrontUp,56.72342,60.32254,18.26803,-16.98647,-95.3632,158.5994,-46.93989,202408271626448950
2-Sep,C_HumanVertical,1,Q1FrontUp,56.72342,60.32254,18.26803,-16.98647,-95.3632,158.5994,-46.93989,202408271626449175
2-Sep,C_HumanVertical,1,Q1FrontUp,56.65261,60.45116,18.37422,-16.78185,-95.34164,158.5971,-46.94187,202408271626449458
2-Sep,C_HumanVertical,1,Q1FrontUp,56.56675,60.61559,18.50492,-16.50836,-95.28857,158.5965,-46.94324,202408271626449613
2-Sep,C_HumanVertical,1,Q1FrontUp,56.56675,60.61559,18.50492,-16.50836,-95.28857,158.5965,-46.94324,202408271626449781
2-Sep,C_HumanVertical,1,Q1FrontUp,56.47421,60.8138,18.62329,-16.2043,-95.31125,158.5965,-46.94313,202408271626449954
2-Sep,C_HumanVertical,1,Q1FrontUp,56.47421,60.8138,18.62329,-16.2043,-95.31125,158.5965,-46.94313,202408271626450116
2-Sep,C_HumanVertical,1,Q1FrontUp,56.38373,60.99368,18.71182,-15.92365,-95.31793,158.5963,-46.94494,202408271626450295
