mpan31415/robot-x-ar/study2/data/raw_all_participants/Participant_2-8_1.csv
ParticipantID,Condition,Trial,PostureID,J1,J2,J3,J4,J5,J6,J7,Timestamp,
2-8,C_HumanVertical,1,Q3FrontDown,-33.69965,29.18178,77.88392,-26.83959,-114.6548,156.5868,-41.73772,202408261746159921,
2-8,C_HumanVertical,1,Q3FrontDown,-33.69965,29.18178,77.88392,-26.83959,-114.6548,156.5868,-41.73772,202408261746160224,
2-8,C_HumanVertical,1,Q3FrontDown,-33.70049,29.18169,77.89735,-26.8396,-114.6561,156.587,-41.73782,202408261746160545,
2-8,C_HumanVertical,1,Q3FrontDown,-33.70258,29.31317,78.535,-26.95134,-114.9665,156.5684,-42.05389,202408261746161503,
2-8,C_HumanVertical,1,Q3FrontDown,-33.6382,29.44592,79.69306,-27.34007,-115.5086,156.5611,-42.55819,202408261746162309,
2-8,C_HumanVertical,1,Q3FrontDown,-33.62016,29.4637,80.00765,-27.51617,-115.6257,156.561,-42.70876,202408261746162550,
2-8,C_HumanVertical,1,Q3FrontDown,-33.62016,29.4637,80.00765,-27.51617,-115.6257,156.561,-42.70876,202408261746162802,
2-8,C_HumanVertical,1,Q3FrontDown,-33.60579,29.46629,80.30882,-27.65623,-115.7115,156.5609,-42.83834,202408261746162983,
2-8,C_HumanVertical,1,Q3FrontDown,-33.56845,29.46477,80.58383,-27.78946,-115.7954,156.5608,-42.96914,202408261746163168,
2-8,C_HumanVertical,1,Q3FrontDown,-33.56845,29.46477,80.58383,-27.78946,-115.7954,156.5608,-42.96914,202408261746163342,
2-8,C_HumanVertical,1,Q3FrontDown,-33.56845,29.46477,80.58383,-27.78946,-115.7954,156.5608,-42.96914,202408261746163500,
2-8,C_HumanVertical,1,Q3FrontDown,-33.54199,29.46625,80.85289,-27.9084,-115.881,156.5609,-43.08905,202408261746163664,
2-8,C_HumanVertical,1,Q3FrontDown,-33.54199,29.46625,80.85289,-27.9084,-115.881,156.5609,-43.08905,202408261746163860,
2-8,C_HumanVertical,1,Q3FrontDown,-33.52921,29.46563,81.08693,-28.02333,-115.9614,156.561,-43.19744,202408261746164060,
2-8,C_HumanVertical,1,Q3FrontDown,-33.5118,29.46217,81.27864,-28.13236,-116.0367,156.5609,-43.30689,202408261746164323,
2-8,C_HumanVertical,1,Q3FrontDown,-33.49295,29.46072,81.47024,-28.2337,-116.1027,156.5611,-43.4115,202408261746164643,
2-8,C_HumanVertical,1,Q3FrontDown,-33.49295,29.46072,81.47024,-28.2337,-116.1027,156.5611,-43.4115,202408261746164815,
2-8,C_HumanVertical,1,Q3FrontDown,-33.47686,29.46182,81.64663,-28.32014,-116.1766,156.5611,-43.50536,202408261746165021,
2-8,C_HumanVertical,1,Q3FrontDown,-33.46125,29.46179,81.80453,-28.39044,-116.2745,156.5613,-43.5895,202408261746165305,
2-8,C_HumanVertical,1,Q3FrontDown,-33.46125,29.46179,81.80453,-28.39044,-116.2745,156.5613,-43.5895,202408261746165462,
2-8,C_HumanVertical,1,Q3FrontDown,-33.445,29.46242,81.91556,-28.44555,-116.3529,156.5611,-43.66553,202408261746165685,
2-8,C_HumanVertical,1,Q3FrontDown,-33.43976,29.46254,82.0061,-28.49865,-116.4178,156.5613,-43.74465,202408261746165973,
2-8,C_HumanVertical,1,Q3FrontDown,-33.43987,29.46241,82.08928,-28.5414,-116.4761,156.5609,-43.82146,202408261746166205,
2-8,C_HumanVertical,1,Q3FrontDown,-33.43987,29.46241,82.08928,-28.5414,-116.4761,156.5609,-43.82146,202408261746166490,
2-8,C_HumanVertical,1,Q3FrontDown,-33.44109,29.4603,82.14812,-28.57841,-116.5518,156.5599,-43.87504,202408261746166658,
2-8,C_HumanVertical,1,Q3FrontDown,-33.46342,29.4502,82.18774,-28.63148,-116.5961,156.5569,-43.92075,202408261746166982,
2-8,C_HumanVertical,1,Q3FrontDown,-33.46342,29.4502,82.18774,-28.63148,-116.5961,156.5569,-43.92075,202408261746167184,
2-8,C_HumanVertical,1,Q3FrontDown,-33.50339,29.44196,82.20928,-28.71731,-116.6264,156.5544,-43.95917,202408261746167466,
2-8,C_HumanVertical,1,Q3FrontDown,-33.5762,29.42249,82.20906,-28.84225,-116.6265,156.5543,-43.96985,202408261746167639,
2-8,C_HumanVertical,1,Q3FrontDown,-33.5762,29.42249,82.20906,-28.84225,-116.6265,156.5543,-43.96985,202408261746167811,
2-8,C_HumanVertical,1,Q3FrontDown,-33.64176,29.41608,82.2085,-28.966,-116.6267,156.5544,-43.98297,202408261746167969,
2-8,C_HumanVertical,1,Q3FrontDown,-33.69091,29.41571,82.2069,-29.08018,-116.6268,156.5548,-43.99453,202408261746168167,
2-8,C_HumanVertical,1,Q3FrontDown,-33.69091,29.41571,82.2069,-29.08018,-116.6268,156.5548,-43.99453,202408261746168385,
2-8,C_HumanVertical,1,Q3FrontDown,-33.69091,29.41571,82.2069,-29.08018,-116.6268,156.5548,-43.99453,202408261746168628,
2-8,C_HumanVertical,1,Q3FrontDown,-33.70971,29.4117,82.15754,-29.20417,-116.6224,156.555,-43.9938,202408261746168866,
2-8,C_HumanVertical,1,Q3FrontDown,-33.70971,29.4117,82.15754,-29.20417,-116.6224,156.555,-43.9938,202408261746169166,
2-8,C_HumanVertical,1,Q3FrontDown,-33.70908,29.40727,82.11043,-29.2587,-116.6202,156.5557,-43.99202,202408261746169343,
2-8,C_HumanVertical,1,Q3FrontDown,-33.70898,29.39647,82.03159,-29.30622,-116.6202,156.5566,-43.98402,202408261746169646,
2-8,C_HumanVertical,1,Q3FrontDown,-33.71037,29.37886,81.96484,-29.33848,-116.6201,156.5568,-43.97679,202408261746169970,
2-8,C_HumanVertical,1,Q3FrontDown,-33.71037,29.37886,81.96484,-29.33848,-116.6201,156.5568,-43.97679,202408261746170142,
2-8,C_HumanVertical,1,Q3FrontDown,-33.71053,29.36067,81.90211,-29.36493,-116.6202,156.5565,-43.96816,202408261746170371,
2-8,C_HumanVertical,1,Q3FrontDown,-33.71035,29.3482,81.86625,-29.38959,-116.6202,156.5562,-43.96892,202408261746170563,
2-8,C_HumanVertical,1,Q3FrontDown,-33.71035,29.3482,81.86625,-29.38959,-116.6202,156.5562,-43.96892,202408261746170815,
2-8,C_HumanVertical,1,Q3FrontDown,-33.71007,29.34233,81.85118,-29.41933,-116.6206,156.5556,-43.96875,202408261746171002,
2-8,C_HumanVertical,1,Q3FrontDown,-33.71007,29.34233,81.85118,-29.41933,-116.6206,156.5556,-43.96875,202408261746171154,
2-8,C_HumanVertical,1,Q3FrontDown,-33.71012,29.3377,81.84687,-29.44773,-116.6206,156.5558,-43.96916,202408261746171331,
2-8,C_HumanVertical,1,Q3FrontDown,-33.70996,29.3314,81.84385,-29.47154,-116.6205,156.5558,-43.96915,202408261746171709,
2-8,C_HumanVertical,1,Q3FrontDown,-33.71041,29.32155,81.84152,-29.49522,-116.6204,156.5557,-43.9698,202408261746171967,
2-8,C_HumanVertical,1,Q3FrontDown,-33.71041,29.32155,81.84152,-29.49522,-116.6204,156.5557,-43.9698,202408261746172141,
2-8,C_HumanVertical,1,Q3FrontDown,-33.71012,29.31123,81.84093,-29.51755,-116.6205,156.5555,-43.96946,202408261746172303,
2-8,C_HumanVertical,1,Q3FrontDown,-33.71012,29.31123,81.84093,-29.51755,-116.6205,156.5555,-43.96946,202408261746172474,
2-8,C_HumanVertical,1,Q3FrontDown,-33.71102,29.30069,81.84093,-29.54438,-116.6205,156.5555,-43.97026,202408261746172642,
2-8,C_HumanVertical,1,Q3FrontDown,-33.71102,29.30069,81.84093,-29.54438,-116.6205,156.5555,-43.97026,202408261746172857,
2-8,C_HumanVertical,1,Q3FrontDown,-33.7244,29.28693,81.84158,-29.58308,-116.6205,156.5555,-43.97013,202408261746173140,
2-8,C_HumanVertical,1,Q3FrontDown,-33.7244,29.28693,81.84158,-29.58308,-116.6205,156.5555,-43.97013,202408261746173352,
2-8,C_HumanVertical,1,Q3FrontDown,-33.77673,29.25094,81.84362,-29.69319,-116.6205,156.5552,-43.97016,202408261746173609,
2-8,C_HumanVertical,1,Q3FrontDown,-33.77673,29.25094,81.84362,-29.69319,-116.6205,156.5552,-43.97016,202408261746173830,
2-8,C_HumanVertical,1,Q3FrontDown,-33.79801,29.23977,81.84398,-29.7441,-116.6205,156.5553,-43.97003,202408261746174036,
2-8,C_HumanVertical,1,Q3FrontDown,-33.81289,29.23024,81.84418,-29.78622,-116.6207,156.5554,-43.96985,202408261746174305,
2-8,C_HumanVertical,1,Q3FrontDown,-33.8133,29.22653,81.84386,-29.81404,-116.6205,156.5552,-43.96996,202408261746174626,
2-8,C_HumanVertical,1,Q3FrontDown,-33.8133,29.22653,81.84386,-29.81404,-116.6205,156.5552,-43.96996,202408261746174785,
2-8,C_HumanVertical,1,Q3FrontDown,-33.81349,29.22528,81.84398,-29.83457,-116.6206,156.5552,-43.97009,202408261746174972,
2-8,C_HumanVertical,1,Q3FrontDown,-33.81379,29.2249,81.84391,-29.84858,-116.6206,156.5555,-43.96977,202408261746175192,
2-8,C_HumanVertical,1,Q3FrontDown,-33.81379,29.2249,81.84391,-29.84858,-116.6206,156.5555,-43.96977,202408261746175460,
2-8,C_HumanVertical,1,Q3FrontDown,-33.8138,29.22477,81.84381,-29.86199,-116.6205,156.5552,-43.97007,202408261746175630,
2-8,C_HumanVertical,1,Q3FrontDown,-33.8138,29.22477,81.84381,-29.86199,-116.6205,156.5552,-43.97007,202408261746175806,
2-8,C_HumanVertical,1,Q3FrontDown,-33.81415,29.22436,81.84303,-29.8679,-116.6204,156.5555,-43.96978,202408261746176001,
2-8,C_HumanVertical,1,Q3FrontDown,-33.81423,29.22395,81.84204,-29.86907,-116.6204,156.5555,-43.97015,202408261746176211,
2-8,C_HumanVertical,1,Q3FrontDown,-33.81423,29.22395,81.84204,-29.86907,-116.6204,156.5555,-43.97015,202408261746176481,
2-8,C_HumanVertical,1,Q3FrontDown,-33.81397,29.22277,81.83379,-29.8692,-116.6207,156.5555,-43.96988,202408261746176694,
2-8,C_HumanVertical,1,Q3FrontDown,-33.81393,29.22222,81.82627,-29.86862,-116.6202,156.5555,-43.96998,202408261746176984,
2-8,C_HumanVertical,1,Q3FrontDown,-33.81393,29.22222,81.82627,-29.86862,-116.6202,156.5555,-43.96998,202408261746177144,
2-8,C_HumanVertical,1,Q3FrontDown,-33.81405,29.22198,81.81982,-29.86831,-116.6205,156.5553,-43.97021,202408261746177350,
2-8,C_HumanVertical,1,Q3FrontDown,-33.81411,29.22198,81.81967,-29.86795,-116.6204,156.5554,-43.97007,202408261746177635,
2-8,C_HumanVertical,1,Q3FrontDown,-33.81411,29.22198,81.81967,-29.86795,-116.6204,156.5554,-43.97007,202408261746177805,
2-8,C_HumanVertical,1,Q3FrontDown,-33.81411,29.22198,81.81967,-29.86795,-116.6204,156.5554,-43.97007,202408261746177976,
2-8,C_HumanVertical,1,Q3FrontDown,-33.8143,29.22194,81.81973,-29.86815,-116.6204,156.5555,-43.97012,202408261746178155,
2-8,C_HumanVertical,1,Q3FrontDown,-33.81403,29.22171,81.81938,-29.86825,-116.6205,156.5554,-43.96967,202408261746178399,
2-8,C_HumanVertical,1,Q3FrontDown,-33.81405,29.22179,81.81975,-29.86814,-116.6204,156.5555,-43.96971,202408261746178669,
2-8,C_HumanVertical,1,Q3FrontDown,-33.81405,29.22151,81.8198,-29.86688,-116.6205,156.5555,-43.97018,202408261746178989,
2-8,C_HumanVertical,1,Q3FrontDown,-33.81405,29.22151,81.8198,-29.86688,-116.6205,156.5555,-43.97018,202408261746179171,
2-8,C_HumanVertical,1,Q3FrontDown,-33.81415,29.22138,81.81963,-29.86584,-116.6205,156.5558,-43.97019,202408261746179356,
2-8,C_HumanVertical,1,Q3FrontDown,-33.81384,29.22069,81.81966,-29.86503,-116.6203,156.5557,-43.97003,202408261746179631,
2-8,C_HumanVertical,1,Q3FrontDown,-33.81384,29.22069,81.81966,-29.86503,-116.6203,156.5557,-43.97003,202408261746179786,
2-8,C_HumanVertical,1,Q3FrontDown,-33.81389,29.22052,81.81902,-29.86338,-116.6206,156.5559,-43.96999,202408261746180020,
2-8,C_HumanVertical,1,Q3FrontDown,-33.81411,29.22107,81.81845,-29.86166,-116.6204,156.5562,-43.97031,202408261746180303,
2-8,C_HumanVertical,1,Q3FrontDown,-33.81411,29.22107,81.81845,-29.86166,-116.6204,156.5562,-43.97031,202408261746180528,
2-8,C_HumanVertical,1,Q3FrontDown,-33.81394,29.22115,81.81823,-29.85942,-116.6201,156.5564,-43.97043,202408261746180795,
2-8,C_HumanVertical,1,Q3FrontDown,-33.81408,29.22091,81.81845,-29.85738,-116.62,156.5567,-43.97003,202408261746180956,
2-8,C_HumanVertical,1,Q3FrontDown,-33.81408,29.22091,81.81845,-29.85738,-116.62,156.5567,-43.97003,202408261746181169,
2-8,C_HumanVertical,1,Q3FrontDown,-33.81415,29.22095,81.81834,-29.85587,-116.6188,156.5579,-43.9702,202408261746181359,
2-8,C_HumanVertical,1,Q3FrontDown,-33.81421,29.22034,81.81866,-29.85565,-116.6042,156.599,-43.97,202408261746181540,
2-8,C_HumanVertical,1,Q3FrontDown,-33.81421,29.22034,81.81866,-29.85565,-116.6042,156.599,-43.97,202408261746181816,
2-8,C_HumanVertical,1,Q3FrontDown,-33.81428,29.22098,81.81796,-29.8494,-116.589,156.6655,-43.96704,202408261746182141,
2-8,C_HumanVertical,1,Q3FrontDown,-33.81406,29.22055,81.8155,-29.8389,-116.5697,156.7784,-43.9553,202408261746182295,
2-8,C_HumanVertical,1,Q3FrontDown,-33.81406,29.22055,81.8155,-29.8389,-116.5697,156.7784,-43.9553,202408261746182474,
2-8,C_HumanVertical,1,Q3FrontDown,-33.81297,29.21741,81.76765,-29.81662,-116.4809,157.1064,-43.8811,202408261746182667,
2-8,C_HumanVertical,1,Q3FrontDown,-33.8132,29.21362,81.72873,-29.79868,-116.4213,157.4357,-43.82394,202408261746182960,
2-8,C_HumanVertical,1,Q3FrontDown,-33.8132,29.21362,81.72873,-29.79868,-116.4213,157.4357,-43.82394,202408261746183187,
2-8,C_HumanVertical,1,Q3FrontDown,-33.81276,29.20807,81.69296,-29.78468,-116.364,157.7275,-43.76751,202408261746183460,
2-8,C_HumanVertical,1,Q3FrontDown,-33.8126,29.19216,81.59202,-29.7597,-116.2881,158.1812,-43.66995,202408261746183673,
2-8,C_HumanVertical,1,Q3FrontDown,-33.8126,29.19216,81.59202,-29.7597,-116.2881,158.1812,-43.66995,202408261746183847,
2-8,C_HumanVertical,1,Q3FrontDown,-33.81188,29.16234,81.40311,-29.72597,-116.1395,159.0281,-43.48675,202408261746184147,
2-8,C_HumanVertical,1,Q3FrontDown,-33.81188,29.16234,81.40311,-29.72597,-116.1395,159.0281,-43.48675,202408261746184304,
2-8,C_HumanVertical,1,Q3FrontDown,-33.8093,29.12761,81.2067,-29.69828,-115.9376,159.6289,-43.34252,202408261746184625,
2-8,C_HumanVertical,1,Q3FrontDown,-33.8093,29.12761,81.2067,-29.69828,-115.9376,159.6289,-43.34252,202408261746184848,
2-8,C_HumanVertical,1,Q3FrontDown,-33.80625,29.09365,81.02242,-29.67693,-115.7389,160.1821,-43.20016,202408261746185134,
2-8,C_HumanVertical,1,Q3FrontDown,-33.80553,29.06087,80.86468,-29.65369,-115.5474,160.7355,-43.06735,202408261746185306,
2-8,C_HumanVertical,1,Q3FrontDown,-33.80553,29.06087,80.86468,-29.65369,-115.5474,160.7355,-43.06735,202408261746185467,
2-8,C_HumanVertical,1,Q3FrontDown,-33.80523,29.02784,80.72551,-29.63351,-115.3857,161.2368,-42.93248,202408261746185645,
2-8,C_HumanVertical,1,Q3FrontDown,-33.80523,29.02784,80.72551,-29.63351,-115.3857,161.2368,-42.93248,202408261746185833,
2-8,C_HumanVertical,1,Q3FrontDown,-33.80523,29.02784,80.72551,-29.63351,-115.3857,161.2368,-42.93248,202408261746185969,
2-8,C_HumanVertical,1,Q3FrontDown,-33.79176,28.98297,80.55894,-29.59448,-115.2055,161.7362,-42.81243,202408261746186240,
2-8,C_HumanVertical,1,Q3FrontDown,-33.76746,28.93789,80.38657,-29.53754,-115.0219,162.26,-42.69923,202408261746186542,
2-8,C_HumanVertical,1,Q3FrontDown,-33.75196,28.89923,80.26307,-29.49273,-114.8608,162.6777,-42.61156,202408261746186817,
2-8,C_HumanVertical,1,Q3FrontDown,-33.7309,28.84192,80.10702,-29.42857,-114.6721,163.1657,-42.49207,202408261746187132,
2-8,C_HumanVertical,1,Q3FrontDown,-33.71009,28.77805,79.9463,-29.35861,-114.4982,163.5668,-42.38471,202408261746187344,
2-8,C_HumanVertical,1,Q3FrontDown,-33.672,28.70619,79.7468,-29.26954,-114.2912,163.97,-42.27839,202408261746187627,
2-8,C_HumanVertical,1,Q3FrontDown,-33.672,28.70619,79.7468,-29.26954,-114.2912,163.97,-42.27839,202408261746187783,
2-8,C_HumanVertical,1,Q3FrontDown,-33.60974,28.63279,79.56021,-29.16738,-114.0047,164.3544,-42.16403,202408261746188048,
2-8,C_HumanVertical,1,Q3FrontDown,-33.53792,28.54811,79.39677,-29.04859,-113.6167,164.7047,-42.03374,202408261746188369,
2-8,C_HumanVertical,1,Q3FrontDown,-33.42794,28.44574,79.23617,-28.95123,-112.895,165.0545,-41.9004,202408261746188637,
2-8,C_HumanVertical,1,Q3FrontDown,-33.42794,28.44574,79.23617,-28.95123,-112.895,165.0545,-41.9004,202408261746188811,
2-8,C_HumanVertical,1,Q3FrontDown,-33.28523,28.34109,79.09213,-28.87613,-112.233,165.3912,-41.75971,202408261746188984,
2-8,C_HumanVertical,1,Q3FrontDown,-33.28523,28.34109,79.09213,-28.87613,-112.233,165.3912,-41.75971,202408261746189161,
2-8,C_HumanVertical,1,Q3FrontDown,-33.12621,28.19671,78.9554,-28.79866,-111.6194,165.6761,-41.62449,202408261746189355,
2-8,C_HumanVertical,1,Q3FrontDown,-33.12621,28.19671,78.9554,-28.79866,-111.6194,165.6761,-41.62449,202408261746189524,
2-8,C_HumanVertical,1,Q3FrontDown,-32.88866,28.00724,78.80862,-28.72965,-110.7857,165.9692,-41.46945,202408261746189796,
2-8,C_HumanVertical,1,Q3FrontDown,-32.72998,27.87678,78.80341,-28.7156,-110.4503,166.1016,-41.40503,202408261746189962,
2-8,C_HumanVertical,1,Q3FrontDown,-32.72998,27.87678,78.80341,-28.7156,-110.4503,166.1016,-41.40503,202408261746190118,
2-8,C_HumanVertical,1,Q3FrontDown,-32.65596,27.74123,78.83562,-28.77592,-110.4456,166.0999,-41.40568,202408261746190295,
2-8,C_HumanVertical,1,Q3FrontDown,-32.65596,27.74123,78.83562,-28.77592,-110.4456,166.0999,-41.40568,202408261746190512,
2-8,C_HumanVertical,1,Q3FrontDown,-32.5773,27.6112,78.85476,-28.81424,-110.4147,166.1001,-41.40558,202408261746190787,
2-8,C_HumanVertical,1,Q3FrontDown,-32.532,27.50945,78.85532,-28.8422,-110.3152,166.1012,-41.40521,202408261746190980,
2-8,C_HumanVertical,1,Q3FrontDown,-32.532,27.50945,78.85532,-28.8422,-110.3152,166.1012,-41.40521,202408261746191182,
2-8,C_HumanVertical,1,Q3FrontDown,-32.50555,27.45754,78.85037,-28.84588,-110.1419,166.1036,-41.40278,202408261746191529,
2-8,C_HumanVertical,1,Q3FrontDown,-32.40868,27.43547,78.84718,-28.86535,-109.8337,166.1194,-41.37476,202408261746191788,
2-8,C_HumanVertical,1,Q3FrontDown,-32.30975,27.40092,78.83839,-28.89251,-109.4388,166.1623,-41.32752,202408261746191969,
2-8,C_HumanVertical,1,Q3FrontDown,-32.30975,27.40092,78.83839,-28.89251,-109.4388,166.1623,-41.32752,202408261746192129,
2-8,C_HumanVertical,1,Q3FrontDown,-32.23067,27.34495,78.83449,-28.89364,-108.9409,166.2332,-41.26531,202408261746192295,
2-8,C_HumanVertical,1,Q3FrontDown,-32.23067,27.34495,78.83449,-28.89364,-108.9409,166.2332,-41.26531,202408261746192475,
2-8,C_HumanVertical,1,Q3FrontDown,-32.12752,27.24502,78.82144,-28.89668,-108.3133,166.3434,-41.164,202408261746192687,
2-8,C_HumanVertical,1,Q3FrontDown,-31.99917,27.12434,78.81743,-28.90584,-107.6552,166.4668,-41.05813,202408261746192967,
2-8,C_HumanVertical,1,Q3FrontDown,-31.99917,27.12434,78.81743,-28.90584,-107.6552,166.4668,-41.05813,202408261746193129,
2-8,C_HumanVertical,1,Q3FrontDown,-31.99917,27.12434,78.81743,-28.90584,-107.6552,166.4668,-41.05813,202408261746193319,
2-8,C_HumanVertical,1,Q3FrontDown,-31.87946,26.94611,78.81587,-28.90548,-106.9588,166.5988,-40.93511,202408261746193468,
2-8,C_HumanVertical,1,Q3FrontDown,-31.73697,26.74344,78.81641,-28.90049,-106.2197,166.7422,-40.80717,202408261746193648,
2-8,C_HumanVertical,1,Q3FrontDown,-31.73697,26.74344,78.81641,-28.90049,-106.2197,166.7422,-40.80717,202408261746193852,
2-8,C_HumanVertical,1,Q3FrontDown,-31.41835,26.22431,78.81999,-28.88941,-104.8721,167.0315,-40.54333,202408261746194202,
2-8,C_HumanVertical,1,Q3FrontDown,-31.41835,26.22431,78.81999,-28.88941,-104.8721,167.0315,-40.54333,202408261746194474,
2-8,C_HumanVertical,1,Q3FrontDown,-31.27357,25.95609,78.82587,-28.88995,-104.2824,167.1714,-40.43236,202408261746194650,
2-8,C_HumanVertical,1,Q3FrontDown,-31.28745,25.60224,79.08595,-28.98587,-103.8079,167.1098,-40.27098,202408261746194852,
2-8,C_HumanVertical,1,Q3FrontDown,-31.28745,25.60224,79.08595,-28.98587,-103.8079,167.1098,-40.27098,202408261746195060,
2-8,C_HumanVertical,1,Q3FrontDown,-31.44215,25.27502,79.64807,-29.19593,-103.3808,166.8201,-40.09237,202408261746195304,
2-8,C_HumanVertical,1,Q3FrontDown,-31.44215,25.27502,79.64807,-29.19593,-103.3808,166.8201,-40.09237,202408261746195482,
2-8,C_HumanVertical,1,Q3FrontDown,-31.5771,24.92353,80.0819,-29.36446,-103.236,166.6782,-39.99294,202408261746195704,
2-8,C_HumanVertical,1,Q3FrontDown,-31.5771,24.92353,80.0819,-29.36446,-103.236,166.6782,-39.99294,202408261746195871,
2-8,C_HumanVertical,1,Q3FrontDown,-31.70885,24.58028,80.5131,-29.52508,-103.1864,166.6228,-39.89408,202408261746196159,
2-8,C_HumanVertical,1,Q3FrontDown,-31.86935,24.18308,80.94579,-29.68023,-103.1904,166.6221,-39.8042,202408261746196483,
2-8,C_HumanVertical,1,Q3FrontDown,-32.09274,23.7862,81.29594,-29.83678,-103.2576,166.7094,-39.76925,202408261746196814,
2-8,C_HumanVertical,1,Q3FrontDown,-32.31514,23.42577,81.65973,-29.9813,-103.2914,166.8365,-39.72947,202408261746197006,
2-8,C_HumanVertical,1,Q3FrontDown,-32.52919,23.1217,82.02006,-30.14059,-103.3143,167.0193,-39.68079,202408261746197292,
2-8,C_HumanVertical,1,Q3FrontDown,-32.52919,23.1217,82.02006,-30.14059,-103.3143,167.0193,-39.68079,202408261746197455,
2-8,C_HumanVertical,1,Q3FrontDown,-32.77164,22.83681,82.35903,-30.27563,-103.3267,167.1844,-39.63478,202408261746197629,
2-8,C_HumanVertical,1,Q3FrontDown,-32.77164,22.83681,82.35903,-30.27563,-103.3267,167.1844,-39.63478,202408261746197782,
2-8,C_HumanVertical,1,Q3FrontDown,-32.99594,22.58835,82.67287,-30.38587,-103.3646,167.3199,-39.60365,202408261746197967,
2-8,C_HumanVertical,1,Q3FrontDown,-32.99594,22.58835,82.67287,-30.38587,-103.3646,167.3199,-39.60365,202408261746198192,
2-8,C_HumanVertical,1,Q3FrontDown,-33.17779,22.36968,82.9474,-30.49534,-103.408,167.4541,-39.58366,202408261746198489,
2-8,C_HumanVertical,1,Q3FrontDown,-33.33088,22.15593,83.1824,-30.60542,-103.4451,167.5818,-39.56381,202408261746198636,
2-8,C_HumanVertical,1,Q3FrontDown,-33.47314,21.96382,83.36976,-30.7177,-103.466,167.6944,-39.54611,202408261746198851,
2-8,C_HumanVertical,1,Q3FrontDown,-33.58921,21.80158,83.5164,-30.82396,-103.4738,167.8084,-39.52651,202408261746199223,
2-8,C_HumanVertical,1,Q3FrontDown,-33.58921,21.80158,83.5164,-30.82396,-103.4738,167.8084,-39.52651,202408261746199469,
2-8,C_HumanVertical,1,Q3FrontDown,-33.70885,21.65511,83.69745,-30.94409,-103.476,167.8966,-39.5088,202408261746199634,
2-8,C_HumanVertical,1,Q3FrontDown,-33.70885,21.65511,83.69745,-30.94409,-103.476,167.8966,-39.5088,202408261746199802,
2-8,C_HumanVertical,1,Q3FrontDown,-33.70885,21.65511,83.69745,-30.94409,-103.476,167.8966,-39.5088,202408261746199973,
2-8,C_HumanVertical,1,Q3FrontDown,-33.80893,21.54816,83.88004,-31.06029,-103.477,167.9663,-39.48992,202408261746200152,
2-8,C_HumanVertical,1,Q3FrontDown,-33.91417,21.42662,84.0405,-31.16018,-103.4776,168.0397,-39.46908,202408261746200370,
2-8,C_HumanVertical,1,Q3FrontDown,-34.02811,21.33262,84.23495,-31.28767,-103.4769,168.0621,-39.45574,202408261746200625,
2-8,C_HumanVertical,1,Q3FrontDown,-34.02811,21.33262,84.23495,-31.28767,-103.4769,168.0621,-39.45574,202408261746200790,
2-8,C_HumanVertical,1,Q3FrontDown,-34.20403,21.22865,84.46162,-31.44411,-103.4767,168.1003,-39.44427,202408261746200965,
2-8,C_HumanVertical,1,Q3FrontDown,-34.20403,21.22865,84.46162,-31.44411,-103.4767,168.1003,-39.44427,202408261746201128,
2-8,C_HumanVertical,1,Q3FrontDown,-34.43272,21.14164,84.73322,-31.64845,-103.4833,168.1714,-39.43123,202408261746201337,
2-8,C_HumanVertical,1,Q3FrontDown,-34.43272,21.14164,84.73322,-31.64845,-103.4833,168.1714,-39.43123,202408261746201527,
2-8,C_HumanVertical,1,Q3FrontDown,-34.76479,21.05937,85.08292,-31.95301,-103.588,168.2404,-39.43131,202408261746201796,
2-8,C_HumanVertical,1,Q3FrontDown,-35.19951,20.96556,85.501,-32.31768,-103.8077,168.2849,-39.43082,202408261746202011,
2-8,C_HumanVertical,1,Q3FrontDown,-35.67093,20.89001,85.90183,-32.75282,-104.121,168.32,-39.43032,202408261746202289,
2-8,C_HumanVertical,1,Q3FrontDown,-35.67093,20.89001,85.90183,-32.75282,-104.121,168.32,-39.43032,202408261746202460,
2-8,C_HumanVertical,1,Q3FrontDown,-36.28479,20.82554,86.40766,-33.38006,-104.4748,168.3364,-39.42928,202408261746202681,
2-8,C_HumanVertical,1,Q3FrontDown,-36.88416,20.78074,86.88247,-34.09593,-104.7606,168.3512,-39.42808,202408261746202981,
2-8,C_HumanVertical,1,Q3FrontDown,-36.88416,20.78074,86.88247,-34.09593,-104.7606,168.3512,-39.42808,202408261746203165,
2-8,C_HumanVertical,1,Q3FrontDown,-36.88416,20.78074,86.88247,-34.09593,-104.7606,168.3512,-39.42808,202408261746203331,
2-8,C_HumanVertical,1,Q3FrontDown,-37.9929,20.7714,87.58545,-35.85221,-105.532,168.3904,-39.42713,202408261746203550,
2-8,C_HumanVertical,1,Q3FrontDown,-38.41508,20.76841,87.81443,-36.79229,-105.9505,168.4024,-39.4272,202408261746203845,
2-8,C_HumanVertical,1,Q3FrontDown,-38.41508,20.76841,87.81443,-36.79229,-105.9505,168.4024,-39.4272,202408261746204142,
2-8,C_HumanVertical,1,Q3FrontDown,-38.77736,20.78917,87.9641,-37.71593,-106.3992,168.4227,-39.42766,202408261746204321,
2-8,C_HumanVertical,1,Q3FrontDown,-39.05537,20.89114,87.95817,-38.71394,-106.8518,168.5483,-39.42717,202408261746204646,
2-8,C_HumanVertical,1,Q3FrontDown,-39.05537,20.89114,87.95817,-38.71394,-106.8518,168.5483,-39.42717,202408261746204862,
2-8,C_HumanVertical,1,Q3FrontDown,-39.31319,21.0215,87.89336,-39.66045,-107.349,168.6931,-39.42723,202408261746205123,
2-8,C_HumanVertical,1,Q3FrontDown,-39.61291,21.19863,87.79338,-40.65946,-107.8933,168.8673,-39.42731,202408261746205292,
2-8,C_HumanVertical,1,Q3FrontDown,-39.61291,21.19863,87.79338,-40.65946,-107.8933,168.8673,-39.42731,202408261746205469,
2-8,C_HumanVertical,1,Q3FrontDown,-39.84624,21.41511,87.61449,-41.54095,-108.4055,169.0914,-39.42739,202408261746205799,
2-8,C_HumanVertical,1,Q3FrontDown,-40.04939,21.72423,87.38802,-42.33746,-108.8623,169.3158,-39.42847,202408261746206030,
2-8,C_HumanVertical,1,Q3FrontDown,-40.25691,22.10573,87.10443,-43.09335,-109.2056,169.5511,-39.43079,202408261746206307,
2-8,C_HumanVertical,1,Q3FrontDown,-40.25691,22.10573,87.10443,-43.09335,-109.2056,169.5511,-39.43079,202408261746206474,
2-8,C_HumanVertical,1,Q3FrontDown,-40.25691,22.10573,87.10443,-43.09335,-109.2056,169.5511,-39.43079,202408261746206694,
2-8,C_HumanVertical,1,Q3FrontDown,-40.90765,23.09528,86.6985,-44.29212,-109.6181,170.0361,-39.43654,202408261746207015,
2-8,C_HumanVertical,1,Q3FrontDown,-40.90765,23.09528,86.6985,-44.29212,-109.6181,170.0361,-39.43654,202408261746207296,
2-8,C_HumanVertical,1,Q3FrontDown,-41.38576,23.66706,86.48427,-44.80433,-109.8848,170.0807,-39.42578,202408261746207462,
2-8,C_HumanVertical,1,Q3FrontDown,-42.02037,24.23007,86.39212,-45.20807,-109.8914,170.084,-39.42514,202408261746207631,
2-8,C_HumanVertical,1,Q3FrontDown,-42.02037,24.23007,86.39212,-45.20807,-109.8914,170.084,-39.42514,202408261746207782,
2-8,C_HumanVertical,1,Q3FrontDown,-42.86937,24.89532,86.43776,-45.60736,-109.8929,170.0783,-39.4125,202408261746207967,
2-8,C_HumanVertical,1,Q3FrontDown,-42.86937,24.89532,86.43776,-45.60736,-109.8929,170.0783,-39.4125,202408261746208170,
2-8,C_HumanVertical,1,Q3FrontDown,-43.84616,25.55628,86.54576,-45.93687,-109.8908,170.0714,-39.39808,202408261746208395,
2-8,C_HumanVertical,1,Q3FrontDown,-45.20225,26.29988,87.21133,-46.37444,-109.8901,170.0733,-39.39699,202408261746208660,
2-8,C_HumanVertical,1,Q3FrontDown,-46.17656,26.93498,87.46618,-46.59262,-109.8954,170.0611,-39.40028,202408261746208999,
2-8,C_HumanVertical,1,Q3FrontDown,-46.17656,26.93498,87.46618,-46.59262,-109.8954,170.0611,-39.40028,202408261746209196,
2-8,C_HumanVertical,1,Q3FrontDown,-46.56869,27.51924,87.16161,-46.38768,-109.8912,169.9947,-39.40651,202408261746209475,
2-8,C_HumanVertical,1,Q3FrontDown,-46.95611,27.99446,87.02869,-46.25558,-109.8906,169.9452,-39.41171,202408261746209635,
2-8,C_HumanVertical,1,Q3FrontDown,-46.95611,27.99446,87.02869,-46.25558,-109.8906,169.9452,-39.41171,202408261746209797,
2-8,C_HumanVertical,1,Q3FrontDown,-47.30055,28.33671,86.9866,-46.22924,-109.8911,169.9113,-39.4143,202408261746210040,
2-8,C_HumanVertical,1,Q3FrontDown,-47.50049,28.5989,87.01263,-46.27265,-109.8913,169.8984,-39.41746,202408261746210311,
2-8,C_HumanVertical,1,Q3FrontDown,-47.50049,28.5989,87.01263,-46.27265,-109.8913,169.8984,-39.41746,202408261746210470,
2-8,C_HumanVertical,1,Q3FrontDown,-47.78567,28.87839,87.15937,-46.39888,-109.8917,169.8982,-39.41912,202408261746210784,
2-8,C_HumanVertical,1,Q3FrontDown,-48.12338,29.12775,87.37572,-46.52295,-109.8914,169.8952,-39.42421,202408261746210972,
2-8,C_HumanVertical,1,Q3FrontDown,-48.12338,29.12775,87.37572,-46.52295,-109.8914,169.8952,-39.42421,202408261746211149,
2-8,C_HumanVertical,1,Q3FrontDown,-48.12338,29.12775,87.37572,-46.52295,-109.8914,169.8952,-39.42421,202408261746211370,
2-8,C_HumanVertical,1,Q3FrontDown,-49.05504,29.42418,88.23907,-46.78336,-109.8864,169.8985,-39.42824,202408261746211537,
2-8,C_HumanVertical,1,Q3FrontDown,-49.05504,29.42418,88.23907,-46.78336,-109.8864,169.8985,-39.42824,202408261746211792,
2-8,C_HumanVertical,1,Q3FrontDown,-49.05504,29.42418,88.23907,-46.78336,-109.8864,169.8985,-39.42824,202408261746211968,
2-8,C_HumanVertical,1,Q3FrontDown,-49.69336,29.57733,88.78154,-46.89412,-109.8791,169.8969,-39.42864,202408261746212149,
2-8,C_HumanVertical,1,Q3FrontDown,-50.36763,29.7137,89.38892,-47.03794,-109.8725,169.8974,-39.42838,202408261746212336,
2-8,C_HumanVertical,1,Q3FrontDown,-50.36763,29.7137,89.38892,-47.03794,-109.8725,169.8974,-39.42838,202408261746212621,
2-8,C_HumanVertical,1,Q3FrontDown,-51.18921,29.84657,90.10941,-47.17185,-109.8633,169.9005,-39.42904,202408261746212785,
2-8,C_HumanVertical,1,Q3FrontDown,-52.02588,29.99518,90.82677,-47.24633,-109.8438,169.8991,-39.42919,202408261746212960,
2-8,C_HumanVertical,1,Q3FrontDown,-52.02588,29.99518,90.82677,-47.24633,-109.8438,169.8991,-39.42919,202408261746213202,
2-8,C_HumanVertical,1,Q3FrontDown,-52.9145,30.16225,91.5406,-47.30421,-109.8288,169.8992,-39.4291,202408261746213476,
2-8,C_HumanVertical,1,Q3FrontDown,-53.79292,30.3064,92.2505,-47.36699,-109.8174,169.9014,-39.4291,202408261746213628,
2-8,C_HumanVertical,1,Q3FrontDown,-53.79292,30.3064,92.2505,-47.36699,-109.8174,169.9014,-39.4291,202408261746213810,
2-8,C_HumanVertical,1,Q3FrontDown,-54.6746,30.48698,92.9085,-47.38654,-109.8045,169.8996,-39.42916,202408261746214146,
2-8,C_HumanVertical,1,Q3FrontDown,-55.50874,30.66458,93.5154,-47.39091,-109.7944,169.8985,-39.42936,202408261746214308,
2-8,C_HumanVertical,1,Q3FrontDown,-56.28588,30.82962,94.04453,-47.38528,-109.7771,169.9002,-39.4292,202408261746214516,
2-8,C_HumanVertical,1,Q3FrontDown,-56.28588,30.82962,94.04453,-47.38528,-109.7771,169.9002,-39.4292,202408261746214665,
2-8,C_HumanVertical,1,Q3FrontDown,-56.80442,30.97192,94.29198,-47.31746,-109.7747,169.8988,-39.42955,202408261746214958,
2-8,C_HumanVertical,1,Q3FrontDown,-56.80442,30.97192,94.29198,-47.31746,-109.7747,169.8988,-39.42955,202408261746215131,
2-8,C_HumanVertical,1,Q3FrontDown,-57.016,31.0865,94.24319,-47.09279,-109.7768,169.8981,-39.42958,202408261746215472,
2-8,C_HumanVertical,1,Q3FrontDown,-57.14431,31.179,94.23729,-46.96286,-109.777,169.8969,-39.42975,202408261746215704,
2-8,C_HumanVertical,1,Q3FrontDown,-57.19562,31.24354,94.23067,-46.90509,-109.776,169.8976,-39.42992,202408261746216010,
2-8,C_HumanVertical,1,Q3FrontDown,-57.19562,31.24354,94.23067,-46.90509,-109.776,169.8976,-39.42992,202408261746216187,
2-8,C_HumanVertical,1,Q3FrontDown,-57.18409,31.29001,94.23011,-46.90512,-109.7764,169.8971,-39.43006,202408261746216450,
2-8,C_HumanVertical,1,Q3FrontDown,-57.15251,31.3629,94.24973,-46.9361,-109.7743,169.899,-39.43073,202408261746216651,
2-8,C_HumanVertical,1,Q3FrontDown,-57.14103,31.4226,94.30473,-46.9471,-109.7395,169.9131,-39.43097,202408261746216841,
2-8,C_HumanVertical,1,Q3FrontDown,-57.14103,31.4226,94.30473,-46.9471,-109.7395,169.9131,-39.43097,202408261746217125,
2-8,C_HumanVertical,1,Q3FrontDown,-57.14653,31.44341,94.40682,-46.91503,-109.6701,169.9411,-39.43083,202408261746217290,
2-8,C_HumanVertical,1,Q3FrontDown,-57.14653,31.44341,94.40682,-46.91503,-109.6701,169.9411,-39.43083,202408261746217455,
2-8,C_HumanVertical,1,Q3FrontDown,-57.16599,31.4594,94.57939,-46.79987,-109.5446,169.991,-39.43097,202408261746217630,
2-8,C_HumanVertical,1,Q3FrontDown,-57.16599,31.4594,94.57939,-46.79987,-109.5446,169.991,-39.43097,202408261746217799,
2-8,C_HumanVertical,1,Q3FrontDown,-57.19831,31.46131,94.77483,-46.63438,-109.3693,170.056,-39.43161,202408261746218044,
2-8,C_HumanVertical,1,Q3FrontDown,-57.2196,31.46078,95.05211,-46.42672,-109.1541,170.1299,-39.43166,202408261746218331,
2-8,C_HumanVertical,1,Q3FrontDown,-57.2196,31.46078,95.05211,-46.42672,-109.1541,170.1299,-39.43166,202408261746218483,
2-8,C_HumanVertical,1,Q3FrontDown,-57.28928,31.46151,95.43659,-46.16106,-108.8436,170.2501,-39.43174,202408261746218660,
2-8,C_HumanVertical,1,Q3FrontDown,-57.28928,31.46151,95.43659,-46.16106,-108.8436,170.2501,-39.43174,202408261746218830,
2-8,C_HumanVertical,1,Q3FrontDown,-57.41362,31.45641,95.86075,-45.85763,-108.5501,170.4095,-39.43148,202408261746219040,
2-8,C_HumanVertical,1,Q3FrontDown,-57.41362,31.45641,95.86075,-45.85763,-108.5501,170.4095,-39.43148,202408261746219301,
2-8,C_HumanVertical,1,Q3FrontDown,-57.55345,31.45218,96.34222,-45.48284,-108.2056,170.6112,-39.43192,202408261746219469,
2-8,C_HumanVertical,1,Q3FrontDown,-57.74501,31.43858,96.92467,-45.02975,-107.7878,170.8649,-39.43167,202408261746219668,
2-8,C_HumanVertical,1,Q3FrontDown,-57.96767,31.43075,97.54227,-44.52177,-107.3463,171.1207,-39.43198,202408261746219980,
2-8,C_HumanVertical,1,Q3FrontDown,-57.96767,31.43075,97.54227,-44.52177,-107.3463,171.1207,-39.43198,202408261746220183,
2-8,C_HumanVertical,1,Q3FrontDown,-58.21262,31.41725,98.19768,-43.96111,-106.8414,171.4019,-39.4318,202408261746220454,
2-8,C_HumanVertical,1,Q3FrontDown,-58.53082,31.39538,98.97638,-43.28751,-106.2583,171.7414,-39.43203,202408261746220623,
2-8,C_HumanVertical,1,Q3FrontDown,-58.53082,31.39538,98.97638,-43.28751,-106.2583,171.7414,-39.43203,202408261746220787,
2-8,C_HumanVertical,1,Q3FrontDown,-58.8604,31.37963,99.75449,-42.6054,-105.673,172.1124,-39.43208,202408261746220967,
2-8,C_HumanVertical,1,Q3FrontDown,-58.8604,31.37963,99.75449,-42.6054,-105.673,172.1124,-39.43208,202408261746221150,
2-8,C_HumanVertical,1,Q3FrontDown,-59.24544,31.3473,100.596,-41.85134,-105.0558,172.4908,-39.43184,202408261746221367,
2-8,C_HumanVertical,1,Q3FrontDown,-59.63874,31.28878,101.4862,-41.06411,-104.3583,172.9075,-39.43185,202408261746221646,
2-8,C_HumanVertical,1,Q3FrontDown,-59.63874,31.28878,101.4862,-41.06411,-104.3583,172.9075,-39.43185,202408261746221984,
2-8,C_HumanVertical,1,Q3FrontDown,-59.63874,31.28878,101.4862,-41.06411,-104.3583,172.9075,-39.43185,202408261746222144,
2-8,C_HumanVertical,1,Q3FrontDown,-60.56415,31.1823,103.3528,-39.33672,-102.9501,173.7982,-39.43166,202408261746222368,
2-8,C_HumanVertical,1,Q3FrontDown,-60.56415,31.1823,103.3528,-39.33672,-102.9501,173.7982,-39.43166,202408261746222636,
2-8,C_HumanVertical,1,Q3FrontDown,-61.05857,31.10906,104.3507,-38.42556,-102.1598,174.2832,-39.432,202408261746222868,
2-8,C_HumanVertical,1,Q3FrontDown,-61.57833,31.03374,105.3502,-37.48763,-101.3785,174.7446,-39.43148,202408261746223118,
2-8,C_HumanVertical,1,Q3FrontDown,-62.11456,30.94259,106.3929,-36.49811,-100.5566,175.2619,-39.43174,202408261746223336,
2-8,C_HumanVertical,1,Q3FrontDown,-62.11456,30.94259,106.3929,-36.49811,-100.5566,175.2619,-39.43174,202408261746223515,
2-8,C_HumanVertical,1,Q3FrontDown,-62.63291,30.86211,107.4219,-35.54554,-99.71413,175.7526,-39.43172,202408261746223805,
2-8,C_HumanVertical,1,Q3FrontDown,-63.20303,30.77126,108.4964,-34.52786,-98.85823,176.2658,-39.43123,202408261746223994,
2-8,C_HumanVertical,1,Q3FrontDown,-63.75876,30.67315,109.5385,-33.54013,-98.01984,176.7993,-39.43152,202408261746224387,
2-8,C_HumanVertical,1,Q3FrontDown,-64.30986,30.59443,110.5973,-32.5466,-97.13903,177.313,-39.43131,202408261746224651,
2-8,C_HumanVertical,1,Q3FrontDown,-64.30986,30.59443,110.5973,-32.5466,-97.13903,177.313,-39.43131,202408261746224803,
2-8,C_HumanVertical,1,Q3FrontDown,-64.87688,30.50804,111.6568,-31.5285,-96.24541,177.8516,-39.43098,202408261746224981,
2-8,C_HumanVertical,1,Q3FrontDown,-64.87688,30.50804,111.6568,-31.5285,-96.24541,177.8516,-39.43098,202408261746225144,
2-8,C_HumanVertical,1,Q3FrontDown,-65.42394,30.41447,112.6542,-30.57079,-95.3915,178.3568,-39.43141,202408261746225313,
2-8,C_HumanVertical,1,Q3FrontDown,-65.42394,30.41447,112.6542,-30.57079,-95.3915,178.3568,-39.43141,202408261746225491,
2-8,C_HumanVertical,1,Q3FrontDown,-65.9833,30.33286,113.674,-29.58209,-94.52816,178.8873,-39.43089,202408261746225695,
2-8,C_HumanVertical,1,Q3FrontDown,-65.9833,30.33286,113.674,-29.58209,-94.52816,178.8873,-39.43089,202408261746225961,
2-8,C_HumanVertical,1,Q3FrontDown,-66.51126,30.24377,114.627,-28.6563,-93.70116,179.3546,-39.43098,202408261746226147,
2-8,C_HumanVertical,1,Q3FrontDown,-67.03166,30.15472,115.5579,-27.75838,-92.86042,179.8535,-39.43116,202408261746226501,
2-8,C_HumanVertical,1,Q3FrontDown,-67.03166,30.15472,115.5579,-27.75838,-92.86042,179.8535,-39.43116,202408261746226704,
2-8,C_HumanVertical,1,Q3FrontDown,-68.00612,29.99997,117.2881,-26.06309,-91.31377,180.7431,-39.4308,202408261746226969,
2-8,C_HumanVertical,1,Q3FrontDown,-68.00612,29.99997,117.2881,-26.06309,-91.31377,180.7431,-39.4308,202408261746227142,
2-8,C_HumanVertical,1,Q3FrontDown,-68.44426,29.93534,118.0509,-25.30734,-90.58269,181.1752,-39.43068,202408261746227524,
2-8,C_HumanVertical,1,Q3FrontDown,-68.8574,29.8756,118.7678,-24.60935,-89.92318,181.5481,-39.43113,202408261746227696,
2-8,C_HumanVertical,1,Q3FrontDown,-68.8574,29.8756,118.7678,-24.60935,-89.92318,181.5481,-39.43113,202408261746227958,
2-8,C_HumanVertical,1,Q3FrontDown,-69.2348,29.84195,119.436,-23.94102,-89.2761,181.9252,-39.43039,202408261746228127,
2-8,C_HumanVertical,1,Q3FrontDown,-69.58185,29.80219,120.0043,-23.38606,-88.69718,182.2489,-39.4301,202408261746228314,
2-8,C_HumanVertical,1,Q3FrontDown,-69.58185,29.80219,120.0043,-23.38606,-88.69718,182.2489,-39.4301,202408261746228455,
2-8,C_HumanVertical,1,Q3FrontDown,-69.58185,29.80219,120.0043,-23.38606,-88.69718,182.2489,-39.4301,202408261746228644,
2-8,C_HumanVertical,1,Q3FrontDown,-69.71515,29.85795,120.0833,-23.0862,-88.68102,182.2654,-39.43032,202408261746228856,
2-8,C_HumanVertical,1,Q3FrontDown,-69.8635,29.85728,120.1148,-22.92414,-88.68347,182.2708,-39.43043,202408261746229067,
2-8,C_HumanVertical,1,Q3FrontDown,-69.92127,29.88813,120.1056,-22.87898,-88.68497,182.2659,-39.43061,202408261746229313,
2-8,C_HumanVertical,1,Q3FrontDown,-69.92127,29.88813,120.1056,-22.87898,-88.68497,182.2659,-39.43061,202408261746229473,
2-8,C_HumanVertical,1,Q3FrontDown,-69.90928,29.9283,120.0694,-22.89314,-88.68504,182.2637,-39.43075,202408261746229653,
2-8,C_HumanVertical,1,Q3FrontDown,-69.82822,29.98114,119.9855,-22.97215,-88.68294,182.2588,-39.4307,202408261746229846,
2-8,C_HumanVertical,1,Q3FrontDown,-69.82822,29.98114,119.9855,-22.97215,-88.68294,182.2588,-39.4307,202408261746230131,
2-8,C_HumanVertical,1,Q3FrontDown,-69.66299,30.08603,119.8598,-23.1288,-88.6814,182.2479,-39.43106,202408261746230299,
2-8,C_HumanVertical,1,Q3FrontDown,-69.66299,30.08603,119.8598,-23.1288,-88.6814,182.2479,-39.43106,202408261746230483,
2-8,C_HumanVertical,1,Q3FrontDown,-69.52814,30.1894,119.7365,-23.26736,-88.65398,182.2401,-39.43089,202408261746230699,
2-8,C_HumanVertical,1,Q3FrontDown,-69.46002,30.2526,119.621,-23.3208,-88.57363,182.2398,-39.43118,202408261746230958,
2-8,C_HumanVertical,1,Q3FrontDown,-69.46002,30.2526,119.621,-23.3208,-88.57363,182.2398,-39.43118,202408261746231150,
2-8,C_HumanVertical,1,Q3FrontDown,-69.41831,30.304,119.5274,-23.32575,-88.47849,182.2398,-39.43148,202408261746231484,
2-8,C_HumanVertical,1,Q3FrontDown,-69.36932,30.37704,119.4127,-23.32308,-88.28876,182.2402,-39.43117,202408261746231821,
2-8,C_HumanVertical,1,Q3FrontDown,-69.32012,30.46066,119.305,-23.30285,-88.04182,182.2406,-39.43139,202408261746232005,
2-8,C_HumanVertical,1,Q3FrontDown,-69.25095,30.57336,119.1924,-23.27115,-87.74908,182.2411,-39.43216,202408261746232182,
2-8,C_HumanVertical,1,Q3FrontDown,-69.25095,30.57336,119.1924,-23.27115,-87.74908,182.2411,-39.43216,202408261746232465,
2-8,C_HumanVertical,1,Q3FrontDown,-69.14532,30.7311,119.0441,-23.22463,-87.32275,182.2419,-39.43173,202408261746232621,
2-8,C_HumanVertical,1,Q3FrontDown,-69.14532,30.7311,119.0441,-23.22463,-87.32275,182.2419,-39.43173,202408261746232784,
2-8,C_HumanVertical,1,Q3FrontDown,-69.04621,30.91248,118.8568,-23.15998,-86.84035,182.2436,-39.43188,202408261746232963,
2-8,C_HumanVertical,1,Q3FrontDown,-69.04621,30.91248,118.8568,-23.15998,-86.84035,182.2436,-39.43188,202408261746233183,
2-8,C_HumanVertical,1,Q3FrontDown,-68.83078,31.37563,118.4235,-23.00766,-85.66709,182.2531,-39.43313,202408261746233493,
2-8,C_HumanVertical,1,Q3FrontDown,-68.83078,31.37563,118.4235,-23.00766,-85.66709,182.2531,-39.43313,202408261746233644,
2-8,C_HumanVertical,1,Q3FrontDown,-68.83078,31.37563,118.4235,-23.00766,-85.66709,182.2531,-39.43313,202408261746233871,
2-8,C_HumanVertical,1,Q3FrontDown,-68.60292,32.01025,117.9418,-22.80917,-84.22018,182.2695,-39.43605,202408261746234219,
2-8,C_HumanVertical,1,Q3FrontDown,-68.60292,32.01025,117.9418,-22.80917,-84.22018,182.2695,-39.43605,202408261746234460,
2-8,C_HumanVertical,1,Q3FrontDown,-68.60292,32.01025,117.9418,-22.80917,-84.22018,182.2695,-39.43605,202408261746234653,
2-8,C_HumanVertical,1,Q3FrontDown,-68.29756,32.80204,117.3696,-22.46335,-82.44576,182.3061,-39.45513,202408261746234959,
2-8,C_HumanVertical,1,Q3FrontDown,-68.29756,32.80204,117.3696,-22.46335,-82.44576,182.3061,-39.45513,202408261746235142,
2-8,C_HumanVertical,1,Q3FrontDown,-68.15031,33.24644,117.0515,-22.25967,-81.50555,182.327,-39.46022,202408261746235341,
2-8,C_HumanVertical,1,Q3FrontDown,-67.99982,33.72743,116.7363,-22.05165,-80.45894,182.3669,-39.46774,202408261746235540,
2-8,C_HumanVertical,1,Q3FrontDown,-67.99982,33.72743,116.7363,-22.05165,-80.45894,182.3669,-39.46774,202408261746235805,
2-8,C_HumanVertical,1,Q3FrontDown,-67.84927,34.25113,116.3724,-21.80749,-79.34715,182.4135,-39.47445,202408261746236140,
2-8,C_HumanVertical,1,Q3FrontDown,-67.68633,34.83587,116.0229,-21.52469,-78.20362,182.4674,-39.47963,202408261746236321,
2-8,C_HumanVertical,1,Q3FrontDown,-67.68633,34.83587,116.0229,-21.52469,-78.20362,182.4674,-39.47963,202408261746236532,
2-8,C_HumanVertical,1,Q3FrontDown,-67.52131,35.43325,115.6237,-21.23595,-76.95152,182.5367,-39.48592,202408261746236799,
2-8,C_HumanVertical,1,Q3FrontDown,-67.37603,36.07634,115.2435,-20.89549,-75.67937,182.6019,-39.49847,202408261746236967,
2-8,C_HumanVertical,1,Q3FrontDown,-67.37603,36.07634,115.2435,-20.89549,-75.67937,182.6019,-39.49847,202408261746237176,
2-8,C_HumanVertical,1,Q3FrontDown,-67.22477,36.75811,114.8326,-20.55887,-74.35236,182.6766,-39.50523,202408261746237470,
2-8,C_HumanVertical,1,Q3FrontDown,-67.054,37.45393,114.4199,-20.19273,-72.94318,182.7561,-39.51629,202408261746237682,
2-8,C_HumanVertical,1,Q3FrontDown,-66.87565,38.1987,113.9776,-19.81369,-71.51385,182.8531,-39.52392,202408261746238001,
2-8,C_HumanVertical,1,Q3FrontDown,-66.72245,38.95963,113.5738,-19.42328,-70.08188,182.9363,-39.53448,202408261746238207,
2-8,C_HumanVertical,1,Q3FrontDown,-66.72245,38.95963,113.5738,-19.42328,-70.08188,182.9363,-39.53448,202408261746238464,
2-8,C_HumanVertical,1,Q3FrontDown,-66.55486,39.76197,113.1135,-19.00785,-68.50504,183.044,-39.54038,202408261746238653,
2-8,C_HumanVertical,1,Q3FrontDown,-66.39553,40.57389,112.6436,-18.58688,-66.95545,183.153,-39.55294,202408261746238868,
2-8,C_HumanVertical,1,Q3FrontDown,-66.39553,40.57389,112.6436,-18.58688,-66.95545,183.153,-39.55294,202408261746239149,
2-8,C_HumanVertical,1,Q3FrontDown,-66.23473,41.40357,112.2121,-18.18879,-65.4297,183.2687,-39.56379,202408261746239485,
2-8,C_HumanVertical,1,Q3FrontDown,-66.05261,42.27851,111.7252,-17.73458,-63.75008,183.3803,-39.57591,202408261746239802,
2-8,C_HumanVertical,1,Q3FrontDown,-65.8825,43.15967,111.2451,-17.28795,-62.08342,183.4991,-39.58475,202408261746240005,
2-8,C_HumanVertical,1,Q3FrontDown,-65.734,44.02185,110.7988,-16.84769,-60.48357,183.6134,-39.59536,202408261746240285,
2-8,C_HumanVertical,1,Q3FrontDown,-65.734,44.02185,110.7988,-16.84769,-60.48357,183.6134,-39.59536,202408261746240523,
2-8,C_HumanVertical,1,Q3FrontDown,-65.56981,44.89988,110.3315,-16.41069,-58.81344,183.7323,-39.60505,202408261746240770,
2-8,C_HumanVertical,1,Q3FrontDown,-65.40488,45.78922,109.8776,-15.96539,-57.15609,183.851,-39.61461,202408261746240971,
2-8,C_HumanVertical,1,Q3FrontDown,-65.40488,45.78922,109.8776,-15.96539,-57.15609,183.851,-39.61461,202408261746241169,
2-8,C_HumanVertical,1,Q3FrontDown,-65.24403,46.69519,109.4107,-15.48851,-55.47222,183.9678,-39.62593,202408261746241490,
2-8,C_HumanVertical,1,Q3FrontDown,-65.0904,47.56773,108.9639,-15.05757,-53.81229,184.0921,-39.6374,202408261746241803,
2-8,C_HumanVertical,1,Q3FrontDown,-64.9444,48.4493,108.5193,-14.62766,-52.16323,184.2136,-39.64516,202408261746242028,
2-8,C_HumanVertical,1,Q3FrontDown,-64.79173,49.33438,108.0593,-14.19966,-50.51608,184.3422,-39.65177,202408261746242319,
2-8,C_HumanVertical,1,Q3FrontDown,-64.63868,50.18657,107.6518,-13.78294,-48.89522,184.4765,-39.66328,202408261746242633,
2-8,C_HumanVertical,1,Q3FrontDown,-64.63868,50.18657,107.6518,-13.78294,-48.89522,184.4765,-39.66328,202408261746242785,
2-8,C_HumanVertical,1,Q3FrontDown,-64.50128,51.03158,107.2371,-13.37197,-47.31833,184.5957,-39.67153,202408261746242963,
2-8,C_HumanVertical,1,Q3FrontDown,-64.50128,51.03158,107.2371,-13.37197,-47.31833,184.5957,-39.67153,202408261746243161,
2-8,C_HumanVertical,1,Q3FrontDown,-64.36416,51.86998,106.828,-12.97062,-45.73252,184.7201,-39.67783,202408261746243368,
2-8,C_HumanVertical,1,Q3FrontDown,-64.36416,51.86998,106.828,-12.97062,-45.73252,184.7201,-39.67783,202408261746243540,
2-8,C_HumanVertical,1,Q3FrontDown,-64.22941,52.66735,106.429,-12.57496,-44.21282,184.8295,-39.68589,202408261746243783,
2-8,C_HumanVertical,1,Q3FrontDown,-64.1097,53.4421,106.0661,-12.21391,-42.74685,184.9462,-39.69336,202408261746243982,
2-8,C_HumanVertical,1,Q3FrontDown,-63.99607,54.21259,105.7055,-11.83838,-41.27552,185.0459,-39.7006,202408261746244318,
2-8,C_HumanVertical,1,Q3FrontDown,-63.87411,54.92316,105.3657,-11.49186,-39.88879,185.1506,-39.7075,202408261746244516,
2-8,C_HumanVertical,1,Q3FrontDown,-63.87411,54.92316,105.3657,-11.49186,-39.88879,185.1506,-39.7075,202408261746244792,
2-8,C_HumanVertical,1,Q3FrontDown,-63.75517,55.62087,105.0273,-11.14209,-38.52539,185.2491,-39.71293,202408261746244968,
2-8,C_HumanVertical,1,Q3FrontDown,-63.75517,55.62087,105.0273,-11.14209,-38.52539,185.2491,-39.71293,202408261746245175,
2-8,C_HumanVertical,1,Q3FrontDown,-63.64947,56.26597,104.7496,-10.85427,-37.26327,185.3469,-39.71596,202408261746245463,
2-8,C_HumanVertical,1,Q3FrontDown,-63.56692,56.87818,104.4724,-10.59317,-36.05433,185.4444,-39.71852,202408261746245681,
2-8,C_HumanVertical,1,Q3FrontDown,-63.56692,56.87818,104.4724,-10.59317,-36.05433,185.4444,-39.71852,202408261746245956,
2-8,C_HumanVertical,1,Q3FrontDown,-63.48233,57.45141,104.2228,-10.33142,-34.91932,185.5387,-39.72124,202408261746246152,
2-8,C_HumanVertical,1,Q3FrontDown,-63.40138,57.98938,103.9938,-10.09389,-33.8176,185.6315,-39.72198,202408261746246484,
2-8,C_HumanVertical,1,Q3FrontDown,-63.3265,58.47459,103.762,-9.879265,-32.81514,185.7118,-39.72234,202408261746246689,
2-8,C_HumanVertical,1,Q3FrontDown,-63.30223,58.91485,103.6739,-9.739796,-32.34533,185.7478,-39.7187,202408261746246984,
2-8,C_HumanVertical,1,Q3FrontDown,-63.30223,58.91485,103.6739,-9.739796,-32.34533,185.7478,-39.7187,202408261746247146,
2-8,C_HumanVertical,1,Q3FrontDown,-63.32127,59.29582,103.6706,-9.711571,-32.33973,185.7446,-39.71555,202408261746247470,
2-8,C_HumanVertical,1,Q3FrontDown,-63.32413,59.6054,103.6633,-9.71215,-32.33902,185.7426,-39.71372,202408261746247637,
2-8,C_HumanVertical,1,Q3FrontDown,-63.32413,59.6054,103.6633,-9.71215,-32.33902,185.7426,-39.71372,202408261746247844,
2-8,C_HumanVertical,1,Q3FrontDown,-63.30796,59.82146,103.646,-9.713115,-32.33558,185.7428,-39.71286,202408261746248152,
2-8,C_HumanVertical,1,Q3FrontDown,-63.26085,59.95955,103.6259,-9.724958,-32.32946,185.7422,-39.71284,202408261746248371,
2-8,C_HumanVertical,1,Q3FrontDown,-63.18962,60.05022,103.581,-9.738002,-32.28766,185.7415,-39.71286,202408261746248652,
2-8,C_HumanVertical,1,Q3FrontDown,-63.10511,60.1013,103.5133,-9.746514,-32.20996,185.7425,-39.71296,202408261746248872,
2-8,C_HumanVertical,1,Q3FrontDown,-63.10511,60.1013,103.5133,-9.746514,-32.20996,185.7425,-39.71296,202408261746249146,
2-8,C_HumanVertical,1,Q3FrontDown,-62.98459,60.12791,103.4288,-9.756701,-32.11037,185.7424,-39.71336,202408261746249318,
2-8,C_HumanVertical,1,Q3FrontDown,-62.82872,60.13341,103.3073,-9.775901,-31.90991,185.7426,-39.71357,202408261746249638,
2-8,C_HumanVertical,1,Q3FrontDown,-62.82872,60.13341,103.3073,-9.775901,-31.90991,185.7426,-39.71357,202408261746249843,
2-8,C_HumanVertical,1,Q3FrontDown,-62.64893,60.13997,103.1483,-9.798219,-31.63475,185.7433,-39.71376,202408261746250130,
2-8,C_HumanVertical,1,Q3FrontDown,-62.43678,60.14728,102.9599,-9.813392,-31.29516,185.7439,-39.71455,202408261746250282,
2-8,C_HumanVertical,1,Q3FrontDown,-62.43678,60.14728,102.9599,-9.813392,-31.29516,185.7439,-39.71455,202408261746250465,
2-8,C_HumanVertical,1,Q3FrontDown,-62.43678,60.14728,102.9599,-9.813392,-31.29516,185.7439,-39.71455,202408261746250624,
2-8,C_HumanVertical,1,Q3FrontDown,-62.16661,60.17063,102.7267,-9.829104,-30.85607,185.7443,-39.71508,202408261746250800,
2-8,C_HumanVertical,1,Q3FrontDown,-61.87385,60.21309,102.4557,-9.86616,-30.34479,185.7458,-39.71619,202408261746250998,
2-8,C_HumanVertical,1,Q3FrontDown,-61.53325,60.28173,102.1554,-9.903666,-29.79783,185.7464,-39.7173,202408261746251209,
2-8,C_HumanVertical,1,Q3FrontDown,-61.53325,60.28173,102.1554,-9.903666,-29.79783,185.7464,-39.7173,202408261746251513,
2-8,C_HumanVertical,1,Q3FrontDown,-61.11317,60.38318,101.8015,-9.954062,-29.09398,185.7538,-39.72012,202408261746251805,
2-8,C_HumanVertical,1,Q3FrontDown,-60.68346,60.52572,101.4307,-9.991469,-28.35581,185.765,-39.72169,202408261746252129,
2-8,C_HumanVertical,1,Q3FrontDown,-60.21841,60.68523,101.0452,-10.04763,-27.55758,185.7784,-39.72688,202408261746252354,
2-8,C_HumanVertical,1,Q3FrontDown,-59.66525,60.90627,100.5795,-10.11062,-26.64929,185.8032,-39.75162,202408261746252621,
2-8,C_HumanVertical,1,Q3FrontDown,-59.66525,60.90627,100.5795,-10.11062,-26.64929,185.8032,-39.75162,202408261746252787,
2-8,C_HumanVertical,1,Q3FrontDown,-59.11198,61.15274,100.1218,-10.16051,-25.6912,185.8302,-39.77409,202408261746253000,
2-8,C_HumanVertical,1,Q3FrontDown,-58.50562,61.45347,99.63657,-10.23545,-24.68587,185.8488,-39.79368,202408261746253370,
2-8,C_HumanVertical,1,Q3FrontDown,-57.85143,61.78727,99.09876,-10.29602,-23.58966,185.882,-39.81836,202408261746253664,
2-8,C_HumanVertical,1,Q3FrontDown,-57.18573,62.13875,98.57677,-10.36051,-22.47594,185.9216,-39.84386,202408261746253955,
2-8,C_HumanVertical,1,Q3FrontDown,-57.18573,62.13875,98.57677,-10.36051,-22.47594,185.9216,-39.84386,202408261746254152,
2-8,C_HumanVertical,1,Q3FrontDown,-56.46932,62.54916,98.02988,-10.4416,-21.31402,185.9546,-39.87136,202408261746254344,
2-8,C_HumanVertical,1,Q3FrontDown,-56.46932,62.54916,98.02988,-10.4416,-21.31402,185.9546,-39.87136,202408261746254515,
2-8,C_HumanVertical,1,Q3FrontDown,-55.74227,62.98288,97.44392,-10.50541,-20.07699,186.0063,-39.90903,202408261746254785,
2-8,C_HumanVertical,1,Q3FrontDown,-54.98585,63.43706,96.86752,-10.59701,-18.82859,186.0515,-39.94782,202408261746254964,
2-8,C_HumanVertical,1,Q3FrontDown,-54.98585,63.43706,96.86752,-10.59701,-18.82859,186.0515,-39.94782,202408261746255132,
2-8,C_HumanVertical,1,Q3FrontDown,-54.22939,63.92484,96.28613,-10.69443,-17.55407,186.1009,-39.99029,202408261746255299,
2-8,C_HumanVertical,1,Q3FrontDown,-53.4493,64.42737,95.69487,-10.81243,-16.25061,186.1541,-40.03558,202408261746255531,
2-8,C_HumanVertical,1,Q3FrontDown,-53.4493,64.42737,95.69487,-10.81243,-16.25061,186.1541,-40.03558,202408261746255797,
2-8,C_HumanVertical,1,Q3FrontDown,-52.67009,64.96194,95.09212,-10.93579,-14.90742,186.2092,-40.07978,202408261746255987,
2-8,C_HumanVertical,1,Q3FrontDown,-51.89783,65.4798,94.50981,-11.06885,-13.63544,186.2536,-40.12287,202408261746256203,
2-8,C_HumanVertical,1,Q3FrontDown,-51.12607,66.01994,93.93855,-11.18338,-12.32634,186.3022,-40.16567,202408261746256527,
2-8,C_HumanVertical,1,Q3FrontDown,-51.12607,66.01994,93.93855,-11.18338,-12.32634,186.3022,-40.16567,202408261746256817,
2-8,C_HumanVertical,1,Q3FrontDown,-50.35187,66.55682,93.37296,-11.30996,-11.04125,186.3478,-40.20593,202408261746257132,
2-8,C_HumanVertical,1,Q3FrontDown,-49.57937,67.10054,92.81796,-11.44152,-9.745786,186.4044,-40.24705,202408261746257464,
2-8,C_HumanVertical,1,Q3FrontDown,-48.82958,67.64451,92.28698,-11.57899,-8.504091,186.4586,-40.28896,202408261746257684,
2-8,C_HumanVertical,1,Q3FrontDown,-48.82958,67.64451,92.28698,-11.57899,-8.504091,186.4586,-40.28896,202408261746257863,
2-8,C_HumanVertical,1,Q3FrontDown,-48.0961,68.17062,91.76876,-11.71846,-7.259033,186.5146,-40.33183,202408261746258145,
2-8,C_HumanVertical,1,Q3FrontDown,-47.38942,68.67739,91.28976,-11.85322,-6.111629,186.5585,-40.37259,202408261746258330,
2-8,C_HumanVertical,1,Q3FrontDown,-47.38942,68.67739,91.28976,-11.85322,-6.111629,186.5585,-40.37259,202408261746258511,
2-8,C_HumanVertical,1,Q3FrontDown,-46.71278,69.17319,90.83794,-11.96919,-4.998621,186.6053,-40.41209,202408261746258701,
2-8,C_HumanVertical,1,Q3FrontDown,-46.05523,69.6326,90.42458,-12.09383,-3.945783,186.6425,-40.44619,202408261746258991,
2-8,C_HumanVertical,1,Q3FrontDown,-46.05523,69.6326,90.42458,-12.09383,-3.945783,186.6425,-40.44619,202408261746259156,
2-8,C_HumanVertical,1,Q3FrontDown,-44.87054,70.50058,89.68803,-12.36483,-2.006643,186.707,-40.51124,202408261746259534,
2-8,C_HumanVertical,1,Q3FrontDown,-44.87054,70.50058,89.68803,-12.36483,-2.006643,186.707,-40.51124,202408261746259785,
2-8,C_HumanVertical,1,Q3FrontDown,-44.37868,70.8848,89.39715,-12.52241,-1.012811,186.7353,-40.53634,202408261746259958,
2-8,C_HumanVertical,1,Q3FrontDown,-44.37868,70.8848,89.39715,-12.52241,-1.012811,186.7353,-40.53634,202408261746260129,
2-8,C_HumanVertical,1,Q3FrontDown,-43.91793,71.2404,89.15977,-12.69046,0.03792782,186.7644,-40.55922,202408261746260382,
2-8,C_HumanVertical,1,Q3FrontDown,-43.50432,71.57054,88.92562,-12.84476,1.009481,186.8002,-40.57665,202408261746260657,
2-8,C_HumanVertical,1,Q3FrontDown,-43.14254,71.86752,88.6876,-12.98373,1.9297,186.8414,-40.5991,202408261746260854,
2-8,C_HumanVertical,1,Q3FrontDown,-43.14254,71.86752,88.6876,-12.98373,1.9297,186.8414,-40.5991,202408261746261019,
2-8,C_HumanVertical,1,Q3FrontDown,-42.81686,72.15367,88.48454,-13.10079,2.823349,186.8844,-40.6176,202408261746261321,
2-8,C_HumanVertical,1,Q3FrontDown,-42.54165,72.39745,88.30103,-13.18568,3.700495,186.9123,-40.64148,202408261746261664,
2-8,C_HumanVertical,1,Q3FrontDown,-42.54165,72.39745,88.30103,-13.18568,3.700495,186.9123,-40.64148,202408261746261859,
2-8,C_HumanVertical,1,Q3FrontDown,-42.30821,72.60745,88.1449,-13.26179,4.507528,186.9407,-40.65993,202408261746262147,
2-8,C_HumanVertical,1,Q3FrontDown,-42.08453,72.79682,88.00246,-13.31319,5.276246,186.9691,-40.67856,202408261746262318,
2-8,C_HumanVertical,1,Q3FrontDown,-42.08453,72.79682,88.00246,-13.31319,5.276246,186.9691,-40.67856,202408261746262485,
2-8,C_HumanVertical,1,Q3FrontDown,-41.92326,72.93206,87.89548,-13.36264,5.98345,186.9969,-40.70178,202408261746262702,
2-8,C_HumanVertical,1,Q3FrontDown,-41.92326,72.93206,87.89548,-13.36264,5.98345,186.9969,-40.70178,202408261746262867,
2-8,C_HumanVertical,1,Q3FrontDown,-41.78626,73.05392,87.79819,-13.39601,6.703578,187.0357,-40.72424,202408261746263143,
2-8,C_HumanVertical,1,Q3FrontDown,-41.68033,73.11807,87.71137,-13.40543,7.402974,187.0824,-40.74539,202408261746263331,
2-8,C_HumanVertical,1,Q3FrontDown,-41.6173,73.15212,87.62801,-13.40623,8.048466,187.1274,-40.76564,202408261746263508,
2-8,C_HumanVertical,1,Q3FrontDown,-41.6173,73.15212,87.62801,-13.40623,8.048466,187.1274,-40.76564,202408261746263664,
2-8,C_HumanVertical,1,Q3FrontDown,-41.6173,73.15212,87.62801,-13.40623,8.048466,187.1274,-40.76564,202408261746263844,
2-8,C_HumanVertical,1,Q3FrontDown,-41.58649,73.15549,87.56965,-13.40518,8.660943,187.1611,-40.79016,202408261746264042,
2-8,C_HumanVertical,1,Q3FrontDown,-41.57578,73.15081,87.52107,-13.4048,9.220142,187.1837,-40.82109,202408261746264202,
2-8,C_HumanVertical,1,Q3FrontDown,-41.57578,73.15081,87.52107,-13.4048,9.220142,187.1837,-40.82109,202408261746264462,
2-8,C_HumanVertical,1,Q3FrontDown,-41.58146,73.12372,87.47269,-13.39561,9.790529,187.2063,-40.83937,202408261746264641,
2-8,C_HumanVertical,1,Q3FrontDown,-41.58146,73.12372,87.47269,-13.39561,9.790529,187.2063,-40.83937,202408261746264798,
2-8,C_HumanVertical,1,Q3FrontDown,-41.60077,73.08987,87.41547,-13.37696,10.41951,187.2335,-40.85717,202408261746264975,
2-8,C_HumanVertical,1,Q3FrontDown,-41.60077,73.08987,87.41547,-13.37696,10.41951,187.2335,-40.85717,202408261746265179,
2-8,C_HumanVertical,1,Q3FrontDown,-41.62418,73.05685,87.3638,-13.35428,10.99214,187.2598,-40.87387,202408261746265467,
2-8,C_HumanVertical,1,Q3FrontDown,-41.66,73.00908,87.34893,-13.34624,11.59517,187.299,-40.89568,202408261746265621,
2-8,C_HumanVertical,1,Q3FrontDown,-41.66,73.00908,87.34893,-13.34624,11.59517,187.299,-40.89568,202408261746265864,
2-8,C_HumanVertical,1,Q3FrontDown,-41.73577,72.89434,87.34308,-13.3008,12.79879,187.3265,-40.94841,202408261746266198,
2-8,C_HumanVertical,1,Q3FrontDown,-41.73577,72.89434,87.34308,-13.3008,12.79879,187.3265,-40.94841,202408261746266352,
2-8,C_HumanVertical,1,Q3FrontDown,-41.77221,72.82719,87.34293,-13.27065,13.34181,187.3297,-40.9766,202408261746266675,
2-8,C_HumanVertical,1,Q3FrontDown,-41.81445,72.75999,87.34415,-13.23805,13.93925,187.3316,-41.00451,202408261746266972,
2-8,C_HumanVertical,1,Q3FrontDown,-41.81445,72.75999,87.34415,-13.23805,13.93925,187.3316,-41.00451,202408261746267143,
2-8,C_HumanVertical,1,Q3FrontDown,-41.86889,72.69649,87.3437,-13.19576,14.56238,187.3313,-41.03238,202408261746267383,
2-8,C_HumanVertical,1,Q3FrontDown,-41.92608,72.64048,87.34345,-13.14945,15.15322,187.3312,-41.05965,202408261746267639,
2-8,C_HumanVertical,1,Q3FrontDown,-41.92608,72.64048,87.34345,-13.14945,15.15322,187.3312,-41.05965,202408261746267795,
2-8,C_HumanVertical,1,Q3FrontDown,-41.98688,72.59021,87.34322,-13.08498,15.82684,187.3314,-41.10876,202408261746267963,
2-8,C_HumanVertical,1,Q3FrontDown,-42.05007,72.5584,87.3438,-12.99075,16.54075,187.3318,-41.16146,202408261746268281,
2-8,C_HumanVertical,1,Q3FrontDown,-42.05007,72.5584,87.3438,-12.99075,16.54075,187.3318,-41.16146,202408261746268471,
2-8,C_HumanVertical,1,Q3FrontDown,-42.14615,72.54468,87.34275,-12.95302,17.13836,187.3311,-41.16292,202408261746268701,
2-8,C_HumanVertical,1,Q3FrontDown,-42.24702,72.5312,87.3459,-12.89688,17.77087,187.3303,-41.19545,202408261746268989,
2-8,C_HumanVertical,1,Q3FrontDown,-42.24702,72.5312,87.3459,-12.89688,17.77087,187.3303,-41.19545,202408261746269335,
2-8,C_HumanVertical,1,Q3FrontDown,-42.50179,72.53143,87.39306,-12.76477,18.88853,187.3302,-41.25368,202408261746269631,
2-8,C_HumanVertical,1,Q3FrontDown,-42.65141,72.52895,87.41531,-12.74975,19.34794,187.3316,-41.26179,202408261746269891,
2-8,C_HumanVertical,1,Q3FrontDown,-42.65141,72.52895,87.41531,-12.74975,19.34794,187.3316,-41.26179,202408261746270136,
2-8,C_HumanVertical,1,Q3FrontDown,-42.82236,72.52521,87.4387,-12.74774,19.73335,187.3366,-41.26206,202408261746270318,
2-8,C_HumanVertical,1,Q3FrontDown,-42.82236,72.52521,87.4387,-12.74774,19.73335,187.3366,-41.26206,202408261746270534,
2-8,C_HumanVertical,1,Q3FrontDown,-43.15881,72.50288,87.51025,-12.74213,20.37935,187.3799,-41.26154,202408261746270859,
2-8,C_HumanVertical,1,Q3FrontDown,-43.15881,72.50288,87.51025,-12.74213,20.37935,187.3799,-41.26154,202408261746271141,
2-8,C_HumanVertical,1,Q3FrontDown,-43.33203,72.49538,87.57568,-12.7423,20.59854,187.4103,-41.26147,202408261746271312,
2-8,C_HumanVertical,1,Q3FrontDown,-43.50904,72.4818,87.64236,-12.73921,20.95834,187.4181,-41.2612,202408261746271669,
2-8,C_HumanVertical,1,Q3FrontDown,-43.50904,72.4818,87.64236,-12.73921,20.95834,187.4181,-41.2612,202408261746271855,
2-8,C_HumanVertical,1,Q3FrontDown,-43.667,72.46724,87.68492,-12.72544,21.31823,187.4207,-41.26154,202408261746272124,
2-8,C_HumanVertical,1,Q3FrontDown,-43.82569,72.45511,87.72147,-12.7058,21.70392,187.4203,-41.26233,202408261746272284,
2-8,C_HumanVertical,1,Q3FrontDown,-43.82569,72.45511,87.72147,-12.7058,21.70392,187.4203,-41.26233,202408261746272451,
2-8,C_HumanVertical,1,Q3FrontDown,-43.9822,72.4431,87.75999,-12.63653,22.19854,187.4185,-41.27375,202408261746272620,
2-8,C_HumanVertical,1,Q3FrontDown,-43.9822,72.4431,87.75999,-12.63653,22.19854,187.4185,-41.27375,202408261746272781,
2-8,C_HumanVertical,1,Q3FrontDown,-44.1496,72.44579,87.82596,-12.60305,22.58312,187.4194,-41.28039,202408261746273006,
2-8,C_HumanVertical,1,Q3FrontDown,-44.33617,72.45216,87.9011,-12.59902,22.91951,187.4207,-41.28006,202408261746273313,
2-8,C_HumanVertical,1,Q3FrontDown,-44.33617,72.45216,87.9011,-12.59902,22.91951,187.4207,-41.28006,202408261746273471,
2-8,C_HumanVertical,1,Q3FrontDown,-44.52485,72.4515,88.01905,-12.59915,23.1331,187.4209,-41.27991,202408261746273704,
2-8,C_HumanVertical,1,Q3FrontDown,-44.71795,72.44698,88.14445,-12.59823,23.33064,187.4212,-41.28026,202408261746274038,
2-8,C_HumanVertical,1,Q3FrontDown,-44.90001,72.44636,88.25981,-12.59777,23.54202,187.4216,-41.28006,202408261746274320,
2-8,C_HumanVertical,1,Q3FrontDown,-45.08385,72.44656,88.35186,-12.59268,23.84695,187.4217,-41.27927,202408261746274633,
2-8,C_HumanVertical,1,Q3FrontDown,-45.08385,72.44656,88.35186,-12.59268,23.84695,187.4217,-41.27927,202408261746274794,
2-8,C_HumanVertical,1,Q3FrontDown,-45.26313,72.44629,88.43071,-12.58016,24.12218,187.4219,-41.27913,202408261746274975,
2-8,C_HumanVertical,1,Q3FrontDown,-45.26313,72.44629,88.43071,-12.58016,24.12218,187.4219,-41.27913,202408261746275184,
2-8,C_HumanVertical,1,Q3FrontDown,-45.4422,72.45016,88.50312,-12.57782,24.38626,187.4223,-41.27866,202408261746275458,
2-8,C_HumanVertical,1,Q3FrontDown,-45.61042,72.4564,88.60789,-12.57689,24.61048,187.4224,-41.27937,202408261746275626,
2-8,C_HumanVertical,1,Q3FrontDown,-45.61042,72.4564,88.60789,-12.57689,24.61048,187.4224,-41.27937,202408261746275787,
2-8,C_HumanVertical,1,Q3FrontDown,-45.77057,72.46088,88.69498,-12.57088,24.81429,187.423,-41.27918,202408261746275975,
2-8,C_HumanVertical,1,Q3FrontDown,-45.77057,72.46088,88.69498,-12.57088,24.81429,187.423,-41.27918,202408261746276161,
2-8,C_HumanVertical,1,Q3FrontDown,-45.92755,72.45882,88.78088,-12.55971,25.01341,187.4235,-41.27898,202408261746276352,
2-8,C_HumanVertical,1,Q3FrontDown,-46.07985,72.45769,88.88092,-12.54311,25.2064,187.4236,-41.27737,202408261746276673,
2-8,C_HumanVertical,1,Q3FrontDown,-46.24794,72.45849,89.00224,-12.53702,25.40767,187.4238,-41.27683,202408261746276958,
2-8,C_HumanVertical,1,Q3FrontDown,-46.24794,72.45849,89.00224,-12.53702,25.40767,187.4238,-41.27683,202408261746277132,
2-8,C_HumanVertical,1,Q3FrontDown,-46.24794,72.45849,89.00224,-12.53702,25.40767,187.4238,-41.27683,202408261746277296,
2-8,C_HumanVertical,1,Q3FrontDown,-46.40716,72.46064,89.13511,-12.53378,25.58521,187.4238,-41.2769,202408261746277505,
2-8,C_HumanVertical,1,Q3FrontDown,-46.56799,72.46205,89.26166,-12.53329,25.69049,187.4244,-41.27595,202408261746277785,
2-8,C_HumanVertical,1,Q3FrontDown,-46.7101,72.45927,89.38305,-12.53437,25.78086,187.4251,-41.2757,202408261746277966,
2-8,C_HumanVertical,1,Q3FrontDown,-46.7101,72.45927,89.38305,-12.53437,25.78086,187.4251,-41.2757,202408261746278131,
2-8,C_HumanVertical,2,Q1FrontUp,-21.64043,30.74759,68.88275,-15.01959,-113.6803,168.3872,-42.52116,202408261746534821,
2-8,C_HumanVertical,2,Q1FrontUp,-21.64039,30.74738,68.88253,-15.01945,-113.6804,168.3873,-42.52103,202408261746535067,
2-8,C_HumanVertical,2,Q1FrontUp,-21.64037,30.74723,68.88206,-15.01963,-113.6802,168.3872,-42.52164,202408261746535380,
2-8,C_HumanVertical,2,Q1FrontUp,-21.64037,30.74723,68.88206,-15.01963,-113.6802,168.3872,-42.52164,202408261746535593,
2-8,C_HumanVertical,2,Q1FrontUp,-21.64053,30.74696,68.88214,-15.01946,-113.6801,168.3873,-42.52114,202408261746535885,
2-8,C_HumanVertical,2,Q1FrontUp,-21.64027,30.74698,68.87323,-15.01424,-113.6803,168.3881,-42.5214,202408261746536783,
2-8,C_HumanVertical,2,Q1FrontUp,-21.64073,30.74696,68.86632,-15.00967,-113.6803,168.3882,-42.52151,202408261746537038,
2-8,C_HumanVertical,2,Q1FrontUp,-21.64107,30.74668,68.85995,-15.0053,-113.6801,168.3884,-42.52164,202408261746537343,
2-8,C_HumanVertical,2,Q1FrontUp,-21.64075,30.74668,68.85529,-15,-113.6802,168.3886,-42.52148,202408261746537631,
2-8,C_HumanVertical,2,Q1FrontUp,-21.64075,30.74668,68.85529,-15,-113.6802,168.3886,-42.52148,202408261746537808,
2-8,C_HumanVertical,2,Q1FrontUp,-21.64075,30.74668,68.85529,-15,-113.6802,168.3886,-42.52148,202408261746538020,
2-8,C_HumanVertical,2,Q1FrontUp,-21.64075,30.74666,68.84851,-14.99756,-113.6801,168.3884,-42.52167,202408261746538291,
2-8,C_HumanVertical,2,Q1FrontUp,-21.64075,30.74666,68.84851,-14.99756,-113.6801,168.3884,-42.52167,202408261746538453,
2-8,C_HumanVertical,2,Q1FrontUp,-21.64067,30.74629,68.84769,-14.99671,-113.6804,168.3883,-42.52176,202408261746538645,
2-8,C_HumanVertical,2,Q1FrontUp,-21.64087,30.746,68.842,-14.99615,-113.6802,168.3881,-42.52158,202408261746538863,
2-8,C_HumanVertical,2,Q1FrontUp,-21.64087,30.746,68.842,-14.99615,-113.6802,168.3881,-42.52158,202408261746539142,
2-8,C_HumanVertical,2,Q1FrontUp,-21.64054,30.74606,68.83757,-14.99546,-113.6802,168.3883,-42.52108,202408261746539469,
2-8,C_HumanVertical,2,Q1FrontUp,-21.6413,30.74603,68.83361,-14.99486,-113.6802,168.3883,-42.52137,202408261746539788,
2-8,C_HumanVertical,2,Q1FrontUp,-21.6417,30.74608,68.83371,-14.99477,-113.68,168.3882,-42.52165,202408261746539968,
2-8,C_HumanVertical,2,Q1FrontUp,-21.6417,30.74608,68.83371,-14.99477,-113.68,168.3882,-42.52165,202408261746540171,
2-8,C_HumanVertical,2,Q1FrontUp,-21.64177,30.74603,68.83361,-14.99499,-113.6802,168.3881,-42.5219,202408261746540348,
2-8,C_HumanVertical,2,Q1FrontUp,-21.64197,30.74562,68.83361,-14.99545,-113.6803,168.3884,-42.52142,202408261746540627,
2-8,C_HumanVertical,2,Q1FrontUp,-21.64197,30.74562,68.83361,-14.99545,-113.6803,168.3884,-42.52142,202408261746540783,
2-8,C_HumanVertical,2,Q1FrontUp,-21.64181,30.74522,68.83361,-14.99638,-113.679,168.3884,-42.5216,202408261746540961,
2-8,C_HumanVertical,2,Q1FrontUp,-21.64181,30.74522,68.83361,-14.99638,-113.679,168.3884,-42.5216,202408261746541159,
2-8,C_HumanVertical,2,Q1FrontUp,-21.64169,30.74509,68.82845,-14.99628,-113.6724,168.3884,-42.52112,202408261746541365,
2-8,C_HumanVertical,2,Q1FrontUp,-21.64111,30.74411,68.81192,-14.997,-113.6374,168.3901,-42.52149,202408261746541643,
2-8,C_HumanVertical,2,Q1FrontUp,-21.64111,30.74411,68.81192,-14.997,-113.6374,168.3901,-42.52149,202408261746541800,
2-8,C_HumanVertical,2,Q1FrontUp,-21.62954,30.73753,68.75722,-14.99674,-113.4267,168.3917,-42.52105,202408261746542012,
2-8,C_HumanVertical,2,Q1FrontUp,-21.60683,30.72767,68.65562,-14.99536,-113.2004,168.4042,-42.51963,202408261746542301,
2-8,C_HumanVertical,2,Q1FrontUp,-21.60683,30.72767,68.65562,-14.99536,-113.2004,168.4042,-42.51963,202408261746542503,
2-8,C_HumanVertical,2,Q1FrontUp,-21.58402,30.71021,68.53539,-14.99633,-112.9971,168.4162,-42.51685,202408261746542781,
2-8,C_HumanVertical,2,Q1FrontUp,-21.55869,30.68956,68.40393,-14.9966,-112.7898,168.4298,-42.50975,202408261746542961,
2-8,C_HumanVertical,2,Q1FrontUp,-21.55869,30.68956,68.40393,-14.9966,-112.7898,168.4298,-42.50975,202408261746543131,
2-8,C_HumanVertical,2,Q1FrontUp,-21.53924,30.66378,68.29503,-14.99718,-112.5853,168.4324,-42.49758,202408261746543367,
2-8,C_HumanVertical,2,Q1FrontUp,-21.52495,30.63615,68.19369,-14.99827,-112.3695,168.4349,-42.49162,202408261746543528,
2-8,C_HumanVertical,2,Q1FrontUp,-21.52495,30.63615,68.19369,-14.99827,-112.3695,168.4349,-42.49162,202408261746543796,
2-8,C_HumanVertical,2,Q1FrontUp,-21.50717,30.60806,68.10181,-14.99843,-112.1036,168.451,-42.48366,202408261746544005,
2-8,C_HumanVertical,2,Q1FrontUp,-21.50717,30.60806,68.10181,-14.99843,-112.1036,168.451,-42.48366,202408261746544156,
2-8,C_HumanVertical,2,Q1FrontUp,-21.47663,30.56164,67.98002,-14.99886,-111.7149,168.4726,-42.46436,202408261746544467,
2-8,C_HumanVertical,2,Q1FrontUp,-21.4397,30.50545,67.83653,-15.00041,-111.2655,168.5007,-42.44891,202408261746544669,
2-8,C_HumanVertical,2,Q1FrontUp,-21.39281,30.43881,67.69904,-15.00253,-110.8435,168.5184,-42.43402,202408261746544955,
2-8,C_HumanVertical,2,Q1FrontUp,-21.32974,30.35329,67.55357,-15.01242,-110.3216,168.6904,-42.37339,202408261746545171,
2-8,C_HumanVertical,2,Q1FrontUp,-21.32974,30.35329,67.55357,-15.01242,-110.3216,168.6904,-42.37339,202408261746545459,
2-8,C_HumanVertical,2,Q1FrontUp,-21.2542,30.24991,67.41483,-15.02475,-109.7345,168.9747,-42.30574,202408261746545628,
2-8,C_HumanVertical,2,Q1FrontUp,-21.16795,30.12782,67.28204,-15.10993,-108.8242,169.4986,-42.25562,202408261746545858,
2-8,C_HumanVertical,2,Q1FrontUp,-21.16795,30.12782,67.28204,-15.10993,-108.8242,169.4986,-42.25562,202408261746546118,
2-8,C_HumanVertical,2,Q1FrontUp,-21.01298,29.94254,67.12466,-15.27864,-107.8677,170.0695,-42.23579,202408261746546305,
2-8,C_HumanVertical,2,Q1FrontUp,-21.01298,29.94254,67.12466,-15.27864,-107.8677,170.0695,-42.23579,202408261746546472,
2-8,C_HumanVertical,2,Q1FrontUp,-20.82962,29.71551,66.96419,-15.51192,-106.8842,170.6378,-42.2373,202408261746546687,
2-8,C_HumanVertical,2,Q1FrontUp,-20.60497,29.43039,66.82813,-15.8118,-105.8973,171.2383,-42.23948,202408261746546843,
2-8,C_HumanVertical,2,Q1FrontUp,-20.60497,29.43039,66.82813,-15.8118,-105.8973,171.2383,-42.23948,202408261746547124,
2-8,C_HumanVertical,2,Q1FrontUp,-20.34577,29.15009,66.78947,-16.14694,-105.048,171.7912,-42.26094,202408261746547303,
2-8,C_HumanVertical,2,Q1FrontUp,-20.34577,29.15009,66.78947,-16.14694,-105.048,171.7912,-42.26094,202408261746547467,
2-8,C_HumanVertical,2,Q1FrontUp,-20.02534,28.75295,66.81264,-16.61937,-104.0905,172.4752,-42.28088,202408261746547636,
2-8,C_HumanVertical,2,Q1FrontUp,-20.02534,28.75295,66.81264,-16.61937,-104.0905,172.4752,-42.28088,202408261746547805,
2-8,C_HumanVertical,2,Q1FrontUp,-19.89251,28.32571,66.94926,-17.22533,-103.5824,172.7613,-42.28135,202408261746548035,
2-8,C_HumanVertical,2,Q1FrontUp,-19.80282,27.82281,67.19322,-17.89853,-103.1697,172.7479,-42.22009,202408261746548305,
2-8,C_HumanVertical,2,Q1FrontUp,-19.80282,27.82281,67.19322,-17.89853,-103.1697,172.7479,-42.22009,202408261746548488,
2-8,C_HumanVertical,2,Q1FrontUp,-19.73645,27.33099,67.51118,-18.65887,-102.8281,172.4226,-42.12395,202408261746548843,
2-8,C_HumanVertical,2,Q1FrontUp,-19.7884,26.76963,67.85932,-19.54127,-102.3741,171.5841,-41.90872,202408261746549017,
2-8,C_HumanVertical,2,Q1FrontUp,-19.78929,26.20657,68.1981,-20.38888,-101.9708,170.7799,-41.70337,202408261746549311,
2-8,C_HumanVertical,2,Q1FrontUp,-19.78065,25.70121,68.50214,-21.20588,-101.6507,170.0421,-41.51771,202408261746549482,
2-8,C_HumanVertical,2,Q1FrontUp,-19.82232,25.15347,68.82298,-22.22977,-101.4847,169.0292,-41.33891,202408261746549921,
2-8,C_HumanVertical,2,Q1FrontUp,-19.74386,24.80418,68.95103,-22.89962,-101.4729,168.5928,-41.28924,202408261746550246,
2-8,C_HumanVertical,2,Q1FrontUp,-19.74386,24.80418,68.95103,-22.89962,-101.4729,168.5928,-41.28924,202408261746550455,
2-8,C_HumanVertical,2,Q1FrontUp,-19.44898,24.57104,69.01723,-23.15077,-101.4924,168.6169,-41.29043,202408261746550622,
2-8,C_HumanVertical,2,Q1FrontUp,-19.2662,24.40325,69.06956,-23.35163,-101.495,168.6144,-41.29014,202408261746550991,
2-8,C_HumanVertical,2,Q1FrontUp,-19.2662,24.40325,69.06956,-23.35163,-101.495,168.6144,-41.29014,202408261746551184,
2-8,C_HumanVertical,2,Q1FrontUp,-19.20904,24.29159,69.11942,-23.58261,-101.496,168.584,-41.2853,202408261746551348,
2-8,C_HumanVertical,2,Q1FrontUp,-19.27275,24.27684,69.12474,-23.75546,-101.4948,168.4977,-41.26695,202408261746551635,
2-8,C_HumanVertical,2,Q1FrontUp,-19.27275,24.27684,69.12474,-23.75546,-101.4948,168.4977,-41.26695,202408261746551810,
2-8,C_HumanVertical,2,Q1FrontUp,-19.37228,24.22467,69.15281,-24.03826,-101.4945,168.2596,-41.21618,202408261746552136,
2-8,C_HumanVertical,2,Q1FrontUp,-19.45574,24.15768,69.21711,-24.43453,-101.493,167.9345,-41.13572,202408261746552336,
2-8,C_HumanVertical,2,Q1FrontUp,-19.45574,24.15768,69.21711,-24.43453,-101.493,167.9345,-41.13572,202408261746552617,
2-8,C_HumanVertical,2,Q1FrontUp,-19.45574,24.15768,69.21711,-24.43453,-101.493,167.9345,-41.13572,202408261746552792,
2-8,C_HumanVertical,2,Q1FrontUp,-19.45574,24.15768,69.21711,-24.43453,-101.493,167.9345,-41.13572,202408261746552999,
2-8,C_HumanVertical,2,Q1FrontUp,-19.45574,24.15768,69.21711,-24.43453,-101.493,167.9345,-41.13572,202408261746553321,
2-8,C_HumanVertical,2,Q1FrontUp,-19.45574,24.15768,69.21711,-24.43453,-101.493,167.9345,-41.13572,202408261746553539,
2-8,C_HumanVertical,2,Q1FrontUp,-20.11153,23.98226,69.60409,-26.97357,-101.4845,165.8263,-40.60043,202408261746553828,
2-8,C_HumanVertical,2,Q1FrontUp,-20.11153,23.98226,69.60409,-26.97357,-101.4845,165.8263,-40.60043,202408261746554150,
2-8,C_HumanVertical,2,Q1FrontUp,-20.41609,23.88843,69.89112,-28.68234,-101.4815,164.4693,-40.23056,202408261746554321,
2-8,C_HumanVertical,2,Q1FrontUp,-20.52619,23.81238,70.01216,-29.54552,-101.4785,163.823,-40.04778,202408261746554503,
2-8,C_HumanVertical,2,Q1FrontUp,-20.52619,23.81238,70.01216,-29.54552,-101.4785,163.823,-40.04778,202408261746554785,
2-8,C_HumanVertical,2,Q1FrontUp,-20.52619,23.81238,70.01216,-29.54552,-101.4785,163.823,-40.04778,202408261746555115,
2-8,C_HumanVertical,2,Q1FrontUp,-20.52619,23.81238,70.01216,-29.54552,-101.4785,163.823,-40.04778,202408261746555285,
2-8,C_HumanVertical,2,Q1FrontUp,-20.52619,23.81238,70.01216,-29.54552,-101.4785,163.823,-40.04778,202408261746555484,
2-8,C_HumanVertical,2,Q1FrontUp,-20.52619,23.81238,70.01216,-29.54552,-101.4785,163.823,-40.04778,202408261746555693,
2-8,C_HumanVertical,2,Q1FrontUp,-20.61199,23.75087,70.35883,-32.05182,-101.5092,162.1792,-39.62404,202408261746555969,
2-8,C_HumanVertical,2,Q1FrontUp,-20.61199,23.75087,70.35883,-32.05182,-101.5092,162.1792,-39.62404,202408261746556209,
2-8,C_HumanVertical,2,Q1FrontUp,-20.61199,23.75087,70.35883,-32.05182,-101.5092,162.1792,-39.62404,202408261746556469,
2-8,C_HumanVertical,2,Q1FrontUp,-20.53647,23.93118,70.3896,-32.32143,-101.5155,162.1781,-39.63117,202408261746556663,
2-8,C_HumanVertical,2,Q1FrontUp,-20.53647,23.93118,70.3896,-32.32143,-101.5155,162.1781,-39.63117,202408261746556839,
2-8,C_HumanVertical,2,Q1FrontUp,-20.53647,23.93118,70.3896,-32.32143,-101.5155,162.1781,-39.63117,202408261746557136,
2-8,C_HumanVertical,2,Q1FrontUp,-20.8845,24.15064,70.56852,-32.57822,-101.5131,162.1341,-39.62083,202408261746557464,
2-8,C_HumanVertical,2,Q1FrontUp,-20.8845,24.15064,70.56852,-32.57822,-101.5131,162.1341,-39.62083,202408261746557627,
2-8,C_HumanVertical,2,Q1FrontUp,-20.8845,24.15064,70.56852,-32.57822,-101.5131,162.1341,-39.62083,202408261746557852,
2-8,C_HumanVertical,2,Q1FrontUp,-20.8845,24.15064,70.56852,-32.57822,-101.5131,162.1341,-39.62083,202408261746558020,
2-8,C_HumanVertical,2,Q1FrontUp,-20.8845,24.15064,70.56852,-32.57822,-101.5131,162.1341,-39.62083,202408261746558284,
2-8,C_HumanVertical,2,Q1FrontUp,-20.8845,24.15064,70.56852,-32.57822,-101.5131,162.1341,-39.62083,202408261746558472,
2-8,C_HumanVertical,2,Q1FrontUp,-20.8845,24.15064,70.56852,-32.57822,-101.5131,162.1341,-39.62083,202408261746558628,
2-8,C_HumanVertical,2,Q1FrontUp,-22.53722,24.77217,71.58322,-33.68211,-101.4457,161.5897,-39.38696,202408261746558813,
2-8,C_HumanVertical,2,Q1FrontUp,-23.22071,25.02778,72.03265,-34.13148,-101.4067,161.306,-39.26173,202408261746558987,
2-8,C_HumanVertical,2,Q1FrontUp,-23.22071,25.02778,72.03265,-34.13148,-101.4067,161.306,-39.26173,202408261746559186,
2-8,C_HumanVertical,2,Q1FrontUp,-23.22071,25.02778,72.03265,-34.13148,-101.4067,161.306,-39.26173,202408261746559368,
2-8,C_HumanVertical,2,Q1FrontUp,-23.22071,25.02778,72.03265,-34.13148,-101.4067,161.306,-39.26173,202408261746559647,
2-8,C_HumanVertical,2,Q1FrontUp,-25.50481,26.10094,73.384,-35.73807,-101.2309,160.2729,-38.75634,202408261746559973,
2-8,C_HumanVertical,2,Q1FrontUp,-25.50481,26.10094,73.384,-35.73807,-101.2309,160.2729,-38.75634,202408261746560145,
2-8,C_HumanVertical,2,Q1FrontUp,-26.34585,26.55059,73.84058,-36.30266,-101.1437,159.8688,-38.55672,202408261746560364,
2-8,C_HumanVertical,2,Q1FrontUp,-27.17856,27.04078,74.27133,-36.88667,-101.058,159.4812,-38.35638,202408261746560651,
2-8,C_HumanVertical,2,Q1FrontUp,-27.17856,27.04078,74.27133,-36.88667,-101.058,159.4812,-38.35638,202408261746560820,
2-8,C_HumanVertical,2,Q1FrontUp,-27.17856,27.04078,74.27133,-36.88667,-101.058,159.4812,-38.35638,202408261746561038,
2-8,C_HumanVertical,2,Q1FrontUp,-27.17856,27.04078,74.27133,-36.88667,-101.058,159.4812,-38.35638,202408261746561367,
2-8,C_HumanVertical,2,Q1FrontUp,-27.17856,27.04078,74.27133,-36.88667,-101.058,159.4812,-38.35638,202408261746561640,
2-8,C_HumanVertical,2,Q1FrontUp,-27.17856,27.04078,74.27133,-36.88667,-101.058,159.4812,-38.35638,202408261746561816,
2-8,C_HumanVertical,2,Q1FrontUp,-30.32762,29.20756,75.63079,-38.98774,-100.8299,157.9384,-37.61175,202408261746562140,
2-8,C_HumanVertical,2,Q1FrontUp,-30.7415,29.67123,75.60668,-39.20157,-100.8597,157.7734,-37.57203,202408261746562316,
2-8,C_HumanVertical,2,Q1FrontUp,-30.7415,29.67123,75.60668,-39.20157,-100.8597,157.7734,-37.57203,202408261746562519,
2-8,C_HumanVertical,2,Q1FrontUp,-30.7415,29.67123,75.60668,-39.20157,-100.8597,157.7734,-37.57203,202408261746562796,
2-8,C_HumanVertical,2,Q1FrontUp,-30.93008,30.14603,75.43913,-39.19958,-100.8962,157.7463,-37.57973,202408261746562961,
2-8,C_HumanVertical,2,Q1FrontUp,-30.93008,30.14603,75.43913,-39.19958,-100.8962,157.7463,-37.57973,202408261746563136,
2-8,C_HumanVertical,2,Q1FrontUp,-30.93008,30.14603,75.43913,-39.19958,-100.8962,157.7463,-37.57973,202408261746563303,
2-8,C_HumanVertical,2,Q1FrontUp,-30.93008,30.14603,75.43913,-39.19958,-100.8962,157.7463,-37.57973,202408261746563489,
2-8,C_HumanVertical,2,Q1FrontUp,-30.93008,30.14603,75.43913,-39.19958,-100.8962,157.7463,-37.57973,202408261746563705,
2-8,C_HumanVertical,2,Q1FrontUp,-30.93008,30.14603,75.43913,-39.19958,-100.8962,157.7463,-37.57973,202408261746563998,
2-8,C_HumanVertical,2,Q1FrontUp,-32.00999,31.57723,75.70435,-39.63092,-101.0834,157.6666,-37.5953,202408261746564354,
2-8,C_HumanVertical,2,Q1FrontUp,-32.34663,31.75581,75.95565,-39.80009,-101.1368,157.6465,-37.59475,202408261746564639,
2-8,C_HumanVertical,2,Q1FrontUp,-32.83316,31.93037,76.36601,-40.0256,-101.2283,157.6049,-37.59479,202408261746564842,
2-8,C_HumanVertical,2,Q1FrontUp,-32.83316,31.93037,76.36601,-40.0256,-101.2283,157.6049,-37.59479,202408261746565132,
2-8,C_HumanVertical,2,Q1FrontUp,-32.83316,31.93037,76.36601,-40.0256,-101.2283,157.6049,-37.59479,202408261746565292,
2-8,C_HumanVertical,2,Q1FrontUp,-32.83316,31.93037,76.36601,-40.0256,-101.2283,157.6049,-37.59479,202408261746565460,
2-8,C_HumanVertical,2,Q1FrontUp,-34.05975,32.34135,77.34615,-40.47903,-101.4626,157.5038,-37.59468,202408261746565632,
2-8,C_HumanVertical,2,Q1FrontUp,-34.05975,32.34135,77.34615,-40.47903,-101.4626,157.5038,-37.59468,202408261746565815,
2-8,C_HumanVertical,2,Q1FrontUp,-34.80511,32.58022,77.94176,-40.73562,-101.6325,157.4336,-37.59483,202408261746566027,
2-8,C_HumanVertical,2,Q1FrontUp,-35.63818,32.85312,78.57124,-41.01062,-101.8126,157.3626,-37.59401,202408261746566313,
2-8,C_HumanVertical,2,Q1FrontUp,-36.54204,33.17085,79.19494,-41.26676,-101.9928,157.2851,-37.59396,202408261746566641,
2-8,C_HumanVertical,2,Q1FrontUp,-36.54204,33.17085,79.19494,-41.26676,-101.9928,157.2851,-37.59396,202408261746566834,
2-8,C_HumanVertical,2,Q1FrontUp,-37.54645,33.51961,79.89949,-41.57982,-102.182,157.1795,-37.59362,202408261746567001,
2-8,C_HumanVertical,2,Q1FrontUp,-38.57361,33.89029,80.59797,-41.85697,-102.3582,157.0573,-37.5935,202408261746567301,
2-8,C_HumanVertical,2,Q1FrontUp,-38.57361,33.89029,80.59797,-41.85697,-102.3582,157.0573,-37.5935,202408261746567467,
2-8,C_HumanVertical,2,Q1FrontUp,-38.57361,33.89029,80.59797,-41.85697,-102.3582,157.0573,-37.5935,202408261746567691,
2-8,C_HumanVertical,2,Q1FrontUp,-38.57361,33.89029,80.59797,-41.85697,-102.3582,157.0573,-37.5935,202408261746567995,
2-8,C_HumanVertical,2,Q1FrontUp,-38.57361,33.89029,80.59797,-41.85697,-102.3582,157.0573,-37.5935,202408261746568193,
2-8,C_HumanVertical,2,Q1FrontUp,-38.57361,33.89029,80.59797,-41.85697,-102.3582,157.0573,-37.5935,202408261746568484,
2-8,C_HumanVertical,2,Q1FrontUp,-42.85884,35.71244,83.10372,-42.81403,-103.237,156.4366,-37.5925,202408261746568844,
2-8,C_HumanVertical,2,Q1FrontUp,-43.83299,36.1802,83.58509,-42.98679,-103.4187,156.2943,-37.59272,202408261746569190,
2-8,C_HumanVertical,2,Q1FrontUp,-43.83299,36.1802,83.58509,-42.98679,-103.4187,156.2943,-37.59272,202408261746569483,
2-8,C_HumanVertical,2,Q1FrontUp,-43.83299,36.1802,83.58509,-42.98679,-103.4187,156.2943,-37.59272,202408261746569652,
2-8,C_HumanVertical,2,Q1FrontUp,-43.83299,36.1802,83.58509,-42.98679,-103.4187,156.2943,-37.59272,202408261746569993,
2-8,C_HumanVertical,2,Q1FrontUp,-43.83299,36.1802,83.58509,-42.98679,-103.4187,156.2943,-37.59272,202408261746570202,
2-8,C_HumanVertical,2,Q1FrontUp,-46.32872,37.72086,83.94273,-43.01667,-103.7668,156.0296,-37.59484,202408261746570392,
2-8,C_HumanVertical,2,Q1FrontUp,-46.52238,37.96115,83.77765,-43.00936,-103.7695,156.0127,-37.59496,202408261746570730,
2-8,C_HumanVertical,2,Q1FrontUp,-46.58475,38.16822,83.61507,-43.14457,-103.7847,155.9946,-37.5947,202408261746570973,
2-8,C_HumanVertical,2,Q1FrontUp,-46.58475,38.16822,83.61507,-43.14457,-103.7847,155.9946,-37.5947,202408261746571168,
2-8,C_HumanVertical,2,Q1FrontUp,-46.58475,38.16822,83.61507,-43.14457,-103.7847,155.9946,-37.5947,202408261746571365,
2-8,C_HumanVertical,2,Q1FrontUp,-46.58475,38.16822,83.61507,-43.14457,-103.7847,155.9946,-37.5947,202408261746571643,
2-8,C_HumanVertical,2,Q1FrontUp,-46.58475,38.16822,83.61507,-43.14457,-103.7847,155.9946,-37.5947,202408261746571814,
2-8,C_HumanVertical,2,Q1FrontUp,-46.58475,38.16822,83.61507,-43.14457,-103.7847,155.9946,-37.5947,202408261746572138,
2-8,C_HumanVertical,2,Q1FrontUp,-46.52347,38.72515,82.84834,-44.98611,-104.2491,155.81,-37.59211,202408261746572317,
2-8,C_HumanVertical,2,Q1FrontUp,-46.52347,38.72515,82.84834,-44.98611,-104.2491,155.81,-37.59211,202408261746572524,
2-8,C_HumanVertical,2,Q1FrontUp,-46.48074,38.82454,82.5771,-45.73226,-104.4269,155.7186,-37.5906,202408261746572792,
2-8,C_HumanVertical,2,Q1FrontUp,-46.43859,38.9757,82.28551,-46.65527,-104.6471,155.5853,-37.57422,202408261746572981,
2-8,C_HumanVertical,2,Q1FrontUp,-46.43859,38.9757,82.28551,-46.65527,-104.6471,155.5853,-37.57422,202408261746573167,
2-8,C_HumanVertical,2,Q1FrontUp,-46.43859,38.9757,82.28551,-46.65527,-104.6471,155.5853,-37.57422,202408261746573504,
2-8,C_HumanVertical,2,Q1FrontUp,-46.43859,38.9757,82.28551,-46.65527,-104.6471,155.5853,-37.57422,202408261746573713,
2-8,C_HumanVertical,2,Q1FrontUp,-46.43859,38.9757,82.28551,-46.65527,-104.6471,155.5853,-37.57422,202408261746574023,
2-8,C_HumanVertical,2,Q1FrontUp,-46.12277,39.84599,80.90954,-50.98903,-105.8786,155.0085,-37.5117,202408261746574304,
2-8,C_HumanVertical,2,Q1FrontUp,-46.01532,40.1658,80.5182,-52.17908,-106.2702,154.851,-37.49788,202408261746574643,
2-8,C_HumanVertical,2,Q1FrontUp,-45.88799,40.53706,80.11136,-53.35344,-106.6368,154.6692,-37.47666,202408261746574854,
2-8,C_HumanVertical,2,Q1FrontUp,-45.88799,40.53706,80.11136,-53.35344,-106.6368,154.6692,-37.47666,202408261746575128,
2-8,C_HumanVertical,2,Q1FrontUp,-45.88799,40.53706,80.11136,-53.35344,-106.6368,154.6692,-37.47666,202408261746575296,
2-8,C_HumanVertical,2,Q1FrontUp,-45.88799,40.53706,80.11136,-53.35344,-106.6368,154.6692,-37.47666,202408261746575467,
2-8,C_HumanVertical,2,Q1FrontUp,-45.88799,40.53706,80.11136,-53.35344,-106.6368,154.6692,-37.47666,202408261746575709,
2-8,C_HumanVertical,2,Q1FrontUp,-45.88799,40.53706,80.11136,-53.35344,-106.6368,154.6692,-37.47666,202408261746575879,
2-8,C_HumanVertical,2,Q1FrontUp,-45.88799,40.53706,80.11136,-53.35344,-106.6368,154.6692,-37.47666,202408261746576162,
2-8,C_HumanVertical,2,Q1FrontUp,-45.32507,42.14256,78.65405,-57.28521,-107.715,154.0794,-37.41673,202408261746576506,
2-8,C_HumanVertical,2,Q1FrontUp,-45.0593,42.58339,78.44999,-57.61542,-107.714,154.0746,-37.43195,202408261746576824,
2-8,C_HumanVertical,2,Q1FrontUp,-44.86672,42.91894,78.2653,-57.80239,-107.7141,154.0731,-37.43781,202408261746577026,
2-8,C_HumanVertical,2,Q1FrontUp,-44.86672,42.91894,78.2653,-57.80239,-107.7141,154.0731,-37.43781,202408261746577304,
2-8,C_HumanVertical,2,Q1FrontUp,-44.86672,42.91894,78.2653,-57.80239,-107.7141,154.0731,-37.43781,202408261746577467,
2-8,C_HumanVertical,2,Q1FrontUp,-44.86672,42.91894,78.2653,-57.80239,-107.7141,154.0731,-37.43781,202408261746577631,
2-8,C_HumanVertical,2,Q1FrontUp,-44.86672,42.91894,78.2653,-57.80239,-107.7141,154.0731,-37.43781,202408261746577798,
2-8,C_HumanVertical,2,Q1FrontUp,-44.86672,42.91894,78.2653,-57.80239,-107.7141,154.0731,-37.43781,202408261746577991,
2-8,C_HumanVertical,2,Q1FrontUp,-44.86672,42.91894,78.2653,-57.80239,-107.7141,154.0731,-37.43781,202408261746578196,
2-8,C_HumanVertical,2,Q1FrontUp,-44.37859,43.34379,77.62574,-58.01888,-107.7123,154.0451,-37.44011,202408261746578469,
2-8,C_HumanVertical,2,Q1FrontUp,-44.19413,43.34275,77.4474,-58.02378,-107.7125,154.0208,-37.4392,202408261746578642,
2-8,C_HumanVertical,2,Q1FrontUp,-44.19413,43.34275,77.4474,-58.02378,-107.7125,154.0208,-37.4392,202408261746578859,
2-8,C_HumanVertical,2,Q1FrontUp,-43.5489,43.33933,76.94135,-58.1319,-107.713,153.9261,-37.43667,202408261746579172,
2-8,C_HumanVertical,2,Q1FrontUp,-43.5489,43.33933,76.94135,-58.1319,-107.713,153.9261,-37.43667,202408261746579337,
2-8,C_HumanVertical,2,Q1FrontUp,-43.5489,43.33933,76.94135,-58.1319,-107.713,153.9261,-37.43667,202408261746579630,
2-8,C_HumanVertical,2,Q1FrontUp,-43.5489,43.33933,76.94135,-58.1319,-107.713,153.9261,-37.43667,202408261746579795,
2-8,C_HumanVertical,2,Q1FrontUp,-43.5489,43.33933,76.94135,-58.1319,-107.713,153.9261,-37.43667,202408261746579970,
2-8,C_HumanVertical,2,Q1FrontUp,-43.5489,43.33933,76.94135,-58.1319,-107.713,153.9261,-37.43667,202408261746580144,
2-8,C_HumanVertical,2,Q1FrontUp,-43.5489,43.33933,76.94135,-58.1319,-107.713,153.9261,-37.43667,202408261746580352,
2-8,C_HumanVertical,2,Q1FrontUp,-41.90549,43.34734,75.79591,-58.52984,-107.7171,153.6083,-37.39566,202408261746580639,
2-8,C_HumanVertical,2,Q1FrontUp,-41.90549,43.34734,75.79591,-58.52984,-107.7171,153.6083,-37.39566,202408261746580800,
2-8,C_HumanVertical,2,Q1FrontUp,-40.31035,43.39088,74.74072,-59.06952,-107.7445,153.2232,-37.33599,202408261746581168,
2-8,C_HumanVertical,2,Q1FrontUp,-39.39415,43.45579,74.14715,-59.4066,-107.7642,153.0203,-37.2843,202408261746581366,
2-8,C_HumanVertical,2,Q1FrontUp,-38.38374,43.5021,73.52956,-59.82106,-107.7871,152.8262,-37.22951,202408261746581621,
2-8,C_HumanVertical,2,Q1FrontUp,-38.38374,43.5021,73.52956,-59.82106,-107.7871,152.8262,-37.22951,202408261746581804,
2-8,C_HumanVertical,2,Q1FrontUp,-38.38374,43.5021,73.52956,-59.82106,-107.7871,152.8262,-37.22951,202408261746582007,
2-8,C_HumanVertical,2,Q1FrontUp,-36.03067,43.69462,72.10171,-60.77023,-107.8605,152.3573,-37.08604,202408261746582304,
2-8,C_HumanVertical,2,Q1FrontUp,-36.03067,43.69462,72.10171,-60.77023,-107.8605,152.3573,-37.08604,202408261746582504,
2-8,C_HumanVertical,2,Q1FrontUp,-34.74251,43.79835,71.36101,-61.33068,-107.9134,152.0668,-37.01549,202408261746582794,
2-8,C_HumanVertical,2,Q1FrontUp,-33.38352,43.94319,70.57355,-61.90806,-107.9773,151.7938,-36.93192,202408261746582967,
2-8,C_HumanVertical,2,Q1FrontUp,-33.38352,43.94319,70.57355,-61.90806,-107.9773,151.7938,-36.93192,202408261746583138,
2-8,C_HumanVertical,2,Q1FrontUp,-33.38352,43.94319,70.57355,-61.90806,-107.9773,151.7938,-36.93192,202408261746583291,
2-8,C_HumanVertical,2,Q1FrontUp,-31.99415,44.0948,69.79444,-62.51831,-108.0551,151.5416,-36.83644,202408261746583481,
2-8,C_HumanVertical,2,Q1FrontUp,-30.56516,44.26305,69.02551,-63.1533,-108.142,151.2657,-36.74263,202408261746583703,
2-8,C_HumanVertical,2,Q1FrontUp,-29.03976,44.45701,68.19867,-63.83999,-108.2426,150.9491,-36.63511,202408261746583968,
2-8,C_HumanVertical,2,Q1FrontUp,-29.03976,44.45701,68.19867,-63.83999,-108.2426,150.9491,-36.63511,202408261746584144,
2-8,C_HumanVertical,2,Q1FrontUp,-27.54383,44.65634,67.39788,-64.52487,-108.3496,150.6725,-36.52698,202408261746584314,
2-8,C_HumanVertical,2,Q1FrontUp,-27.54383,44.65634,67.39788,-64.52487,-108.3496,150.6725,-36.52698,202408261746584490,
2-8,C_HumanVertical,2,Q1FrontUp,-26.04229,44.8534,66.61491,-65.22566,-108.4754,150.4136,-36.42021,202408261746584692,
2-8,C_HumanVertical,2,Q1FrontUp,-24.53314,45.08011,65.83661,-65.92168,-108.5885,150.1479,-36.30713,202408261746584970,
2-8,C_HumanVertical,2,Q1FrontUp,-24.53314,45.08011,65.83661,-65.92168,-108.5885,150.1479,-36.30713,202408261746585144,
2-8,C_HumanVertical,2,Q1FrontUp,-22.99361,45.30676,65.07365,-66.64792,-108.7088,149.8495,-36.18711,202408261746585362,
2-8,C_HumanVertical,2,Q1FrontUp,-21.53296,45.515,64.35419,-67.34101,-108.8117,149.5925,-36.06948,202408261746585662,
2-8,C_HumanVertical,2,Q1FrontUp,-21.53296,45.515,64.35419,-67.34101,-108.8117,149.5925,-36.06948,202408261746585887,
2-8,C_HumanVertical,2,Q1FrontUp,-20.05156,45.74495,63.6551,-68.04008,-108.8949,149.3573,-35.94917,202408261746586168,
2-8,C_HumanVertical,2,Q1FrontUp,-18.67817,45.96432,63.02408,-68.69394,-108.9522,149.1381,-35.84291,202408261746586492,
2-8,C_HumanVertical,2,Q1FrontUp,-17.35724,46.16787,62.43868,-69.344,-109.0212,148.9131,-35.7422,202408261746586866,
2-8,C_HumanVertical,2,Q1FrontUp,-16.08118,46.38236,61.89783,-69.96181,-109.0801,148.6851,-35.6418,202408261746587136,
2-8,C_HumanVertical,2,Q1FrontUp,-14.92885,46.57228,61.42248,-70.52751,-109.1334,148.5166,-35.55577,202408261746587306,
2-8,C_HumanVertical,2,Q1FrontUp,-14.92885,46.57228,61.42248,-70.52751,-109.1334,148.5166,-35.55577,202408261746587466,
2-8,C_HumanVertical,2,Q1FrontUp,-13.84983,46.75799,61.02263,-71.05976,-109.1773,148.3858,-35.49778,202408261746587633,
2-8,C_HumanVertical,2,Q1FrontUp,-13.84983,46.75799,61.02263,-71.05976,-109.1773,148.3858,-35.49778,202408261746587787,
2-8,C_HumanVertical,2,Q1FrontUp,-13.84983,46.75799,61.02263,-71.05976,-109.1773,148.3858,-35.49778,202408261746587975,
2-8,C_HumanVertical,2,Q1FrontUp,-13.17666,47.02462,61.08383,-71.47862,-109.1751,148.3938,-35.52111,202408261746588182,
2-8,C_HumanVertical,2,Q1FrontUp,-12.67793,47.27938,61.19073,-71.71908,-109.1651,148.4181,-35.53808,202408261746588366,
2-8,C_HumanVertical,2,Q1FrontUp,-12.31037,47.4538,61.32213,-71.83484,-109.1538,148.4471,-35.54739,202408261746588639,
2-8,C_HumanVertical,2,Q1FrontUp,-12.31037,47.4538,61.32213,-71.83484,-109.1538,148.4471,-35.54739,202408261746588795,
2-8,C_HumanVertical,2,Q1FrontUp,-12.08956,47.59545,61.41388,-71.7967,-109.1305,148.4881,-35.55789,202408261746588999,
2-8,C_HumanVertical,2,Q1FrontUp,-11.93792,47.67408,61.50492,-71.64672,-109.1034,148.5352,-35.56773,202408261746589193,
2-8,C_HumanVertical,2,Q1FrontUp,-11.93792,47.67408,61.50492,-71.64672,-109.1034,148.5352,-35.56773,202408261746589484,
2-8,C_HumanVertical,2,Q1FrontUp,-11.8351,47.73638,61.62722,-71.35191,-109.0634,148.6029,-35.57094,202408261746589651,
2-8,C_HumanVertical,2,Q1FrontUp,-11.7553,47.85189,61.76576,-70.88123,-109.0016,148.7175,-35.57619,202408261746590020,
2-8,C_HumanVertical,2,Q1FrontUp,-11.7553,47.85189,61.76576,-70.88123,-109.0016,148.7175,-35.57619,202408261746590173,
2-8,C_HumanVertical,2,Q1FrontUp,-11.7098,48.02052,61.94019,-70.24393,-108.9255,148.8597,-35.58379,202408261746590499,
2-8,C_HumanVertical,2,Q1FrontUp,-11.66144,48.16274,62.16637,-69.54336,-108.8531,149.0461,-35.58936,202408261746590718,
2-8,C_HumanVertical,2,Q1FrontUp,-11.58711,48.37714,62.43208,-68.63032,-108.7678,149.3176,-35.59651,202408261746590985,
2-8,C_HumanVertical,2,Q1FrontUp,-11.58711,48.37714,62.43208,-68.63032,-108.7678,149.3176,-35.59651,202408261746591163,
2-8,C_HumanVertical,2,Q1FrontUp,-11.50335,48.61029,62.72614,-67.64757,-108.673,149.6185,-35.6012,202408261746591380,
2-8,C_HumanVertical,2,Q1FrontUp,-11.39681,48.86242,63.05948,-66.5812,-108.5722,149.9185,-35.61054,202408261746591643,
2-8,C_HumanVertical,2,Q1FrontUp,-11.39681,48.86242,63.05948,-66.5812,-108.5722,149.9185,-35.61054,202408261746591803,
2-8,C_HumanVertical,2,Q1FrontUp,-11.23913,49.14474,63.41803,-65.37411,-108.4455,150.304,-35.61711,202408261746592129,
2-8,C_HumanVertical,2,Q1FrontUp,-11.0858,49.42165,63.81992,-64.15923,-108.3173,150.7278,-35.6207,202408261746592294,
2-8,C_HumanVertical,2,Q1FrontUp,-11.0858,49.42165,63.81992,-64.15923,-108.3173,150.7278,-35.6207,202408261746592504,
2-8,C_HumanVertical,2,Q1FrontUp,-10.90233,49.69167,64.26229,-62.88305,-108.1679,151.1378,-35.62399,202408261746592788,
2-8,C_HumanVertical,2,Q1FrontUp,-10.69085,49.97428,64.68264,-61.64546,-108.0239,151.5673,-35.62844,202408261746592961,
2-8,C_HumanVertical,2,Q1FrontUp,-10.69085,49.97428,64.68264,-61.64546,-108.0239,151.5673,-35.62844,202408261746593182,
2-8,C_HumanVertical,2,Q1FrontUp,-10.46277,50.24818,65.15185,-60.34419,-107.8529,152.025,-35.6364,202408261746593525,
2-8,C_HumanVertical,2,Q1FrontUp,-10.23866,50.47842,65.63156,-59.07479,-107.6842,152.4613,-35.6395,202408261746593847,
2-8,C_HumanVertical,2,Q1FrontUp,-10.01951,50.6967,66.08083,-57.88117,-107.5273,152.9011,-35.64175,202408261746594134,
2-8,C_HumanVertical,2,Q1FrontUp,-9.807096,50.87902,66.49635,-56.74311,-107.3714,153.2886,-35.64348,202408261746594318,
2-8,C_HumanVertical,2,Q1FrontUp,-9.807096,50.87902,66.49635,-56.74311,-107.3714,153.2886,-35.64348,202408261746594515,
2-8,C_HumanVertical,2,Q1FrontUp,-9.609033,51.04004,66.91056,-55.70938,-107.2211,153.6653,-35.6452,202408261746594674,
2-8,C_HumanVertical,2,Q1FrontUp,-9.435472,51.13451,67.29309,-54.77142,-107.0525,154.0313,-35.64746,202408261746594953,
2-8,C_HumanVertical,2,Q1FrontUp,-9.435472,51.13451,67.29309,-54.77142,-107.0525,154.0313,-35.64746,202408261746595130,
2-8,C_HumanVertical,2,Q1FrontUp,-9.378723,51.08434,67.51942,-54.21231,-107.0032,154.1507,-35.6475,202408261746595297,
2-8,C_HumanVertical,2,Q1FrontUp,-9.378723,51.08434,67.51942,-54.21231,-107.0032,154.1507,-35.6475,202408261746595465,
2-8,C_HumanVertical,2,Q1FrontUp,-9.465,50.92701,67.53358,-54.09207,-107.0059,154.1414,-35.6483,202408261746595709,
2-8,C_HumanVertical,2,Q1FrontUp,-9.482301,50.83303,67.53622,-53.99268,-107.0062,154.1406,-35.64817,202408261746595962,
2-8,C_HumanVertical,2,Q1FrontUp,-9.482301,50.83303,67.53622,-53.99268,-107.0062,154.1406,-35.64817,202408261746596150,
2-8,C_HumanVertical,2,Q1FrontUp,-9.484501,50.82195,67.52713,-53.91339,-107.0063,154.1405,-35.64813,202408261746596341,
2-8,C_HumanVertical,2,Q1FrontUp,-9.484501,50.82195,67.52713,-53.91339,-107.0063,154.1405,-35.64813,202408261746596501,
2-8,C_HumanVertical,2,Q1FrontUp,-9.440615,50.83985,67.51704,-53.82526,-107.0067,154.1418,-35.64951,202408261746596670,
2-8,C_HumanVertical,2,Q1FrontUp,-9.336043,50.98996,67.4765,-53.67158,-107.0056,154.1411,-35.65101,202408261746596963,
2-8,C_HumanVertical,2,Q1FrontUp,-9.176291,51.23182,67.40295,-53.47425,-107.0054,154.1423,-35.65969,202408261746597300,
2-8,C_HumanVertical,2,Q1FrontUp,-9.176291,51.23182,67.40295,-53.47425,-107.0054,154.1423,-35.65969,202408261746597458,
2-8,C_HumanVertical,2,Q1FrontUp,-8.978969,51.50899,67.31919,-53.22935,-107.0052,154.145,-35.66724,202408261746597641,
2-8,C_HumanVertical,2,Q1FrontUp,-8.978969,51.50899,67.31919,-53.22935,-107.0052,154.145,-35.66724,202408261746597845,
2-8,C_HumanVertical,2,Q1FrontUp,-8.70661,51.89009,67.24898,-52.85575,-106.9939,154.1665,-35.67514,202408261746598148,
2-8,C_HumanVertical,2,Q1FrontUp,-8.386541,52.33433,67.15014,-52.38424,-106.976,154.2142,-35.68657,202408261746598329,
2-8,C_HumanVertical,2,Q1FrontUp,-8.026923,52.85785,67.02531,-51.88719,-106.9492,154.2669,-35.70061,202408261746598661,
2-8,C_HumanVertical,2,Q1FrontUp,-8.026923,52.85785,67.02531,-51.88719,-106.9492,154.2669,-35.70061,202408261746598794,
2-8,C_HumanVertical,2,Q1FrontUp,-7.56245,53.51517,66.86696,-51.24412,-106.8938,154.3604,-35.71915,202408261746599051,
2-8,C_HumanVertical,2,Q1FrontUp,-7.066482,54.2103,66.70172,-50.56714,-106.8304,154.4757,-35.74031,202408261746599304,
2-8,C_HumanVertical,2,Q1FrontUp,-7.066482,54.2103,66.70172,-50.56714,-106.8304,154.4757,-35.74031,202408261746599518,
2-8,C_HumanVertical,2,Q1FrontUp,-6.540392,54.96565,66.52364,-49.81671,-106.7389,154.6182,-35.76563,202408261746599792,
2-8,C_HumanVertical,2,Q1FrontUp,-6.540392,54.96565,66.52364,-49.81671,-106.7389,154.6182,-35.76563,202408261746599972,
2-8,C_HumanVertical,2,Q1FrontUp,-5.947656,55.82545,66.30407,-48.98143,-106.6227,154.7994,-35.79577,202408261747000191,
2-8,C_HumanVertical,2,Q1FrontUp,-5.321608,56.73302,66.04903,-48.10898,-106.5136,155.0172,-35.82765,202408261747000463,
2-8,C_HumanVertical,2,Q1FrontUp,-4.700078,57.6654,65.81171,-47.23727,-106.4091,155.2164,-35.85987,202408261747000630,
2-8,C_HumanVertical,2,Q1FrontUp,-4.700078,57.6654,65.81171,-47.23727,-106.4091,155.2164,-35.85987,202408261747000825,
2-8,C_HumanVertical,2,Q1FrontUp,-4.00267,58.737,65.55066,-46.24784,-106.2772,155.4344,-35.89907,202408261747001029,
2-8,C_HumanVertical,2,Q1FrontUp,-4.00267,58.737,65.55066,-46.24784,-106.2772,155.4344,-35.89907,202408261747001210,
2-8,C_HumanVertical,2,Q1FrontUp,-3.323024,59.80071,65.2738,-45.28025,-106.1531,155.6514,-35.93431,202408261747001485,
2-8,C_HumanVertical,2,Q1FrontUp,-2.635045,60.88328,65.00318,-44.34002,-106.0287,155.8716,-35.97158,202408261747001813,
2-8,C_HumanVertical,2,Q1FrontUp,-1.92313,62.05551,64.67206,-43.31135,-105.8792,156.1231,-36.0075,202408261747001969,
2-8,C_HumanVertical,2,Q1FrontUp,-1.92313,62.05551,64.67206,-43.31135,-105.8792,156.1231,-36.0075,202408261747002141,
2-8,C_HumanVertical,2,Q1FrontUp,-1.235484,63.15565,64.36938,-42.40535,-105.7458,156.3533,-36.04308,202408261747002347,
2-8,C_HumanVertical,2,Q1FrontUp,-0.543175,64.3465,64.05383,-41.43344,-105.5881,156.5646,-36.08101,202408261747002535,
2-8,C_HumanVertical,2,Q1FrontUp,-0.543175,64.3465,64.05383,-41.43344,-105.5881,156.5646,-36.08101,202408261747002792,
2-8,C_HumanVertical,2,Q1FrontUp,0.1248678,65.49025,63.74838,-40.54252,-105.4533,156.7623,-36.12127,202408261747002967,
2-8,C_HumanVertical,2,Q1FrontUp,0.1248678,65.49025,63.74838,-40.54252,-105.4533,156.7623,-36.12127,202408261747003124,
2-8,C_HumanVertical,2,Q1FrontUp,0.7457728,66.60319,63.44958,-39.71649,-105.3365,156.9543,-36.15976,202408261747003314,
2-8,C_HumanVertical,2,Q1FrontUp,0.7457728,66.60319,63.44958,-39.71649,-105.3365,156.9543,-36.15976,202408261747003518,
2-8,C_HumanVertical,2,Q1FrontUp,1.353413,67.70762,63.13048,-38.92459,-105.2122,157.1474,-36.20073,202408261747003827,
2-8,C_HumanVertical,2,Q1FrontUp,1.925148,68.73165,62.84699,-38.24335,-105.1006,157.3392,-36.24052,202408261747004207,
2-8,C_HumanVertical,2,Q1FrontUp,2.422745,69.69958,62.59607,-37.6262,-105.0038,157.4835,-36.27835,202408261747004525,
2-8,C_HumanVertical,2,Q1FrontUp,2.883369,70.60622,62.32573,-37.11508,-104.9269,157.5746,-36.29341,202408261747004789,
2-8,C_HumanVertical,2,Q1FrontUp,2.962255,70.78934,61.56586,-37.91208,-105.1456,157.3274,-36.17417,202408261747004966,
2-8,C_HumanVertical,2,Q1FrontUp,2.962255,70.78934,61.56586,-37.91208,-105.1456,157.3274,-36.17417,202408261747005130,
2-8,C_HumanVertical,2,Q1FrontUp,2.962255,70.78934,61.56586,-37.91208,-105.1456,157.3274,-36.17417,202408261747005293,
2-8,C_HumanVertical,2,Q1FrontUp,2.900311,70.8625,60.85486,-39.12933,-105.3405,157.0915,-36.08524,202408261747005467,
2-8,C_HumanVertical,2,Q1FrontUp,2.93404,70.85698,60.31569,-40.363,-105.4968,156.9275,-36.00296,202408261747005682,
2-8,C_HumanVertical,2,Q1FrontUp,3.011044,70.81668,59.82307,-41.48577,-105.6178,156.7801,-35.95137,202408261747005849,
2-8,C_HumanVertical,2,Q1FrontUp,3.011044,70.81668,59.82307,-41.48577,-105.6178,156.7801,-35.95137,202408261747006156,
2-8,C_HumanVertical,2,Q1FrontUp,3.199602,70.66611,59.39468,-42.57612,-105.7389,156.6458,-35.905,202408261747006324,
2-8,C_HumanVertical,2,Q1FrontUp,3.199602,70.66611,59.39468,-42.57612,-105.7389,156.6458,-35.905,202408261747006502,
2-8,C_HumanVertical,2,Q1FrontUp,3.199602,70.66611,59.39468,-42.57612,-105.7389,156.6458,-35.905,202408261747006692,
2-8,C_HumanVertical,2,Q1FrontUp,3.589895,70.24212,58.61689,-44.59604,-106.038,156.4181,-35.80752,202408261747006970,
2-8,C_HumanVertical,2,Q1FrontUp,3.589895,70.24212,58.61689,-44.59604,-106.038,156.4181,-35.80752,202408261747007145,
2-8,C_HumanVertical,2,Q1FrontUp,3.798477,69.99777,58.29465,-45.55208,-106.2206,156.2798,-35.76097,202408261747007512,
2-8,C_HumanVertical,2,Q1FrontUp,3.980641,69.71887,58.05863,-46.48861,-106.3797,156.166,-35.71672,202408261747007681,
2-8,C_HumanVertical,2,Q1FrontUp,4.172494,69.41283,57.84063,-47.35749,-106.5315,156.0724,-35.67758,202408261747007969,
2-8,C_HumanVertical,2,Q1FrontUp,4.172494,69.41283,57.84063,-47.35749,-106.5315,156.0724,-35.67758,202408261747008137,
