mpan31415/robot-x-ar/study2/data/raw_all_participants/Participant_2-22_1.csv
ParticipantID,Condition,Trial,PostureID,J1,J2,J3,J4,J5,J6,J7,Timestamp,
2-22,A_Baseline,1,Q1FrontDown,-40.06099,26.49832,68.24832,-29.86207,-133.5885,151.2271,-41.40425,202408291727254830,
2-22,A_Baseline,1,Q1FrontDown,-40.06094,26.49813,68.24852,-29.86139,-133.5886,151.227,-41.41015,202408291727255082,
2-22,A_Baseline,1,Q1FrontDown,-40.06094,26.49813,68.24852,-29.86139,-133.5886,151.227,-41.41015,202408291727255271,
2-22,A_Baseline,1,Q1FrontDown,-40.06123,26.49832,68.24823,-29.86127,-133.5885,151.2271,-41.41965,202408291727255453,
2-22,A_Baseline,1,Q1FrontDown,-40.06121,26.49838,68.24876,-29.8613,-133.5886,151.227,-41.42335,202408291727255777,
2-22,A_Baseline,1,Q1FrontDown,-40.0613,26.49872,68.25258,-29.86034,-133.5886,151.2269,-41.43582,202408291727256154,
2-22,A_Baseline,1,Q1FrontDown,-40.0613,26.49872,68.25258,-29.86034,-133.5886,151.2269,-41.43582,202408291727256472,
2-22,A_Baseline,1,Q1FrontDown,-40.06054,26.49889,68.26357,-29.85744,-133.5886,151.2272,-41.45765,202408291727256694,
2-22,A_Baseline,1,Q1FrontDown,-40.06065,26.49865,68.26638,-29.85548,-133.5886,151.2271,-41.47058,202408291727256922,
2-22,A_Baseline,1,Q1FrontDown,-40.06065,26.49865,68.26638,-29.85548,-133.5886,151.2271,-41.47058,202408291727257185,
2-22,A_Baseline,1,Q1FrontDown,-40.06082,26.49844,68.26933,-29.85111,-133.5886,151.227,-41.47983,202408291727257507,
2-22,A_Baseline,1,Q1FrontDown,-40.06082,26.49844,68.26933,-29.85111,-133.5886,151.227,-41.47983,202408291727257700,
2-22,A_Baseline,1,Q1FrontDown,-40.06095,26.49867,68.2723,-29.84485,-133.5888,151.227,-41.49324,202408291727257932,
2-22,A_Baseline,1,Q1FrontDown,-40.06074,26.49887,68.27525,-29.83931,-133.5888,151.2271,-41.50232,202408291727258088,
2-22,A_Baseline,1,Q1FrontDown,-40.06046,26.49877,68.27867,-29.83428,-133.5886,151.227,-41.51279,202408291727258369,
2-22,A_Baseline,1,Q1FrontDown,-40.06068,26.49875,68.28211,-29.82829,-133.5888,151.2271,-41.5225,202408291727258695,
2-22,A_Baseline,1,Q1FrontDown,-40.06063,26.49844,68.28363,-29.8207,-133.5886,151.2271,-41.53107,202408291727259040,
2-22,A_Baseline,1,Q1FrontDown,-40.06063,26.49844,68.28363,-29.8207,-133.5886,151.2271,-41.53107,202408291727259271,
2-22,A_Baseline,1,Q1FrontDown,-40.06068,26.49861,68.28398,-29.81234,-133.5887,151.2271,-41.53765,202408291727259576,
2-22,A_Baseline,1,Q1FrontDown,-40.06045,26.49865,68.28402,-29.80354,-133.5886,151.2271,-41.54241,202408291727259831,
2-22,A_Baseline,1,Q1FrontDown,-40.06068,26.49875,68.28396,-29.79626,-133.5887,151.227,-41.55092,202408291727259998,
2-22,A_Baseline,1,Q1FrontDown,-40.06068,26.49875,68.28396,-29.79626,-133.5887,151.227,-41.55092,202408291727260180,
2-22,A_Baseline,1,Q1FrontDown,-40.06068,26.49875,68.28396,-29.79626,-133.5887,151.227,-41.55092,202408291727260432,
2-22,A_Baseline,1,Q1FrontDown,-40.06028,26.49874,68.28443,-29.78261,-133.5889,151.227,-41.55574,202408291727260712,
2-22,A_Baseline,1,Q1FrontDown,-40.06028,26.49874,68.28443,-29.78261,-133.5889,151.227,-41.55574,202408291727261080,
2-22,A_Baseline,1,Q1FrontDown,-40.05975,26.49869,68.28443,-29.76616,-133.5887,151.227,-41.55831,202408291727261389,
2-22,A_Baseline,1,Q1FrontDown,-40.05986,26.49878,68.28483,-29.758,-133.589,151.227,-41.55844,202408291727261663,
2-22,A_Baseline,1,Q1FrontDown,-40.05964,26.49861,68.28514,-29.75086,-133.589,151.2273,-41.55866,202408291727262020,
2-22,A_Baseline,1,Q1FrontDown,-40.06,26.49858,68.28503,-29.74641,-133.5891,151.227,-41.55911,202408291727262348,
2-22,A_Baseline,1,Q1FrontDown,-40.06,26.49858,68.28503,-29.74641,-133.5891,151.227,-41.55911,202408291727262536,
2-22,A_Baseline,1,Q1FrontDown,-40.0598,26.4987,68.28539,-29.74452,-133.5891,151.2273,-41.56145,202408291727262774,
2-22,A_Baseline,1,Q1FrontDown,-40.05981,26.4985,68.28616,-29.74219,-133.589,151.2272,-41.56178,202408291727263031,
2-22,A_Baseline,1,Q1FrontDown,-40.05981,26.4985,68.28616,-29.74219,-133.589,151.2272,-41.56178,202408291727263201,
2-22,A_Baseline,1,Q1FrontDown,-40.05977,26.49837,68.28699,-29.74098,-133.5891,151.227,-41.562,202408291727263365,
2-22,A_Baseline,1,Q1FrontDown,-40.05977,26.49837,68.28699,-29.74098,-133.5891,151.227,-41.562,202408291727263548,
2-22,A_Baseline,1,Q1FrontDown,-40.05979,26.49869,68.28767,-29.74082,-133.5887,151.2273,-41.56284,202408291727263722,
2-22,A_Baseline,1,Q1FrontDown,-40.0596,26.49873,68.2879,-29.74057,-133.589,151.227,-41.56334,202408291727264005,
2-22,A_Baseline,1,Q1FrontDown,-40.05996,26.49885,68.28804,-29.74022,-133.5891,151.2271,-41.56309,202408291727264389,
2-22,A_Baseline,1,Q1FrontDown,-40.05991,26.49848,68.28862,-29.74026,-133.589,151.2271,-41.56349,202408291727264676,
2-22,A_Baseline,1,Q1FrontDown,-40.05991,26.49848,68.28862,-29.74026,-133.589,151.2271,-41.56349,202408291727264847,
2-22,A_Baseline,1,Q1FrontDown,-40.06059,26.4987,68.30151,-29.73999,-133.5891,151.2271,-41.56389,202408291727265193,
2-22,A_Baseline,1,Q1FrontDown,-40.0611,26.49887,68.31898,-29.73995,-133.5892,151.2271,-41.56446,202408291727265381,
2-22,A_Baseline,1,Q1FrontDown,-40.0611,26.49887,68.31898,-29.73995,-133.5892,151.2271,-41.56446,202408291727265569,
2-22,A_Baseline,1,Q1FrontDown,-40.0611,26.49887,68.31898,-29.73995,-133.5892,151.2271,-41.56446,202408291727265776,
2-22,A_Baseline,1,Q1FrontDown,-40.07729,26.49877,68.38113,-29.74296,-133.5889,151.2274,-41.56423,202408291727266157,
2-22,A_Baseline,1,Q1FrontDown,-40.08875,26.49874,68.41714,-29.74331,-133.589,151.2275,-41.56424,202408291727266337,
2-22,A_Baseline,1,Q1FrontDown,-40.08875,26.49874,68.41714,-29.74331,-133.589,151.2275,-41.56424,202408291727266523,
2-22,A_Baseline,1,Q1FrontDown,-40.10472,26.4985,68.45571,-29.74298,-133.5892,151.227,-41.56452,202408291727266884,
2-22,A_Baseline,1,Q1FrontDown,-40.12529,26.49838,68.49357,-29.7426,-133.5891,151.2271,-41.56402,202408291727267178,
2-22,A_Baseline,1,Q1FrontDown,-40.15616,26.49706,68.5517,-29.74303,-133.5891,151.2276,-41.5643,202408291727267342,
2-22,A_Baseline,1,Q1FrontDown,-40.15616,26.49706,68.5517,-29.74303,-133.5891,151.2276,-41.5643,202408291727267599,
2-22,A_Baseline,1,Q1FrontDown,-40.18972,26.49769,68.6235,-29.74282,-133.5892,151.2277,-41.56416,202408291727267868,
2-22,A_Baseline,1,Q1FrontDown,-40.24687,26.49432,68.71663,-29.74338,-133.5836,151.2299,-41.5637,202408291727268093,
2-22,A_Baseline,1,Q1FrontDown,-40.30468,26.49428,68.81796,-29.74294,-133.5825,151.2303,-41.56349,202408291727268378,
2-22,A_Baseline,1,Q1FrontDown,-40.30468,26.49428,68.81796,-29.74294,-133.5825,151.2303,-41.56349,202408291727268532,
2-22,A_Baseline,1,Q1FrontDown,-40.3709,26.48979,68.92335,-29.74392,-133.5782,151.2333,-41.56356,202408291727268831,
2-22,A_Baseline,1,Q1FrontDown,-40.52917,26.48602,69.23096,-29.77368,-133.5292,151.2763,-41.56346,202408291727269033,
2-22,A_Baseline,1,Q1FrontDown,-40.52917,26.48602,69.23096,-29.77368,-133.5292,151.2763,-41.56346,202408291727269216,
2-22,A_Baseline,1,Q1FrontDown,-40.68399,26.47832,69.6116,-29.80902,-133.4328,151.3784,-41.56348,202408291727269483,
2-22,A_Baseline,1,Q1FrontDown,-40.831,26.46193,70.02498,-29.82997,-133.3184,151.5322,-41.56367,202408291727269656,
2-22,A_Baseline,1,Q1FrontDown,-40.831,26.46193,70.02498,-29.82997,-133.3184,151.5322,-41.56367,202408291727269822,
2-22,A_Baseline,1,Q1FrontDown,-40.99034,26.43544,70.53162,-29.85463,-133.1816,151.7834,-41.56347,202408291727269993,
2-22,A_Baseline,1,Q1FrontDown,-40.99034,26.43544,70.53162,-29.85463,-133.1816,151.7834,-41.56347,202408291727270200,
2-22,A_Baseline,1,Q1FrontDown,-40.99034,26.43544,70.53162,-29.85463,-133.1816,151.7834,-41.56347,202408291727270436,
2-22,A_Baseline,1,Q1FrontDown,-41.22825,26.27312,71.44035,-29.87258,-132.9672,152.2118,-41.56337,202408291727270709,
2-22,A_Baseline,1,Q1FrontDown,-41.22825,26.27312,71.44035,-29.87258,-132.9672,152.2118,-41.56337,202408291727270935,
2-22,A_Baseline,1,Q1FrontDown,-41.33995,26.15501,71.90704,-29.8717,-132.8467,152.4949,-41.56202,202408291727271192,
2-22,A_Baseline,1,Q1FrontDown,-41.43602,26.01537,72.31805,-29.86149,-132.6874,152.799,-41.55445,202408291727271383,
2-22,A_Baseline,1,Q1FrontDown,-41.52623,25.84589,72.75892,-29.84235,-132.4848,153.1278,-41.53949,202408291727271697,
2-22,A_Baseline,1,Q1FrontDown,-41.62743,25.63523,73.12493,-29.81712,-132.2701,153.4946,-41.53615,202408291727271990,
2-22,A_Baseline,1,Q1FrontDown,-41.62743,25.63523,73.12493,-29.81712,-132.2701,153.4946,-41.53615,202408291727272168,
2-22,A_Baseline,1,Q1FrontDown,-41.62743,25.63523,73.12493,-29.81712,-132.2701,153.4946,-41.53615,202408291727272334,
2-22,A_Baseline,1,Q1FrontDown,-41.72416,25.40842,73.50464,-29.79732,-132.06,153.8675,-41.53334,202408291727272596,
2-22,A_Baseline,1,Q1FrontDown,-41.81375,25.1713,73.82599,-29.76987,-131.8426,154.2065,-41.53153,202408291727272841,
2-22,A_Baseline,1,Q1FrontDown,-41.9519,24.91771,74.22095,-29.73751,-131.5904,154.5484,-41.53124,202408291727273038,
2-22,A_Baseline,1,Q1FrontDown,-41.9519,24.91771,74.22095,-29.73751,-131.5904,154.5484,-41.53124,202408291727273230,
2-22,A_Baseline,1,Q1FrontDown,-42.05303,24.67626,74.5648,-29.70911,-131.3323,154.8737,-41.53149,202408291727273385,
2-22,A_Baseline,1,Q1FrontDown,-42.05303,24.67626,74.5648,-29.70911,-131.3323,154.8737,-41.53149,202408291727273594,
2-22,A_Baseline,1,Q1FrontDown,-42.14185,24.44421,74.91823,-29.68161,-131.127,155.1936,-41.53223,202408291727273869,
2-22,A_Baseline,1,Q1FrontDown,-42.252,24.2088,75.24863,-29.6802,-130.9646,155.5108,-41.53444,202408291727274065,
2-22,A_Baseline,1,Q1FrontDown,-42.37846,23.95368,75.62736,-29.68315,-130.8226,155.8469,-41.55463,202408291727274327,
2-22,A_Baseline,1,Q1FrontDown,-42.51071,23.72352,76.00227,-29.69602,-130.7018,156.1982,-41.56645,202408291727274702,
2-22,A_Baseline,1,Q1FrontDown,-42.73347,23.50773,76.46159,-29.79615,-130.6935,156.5432,-41.57923,202408291727274995,
2-22,A_Baseline,1,Q1FrontDown,-42.73347,23.50773,76.46159,-29.79615,-130.6935,156.5432,-41.57923,202408291727275164,
2-22,A_Baseline,1,Q1FrontDown,-42.95943,23.31518,76.90241,-29.88873,-130.689,156.8538,-41.59052,202408291727275345,
2-22,A_Baseline,1,Q1FrontDown,-42.95943,23.31518,76.90241,-29.88873,-130.689,156.8538,-41.59052,202408291727275497,
2-22,A_Baseline,1,Q1FrontDown,-43.23233,23.12112,77.41559,-29.99738,-130.6885,157.1977,-41.60645,202408291727275773,
2-22,A_Baseline,1,Q1FrontDown,-43.4835,22.9473,77.85736,-30.0747,-130.6885,157.514,-41.61308,202408291727276023,
2-22,A_Baseline,1,Q1FrontDown,-43.77428,22.80519,78.3175,-30.20539,-130.6746,157.7573,-41.61732,202408291727276374,
2-22,A_Baseline,1,Q1FrontDown,-44.14278,22.65323,78.79585,-30.43026,-130.6525,157.9835,-41.61716,202408291727276663,
2-22,A_Baseline,1,Q1FrontDown,-44.14278,22.65323,78.79585,-30.43026,-130.6525,157.9835,-41.61716,202408291727276876,
2-22,A_Baseline,1,Q1FrontDown,-44.14278,22.65323,78.79585,-30.43026,-130.6525,157.9835,-41.61716,202408291727277086,
2-22,A_Baseline,1,Q1FrontDown,-45.08524,22.39174,79.9015,-31.25537,-130.4196,158.496,-41.61602,202408291727277296,
2-22,A_Baseline,1,Q1FrontDown,-45.08524,22.39174,79.9015,-31.25537,-130.4196,158.496,-41.61602,202408291727277508,
2-22,A_Baseline,1,Q1FrontDown,-45.08524,22.39174,79.9015,-31.25537,-130.4196,158.496,-41.61602,202408291727277701,
2-22,A_Baseline,1,Q1FrontDown,-45.61705,22.29416,80.47333,-31.82882,-130.2866,158.7326,-41.61427,202408291727277895,
2-22,A_Baseline,1,Q1FrontDown,-46.25714,22.22004,81.15345,-32.65646,-130.1478,158.8715,-41.60516,202408291727278187,
2-22,A_Baseline,1,Q1FrontDown,-46.91686,22.16366,81.85686,-33.6573,-129.9698,158.9567,-41.60302,202408291727278530,
2-22,A_Baseline,1,Q1FrontDown,-47.60728,22.15598,82.54444,-34.83611,-129.7817,159.0226,-41.60339,202408291727278668,
2-22,A_Baseline,1,Q1FrontDown,-47.60728,22.15598,82.54444,-34.83611,-129.7817,159.0226,-41.60339,202408291727278868,
2-22,A_Baseline,1,Q1FrontDown,-47.60728,22.15598,82.54444,-34.83611,-129.7817,159.0226,-41.60339,202408291727279038,
2-22,A_Baseline,1,Q1FrontDown,-48.19874,22.16377,83.16212,-35.98779,-129.5815,159.1004,-41.603,202408291727279219,
2-22,A_Baseline,1,Q1FrontDown,-48.7537,22.18224,83.72588,-37.2528,-129.4009,159.1381,-41.57065,202408291727279504,
2-22,A_Baseline,1,Q1FrontDown,-49.24918,22.23317,84.20081,-38.5744,-129.2654,159.1554,-41.5294,202408291727279846,
2-22,A_Baseline,1,Q1FrontDown,-49.14753,22.25549,84.11833,-39.08352,-129.2919,159.1714,-41.5334,202408291727280195,
2-22,A_Baseline,1,Q1FrontDown,-49.14753,22.25549,84.11833,-39.08352,-129.2919,159.1714,-41.5334,202408291727280434,
2-22,A_Baseline,1,Q1FrontDown,-48.82973,22.50108,84.07207,-39.65973,-129.2914,159.1718,-41.5341,202408291727280706,
2-22,A_Baseline,1,Q1FrontDown,-48.82973,22.50108,84.07207,-39.65973,-129.2914,159.1718,-41.5341,202408291727280873,
2-22,A_Baseline,1,Q1FrontDown,-48.84163,22.58867,84.08396,-39.95992,-129.2862,159.1683,-41.53369,202408291727281206,
2-22,A_Baseline,1,Q1FrontDown,-48.95521,22.68141,84.11407,-40.34921,-129.2546,159.1711,-41.53231,202408291727281406,
2-22,A_Baseline,1,Q1FrontDown,-48.95521,22.68141,84.11407,-40.34921,-129.2546,159.1711,-41.53231,202408291727281654,
2-22,A_Baseline,1,Q1FrontDown,-49.12415,22.67698,84.16186,-40.7394,-129.2233,159.1717,-41.53008,202408291727281824,
2-22,A_Baseline,1,Q1FrontDown,-49.37939,22.68642,84.29226,-41.2963,-129.1223,159.1676,-41.51389,202408291727282032,
2-22,A_Baseline,1,Q1FrontDown,-49.64575,22.71369,84.41753,-41.98952,-129.0202,159.1711,-41.49377,202408291727282335,
2-22,A_Baseline,1,Q1FrontDown,-49.64575,22.71369,84.41753,-41.98952,-129.0202,159.1711,-41.49377,202408291727282543,
2-22,A_Baseline,1,Q1FrontDown,-49.89445,22.76324,84.54823,-42.83394,-128.9241,159.1738,-41.46854,202408291727282821,
2-22,A_Baseline,1,Q1FrontDown,-49.89445,22.76324,84.54823,-42.83394,-128.9241,159.1738,-41.46854,202408291727283003,
2-22,A_Baseline,1,Q1FrontDown,-50.19439,22.82211,84.7329,-43.81971,-128.7872,159.1748,-41.43304,202408291727283198,
2-22,A_Baseline,1,Q1FrontDown,-50.43995,22.89275,84.90134,-44.78141,-128.6487,159.1773,-41.39248,202408291727283361,
2-22,A_Baseline,1,Q1FrontDown,-50.43995,22.89275,84.90134,-44.78141,-128.6487,159.1773,-41.39248,202408291727283569,
2-22,A_Baseline,1,Q1FrontDown,-50.68511,22.98377,85.05798,-45.88935,-128.5074,159.1881,-41.35217,202408291727283838,
2-22,A_Baseline,1,Q1FrontDown,-50.89577,23.10197,85.21344,-46.92411,-128.3796,159.1971,-41.31202,202408291727283996,
2-22,A_Baseline,1,Q1FrontDown,-50.89577,23.10197,85.21344,-46.92411,-128.3796,159.1971,-41.31202,202408291727284172,
2-22,A_Baseline,1,Q1FrontDown,-51.05574,23.24129,85.35973,-47.869,-128.2629,159.2087,-41.2797,202408291727284486,
2-22,A_Baseline,1,Q1FrontDown,-51.16113,23.37771,85.45438,-48.76172,-128.1666,159.2193,-41.25578,202408291727284745,
2-22,A_Baseline,1,Q1FrontDown,-51.023,23.47047,85.36105,-49.12644,-128.1932,159.2239,-41.26004,202408291727284997,
2-22,A_Baseline,1,Q1FrontDown,-51.023,23.47047,85.36105,-49.12644,-128.1932,159.2239,-41.26004,202408291727285233,
2-22,A_Baseline,1,Q1FrontDown,-50.88115,23.60072,85.27313,-49.36685,-128.1957,159.2181,-41.26148,202408291727285523,
2-22,A_Baseline,1,Q1FrontDown,-50.78282,23.69445,85.19402,-49.52587,-128.194,159.2018,-41.26094,202408291727285734,
2-22,A_Baseline,1,Q1FrontDown,-50.73676,23.76148,85.06154,-49.67706,-128.1932,159.16,-41.26063,202408291727286020,
2-22,A_Baseline,1,Q1FrontDown,-50.73676,23.76148,85.06154,-49.67706,-128.1932,159.16,-41.26063,202408291727286185,
2-22,A_Baseline,1,Q1FrontDown,-50.73676,23.76148,85.06154,-49.67706,-128.1932,159.16,-41.26063,202408291727286353,
2-22,A_Baseline,1,Q1FrontDown,-50.73878,23.76874,84.7405,-49.99744,-128.1882,159.011,-41.25675,202408291727286699,
2-22,A_Baseline,1,Q1FrontDown,-50.72961,23.7657,84.5052,-50.28642,-128.1581,158.8671,-41.22442,202408291727286993,
2-22,A_Baseline,1,Q1FrontDown,-50.67873,23.77054,84.17958,-50.69362,-128.1107,158.7075,-41.18172,202408291727287318,
2-22,A_Baseline,1,Q1FrontDown,-50.67873,23.77054,84.17958,-50.69362,-128.1107,158.7075,-41.18172,202408291727287650,
2-22,A_Baseline,1,Q1FrontDown,-50.62056,23.77797,83.8071,-51.21793,-128.0728,158.5345,-41.13555,202408291727287901,
2-22,A_Baseline,1,Q1FrontDown,-50.52269,23.83636,83.33599,-51.90125,-127.9907,158.2963,-41.05627,202408291727288197,
2-22,A_Baseline,1,Q1FrontDown,-50.39039,23.90512,82.81195,-52.68184,-127.894,158.0051,-40.95892,202408291727288413,
2-22,A_Baseline,1,Q1FrontDown,-50.24212,23.97458,82.24562,-53.53012,-127.8026,157.6799,-40.859,202408291727288698,
2-22,A_Baseline,1,Q1FrontDown,-50.24212,23.97458,82.24562,-53.53012,-127.8026,157.6799,-40.859,202408291727288868,
2-22,A_Baseline,1,Q1FrontDown,-50.08494,24.08408,81.6022,-54.52866,-127.6642,157.3396,-40.73575,202408291727289133,
2-22,A_Baseline,1,Q1FrontDown,-49.88899,24.21938,80.91866,-55.60991,-127.4984,156.9764,-40.59391,202408291727289331,
2-22,A_Baseline,1,Q1FrontDown,-49.69499,24.37593,80.23116,-56.71315,-127.3341,156.5829,-40.45127,202408291727289634,
2-22,A_Baseline,1,Q1FrontDown,-49.69499,24.37593,80.23116,-56.71315,-127.3341,156.5829,-40.45127,202408291727289804,
2-22,A_Baseline,1,Q1FrontDown,-49.45201,24.58801,79.47769,-57.92498,-127.1225,156.1901,-40.29826,202408291727290059,
2-22,A_Baseline,1,Q1FrontDown,-49.23435,24.81358,78.76723,-59.09708,-126.9021,155.8151,-40.14695,202408291727290297,
2-22,A_Baseline,1,Q1FrontDown,-49.23435,24.81358,78.76723,-59.09708,-126.9021,155.8151,-40.14695,202408291727290510,
2-22,A_Baseline,1,Q1FrontDown,-49.01482,25.06971,78.03857,-60.26471,-126.7189,155.417,-40.00691,202408291727290655,
2-22,A_Baseline,1,Q1FrontDown,-49.01482,25.06971,78.03857,-60.26471,-126.7189,155.417,-40.00691,202408291727290875,
2-22,A_Baseline,1,Q1FrontDown,-48.79603,25.35803,77.32018,-61.4104,-126.5406,155.0455,-39.8564,202408291727291066,
2-22,A_Baseline,1,Q1FrontDown,-48.58043,25.67978,76.61894,-62.54734,-126.3648,154.7017,-39.71706,202408291727291332,
2-22,A_Baseline,1,Q1FrontDown,-48.58043,25.67978,76.61894,-62.54734,-126.3648,154.7017,-39.71706,202408291727291632,
2-22,A_Baseline,1,Q1FrontDown,-48.39897,25.98682,75.97787,-63.61575,-126.2139,154.3559,-39.59227,202408291727291824,
2-22,A_Baseline,1,Q1FrontDown,-48.23392,26.32414,75.38911,-64.57123,-126.0814,154.0587,-39.46958,202408291727292007,
2-22,A_Baseline,1,Q1FrontDown,-48.23392,26.32414,75.38911,-64.57123,-126.0814,154.0587,-39.46958,202408291727292285,
2-22,A_Baseline,1,Q1FrontDown,-48.23392,26.32414,75.38911,-64.57123,-126.0814,154.0587,-39.46958,202408291727292500,
2-22,A_Baseline,1,Q1FrontDown,-48.04144,27.06164,74.80228,-65.65638,-126.0876,153.9487,-39.43224,202408291727292699,
2-22,A_Baseline,1,Q1FrontDown,-48.04144,27.06164,74.80228,-65.65638,-126.0876,153.9487,-39.43224,202408291727292845,
2-22,A_Baseline,1,Q1FrontDown,-48.04144,27.06164,74.80228,-65.65638,-126.0876,153.9487,-39.43224,202408291727293064,
2-22,A_Baseline,1,Q1FrontDown,-47.97037,27.41075,74.6169,-65.88726,-126.0875,153.949,-39.43264,202408291727293264,
2-22,A_Baseline,1,Q1FrontDown,-47.90327,27.66048,74.41993,-65.96394,-126.0866,153.9484,-39.43192,202408291727293547,
2-22,A_Baseline,1,Q1FrontDown,-47.88603,27.8257,74.19471,-66.01403,-126.0851,153.9459,-39.43171,202408291727293857,
2-22,A_Baseline,1,Q1FrontDown,-47.85839,27.85978,73.88431,-66.01427,-126.0751,153.9268,-39.42872,202408291727294080,
2-22,A_Baseline,1,Q1FrontDown,-47.783,27.85353,73.51978,-65.98689,-126.0413,153.873,-39.40266,202408291727294360,
2-22,A_Baseline,1,Q1FrontDown,-47.67395,27.86036,73.10885,-65.98965,-126.0197,153.7722,-39.37249,202408291727294672,
2-22,A_Baseline,1,Q1FrontDown,-47.67395,27.86036,73.10885,-65.98965,-126.0197,153.7722,-39.37249,202408291727294905,
2-22,A_Baseline,1,Q1FrontDown,-47.45038,27.87084,72.50594,-66.03083,-125.9468,153.6315,-39.31219,202408291727295223,
2-22,A_Baseline,1,Q1FrontDown,-47.17627,27.88507,71.84498,-66.07404,-125.8313,153.4771,-39.2367,202408291727295432,
2-22,A_Baseline,1,Q1FrontDown,-46.909,27.90178,71.13028,-66.15565,-125.716,153.2559,-39.14231,202408291727295714,
2-22,A_Baseline,1,Q1FrontDown,-46.50385,27.94805,70.19129,-66.31296,-125.5425,152.9965,-39.00362,202408291727296016,
2-22,A_Baseline,1,Q1FrontDown,-46.12313,28.0023,69.24517,-66.505,-125.3521,152.7572,-38.85894,202408291727296401,
2-22,A_Baseline,1,Q1FrontDown,-46.12313,28.0023,69.24517,-66.505,-125.3521,152.7572,-38.85894,202408291727296563,
2-22,A_Baseline,1,Q1FrontDown,-45.73958,28.07519,68.22269,-66.73158,-125.1487,152.4745,-38.70411,202408291727296832,
2-22,A_Baseline,1,Q1FrontDown,-45.29514,28.18915,67.09879,-66.98743,-124.8752,152.1423,-38.51288,202408291727297006,
2-22,A_Baseline,1,Q1FrontDown,-45.29514,28.18915,67.09879,-66.98743,-124.8752,152.1423,-38.51288,202408291727297176,
2-22,A_Baseline,1,Q1FrontDown,-44.80842,28.33877,65.90812,-67.29134,-124.5666,151.8009,-38.29841,202408291727297536,
2-22,A_Baseline,1,Q1FrontDown,-44.80842,28.33877,65.90812,-67.29134,-124.5666,151.8009,-38.29841,202408291727297754,
2-22,A_Baseline,1,Q1FrontDown,-43.89008,28.78474,63.47573,-67.92313,-124.014,151.1152,-37.8871,202408291727297996,
2-22,A_Baseline,1,Q1FrontDown,-43.89008,28.78474,63.47573,-67.92313,-124.014,151.1152,-37.8871,202408291727298263,
2-22,A_Baseline,1,Q1FrontDown,-43.41719,29.05333,62.22193,-68.28049,-123.7159,150.7512,-37.67576,202408291727298491,
2-22,A_Baseline,1,Q1FrontDown,-42.9993,29.3469,61.03233,-68.61318,-123.4413,150.4317,-37.46645,202408291727298733,
2-22,A_Baseline,1,Q1FrontDown,-42.60183,29.66926,59.82887,-68.96278,-123.19,150.0905,-37.24886,202408291727298979,
2-22,A_Baseline,1,Q1FrontDown,-42.60183,29.66926,59.82887,-68.96278,-123.19,150.0905,-37.24886,202408291727299198,
2-22,A_Baseline,1,Q1FrontDown,-42.23987,30.03503,58.68083,-69.30965,-122.9427,149.7409,-37.04169,202408291727299513,
2-22,A_Baseline,1,Q1FrontDown,-41.91914,30.37874,57.61258,-69.64045,-122.692,149.4381,-36.85294,202408291727299764,
2-22,A_Baseline,1,Q1FrontDown,-41.64891,30.75,56.65871,-69.93616,-122.4596,149.166,-36.67395,202408291727300075,
2-22,A_Baseline,1,Q1FrontDown,-41.64891,30.75,56.65871,-69.93616,-122.4596,149.166,-36.67395,202408291727300310,
2-22,A_Baseline,1,Q1FrontDown,-41.64891,30.75,56.65871,-69.93616,-122.4596,149.166,-36.67395,202408291727300489,
2-22,A_Baseline,1,Q1FrontDown,-41.68512,31.58281,55.8033,-70.37301,-122.4068,149.009,-36.61856,202408291727300739,
2-22,A_Baseline,1,Q1FrontDown,-41.72592,31.93965,55.60395,-70.46746,-122.4067,149.0101,-36.62015,202408291727301068,
2-22,A_Baseline,1,Q1FrontDown,-41.75048,32.21683,55.40868,-70.48605,-122.4063,149.0097,-36.62083,202408291727301360,
2-22,A_Baseline,1,Q1FrontDown,-41.75552,32.38814,55.23608,-70.51879,-122.4042,149.0108,-36.62064,202408291727301669,
2-22,A_Baseline,1,Q1FrontDown,-41.75552,32.38814,55.23608,-70.51879,-122.4042,149.0108,-36.62064,202408291727301829,
2-22,A_Baseline,1,Q1FrontDown,-41.74821,32.43215,55.01682,-70.51768,-122.402,149.0107,-36.62085,202408291727302011,
2-22,A_Baseline,1,Q1FrontDown,-41.74821,32.43215,55.01682,-70.51768,-122.402,149.0107,-36.62085,202408291727302263,
2-22,A_Baseline,1,Q1FrontDown,-41.71219,32.43209,54.75929,-70.49815,-122.3842,149.0101,-36.62028,202408291727302507,
2-22,A_Baseline,1,Q1FrontDown,-41.64191,32.4252,54.49092,-70.48767,-122.3737,149.0114,-36.61936,202408291727302679,
2-22,A_Baseline,1,Q1FrontDown,-41.64191,32.4252,54.49092,-70.48767,-122.3737,149.0114,-36.61936,202408291727302937,
2-22,A_Baseline,1,Q1FrontDown,-41.49883,32.3753,54.09649,-70.47655,-122.3374,149.0125,-36.6185,202408291727303198,
2-22,A_Baseline,1,Q1FrontDown,-41.35452,32.29548,53.65578,-70.45515,-122.2828,149.0126,-36.61327,202408291727303405,
2-22,A_Baseline,1,Q1FrontDown,-41.17985,32.21675,53.12955,-70.42427,-122.2175,149.0128,-36.59729,202408291727303711,
2-22,A_Baseline,1,Q1FrontDown,-40.9339,32.14266,52.485,-70.39986,-122.1037,149.0128,-36.57211,202408291727303958,
2-22,A_Baseline,1,Q1FrontDown,-40.9339,32.14266,52.485,-70.39986,-122.1037,149.0128,-36.57211,202408291727304186,
2-22,A_Baseline,1,Q1FrontDown,-40.9339,32.14266,52.485,-70.39986,-122.1037,149.0128,-36.57211,202408291727304392,
2-22,A_Baseline,1,Q1FrontDown,-40.39151,31.98775,50.93607,-70.38792,-121.792,149.0141,-36.4893,202408291727304677,
2-22,A_Baseline,1,Q1FrontDown,-40.0844,31.89665,49.97923,-70.38304,-121.5791,149.0132,-36.41861,202408291727304976,
2-22,A_Baseline,1,Q1FrontDown,-40.0844,31.89665,49.97923,-70.38304,-121.5791,149.0132,-36.41861,202408291727305168,
2-22,A_Baseline,1,Q1FrontDown,-39.74362,31.80797,48.9012,-70.37381,-121.3278,149.0134,-36.33797,202408291727305384,
2-22,A_Baseline,1,Q1FrontDown,-39.74362,31.80797,48.9012,-70.37381,-121.3278,149.0134,-36.33797,202408291727305610,
2-22,A_Baseline,1,Q1FrontDown,-39.42022,31.73267,47.80856,-70.37234,-121.086,149.014,-36.25128,202408291727305860,
2-22,A_Baseline,1,Q1FrontDown,-39.03644,31.66155,46.55644,-70.37222,-120.788,149.0156,-36.13672,202408291727306090,
2-22,A_Baseline,1,Q1FrontDown,-38.64713,31.58953,45.21993,-70.36964,-120.4375,149.0146,-36.00473,202408291727306331,
2-22,A_Baseline,1,Q1FrontDown,-38.64713,31.58953,45.21993,-70.36964,-120.4375,149.0146,-36.00473,202408291727306532,
2-22,A_Baseline,1,Q1FrontDown,-38.2886,31.53973,43.8483,-70.36749,-120.0761,149.0138,-35.88144,202408291727306727,
2-22,A_Baseline,1,Q1FrontDown,-37.88993,31.49348,42.35285,-70.36216,-119.6842,149.0133,-35.74392,202408291727306990,
2-22,A_Baseline,1,Q1FrontDown,-37.88993,31.49348,42.35285,-70.36216,-119.6842,149.0133,-35.74392,202408291727307139,
2-22,A_Baseline,1,Q1FrontDown,-37.46986,31.477,40.79143,-70.35741,-119.2689,149.0143,-35.59711,202408291727307319,
2-22,A_Baseline,1,Q1FrontDown,-37.46986,31.477,40.79143,-70.35741,-119.2689,149.0143,-35.59711,202408291727307482,
2-22,A_Baseline,1,Q1FrontDown,-37.08746,31.46839,39.24481,-70.35572,-118.8678,149.0143,-35.45654,202408291727307770,
2-22,A_Baseline,1,Q1FrontDown,-36.68489,31.46737,37.56534,-70.35189,-118.4231,149.015,-35.28953,202408291727308023,
2-22,A_Baseline,1,Q1FrontDown,-36.68489,31.46737,37.56534,-70.35189,-118.4231,149.015,-35.28953,202408291727308195,
2-22,A_Baseline,1,Q1FrontDown,-36.29133,31.47094,35.84784,-70.35148,-117.9165,149.0136,-35.1257,202408291727308365,
2-22,A_Baseline,1,Q1FrontDown,-36.29133,31.47094,35.84784,-70.35148,-117.9165,149.0136,-35.1257,202408291727308535,
2-22,A_Baseline,1,Q1FrontDown,-35.91589,31.48171,34.17119,-70.35744,-117.4631,149.0097,-34.95079,202408291727308844,
2-22,A_Baseline,1,Q1FrontDown,-35.91589,31.48171,34.17119,-70.35744,-117.4631,149.0097,-34.95079,202408291727309063,
2-22,A_Baseline,1,Q1FrontDown,-35.18323,31.49702,30.61405,-70.35937,-116.518,149.0071,-34.57113,202408291727309334,
2-22,A_Baseline,1,Q1FrontDown,-35.18323,31.49702,30.61405,-70.35937,-116.518,149.0071,-34.57113,202408291727309499,
2-22,A_Baseline,1,Q1FrontDown,-34.87135,31.503,28.92187,-70.36272,-116.0481,149.0067,-34.39056,202408291727309668,
2-22,A_Baseline,1,Q1FrontDown,-34.87135,31.503,28.92187,-70.36272,-116.0481,149.0067,-34.39056,202408291727309837,
2-22,A_Baseline,1,Q1FrontDown,-34.53817,31.50589,27.19057,-70.36351,-115.5411,149.0043,-34.19473,202408291727310030,
2-22,A_Baseline,1,Q1FrontDown,-34.53817,31.50589,27.19057,-70.36351,-115.5411,149.0043,-34.19473,202408291727310272,
2-22,A_Baseline,1,Q1FrontDown,-34.23627,31.50894,25.52299,-70.36152,-115.0695,149.0027,-33.99525,202408291727310540,
2-22,A_Baseline,1,Q1FrontDown,-33.96795,31.51913,23.84608,-70.36066,-114.6079,148.993,-33.78646,202408291727310719,
2-22,A_Baseline,1,Q1FrontDown,-33.96795,31.51913,23.84608,-70.36066,-114.6079,148.993,-33.78646,202408291727310958,
2-22,A_Baseline,1,Q1FrontDown,-33.71336,31.52263,22.23478,-70.36186,-114.1637,148.9844,-33.59444,202408291727311196,
2-22,A_Baseline,1,Q1FrontDown,-33.49498,31.5252,20.66855,-70.36172,-113.7012,148.977,-33.40765,202408291727311386,
2-22,A_Baseline,1,Q1FrontDown,-33.30985,31.5281,19.23298,-70.36172,-113.2635,148.9711,-33.23981,202408291727311686,
2-22,A_Baseline,1,Q1FrontDown,-33.30985,31.5281,19.23298,-70.36172,-113.2635,148.9711,-33.23981,202408291727311846,
2-22,A_Baseline,1,Q1FrontDown,-33.12881,31.52917,17.85116,-70.36179,-112.8641,148.9613,-33.06678,202408291727312006,
2-22,A_Baseline,1,Q1FrontDown,-33.12881,31.52917,17.85116,-70.36179,-112.8641,148.9613,-33.06678,202408291727312179,
2-22,A_Baseline,1,Q1FrontDown,-32.98093,31.53048,16.53757,-70.36121,-112.4887,148.9494,-32.89816,202408291727312388,
2-22,A_Baseline,1,Q1FrontDown,-32.98093,31.53048,16.53757,-70.36121,-112.4887,148.9494,-32.89816,202408291727312588,
2-22,A_Baseline,1,Q1FrontDown,-32.8714,31.53009,15.36062,-70.36193,-112.1448,148.9301,-32.72707,202408291727312860,
2-22,A_Baseline,1,Q1FrontDown,-32.78267,31.52983,14.2982,-70.35837,-111.8281,148.9141,-32.57004,202408291727312994,
2-22,A_Baseline,1,Q1FrontDown,-32.78267,31.52983,14.2982,-70.35837,-111.8281,148.9141,-32.57004,202408291727313208,
2-22,A_Baseline,1,Q1FrontDown,-32.87131,31.54614,13.57479,-70.36292,-111.7216,148.8763,-32.51664,202408291727313546,
2-22,A_Baseline,1,Q1FrontDown,-33.16473,31.61489,13.39662,-70.37141,-111.7239,148.8345,-32.51778,202408291727313775,
2-22,A_Baseline,1,Q1FrontDown,-33.34806,31.64703,13.22539,-70.38923,-111.7243,148.8259,-32.51795,202408291727314039,
2-22,A_Baseline,1,Q1FrontDown,-33.34806,31.64703,13.22539,-70.38923,-111.7243,148.8259,-32.51795,202408291727314213,
2-22,A_Baseline,1,Q1FrontDown,-33.45305,31.65898,13.033,-70.41416,-111.7243,148.8233,-32.51828,202408291727314481,
2-22,A_Baseline,1,Q1FrontDown,-33.45823,31.65749,12.84431,-70.43694,-111.7234,148.8229,-32.51789,202408291727314701,
2-22,A_Baseline,1,Q1FrontDown,-33.4002,31.65674,12.61306,-70.45755,-111.7233,148.8233,-32.51774,202408291727314912,
2-22,A_Baseline,1,Q1FrontDown,-33.4002,31.65674,12.61306,-70.45755,-111.7233,148.8233,-32.51774,202408291727315142,
2-22,A_Baseline,1,Q1FrontDown,-33.4002,31.65674,12.61306,-70.45755,-111.7233,148.8233,-32.51774,202408291727315330,
2-22,A_Baseline,1,Q1FrontDown,-33.28624,31.64806,12.30552,-70.49387,-111.7203,148.8244,-32.51767,202408291727315585,
2-22,A_Baseline,1,Q1FrontDown,-33.10509,31.61693,11.92903,-70.55,-111.7166,148.8247,-32.51758,202408291727315769,
2-22,A_Baseline,1,Q1FrontDown,-32.86246,31.56086,11.40245,-70.62541,-111.6969,148.8248,-32.5171,202408291727316051,
2-22,A_Baseline,1,Q1FrontDown,-32.86246,31.56086,11.40245,-70.62541,-111.6969,148.8248,-32.5171,202408291727316332,
2-22,A_Baseline,1,Q1FrontDown,-32.61189,31.51197,10.8112,-70.71094,-111.66,148.8258,-32.5158,202408291727316549,
2-22,A_Baseline,1,Q1FrontDown,-32.33318,31.44859,10.12973,-70.82614,-111.6192,148.8251,-32.51453,202408291727316833,
2-22,A_Baseline,1,Q1FrontDown,-32.33318,31.44859,10.12973,-70.82614,-111.6192,148.8251,-32.51453,202408291727317101,
2-22,A_Baseline,1,Q1FrontDown,-31.66739,31.20429,8.321793,-71.22762,-111.4278,148.8267,-32.48428,202408291727317321,
2-22,A_Baseline,1,Q1FrontDown,-31.66739,31.20429,8.321793,-71.22762,-111.4278,148.8267,-32.48428,202408291727317504,
2-22,A_Baseline,1,Q1FrontDown,-31.32125,31.06324,7.324388,-71.44225,-111.3202,148.8245,-32.46507,202408291727317711,
2-22,A_Baseline,1,Q1FrontDown,-31.32125,31.06324,7.324388,-71.44225,-111.3202,148.8245,-32.46507,202408291727317856,
2-22,A_Baseline,1,Q1FrontDown,-30.95378,30.90037,6.147484,-71.70646,-111.1537,148.8238,-32.42596,202408291727318157,
2-22,A_Baseline,1,Q1FrontDown,-30.95378,30.90037,6.147484,-71.70646,-111.1537,148.8238,-32.42596,202408291727318383,
2-22,A_Baseline,1,Q1FrontDown,-30.26144,30.55911,3.604936,-72.23289,-110.8206,148.8177,-32.32388,202408291727318739,
2-22,A_Baseline,1,Q1FrontDown,-29.88855,30.34691,2.199007,-72.53177,-110.6287,148.8029,-32.25825,202408291727319121,
2-22,A_Baseline,1,Q1FrontDown,-29.54925,30.13261,0.7290236,-72.8318,-110.4196,148.7926,-32.18857,202408291727319347,
2-22,A_Baseline,1,Q1FrontDown,-29.25027,29.91727,-0.7270724,-73.12585,-110.2263,148.7674,-32.12026,202408291727319668,
2-22,A_Baseline,1,Q1FrontDown,-28.95878,29.66684,-2.235964,-73.45917,-109.9953,148.7455,-32.04312,202408291727319996,
2-22,A_Baseline,1,Q1FrontDown,-28.95878,29.66684,-2.235964,-73.45917,-109.9953,148.7455,-32.04312,202408291727320242,
2-22,A_Baseline,1,Q1FrontDown,-28.69764,29.43059,-3.770902,-73.74503,-109.7762,148.7246,-31.95665,202408291727320406,
2-22,A_Baseline,1,Q1FrontDown,-28.47098,29.20515,-5.237858,-74.01514,-109.5548,148.6841,-31.87055,202408291727320703,
2-22,A_Baseline,1,Q1FrontDown,-28.47098,29.20515,-5.237858,-74.01514,-109.5548,148.6841,-31.87055,202408291727320872,
2-22,A_Baseline,1,Q1FrontDown,-28.47098,29.20515,-5.237858,-74.01514,-109.5548,148.6841,-31.87055,202408291727321049,
2-22,A_Baseline,1,Q1FrontDown,-28.27295,28.96914,-6.701085,-74.28928,-109.3168,148.6471,-31.78636,202408291727321245,
2-22,A_Baseline,1,Q1FrontDown,-28.11924,28.72736,-8.147878,-74.55727,-109.0812,148.6043,-31.69562,202408291727321535,
2-22,A_Baseline,1,Q1FrontDown,-28.00908,28.47579,-9.490931,-74.81596,-108.8491,148.5516,-31.60919,202408291727321822,
2-22,A_Baseline,1,Q1FrontDown,-27.92854,28.24261,-10.80538,-75.03183,-108.6523,148.5036,-31.51612,202408291727322039,
2-22,A_Baseline,1,Q1FrontDown,-27.88987,28.03395,-11.97543,-75.2058,-108.4768,148.4557,-31.44205,202408291727322379,
2-22,A_Baseline,1,Q1FrontDown,-27.88862,27.82448,-13.04241,-75.36157,-108.3308,148.4136,-31.381,202408291727322681,
2-22,A_Baseline,1,Q1FrontDown,-27.88862,27.82448,-13.04241,-75.36157,-108.3308,148.4136,-31.381,202408291727322871,
2-22,A_Baseline,1,Q1FrontDown,-28.22847,27.76008,-13.38268,-75.32677,-108.3717,148.3689,-31.38464,202408291727323052,
2-22,A_Baseline,1,Q1FrontDown,-28.22847,27.76008,-13.38268,-75.32677,-108.3717,148.3689,-31.38464,202408291727323244,
2-22,A_Baseline,1,Q1FrontDown,-28.62692,27.68108,-13.50281,-75.30393,-108.3735,148.3596,-31.38577,202408291727323440,
2-22,A_Baseline,1,Q1FrontDown,-28.95384,27.63523,-13.54417,-75.29305,-108.3739,148.3576,-31.3867,202408291727323728,
2-22,A_Baseline,1,Q1FrontDown,-29.24594,27.5997,-13.51198,-75.29107,-108.3737,148.3579,-31.38686,202408291727324008,
2-22,A_Baseline,1,Q1FrontDown,-29.46497,27.59227,-13.41243,-75.29233,-108.3734,148.3575,-31.38746,202408291727324332,
2-22,A_Baseline,1,Q1FrontDown,-29.46497,27.59227,-13.41243,-75.29233,-108.3734,148.3575,-31.38746,202408291727324579,
2-22,A_Baseline,1,Q1FrontDown,-29.67113,27.59652,-13.24524,-75.32145,-108.3722,148.358,-31.3872,202408291727324832,
2-22,A_Baseline,1,Q1FrontDown,-29.96904,27.57786,-13.01364,-75.35941,-108.37,148.3599,-31.38675,202408291727325008,
2-22,A_Baseline,1,Q1FrontDown,-29.96904,27.57786,-13.01364,-75.35941,-108.37,148.3599,-31.38675,202408291727325257,
2-22,A_Baseline,1,Q1FrontDown,-30.32259,27.50052,-12.71842,-75.41348,-108.3583,148.359,-31.38717,202408291727325554,
2-22,A_Baseline,1,Q1FrontDown,-30.70737,27.42847,-12.38283,-75.4603,-108.3519,148.3583,-31.387,202408291727325768,
2-22,A_Baseline,1,Q1FrontDown,-31.24594,27.26849,-11.94424,-75.55344,-108.3228,148.3567,-31.38702,202408291727326061,
2-22,A_Baseline,1,Q1FrontDown,-31.24594,27.26849,-11.94424,-75.55344,-108.3228,148.3567,-31.38702,202408291727326322,
2-22,A_Baseline,1,Q1FrontDown,-31.85321,27.08069,-11.5258,-75.66829,-108.2773,148.348,-31.38709,202408291727326512,
2-22,A_Baseline,1,Q1FrontDown,-31.85321,27.08069,-11.5258,-75.66829,-108.2773,148.348,-31.38709,202408291727326720,
2-22,A_Baseline,1,Q1FrontDown,-33.34595,26.54673,-10.60199,-75.87856,-108.1386,148.3038,-31.38701,202408291727326988,
2-22,A_Baseline,1,Q1FrontDown,-33.34595,26.54673,-10.60199,-75.87856,-108.1386,148.3038,-31.38701,202408291727327150,
2-22,A_Baseline,1,Q1FrontDown,-34.2721,26.20458,-10.10738,-75.9948,-108.037,148.2578,-31.38737,202408291727327324,
2-22,A_Baseline,1,Q1FrontDown,-34.2721,26.20458,-10.10738,-75.9948,-108.037,148.2578,-31.38737,202408291727327488,
2-22,A_Baseline,1,Q1FrontDown,-35.24817,25.83415,-9.656865,-76.1198,-107.9229,148.1902,-31.38709,202408291727327665,
2-22,A_Baseline,1,Q1FrontDown,-35.24817,25.83415,-9.656865,-76.1198,-107.9229,148.1902,-31.38709,202408291727327823,
2-22,A_Baseline,1,Q1FrontDown,-36.34466,25.37116,-9.191605,-76.26962,-107.7716,148.0985,-31.38704,202408291727328093,
2-22,A_Baseline,1,Q1FrontDown,-37.55482,24.86445,-8.732401,-76.41412,-107.6253,147.9801,-31.38709,202408291727328352,
2-22,A_Baseline,1,Q1FrontDown,-37.55482,24.86445,-8.732401,-76.41412,-107.6253,147.9801,-31.38709,202408291727328527,
2-22,A_Baseline,1,Q1FrontDown,-38.74025,24.38514,-8.345999,-76.50633,-107.4734,147.8495,-31.38717,202408291727328850,
2-22,A_Baseline,1,Q1FrontDown,-40.02569,23.83476,-7.977179,-76.59753,-107.3014,147.6957,-31.38693,202408291727329105,
2-22,A_Baseline,1,Q1FrontDown,-41.32414,23.2782,-7.657654,-76.6713,-107.1206,147.5311,-31.38755,202408291727329383,
2-22,A_Baseline,1,Q1FrontDown,-42.66447,22.69533,-7.377207,-76.73381,-106.9264,147.3605,-31.38709,202408291727329710,
2-22,A_Baseline,1,Q1FrontDown,-42.66447,22.69533,-7.377207,-76.73381,-106.9264,147.3605,-31.38709,202408291727329908,
2-22,A_Baseline,1,Q1FrontDown,-43.99944,22.08326,-7.164003,-76.79945,-106.7299,147.2043,-31.3866,202408291727330076,
2-22,A_Baseline,1,Q1FrontDown,-45.25803,21.51241,-7.005847,-76.84463,-106.5483,147.0528,-31.38718,202408291727330331,
2-22,A_Baseline,1,Q1FrontDown,-45.25803,21.51241,-7.005847,-76.84463,-106.5483,147.0528,-31.38718,202408291727330537,
2-22,A_Baseline,1,Q1FrontDown,-46.46902,20.92805,-6.878011,-76.87891,-106.3908,146.8902,-31.38705,202408291727330855,
2-22,A_Baseline,1,Q1FrontDown,-46.46902,20.92805,-6.878011,-76.87891,-106.3908,146.8902,-31.38705,202408291727331045,
2-22,A_Baseline,1,Q1FrontDown,-47.59817,20.38438,-6.816226,-76.89757,-106.2486,146.7275,-31.38745,202408291727331235,
2-22,A_Baseline,1,Q1FrontDown,-48.45524,19.98282,-6.974842,-76.83472,-106.2232,146.6136,-31.38719,202408291727331511,
2-22,A_Baseline,1,Q1FrontDown,-48.9072,19.68344,-7.39819,-76.71142,-106.2297,146.5602,-31.38832,202408291727331799,
2-22,A_Baseline,1,Q1FrontDown,-49.23145,19.43866,-7.726232,-76.59696,-106.2297,146.5044,-31.39297,202408291727331982,
2-22,A_Baseline,1,Q1FrontDown,-49.23145,19.43866,-7.726232,-76.59696,-106.2297,146.5044,-31.39297,202408291727332140,
2-22,A_Baseline,1,Q1FrontDown,-49.46967,19.30808,-8.021791,-76.51537,-106.23,146.4498,-31.40942,202408291727332391,
2-22,A_Baseline,1,Q1FrontDown,-49.57223,19.23251,-8.236331,-76.45123,-106.2301,146.401,-31.4247,202408291727332656,
2-22,A_Baseline,1,Q1FrontDown,-49.57223,19.23251,-8.236331,-76.45123,-106.2301,146.401,-31.4247,202408291727332809,
2-22,A_Baseline,1,Q1FrontDown,-49.57223,19.23251,-8.236331,-76.45123,-106.2301,146.401,-31.4247,202408291727333109,
2-22,A_Baseline,1,Q1FrontDown,-49.46733,19.28591,-8.387216,-76.42702,-106.2206,146.2871,-31.50403,202408291727333424,
2-22,A_Baseline,1,Q1FrontDown,-49.35765,19.33541,-8.407257,-76.43051,-106.215,146.2366,-31.55595,202408291727333711,
2-22,A_Baseline,1,Q1FrontDown,-49.18747,19.40885,-8.443924,-76.42982,-106.1883,146.1485,-31.64834,202408291727334005,
2-22,A_Baseline,1,Q1FrontDown,-49.18747,19.40885,-8.443924,-76.42982,-106.1883,146.1485,-31.64834,202408291727334352,
2-22,A_Baseline,1,Q1FrontDown,-48.95633,19.51299,-8.484585,-76.42966,-106.1329,146.0434,-31.76873,202408291727334583,
2-22,A_Baseline,1,Q1FrontDown,-48.70497,19.62194,-8.536814,-76.4313,-106.0616,145.922,-31.89823,202408291727334932,
2-22,A_Baseline,1,Q1FrontDown,-48.41913,19.74046,-8.619313,-76.42986,-105.9198,145.7287,-32.07671,202408291727335153,
2-22,A_Baseline,1,Q1FrontDown,-48.07961,19.85468,-8.736077,-76.42864,-105.734,145.4825,-32.28877,202408291727335368,
2-22,A_Baseline,1,Q1FrontDown,-47.73046,19.98006,-8.856624,-76.41669,-105.5133,145.2094,-32.50994,202408291727335735,
2-22,A_Baseline,1,Q1FrontDown,-47.73046,19.98006,-8.856624,-76.41669,-105.5133,145.2094,-32.50994,202408291727335876,
2-22,A_Baseline,1,Q1FrontDown,-47.36519,20.11646,-9.037399,-76.40046,-105.2383,144.8969,-32.7719,202408291727336113,
2-22,A_Baseline,1,Q1FrontDown,-46.98601,20.26238,-9.23576,-76.36873,-104.9002,144.5336,-33.09167,202408291727336372,
2-22,A_Baseline,1,Q1FrontDown,-46.60608,20.39435,-9.464341,-76.34061,-104.5367,144.131,-33.41666,202408291727336665,
2-22,A_Baseline,1,Q1FrontDown,-46.18024,20.55152,-9.746118,-76.29462,-104.101,143.6903,-33.78385,202408291727337116,
2-22,A_Baseline,1,Q1FrontDown,-45.74351,20.71306,-10.07781,-76.25537,-103.637,143.184,-34.19839,202408291727337309,
2-22,A_Baseline,1,Q1FrontDown,-45.32144,20.85942,-10.41458,-76.19943,-103.1665,142.6812,-34.6257,202408291727337687,
2-22,A_Baseline,1,Q1FrontDown,-44.85626,21.02877,-10.80447,-76.12162,-102.6079,142.1088,-35.11091,202408291727338066,
2-22,A_Baseline,1,Q1FrontDown,-44.85626,21.02877,-10.80447,-76.12162,-102.6079,142.1088,-35.11091,202408291727338372,
2-22,A_Baseline,1,Q1FrontDown,-43.93888,21.35928,-11.6957,-75.91885,-101.3658,140.8548,-36.16676,202408291727338684,
2-22,A_Baseline,1,Q1FrontDown,-43.93888,21.35928,-11.6957,-75.91885,-101.3658,140.8548,-36.16676,202408291727338867,
2-22,A_Baseline,1,Q1FrontDown,-43.43906,21.53008,-12.18353,-75.77881,-100.6939,140.1686,-36.76482,202408291727339039,
2-22,A_Baseline,1,Q1FrontDown,-43.43906,21.53008,-12.18353,-75.77881,-100.6939,140.1686,-36.76482,202408291727339222,
2-22,A_Baseline,1,Q1FrontDown,-42.94537,21.70157,-12.71495,-75.62592,-99.95388,139.426,-37.38321,202408291727339488,
2-22,A_Baseline,1,Q1FrontDown,-42.94537,21.70157,-12.71495,-75.62592,-99.95388,139.426,-37.38321,202408291727339651,
2-22,A_Baseline,1,Q1FrontDown,-42.47556,21.85707,-13.25262,-75.47767,-99.24606,138.7018,-38.01734,202408291727339828,
2-22,A_Baseline,1,Q1FrontDown,-41.95513,22.03654,-13.83132,-75.3091,-98.47874,137.9076,-38.68612,202408291727339999,
2-22,A_Baseline,1,Q1FrontDown,-41.95513,22.03654,-13.83132,-75.3091,-98.47874,137.9076,-38.68612,202408291727340258,
2-22,A_Baseline,1,Q1FrontDown,-41.44334,22.20263,-14.44949,-75.12617,-97.64422,137.0752,-39.41634,202408291727340489,
2-22,A_Baseline,1,Q1FrontDown,-40.94529,22.3708,-15.05525,-74.91712,-96.85316,136.2586,-40.13234,202408291727340696,
2-22,A_Baseline,1,Q1FrontDown,-40.94529,22.3708,-15.05525,-74.91712,-96.85316,136.2586,-40.13234,202408291727340911,
2-22,A_Baseline,1,Q1FrontDown,-40.41342,22.55174,-15.70078,-74.72181,-95.99512,135.3863,-40.88724,202408291727341200,
2-22,A_Baseline,1,Q1FrontDown,-39.88712,22.71167,-16.38312,-74.53534,-95.08018,134.485,-41.69296,202408291727341379,
2-22,A_Baseline,1,Q1FrontDown,-39.38826,22.86999,-17.0316,-74.33223,-94.23244,133.59,-42.48536,202408291727341667,
2-22,A_Baseline,1,Q1FrontDown,-38.84876,23.04403,-17.73172,-74.10302,-93.29536,132.6591,-43.30255,202408291727341965,
2-22,A_Baseline,1,Q1FrontDown,-38.84876,23.04403,-17.73172,-74.10302,-93.29536,132.6591,-43.30255,202408291727342136,
2-22,A_Baseline,1,Q1FrontDown,-38.31136,23.19958,-18.45572,-73.89256,-92.33659,131.7059,-44.17183,202408291727342327,
2-22,A_Baseline,1,Q1FrontDown,-37.81438,23.35306,-19.14454,-73.65219,-91.41941,130.7899,-45.01308,202408291727342583,
2-22,A_Baseline,1,Q1FrontDown,-37.81438,23.35306,-19.14454,-73.65219,-91.41941,130.7899,-45.01308,202408291727342808,
2-22,A_Baseline,1,Q1FrontDown,-37.27322,23.53054,-19.8608,-73.40207,-90.44413,129.8383,-45.88928,202408291727342990,
2-22,A_Baseline,1,Q1FrontDown,-36.75118,23.68332,-20.6128,-73.18705,-89.4617,128.8596,-46.79516,202408291727343342,
2-22,A_Baseline,1,Q1FrontDown,-36.75118,23.68332,-20.6128,-73.18705,-89.4617,128.8596,-46.79516,202408291727343523,
2-22,A_Baseline,1,Q1FrontDown,-36.25113,23.83227,-21.29775,-72.96423,-88.50385,127.9257,-47.65346,202408291727343740,
2-22,A_Baseline,1,Q1FrontDown,-35.72698,24.00452,-22.01385,-72.72852,-87.53532,126.9605,-48.55485,202408291727344006,
2-22,A_Baseline,1,Q1FrontDown,-35.20723,24.14173,-22.74905,-72.50621,-86.51817,125.9924,-49.48451,202408291727344290,
2-22,A_Baseline,1,Q1FrontDown,-35.20723,24.14173,-22.74905,-72.50621,-86.51817,125.9924,-49.48451,202408291727344471,
2-22,A_Baseline,1,Q1FrontDown,-34.73335,24.27837,-23.43204,-72.28269,-85.57771,125.0739,-50.36258,202408291727344670,
2-22,A_Baseline,1,Q1FrontDown,-34.73335,24.27837,-23.43204,-72.28269,-85.57771,125.0739,-50.36258,202408291727344836,
2-22,A_Baseline,1,Q1FrontDown,-34.22958,24.41574,-24.1174,-72.04802,-84.61395,124.1594,-51.25914,202408291727345124,
2-22,A_Baseline,1,Q1FrontDown,-33.74161,24.55686,-24.81659,-71.80811,-83.6282,123.2265,-52.16693,202408291727345350,
2-22,A_Baseline,1,Q1FrontDown,-33.74161,24.55686,-24.81659,-71.80811,-83.6282,123.2265,-52.16693,202408291727345482,
2-22,A_Baseline,1,Q1FrontDown,-33.29614,24.66704,-25.46108,-71.60526,-82.71828,122.3476,-53.03843,202408291727345734,
2-22,A_Baseline,1,Q1FrontDown,-33.29614,24.66704,-25.46108,-71.60526,-82.71828,122.3476,-53.03843,202408291727345903,
2-22,A_Baseline,1,Q1FrontDown,-32.81783,24.81193,-26.1254,-71.37911,-81.75481,121.4361,-53.95027,202408291727346215,
2-22,A_Baseline,1,Q1FrontDown,-32.38602,24.92905,-26.75253,-71.16698,-80.87644,120.5981,-54.80572,202408291727346549,
2-22,A_Baseline,1,Q1FrontDown,-31.98007,25.04216,-27.33366,-70.98225,-80.01589,119.8002,-55.6288,202408291727346835,
2-22,A_Baseline,1,Q1FrontDown,-31.56381,25.14937,-27.92255,-70.79935,-79.13575,118.9802,-56.47558,202408291727347082,
2-22,A_Baseline,1,Q1FrontDown,-31.16012,25.2521,-28.46028,-70.61047,-78.31949,118.226,-57.28909,202408291727347313,
2-22,A_Baseline,1,Q1FrontDown,-31.16012,25.2521,-28.46028,-70.61047,-78.31949,118.226,-57.28909,202408291727347505,
2-22,A_Baseline,1,Q1FrontDown,-30.8045,25.34257,-28.97998,-70.42121,-77.53078,117.5252,-58.07158,202408291727347806,
2-22,A_Baseline,1,Q1FrontDown,-30.47015,25.43623,-29.4666,-70.26125,-76.78054,116.8241,-58.82335,202408291727348010,
2-22,A_Baseline,1,Q1FrontDown,-30.47015,25.43623,-29.4666,-70.26125,-76.78054,116.8241,-58.82335,202408291727348254,
2-22,A_Baseline,1,Q1FrontDown,-30.12722,25.52216,-29.94098,-70.1134,-76.04484,116.1725,-59.57989,202408291727348522,
2-22,A_Baseline,1,Q1FrontDown,-29.81689,25.58905,-30.34313,-69.97857,-75.35586,115.572,-60.2788,202408291727348846,
2-22,A_Baseline,1,Q1FrontDown,-29.53845,25.66642,-30.73933,-69.84009,-74.69469,114.9964,-60.95674,202408291727349054,
2-22,A_Baseline,1,Q1FrontDown,-29.29318,25.72888,-31.09658,-69.71658,-74.12143,114.4983,-61.58568,202408291727349384,
2-22,A_Baseline,1,Q1FrontDown,-29.29318,25.72888,-31.09658,-69.71658,-74.12143,114.4983,-61.58568,202408291727349630,
2-22,A_Baseline,1,Q1FrontDown,-29.05228,25.77402,-31.41072,-69.61015,-73.56834,114.0353,-62.17398,202408291727349806,
2-22,A_Baseline,1,Q1FrontDown,-29.04769,25.7553,-31.37917,-69.60906,-73.63428,114.0286,-62.12834,202408291727349978,
2-22,A_Baseline,1,Q1FrontDown,-29.04769,25.7553,-31.37917,-69.60906,-73.63428,114.0286,-62.12834,202408291727350167,
2-22,A_Baseline,1,Q1FrontDown,-29.05085,25.75438,-31.32879,-69.61538,-73.65015,114.0336,-62.10928,202408291727350432,
2-22,A_Baseline,1,Q1FrontDown,-29.05501,25.76167,-31.27922,-69.63334,-73.66998,114.0485,-62.08395,202408291727350830,
2-22,A_Baseline,1,Q1FrontDown,-29.07557,25.76161,-31.22092,-69.66365,-73.70918,114.0741,-62.03464,202408291727351073,
2-22,A_Baseline,1,Q1FrontDown,-29.07557,25.76161,-31.22092,-69.66365,-73.70918,114.0741,-62.03464,202408291727351256,
2-22,A_Baseline,1,Q1FrontDown,-29.09305,25.77131,-31.14608,-69.67672,-73.76696,114.1145,-61.96395,202408291727351635,
2-22,A_Baseline,1,Q1FrontDown,-29.1044,25.77887,-31.04138,-69.69889,-73.82397,114.1789,-61.88723,202408291727351859,
2-22,A_Baseline,1,Q1FrontDown,-29.15529,25.77641,-30.87895,-69.70819,-73.92435,114.2836,-61.77477,202408291727352031,
2-22,A_Baseline,1,Q1FrontDown,-29.15529,25.77641,-30.87895,-69.70819,-73.92435,114.2836,-61.77477,202408291727352324,
2-22,A_Baseline,1,Q1FrontDown,-29.28163,25.77531,-30.51835,-69.71223,-74.14848,114.5899,-61.46711,202408291727352642,
2-22,A_Baseline,1,Q1FrontDown,-29.28163,25.77531,-30.51835,-69.71223,-74.14848,114.5899,-61.46711,202408291727352813,
2-22,A_Baseline,1,Q1FrontDown,-29.28163,25.77531,-30.51835,-69.71223,-74.14848,114.5899,-61.46711,202408291727352990,
2-22,A_Baseline,1,Q1FrontDown,-29.37564,25.77512,-30.25445,-69.71253,-74.33752,114.8092,-61.23196,202408291727353187,
2-22,A_Baseline,1,Q1FrontDown,-29.4991,25.77193,-29.94094,-69.71621,-74.57767,115.0551,-60.95135,202408291727353369,
2-22,A_Baseline,1,Q1FrontDown,-29.62303,25.77075,-29.61832,-69.71712,-74.84786,115.354,-60.64935,202408291727353647,
2-22,A_Baseline,1,Q1FrontDown,-29.62303,25.77075,-29.61832,-69.71712,-74.84786,115.354,-60.64935,202408291727353955,
2-22,A_Baseline,1,Q1FrontDown,-29.7888,25.76151,-29.21458,-69.7172,-75.19214,115.7571,-60.29342,202408291727354155,
2-22,A_Baseline,1,Q1FrontDown,-29.97986,25.75529,-28.7794,-69.718,-75.57597,116.1689,-59.87675,202408291727354392,
2-22,A_Baseline,1,Q1FrontDown,-29.97986,25.75529,-28.7794,-69.718,-75.57597,116.1689,-59.87675,202408291727354548,
2-22,A_Baseline,1,Q1FrontDown,-30.17823,25.75057,-28.31804,-69.72282,-75.99279,116.6083,-59.45185,202408291727354720,
2-22,A_Baseline,1,Q1FrontDown,-30.41333,25.73234,-27.79018,-69.72539,-76.47768,117.1368,-58.95998,202408291727354965,
2-22,A_Baseline,1,Q1FrontDown,-30.41333,25.73234,-27.79018,-69.72539,-76.47768,117.1368,-58.95998,202408291727355128,
2-22,A_Baseline,1,Q1FrontDown,-30.68046,25.71,-27.20924,-69.72718,-77.04483,117.6866,-58.39465,202408291727355397,
2-22,A_Baseline,1,Q1FrontDown,-30.93786,25.69041,-26.6332,-69.72961,-77.58527,118.2698,-57.8603,202408291727355632,
2-22,A_Baseline,1,Q1FrontDown,-30.93786,25.69041,-26.6332,-69.72961,-77.58527,118.2698,-57.8603,202408291727355875,
2-22,A_Baseline,1,Q1FrontDown,-31.23711,25.65858,-25.97064,-69.73129,-78.23724,118.9261,-57.21199,202408291727356026,
2-22,A_Baseline,1,Q1FrontDown,-31.5651,25.61601,-25.32117,-69.74229,-78.892,119.5841,-56.55931,202408291727356388,
2-22,A_Baseline,1,Q1FrontDown,-31.5651,25.61601,-25.32117,-69.74229,-78.892,119.5841,-56.55931,202408291727356553,
2-22,A_Baseline,1,Q1FrontDown,-31.87566,25.56838,-24.66793,-69.75097,-79.57766,120.2766,-55.88663,202408291727356835,
2-22,A_Baseline,1,Q1FrontDown,-32.23061,25.51701,-23.94125,-69.75143,-80.30106,121.001,-55.14848,202408291727357113,
2-22,A_Baseline,1,Q1FrontDown,-32.57843,25.46763,-23.20965,-69.75049,-81.07183,121.7699,-54.37936,202408291727357413,
2-22,A_Baseline,1,Q1FrontDown,-32.57843,25.46763,-23.20965,-69.75049,-81.07183,121.7699,-54.37936,202408291727357666,
2-22,A_Baseline,1,Q1FrontDown,-32.92792,25.41831,-22.49703,-69.75298,-81.83399,122.5179,-53.61762,202408291727357904,
2-22,A_Baseline,1,Q1FrontDown,-33.31219,25.36432,-21.76414,-69.75675,-82.61276,123.2936,-52.81288,202408291727358190,
2-22,A_Baseline,1,Q1FrontDown,-34.05571,25.24372,-20.26316,-69.76182,-84.21201,124.8865,-51.1596,202408291727358697,
2-22,A_Baseline,1,Q1FrontDown,-34.05571,25.24372,-20.26316,-69.76182,-84.21201,124.8865,-51.1596,202408291727358937,
2-22,A_Baseline,1,Q1FrontDown,-34.43448,25.16731,-19.51094,-69.76401,-85.01289,125.6673,-50.30659,202408291727359167,
2-22,A_Baseline,1,Q1FrontDown,-34.82074,25.09331,-18.77714,-69.77381,-85.81876,126.453,-49.43238,202408291727359478,
2-22,A_Baseline,1,Q1FrontDown,-35.18179,25.0114,-18.06415,-69.77299,-86.5798,127.2268,-48.61505,202408291727359649,
2-22,A_Baseline,1,Q1FrontDown,-35.18179,25.0114,-18.06415,-69.77299,-86.5798,127.2268,-48.61505,202408291727359833,
2-22,A_Baseline,1,Q1FrontDown,-35.52228,24.94009,-17.36519,-69.77396,-87.33837,127.974,-47.77198,202408291727360049,
2-22,A_Baseline,1,Q1FrontDown,-35.86728,24.85191,-16.66939,-69.77383,-88.11018,128.7207,-46.90041,202408291727360342,
2-22,A_Baseline,1,Q1FrontDown,-36.20007,24.78743,-16.04883,-69.77436,-88.83927,129.4311,-46.09501,202408291727360643,
2-22,A_Baseline,1,Q1FrontDown,-36.20007,24.78743,-16.04883,-69.77436,-88.83927,129.4311,-46.09501,202408291727360822,
2-22,A_Baseline,1,Q1FrontDown,-36.51046,24.71329,-15.42664,-69.77156,-89.5537,130.0935,-45.30381,202408291727361034,
2-22,A_Baseline,1,Q1FrontDown,-36.51046,24.71329,-15.42664,-69.77156,-89.5537,130.0935,-45.30381,202408291727361227,
2-22,A_Baseline,1,Q1FrontDown,-36.81266,24.6477,-14.81622,-69.77444,-90.2531,130.7507,-44.50689,202408291727361540,
2-22,A_Baseline,1,Q1FrontDown,-37.06713,24.5812,-14.28422,-69.77342,-90.91068,131.3531,-43.76478,202408291727361832,
2-22,A_Baseline,1,Q1FrontDown,-37.312,24.52661,-13.78669,-69.77502,-91.50014,131.9171,-43.05266,202408291727362166,
2-22,A_Baseline,1,Q1FrontDown,-37.312,24.52661,-13.78669,-69.77502,-91.50014,131.9171,-43.05266,202408291727362365,
2-22,A_Baseline,1,Q1FrontDown,-37.73174,24.40578,-12.93989,-69.77378,-92.58996,132.9078,-41.74255,202408291727362644,
2-22,A_Baseline,1,Q1FrontDown,-37.73174,24.40578,-12.93989,-69.77378,-92.58996,132.9078,-41.74255,202408291727362823,
2-22,A_Baseline,1,Q1FrontDown,-37.62941,24.40822,-12.92291,-69.76642,-92.54651,132.9081,-41.7773,202408291727363016,
2-22,A_Baseline,1,Q1FrontDown,-37.62941,24.40822,-12.92291,-69.76642,-92.54651,132.9081,-41.7773,202408291727363260,
2-22,A_Baseline,1,Q1FrontDown,-37.52258,24.41282,-12.92591,-69.74172,-92.54597,132.9014,-41.77667,202408291727363571,
2-22,A_Baseline,1,Q1FrontDown,-37.41401,24.42885,-12.92556,-69.73208,-92.54708,132.9016,-41.77148,202408291727363836,
2-22,A_Baseline,1,Q1FrontDown,-37.29288,24.49589,-12.93088,-69.67669,-92.55101,132.901,-41.72969,202408291727364157,
2-22,A_Baseline,1,Q1FrontDown,-37.13429,24.57978,-12.94825,-69.6188,-92.58669,132.9029,-41.64109,202408291727364334,
2-22,A_Baseline,1,Q1FrontDown,-37.13429,24.57978,-12.94825,-69.6188,-92.58669,132.9029,-41.64109,202408291727364535,
2-22,A_Baseline,1,Q1FrontDown,-36.94873,24.66533,-12.97413,-69.55878,-92.62579,132.9137,-41.53743,202408291727364778,
2-22,A_Baseline,1,Q1FrontDown,-36.94873,24.66533,-12.97413,-69.55878,-92.62579,132.9137,-41.53743,202408291727365036,
2-22,A_Baseline,1,Q1FrontDown,-36.39919,24.97183,-13.06775,-69.24767,-92.90224,133.0663,-41.09559,202408291727365389,
2-22,A_Baseline,1,Q1FrontDown,-36.39919,24.97183,-13.06775,-69.24767,-92.90224,133.0663,-41.09559,202408291727365598,
2-22,A_Baseline,1,Q1FrontDown,-36.0391,25.15286,-13.10579,-69.03163,-93.08578,133.1974,-40.81521,202408291727365886,
2-22,A_Baseline,1,Q1FrontDown,-35.60135,25.37619,-13.14295,-68.76342,-93.32726,133.4084,-40.43098,202408291727366169,
2-22,A_Baseline,1,Q1FrontDown,-35.10843,25.62717,-13.18564,-68.48444,-93.61967,133.6612,-40.02091,202408291727366451,
2-22,A_Baseline,1,Q1FrontDown,-34.58378,25.86646,-13.19242,-68.17039,-93.93846,133.9279,-39.59809,202408291727366707,
2-22,A_Baseline,1,Q1FrontDown,-33.97677,26.13882,-13.19662,-67.83127,-94.30744,134.2209,-39.10975,202408291727366989,
2-22,A_Baseline,1,Q1FrontDown,-33.97677,26.13882,-13.19662,-67.83127,-94.30744,134.2209,-39.10975,202408291727367144,
2-22,A_Baseline,1,Q1FrontDown,-33.32731,26.42506,-13.1912,-67.43334,-94.70328,134.5472,-38.58994,202408291727367323,
2-22,A_Baseline,1,Q1FrontDown,-33.32731,26.42506,-13.1912,-67.43334,-94.70328,134.5472,-38.58994,202408291727367507,
2-22,A_Baseline,1,Q1FrontDown,-32.63854,26.70058,-13.17233,-67.09941,-95.10161,134.9042,-38.0703,202408291727367748,
2-22,A_Baseline,1,Q1FrontDown,-32.63854,26.70058,-13.17233,-67.09941,-95.10161,134.9042,-38.0703,202408291727367905,
2-22,A_Baseline,1,Q1FrontDown,-31.94652,26.98842,-13.14815,-66.75045,-95.48705,135.2403,-37.56188,202408291727368199,
2-22,A_Baseline,1,Q1FrontDown,-31.21336,27.26763,-13.08018,-66.40782,-95.8516,135.5832,-37.03726,202408291727368373,
2-22,A_Baseline,1,Q1FrontDown,-31.21336,27.26763,-13.08018,-66.40782,-95.8516,135.5832,-37.03726,202408291727368532,
2-22,A_Baseline,1,Q1FrontDown,-30.53013,27.53309,-13.01477,-66.09448,-96.19894,135.9215,-36.56755,202408291727368731,
2-22,A_Baseline,1,Q1FrontDown,-30.53013,27.53309,-13.01477,-66.09448,-96.19894,135.9215,-36.56755,202408291727368983,
2-22,A_Baseline,1,Q1FrontDown,-29.8517,27.77507,-12.89973,-65.79806,-96.50766,136.2262,-36.11858,202408291727369201,
2-22,A_Baseline,1,Q1FrontDown,-29.30207,27.90618,-12.70717,-65.68468,-96.60103,136.3652,-35.938,202408291727369598,
2-22,A_Baseline,1,Q1FrontDown,-28.9129,27.98211,-12.42511,-65.71146,-96.59441,136.364,-35.93695,202408291727369935,
2-22,A_Baseline,1,Q1FrontDown,-28.66103,28.02486,-12.08992,-65.77087,-96.59462,136.3642,-35.93646,202408291727370151,
2-22,A_Baseline,1,Q1FrontDown,-28.51768,28.04976,-11.72304,-65.84032,-96.59569,136.367,-35.91763,202408291727370323,
2-22,A_Baseline,1,Q1FrontDown,-28.49447,28.04571,-11.3486,-65.91785,-96.59925,136.3818,-35.89206,202408291727370661,
2-22,A_Baseline,1,Q1FrontDown,-28.49447,28.04571,-11.3486,-65.91785,-96.59925,136.3818,-35.89206,202408291727370977,
2-22,A_Baseline,1,Q1FrontDown,-28.57679,28.00702,-10.91318,-65.96085,-96.61577,136.3964,-35.82055,202408291727371283,
2-22,A_Baseline,1,Q1FrontDown,-28.73948,27.92332,-10.36765,-65.99937,-96.66383,136.424,-35.71238,202408291727371532,
2-22,A_Baseline,1,Q1FrontDown,-28.95837,27.83796,-9.80079,-66.05158,-96.72106,136.4887,-35.59162,202408291727371853,
2-22,A_Baseline,1,Q1FrontDown,-29.27053,27.68777,-9.070353,-66.11176,-96.84753,136.5895,-35.41278,202408291727372070,
2-22,A_Baseline,1,Q1FrontDown,-29.27053,27.68777,-9.070353,-66.11176,-96.84753,136.5895,-35.41278,202408291727372331,
2-22,A_Baseline,1,Q1FrontDown,-29.60592,27.47732,-8.271322,-66.1889,-97.02213,136.7208,-35.19524,202408291727372491,
2-22,A_Baseline,1,Q1FrontDown,-29.96628,27.22834,-7.457261,-66.2743,-97.22436,136.8829,-34.97104,202408291727372739,
2-22,A_Baseline,1,Q1FrontDown,-29.96628,27.22834,-7.457261,-66.2743,-97.22436,136.8829,-34.97104,202408291727373055,
2-22,A_Baseline,1,Q1FrontDown,-30.38126,26.91425,-6.555779,-66.37917,-97.46274,137.083,-34.70676,202408291727373255,
2-22,A_Baseline,1,Q1FrontDown,-30.75965,26.56816,-5.658693,-66.48427,-97.68352,137.2648,-34.44101,202408291727373532,
2-22,A_Baseline,1,Q1FrontDown,-31.08767,26.21113,-4.799622,-66.57897,-97.88854,137.4474,-34.1757,202408291727373823,
2-22,A_Baseline,1,Q1FrontDown,-31.42983,25.83817,-3.975287,-66.64322,-98.08845,137.6266,-33.90194,202408291727374026,
2-22,A_Baseline,1,Q1FrontDown,-31.42983,25.83817,-3.975287,-66.64322,-98.08845,137.6266,-33.90194,202408291727374253,
2-22,A_Baseline,1,Q1FrontDown,-31.70307,25.45272,-3.223249,-66.68011,-98.29552,137.7972,-33.64267,202408291727374538,
2-22,A_Baseline,1,Q1FrontDown,-31.93419,25.08233,-2.558062,-66.68705,-98.46807,137.9634,-33.41998,202408291727374836,
2-22,A_Baseline,1,Q1FrontDown,-31.90925,24.82188,-2.263514,-66.56397,-98.62363,138.162,-33.18188,202408291727375004,
2-22,A_Baseline,1,Q1FrontDown,-31.90925,24.82188,-2.263514,-66.56397,-98.62363,138.162,-33.18188,202408291727375193,
2-22,A_Baseline,1,Q1FrontDown,-31.87984,24.55324,-2.008162,-66.41981,-98.77104,138.3297,-32.94036,202408291727375388,
2-22,A_Baseline,1,Q1FrontDown,-31.87984,24.55324,-2.008162,-66.41981,-98.77104,138.3297,-32.94036,202408291727375607,
2-22,A_Baseline,1,Q1FrontDown,-31.8491,24.30841,-1.77203,-66.28156,-98.90107,138.4592,-32.70805,202408291727375765,
2-22,A_Baseline,1,Q1FrontDown,-31.80089,24.13079,-1.551466,-66.08165,-99.01638,138.5862,-32.51162,202408291727376020,
2-22,A_Baseline,1,Q1FrontDown,-31.80089,24.13079,-1.551466,-66.08165,-99.01638,138.5862,-32.51162,202408291727376210,
2-22,A_Baseline,1,Q1FrontDown,-31.75556,23.97977,-1.344069,-65.88387,-99.13269,138.7015,-32.32442,202408291727376512,
2-22,A_Baseline,1,Q1FrontDown,-31.70986,23.83805,-1.152137,-65.70673,-99.2471,138.8237,-32.13599,202408291727376710,
2-22,A_Baseline,1,Q1FrontDown,-31.64131,23.74127,-0.9880798,-65.5181,-99.32381,138.9255,-31.9714,202408291727377000,
2-22,A_Baseline,1,Q1FrontDown,-31.64131,23.74127,-0.9880798,-65.5181,-99.32381,138.9255,-31.9714,202408291727377165,
2-22,A_Baseline,1,Q1FrontDown,-31.58888,23.69902,-0.798668,-65.32477,-99.41923,139.0199,-31.80621,202408291727377388,
2-22,A_Baseline,1,Q1FrontDown,-31.54393,23.67618,-0.6107526,-65.13904,-99.51447,139.1134,-31.63716,202408291727377776,
2-22,A_Baseline,1,Q1FrontDown,-31.49112,23.65719,-0.4469741,-65.01133,-99.60665,139.2163,-31.47437,202408291727378038,
2-22,A_Baseline,1,Q1FrontDown,-31.43228,23.66283,-0.3098305,-64.88692,-99.6876,139.3243,-31.32627,202408291727378361,
2-22,A_Baseline,1,Q1FrontDown,-31.43228,23.66283,-0.3098305,-64.88692,-99.6876,139.3243,-31.32627,202408291727378525,
2-22,A_Baseline,1,Q1FrontDown,-31.43228,23.66283,-0.3098305,-64.88692,-99.6876,139.3243,-31.32627,202408291727378730,
2-22,A_Baseline,1,Q1FrontDown,-31.3722,23.6961,-0.1958906,-64.76743,-99.75035,139.4167,-31.18593,202408291727379018,
2-22,A_Baseline,1,Q1FrontDown,-31.20635,23.84207,-0.08538642,-64.51227,-99.83386,139.5471,-30.94037,202408291727379325,
2-22,A_Baseline,1,Q1FrontDown,-31.1042,23.95209,-0.09635065,-64.37089,-99.85896,139.5943,-30.80755,202408291727379665,
2-22,A_Baseline,1,Q1FrontDown,-31.1042,23.95209,-0.09635065,-64.37089,-99.85896,139.5943,-30.80755,202408291727379919,
2-22,A_Baseline,1,Q1FrontDown,-31.00269,24.06184,-0.1063736,-64.26554,-99.87727,139.6352,-30.69616,202408291727380160,
2-22,A_Baseline,1,Q1FrontDown,-30.86535,24.21046,-0.1656052,-64.15545,-99.88576,139.6791,-30.582,202408291727380582,
2-22,A_Baseline,1,Q1FrontDown,-30.70321,24.38188,-0.2629152,-64.00489,-99.8903,139.7262,-30.4642,202408291727380869,
2-22,A_Baseline,1,Q1FrontDown,-30.5055,24.58658,-0.416132,-63.81593,-99.89068,139.7792,-30.35024,202408291727381079,
2-22,A_Baseline,1,Q1FrontDown,-30.32716,24.7905,-0.5508,-63.62519,-99.891,139.8235,-30.24991,202408291727381334,
2-22,A_Baseline,1,Q1FrontDown,-30.32716,24.7905,-0.5508,-63.62519,-99.891,139.8235,-30.24991,202408291727381667,
2-22,A_Baseline,1,Q1FrontDown,-29.89495,25.22344,-0.8964103,-63.31554,-99.89252,139.8941,-30.05979,202408291727381991,
2-22,A_Baseline,1,Q1FrontDown,-29.89495,25.22344,-0.8964103,-63.31554,-99.89252,139.8941,-30.05979,202408291727382220,
2-22,A_Baseline,1,Q1FrontDown,-29.89495,25.22344,-0.8964103,-63.31554,-99.89252,139.8941,-30.05979,202408291727382482,
2-22,A_Baseline,1,Q1FrontDown,-29.45597,25.67326,-1.331329,-62.99146,-99.89444,139.9537,-29.89683,202408291727382688,
2-22,A_Baseline,1,Q1FrontDown,-29.45597,25.67326,-1.331329,-62.99146,-99.89444,139.9537,-29.89683,202408291727382830,
2-22,A_Baseline,1,Q1FrontDown,-29.45597,25.67326,-1.331329,-62.99146,-99.89444,139.9537,-29.89683,202408291727383052,
2-22,A_Baseline,1,Q1FrontDown,-29.01488,26.11502,-1.831794,-62.75468,-99.89818,139.9926,-29.73467,202408291727383289,
2-22,A_Baseline,1,Q1FrontDown,-29.01488,26.11502,-1.831794,-62.75468,-99.89818,139.9926,-29.73467,202408291727383535,
2-22,A_Baseline,1,Q1FrontDown,-28.79442,26.32043,-2.098805,-62.66515,-99.89908,140.0042,-29.65667,202408291727383733,
2-22,A_Baseline,1,Q1FrontDown,-28.57457,26.52574,-2.378981,-62.57472,-99.90134,140.033,-29.5671,202408291727384011,
2-22,A_Baseline,1,Q1FrontDown,-28.36908,26.72364,-2.654319,-62.4851,-99.90543,140.0527,-29.4809,202408291727384484,
2-22,A_Baseline,1,Q1FrontDown,-28.17225,26.92847,-2.919785,-62.38326,-99.91737,140.06,-29.40374,202408291727384742,
2-22,A_Baseline,1,Q1FrontDown,-28.00537,27.12983,-3.154857,-62.2874,-99.92258,140.0669,-29.32724,202408291727385119,
2-22,A_Baseline,1,Q1FrontDown,-27.84225,27.3379,-3.425117,-62.17794,-99.93181,140.073,-29.2455,202408291727385358,
2-22,A_Baseline,1,Q1FrontDown,-27.84225,27.3379,-3.425117,-62.17794,-99.93181,140.073,-29.2455,202408291727385630,
2-22,A_Baseline,1,Q1FrontDown,-27.67859,27.52841,-3.718388,-62.05721,-99.94357,140.0816,-29.16879,202408291727385904,
2-22,A_Baseline,1,Q1FrontDown,-27.50646,27.75199,-4.012375,-61.87795,-99.94499,140.0906,-29.10922,202408291727386243,
2-22,A_Baseline,1,Q1FrontDown,-27.29545,28.00553,-4.380214,-61.62443,-99.95071,140.1205,-29.03965,202408291727386575,
2-22,A_Baseline,1,Q1FrontDown,-27.0927,28.26597,-4.757917,-61.33802,-99.96458,140.1335,-28.9705,202408291727386881,
2-22,A_Baseline,1,Q1FrontDown,-26.82907,28.57801,-5.211102,-61.01186,-99.96993,140.1425,-28.904,202408291727387048,
2-22,A_Baseline,1,Q1FrontDown,-26.60897,28.86207,-5.604021,-60.69297,-99.97566,140.1492,-28.8485,202408291727387326,
2-22,A_Baseline,1,Q1FrontDown,-26.60897,28.86207,-5.604021,-60.69297,-99.97566,140.1492,-28.8485,202408291727387499,
2-22,A_Baseline,1,Q1FrontDown,-26.60897,28.86207,-5.604021,-60.69297,-99.97566,140.1492,-28.8485,202408291727387676,
2-22,A_Baseline,1,Q1FrontDown,-26.1477,29.41112,-6.371958,-60.09064,-99.9799,140.1546,-28.7532,202408291727387905,
2-22,A_Baseline,1,Q1FrontDown,-26.1477,29.41112,-6.371958,-60.09064,-99.9799,140.1546,-28.7532,202408291727388190,
2-22,A_Baseline,1,Q1FrontDown,-25.89283,29.70618,-6.768583,-59.76361,-99.98621,140.1565,-28.69503,202408291727388516,
2-22,A_Baseline,1,Q1FrontDown,-25.64716,29.98253,-7.152738,-59.4806,-99.99704,140.1579,-28.62853,202408291727388780,
2-22,A_Baseline,1,Q1FrontDown,-25.64716,29.98253,-7.152738,-59.4806,-99.99704,140.1579,-28.62853,202408291727389057,
2-22,A_Baseline,1,Q1FrontDown,-25.13893,30.56728,-7.867413,-58.92005,-100.0184,140.1581,-28.51225,202408291727389331,
2-22,A_Baseline,1,Q1FrontDown,-25.13893,30.56728,-7.867413,-58.92005,-100.0184,140.1581,-28.51225,202408291727389507,
2-22,A_Baseline,1,Q1FrontDown,-24.9134,30.83758,-8.214724,-58.65157,-100.0392,140.1575,-28.45551,202408291727389666,
2-22,A_Baseline,1,Q1FrontDown,-24.9134,30.83758,-8.214724,-58.65157,-100.0392,140.1575,-28.45551,202408291727389832,
2-22,A_Baseline,1,Q1FrontDown,-24.71187,31.10115,-8.51947,-58.40565,-100.0539,140.158,-28.40618,202408291727390093,
2-22,A_Baseline,1,Q1FrontDown,-24.71187,31.10115,-8.51947,-58.40565,-100.0539,140.158,-28.40618,202408291727390258,
2-22,A_Baseline,1,Q1FrontDown,-24.50135,31.36088,-8.823541,-58.20409,-100.0674,140.1585,-28.3476,202408291727390504,
2-22,A_Baseline,1,Q1FrontDown,-24.32191,31.6167,-9.067968,-58.02186,-100.0787,140.1588,-28.29194,202408291727390705,
2-22,A_Baseline,1,Q1FrontDown,-24.32191,31.6167,-9.067968,-58.02186,-100.0787,140.1588,-28.29194,202408291727390879,
2-22,A_Baseline,1,Q1FrontDown,-24.09837,31.90671,-9.379719,-57.79754,-100.0809,140.1606,-28.23358,202408291727391061,
2-22,A_Baseline,1,Q1FrontDown,-23.88737,32.17449,-9.682978,-57.57653,-100.0821,140.1612,-28.17599,202408291727391321,
2-22,A_Baseline,1,Q1FrontDown,-23.88737,32.17449,-9.682978,-57.57653,-100.0821,140.1612,-28.17599,202408291727391502,
2-22,A_Baseline,1,Q1FrontDown,-23.71357,32.4137,-9.939203,-57.39252,-100.0832,140.1618,-28.12128,202408291727391661,
2-22,A_Baseline,1,Q1FrontDown,-23.71357,32.4137,-9.939203,-57.39252,-100.0832,140.1618,-28.12128,202408291727391872,
2-22,A_Baseline,1,Q1FrontDown,-23.53952,32.6479,-10.19343,-57.22433,-100.0855,140.1625,-28.05074,202408291727392242,
2-22,A_Baseline,1,Q1FrontDown,-23.39714,32.85022,-10.4145,-57.11024,-100.0903,140.1625,-27.98889,202408291727392479,
2-22,A_Baseline,1,Q1FrontDown,-23.28751,33.0201,-10.60081,-57.03783,-100.1012,140.1625,-27.9235,202408291727392659,
2-22,A_Baseline,1,Q1FrontDown,-23.28751,33.0201,-10.60081,-57.03783,-100.1012,140.1625,-27.9235,202408291727392868,
2-22,A_Baseline,1,Q1FrontDown,-23.22715,33.11325,-10.72795,-57.0383,-100.102,140.1635,-27.8735,202408291727393043,
2-22,A_Baseline,1,Q1FrontDown,-23.22715,33.11325,-10.72795,-57.0383,-100.102,140.1635,-27.8735,202408291727393255,
2-22,A_Baseline,1,Q1FrontDown,-23.18649,33.21078,-10.86636,-57.03797,-100.1026,140.1636,-27.82112,202408291727393533,
2-22,A_Baseline,1,Q1FrontDown,-23.1701,33.28196,-11.00169,-57.04091,-100.1031,140.1632,-27.77178,202408291727393698,
2-22,A_Baseline,1,Q1FrontDown,-23.17067,33.28798,-11.12055,-57.1026,-100.1035,140.1631,-27.7261,202408291727394006,
2-22,A_Baseline,1,Q1FrontDown,-23.17067,33.28798,-11.12055,-57.1026,-100.1035,140.1631,-27.7261,202408291727394200,
2-22,A_Baseline,1,Q1FrontDown,-23.17258,33.28255,-11.26334,-57.17962,-100.1034,140.163,-27.67328,202408291727394375,
2-22,A_Baseline,1,Q1FrontDown,-23.17379,33.2666,-11.42726,-57.26253,-100.1021,140.1631,-27.62379,202408291727394762,
2-22,A_Baseline,1,Q1FrontDown,-23.14665,33.18027,-11.68924,-57.48032,-100.101,140.1649,-27.58613,202408291727395094,
2-22,A_Baseline,1,Q1FrontDown,-23.14484,33.09306,-11.9282,-57.6902,-100.1009,140.1735,-27.55138,202408291727395343,
2-22,A_Baseline,1,Q1FrontDown,-23.15986,33.03427,-12.17898,-57.86736,-100.0991,140.1799,-27.51803,202408291727395587,
2-22,A_Baseline,1,Q1FrontDown,-23.15986,33.03427,-12.17898,-57.86736,-100.0991,140.1799,-27.51803,202408291727395864,
2-22,A_Baseline,1,Q1FrontDown,-23.16711,32.93298,-12.49495,-58.13191,-100.0881,140.2285,-27.48633,202408291727396019,
2-22,A_Baseline,1,Q1FrontDown,-23.16711,32.93298,-12.49495,-58.13191,-100.0881,140.2285,-27.48633,202408291727396206,
2-22,A_Baseline,1,Q1FrontDown,-23.16711,32.93298,-12.49495,-58.13191,-100.0881,140.2285,-27.48633,202408291727396388,
2-22,A_Baseline,1,Q1FrontDown,-23.20138,32.80809,-12.8126,-58.44289,-100.0682,140.2527,-27.46074,202408291727396588,
2-22,A_Baseline,1,Q1FrontDown,-23.24981,32.72592,-13.11714,-58.71297,-100.0527,140.2521,-27.43881,202408291727396841,
2-22,A_Baseline,1,Q1FrontDown,-23.3399,32.61579,-13.39276,-59.00911,-100.0525,140.2509,-27.40026,202408291727397157,
2-22,A_Baseline,1,Q1FrontDown,-23.46864,32.51445,-13.64659,-59.31086,-100.0435,140.2499,-27.36497,202408291727397328,
2-22,A_Baseline,1,Q1FrontDown,-23.46864,32.51445,-13.64659,-59.31086,-100.0435,140.2499,-27.36497,202408291727397506,
2-22,A_Baseline,1,Q1FrontDown,-23.61793,32.41845,-13.8793,-59.58062,-100.0236,140.2516,-27.32684,202408291727397720,
2-22,A_Baseline,1,Q1FrontDown,-23.61793,32.41845,-13.8793,-59.58062,-100.0236,140.2516,-27.32684,202408291727397946,
2-22,A_Baseline,1,Q1FrontDown,-23.79068,32.31033,-14.11277,-59.88605,-99.96789,140.2659,-27.29886,202408291727398230,
2-22,A_Baseline,1,Q1FrontDown,-24.00321,32.22445,-14.33958,-60.16451,-99.94949,140.2767,-27.26913,202408291727398387,
2-22,A_Baseline,1,Q1FrontDown,-24.00321,32.22445,-14.33958,-60.16451,-99.94949,140.2767,-27.26913,202408291727398585,
2-22,A_Baseline,1,Q1FrontDown,-24.20371,32.13792,-14.55376,-60.46291,-99.9445,140.2753,-27.24377,202408291727398797,
2-22,A_Baseline,1,Q1FrontDown,-24.45724,32.01805,-14.71807,-60.80708,-99.88268,140.2672,-27.24335,202408291727398995,
2-22,A_Baseline,1,Q1FrontDown,-24.45724,32.01805,-14.71807,-60.80708,-99.88268,140.2672,-27.24335,202408291727399210,
2-22,A_Baseline,1,Q1FrontDown,-24.73988,31.90258,-14.83314,-61.1225,-99.84526,140.2642,-27.24283,202408291727399486,
2-22,A_Baseline,1,Q1FrontDown,-25.03508,31.78666,-14.91111,-61.4526,-99.81843,140.2646,-27.24302,202408291727399733,
2-22,A_Baseline,1,Q1FrontDown,-25.03508,31.78666,-14.91111,-61.4526,-99.81843,140.2646,-27.24302,202408291727399960,
2-22,A_Baseline,1,Q1FrontDown,-25.36249,31.6905,-14.99974,-61.71865,-99.80142,140.2641,-27.24299,202408291727400171,
2-22,A_Baseline,1,Q1FrontDown,-25.71006,31.56639,-15.09483,-62.0167,-99.79445,140.2639,-27.24327,202408291727400377,
2-22,A_Baseline,1,Q1FrontDown,-25.71006,31.56639,-15.09483,-62.0167,-99.79445,140.2639,-27.24327,202408291727400535,
2-22,A_Baseline,1,Q1FrontDown,-26.04849,31.45394,-15.15287,-62.28708,-99.79169,140.2643,-27.24272,202408291727400927,
2-22,A_Baseline,1,Q1FrontDown,-26.384,31.32664,-15.2153,-62.54614,-99.79191,140.264,-27.22942,202408291727401223,
2-22,A_Baseline,1,Q1FrontDown,-26.68769,31.20367,-15.28992,-62.82382,-99.79195,140.2647,-27.21431,202408291727401443,
2-22,A_Baseline,1,Q1FrontDown,-27.00188,31.07742,-15.38695,-63.06519,-99.79198,140.2639,-27.19943,202408291727401691,
2-22,A_Baseline,1,Q1FrontDown,-27.28927,30.97924,-15.50706,-63.26561,-99.79213,140.264,-27.16602,202408291727402023,
2-22,A_Baseline,1,Q1FrontDown,-27.28927,30.97924,-15.50706,-63.26561,-99.79213,140.264,-27.16602,202408291727402204,
2-22,A_Baseline,1,Q1FrontDown,-27.58408,30.84945,-15.60505,-63.47356,-99.79195,140.2636,-27.13027,202408291727402479,
2-22,A_Baseline,1,Q1FrontDown,-27.85269,30.74403,-15.69463,-63.66216,-99.79276,140.2641,-27.09597,202408291727402785,
2-22,A_Baseline,1,Q1FrontDown,-28.161,30.60195,-15.72535,-63.86364,-99.79562,140.2679,-27.07715,202408291727403134,
2-22,A_Baseline,1,Q1FrontDown,-28.48731,30.4679,-15.76648,-64.07833,-99.79634,140.2689,-27.05418,202408291727403408,
2-22,A_Baseline,1,Q1FrontDown,-28.48731,30.4679,-15.76648,-64.07833,-99.79634,140.2689,-27.05418,202408291727403706,
2-22,A_Baseline,1,Q1FrontDown,-29.13863,30.1766,-15.81533,-64.49153,-99.79865,140.2713,-27.00622,202408291727404013,
2-22,A_Baseline,1,Q1FrontDown,-29.44738,30.02296,-15.83309,-64.68023,-99.79742,140.272,-26.99451,202408291727404333,
2-22,A_Baseline,1,Q1FrontDown,-29.44738,30.02296,-15.83309,-64.68023,-99.79742,140.272,-26.99451,202408291727404529,
2-22,A_Baseline,1,Q1FrontDown,-29.77181,29.87616,-15.85593,-64.87691,-99.7963,140.2722,-26.99406,202408291727404823,
2-22,A_Baseline,1,Q1FrontDown,-29.77181,29.87616,-15.85593,-64.87691,-99.7963,140.2722,-26.99406,202408291727404984,
2-22,A_Baseline,1,Q1FrontDown,-30.10719,29.71696,-15.90642,-65.09064,-99.79632,140.2714,-26.99398,202408291727405196,
2-22,A_Baseline,1,Q1FrontDown,-30.43456,29.55931,-15.93157,-65.28869,-99.79699,140.2746,-26.98597,202408291727405374,
2-22,A_Baseline,1,Q1FrontDown,-30.77077,29.41244,-15.938,-65.45567,-99.79681,140.2837,-26.9744,202408291727405654,
2-22,A_Baseline,1,Q1FrontDown,-30.77077,29.41244,-15.938,-65.45567,-99.79681,140.2837,-26.9744,202408291727405864,
2-22,A_Baseline,1,Q1FrontDown,-31.12107,29.24603,-15.93765,-65.6291,-99.7971,140.2877,-26.96357,202408291727406034,
2-22,A_Baseline,1,Q1FrontDown,-31.12107,29.24603,-15.93765,-65.6291,-99.7971,140.2877,-26.96357,202408291727406239,
2-22,A_Baseline,1,Q1FrontDown,-31.49399,29.10572,-15.94128,-65.79435,-99.79705,140.288,-26.95312,202408291727406502,
2-22,A_Baseline,1,Q1FrontDown,-31.84936,28.96752,-15.94665,-65.94622,-99.79594,140.2872,-26.94983,202408291727406822,
2-22,A_Baseline,1,Q1FrontDown,-32.26521,28.80702,-15.90532,-66.06281,-99.79235,140.2879,-26.95219,202408291727406987,
2-22,A_Baseline,1,Q1FrontDown,-32.26521,28.80702,-15.90532,-66.06281,-99.79235,140.2879,-26.95219,202408291727407131,
2-22,A_Baseline,1,Q1FrontDown,-32.71905,28.63509,-15.82954,-66.1708,-99.7914,140.2877,-26.953,202408291727407325,
2-22,A_Baseline,1,Q1FrontDown,-32.71905,28.63509,-15.82954,-66.1708,-99.7914,140.2877,-26.953,202408291727407540,
2-22,A_Baseline,1,Q1FrontDown,-33.18898,28.47549,-15.74404,-66.2798,-99.79122,140.287,-26.95331,202408291727407721,
2-22,A_Baseline,1,Q1FrontDown,-33.67729,28.29309,-15.678,-66.4082,-99.79131,140.2877,-26.95331,202408291727408007,
2-22,A_Baseline,1,Q1FrontDown,-33.67729,28.29309,-15.678,-66.4082,-99.79131,140.2877,-26.95331,202408291727408210,
2-22,A_Baseline,1,Q1FrontDown,-34.69468,27.88516,-15.50434,-66.67407,-99.7916,140.2864,-26.95329,202408291727408582,
2-22,A_Baseline,1,Q1FrontDown,-34.69468,27.88516,-15.50434,-66.67407,-99.7916,140.2864,-26.95329,202408291727408852,
2-22,A_Baseline,1,Q1FrontDown,-35.37403,27.67365,-15.20553,-66.76759,-99.79135,140.287,-26.95526,202408291727409010,
2-22,A_Baseline,1,Q1FrontDown,-36.0815,27.46527,-14.86994,-66.88984,-99.79169,140.2866,-26.95719,202408291727409360,
2-22,A_Baseline,1,Q1FrontDown,-36.0815,27.46527,-14.86994,-66.88984,-99.79169,140.2866,-26.95719,202408291727409630,
2-22,A_Baseline,1,Q1FrontDown,-36.8105,27.21436,-14.54634,-67.03297,-99.79159,140.2864,-26.95906,202408291727409790,
2-22,A_Baseline,1,Q1FrontDown,-37.51162,26.96787,-14.26904,-67.17354,-99.79153,140.2861,-26.96025,202408291727409962,
2-22,A_Baseline,1,Q1FrontDown,-37.51162,26.96787,-14.26904,-67.17354,-99.79153,140.2861,-26.96025,202408291727410127,
2-22,A_Baseline,1,Q1FrontDown,-38.22913,26.72638,-13.96558,-67.29877,-99.79176,140.2869,-26.96685,202408291727410308,
2-22,A_Baseline,1,Q1FrontDown,-38.22913,26.72638,-13.96558,-67.29877,-99.79176,140.2869,-26.96685,202408291727410490,
2-22,A_Baseline,1,Q1FrontDown,-38.95341,26.50721,-13.61195,-67.39774,-99.7925,140.2859,-26.97846,202408291727410733,
2-22,A_Baseline,1,Q1FrontDown,-38.95341,26.50721,-13.61195,-67.39774,-99.7925,140.2859,-26.97846,202408291727410941,
2-22,A_Baseline,1,Q1FrontDown,-39.79562,26.26796,-13.17201,-67.48389,-99.79219,140.2938,-27.02774,202408291727411259,
2-22,A_Baseline,1,Q1FrontDown,-40.58395,26.06312,-12.74046,-67.5494,-99.79356,140.3012,-27.05696,202408291727411509,
2-22,A_Baseline,1,Q1FrontDown,-41.35982,25.84672,-12.3337,-67.62742,-99.79388,140.3044,-27.07564,202408291727411686,
2-22,A_Baseline,1,Q1FrontDown,-42.12283,25.62425,-11.94701,-67.6953,-99.7943,140.305,-27.09392,202408291727411987,
2-22,A_Baseline,1,Q1FrontDown,-42.12283,25.62425,-11.94701,-67.6953,-99.7943,140.305,-27.09392,202408291727412299,
2-22,A_Baseline,1,Q1FrontDown,-42.89448,25.41763,-11.51386,-67.74509,-99.79417,140.3055,-27.12293,202408291727412558,
2-22,A_Baseline,1,Q1FrontDown,-43.72982,25.21407,-10.98583,-67.78524,-99.79393,140.3064,-27.15719,202408291727412798,
2-22,A_Baseline,1,Q1FrontDown,-43.72982,25.21407,-10.98583,-67.78524,-99.79393,140.3064,-27.15719,202408291727412985,
2-22,A_Baseline,1,Q1FrontDown,-44.48862,25.00742,-10.50929,-67.82301,-99.79362,140.3065,-27.18819,202408291727413153,
2-22,A_Baseline,1,Q1FrontDown,-45.23387,24.83576,-10.07943,-67.85651,-99.79904,140.3069,-27.21669,202408291727413345,
2-22,A_Baseline,1,Q1FrontDown,-45.23387,24.83576,-10.07943,-67.85651,-99.79904,140.3069,-27.21669,202408291727413508,
2-22,A_Baseline,1,Q1FrontDown,-45.23387,24.83576,-10.07943,-67.85651,-99.79904,140.3069,-27.21669,202408291727413678,
2-22,A_Baseline,1,Q1FrontDown,-45.95541,24.66613,-9.627272,-67.89664,-99.80476,140.3069,-27.24497,202408291727413854,
2-22,A_Baseline,1,Q1FrontDown,-46.57265,24.52637,-9.266212,-67.91669,-99.80486,140.3058,-27.24925,202408291727414150,
2-22,A_Baseline,1,Q1FrontDown,-47.14173,24.39833,-8.924214,-67.92727,-99.80474,140.3012,-27.25501,202408291727414307,
2-22,A_Baseline,1,Q1FrontDown,-47.5907,24.28883,-8.653051,-67.93562,-99.80463,140.2843,-27.26345,202408291727414661,
2-22,A_Baseline,1,Q1FrontDown,-47.99228,24.18598,-8.383905,-67.93876,-99.80484,140.2769,-27.27027,202408291727415044,
2-22,A_Baseline,1,Q1FrontDown,-47.99228,24.18598,-8.383905,-67.93876,-99.80484,140.2769,-27.27027,202408291727415306,
2-22,A_Baseline,1,Q1FrontDown,-48.26469,24.11083,-8.201493,-67.93667,-99.80473,140.268,-27.26587,202408291727415472,
2-22,A_Baseline,1,Q1FrontDown,-48.44065,24.05689,-8.076717,-67.93608,-99.80452,140.2685,-27.24433,202408291727415743,
2-22,A_Baseline,1,Q1FrontDown,-48.57328,24.02,-7.947886,-67.93612,-99.80448,140.2685,-27.22938,202408291727416032,
2-22,A_Baseline,1,Q1FrontDown,-48.57328,24.02,-7.947886,-67.93612,-99.80448,140.2685,-27.22938,202408291727416199,
2-22,A_Baseline,1,Q1FrontDown,-48.6156,24.01179,-7.878125,-67.91378,-99.80302,140.2712,-27.22149,202408291727416484,
2-22,A_Baseline,1,Q1FrontDown,-48.61075,24.02184,-7.850831,-67.87421,-99.80385,140.2735,-27.22025,202408291727416799,
2-22,A_Baseline,1,Q1FrontDown,-48.57183,24.05182,-7.847167,-67.8439,-99.80997,140.2862,-27.22144,202408291727416964,
2-22,A_Baseline,1,Q1FrontDown,-48.57183,24.05182,-7.847167,-67.8439,-99.80997,140.2862,-27.22144,202408291727417199,
2-22,A_Baseline,1,Q1FrontDown,-48.53806,24.07507,-7.818949,-67.7952,-99.81239,140.2916,-27.25362,202408291727417360,
2-22,A_Baseline,1,Q1FrontDown,-48.53806,24.07507,-7.818949,-67.7952,-99.81239,140.2916,-27.25362,202408291727417654,
2-22,A_Baseline,1,Q1FrontDown,-48.51542,24.11414,-7.767563,-67.72427,-99.81264,140.2919,-27.2836,202408291727417819,
2-22,A_Baseline,1,Q1FrontDown,-48.52388,24.15993,-7.670726,-67.63075,-99.81266,140.3048,-27.283,202408291727417978,
2-22,A_Baseline,1,Q1FrontDown,-48.52388,24.15993,-7.670726,-67.63075,-99.81266,140.3048,-27.283,202408291727418188,
2-22,A_Baseline,1,Q1FrontDown,-48.52892,24.20458,-7.573689,-67.53983,-99.81274,140.33,-27.28292,202408291727418573,
2-22,A_Baseline,1,Q1FrontDown,-48.53063,24.24545,-7.483017,-67.4558,-99.81303,140.3587,-27.28222,202408291727418809,
2-22,A_Baseline,1,Q1FrontDown,-48.53115,24.27902,-7.387889,-67.39774,-99.813,140.3807,-27.28059,202408291727419029,
2-22,A_Baseline,1,Q1FrontDown,-48.52565,24.30973,-7.299342,-67.36302,-99.81293,140.4094,-27.27985,202408291727419294,
2-22,A_Baseline,1,Q1FrontDown,-48.52565,24.30973,-7.299342,-67.36302,-99.81293,140.4094,-27.27985,202408291727419491,
2-22,A_Baseline,1,Q1FrontDown,-48.5211,24.33826,-7.222322,-67.34635,-99.81345,140.4377,-27.27978,202408291727419730,
2-22,A_Baseline,1,Q1FrontDown,-48.49961,24.38398,-7.166749,-67.34065,-99.81388,140.4435,-27.27948,202408291727419984,
2-22,A_Baseline,1,Q1FrontDown,-48.48927,24.45107,-7.103936,-67.33852,-99.82993,140.4571,-27.28022,202408291727420390,
2-22,A_Baseline,1,Q1FrontDown,-48.48927,24.45107,-7.103936,-67.33852,-99.82993,140.4571,-27.28022,202408291727420643,
2-22,A_Baseline,1,Q1FrontDown,-48.48311,24.53856,-7.045289,-67.34074,-99.84156,140.4829,-27.28051,202408291727420881,
2-22,A_Baseline,1,Q1FrontDown,-48.47018,24.65534,-7.004457,-67.34058,-99.84637,140.5237,-27.2801,202408291727421170,
2-22,A_Baseline,1,Q1FrontDown,-48.4348,24.80943,-6.982742,-67.34441,-99.85618,140.5477,-27.28018,202408291727421481,
2-22,A_Baseline,1,Q1FrontDown,-48.4348,24.80943,-6.982742,-67.34441,-99.85618,140.5477,-27.28018,202408291727421656,
2-22,A_Baseline,1,Q1FrontDown,-48.38919,24.97491,-6.978005,-67.36006,-99.8642,140.5576,-27.28043,202408291727421840,
2-22,A_Baseline,1,Q1FrontDown,-48.30107,25.18321,-6.98037,-67.37946,-99.86406,140.5883,-27.28022,202408291727422129,
2-22,A_Baseline,1,Q1FrontDown,-48.30107,25.18321,-6.98037,-67.37946,-99.86406,140.5883,-27.28022,202408291727422307,
2-22,A_Baseline,1,Q1FrontDown,-48.30107,25.18321,-6.98037,-67.37946,-99.86406,140.5883,-27.28022,202408291727422480,
2-22,A_Baseline,1,Q1FrontDown,-48.0904,25.61457,-6.978821,-67.41296,-99.86433,140.6486,-27.28109,202408291727422639,
2-22,A_Baseline,1,Q1FrontDown,-48.0904,25.61457,-6.978821,-67.41296,-99.86433,140.6486,-27.28109,202408291727422819,
2-22,A_Baseline,1,Q1FrontDown,-48.0904,25.61457,-6.978821,-67.41296,-99.86433,140.6486,-27.28109,202408291727423076,
2-22,A_Baseline,1,Q1FrontDown,-47.66013,26.131,-7.102416,-67.41964,-99.86387,140.6619,-27.28211,202408291727423312,
2-22,A_Baseline,1,Q1FrontDown,-47.66013,26.131,-7.102416,-67.41964,-99.86387,140.6619,-27.28211,202408291727423565,
2-22,A_Baseline,1,Q1FrontDown,-47.33119,26.41346,-7.291054,-67.42081,-99.86243,140.684,-27.2809,202408291727423824,
2-22,A_Baseline,1,Q1FrontDown,-46.89255,26.73014,-7.562819,-67.40726,-99.86119,140.7177,-27.27873,202408291727424032,
2-22,A_Baseline,1,Q1FrontDown,-46.89255,26.73014,-7.562819,-67.40726,-99.86119,140.7177,-27.27873,202408291727424320,
2-22,A_Baseline,1,Q1FrontDown,-45.83268,27.42332,-8.16946,-67.34323,-99.84789,140.6742,-27.27837,202408291727424669,
2-22,A_Baseline,1,Q1FrontDown,-45.83268,27.42332,-8.16946,-67.34323,-99.84789,140.6742,-27.27837,202408291727424796,
2-22,A_Baseline,1,Q1FrontDown,-45.83268,27.42332,-8.16946,-67.34323,-99.84789,140.6742,-27.27837,202408291727424979,
2-22,A_Baseline,1,Q1FrontDown,-45.25085,27.82143,-8.433175,-67.27778,-99.84728,140.6619,-27.26427,202408291727425224,
2-22,A_Baseline,1,Q1FrontDown,-44.63496,28.19093,-8.663065,-67.23287,-99.84721,140.6619,-27.25177,202408291727425474,
2-22,A_Baseline,1,Q1FrontDown,-44.63496,28.19093,-8.663065,-67.23287,-99.84721,140.6619,-27.25177,202408291727425680,
2-22,A_Baseline,1,Q1FrontDown,-44.04884,28.5735,-8.857593,-67.19205,-99.84704,140.6673,-27.24615,202408291727425848,
2-22,A_Baseline,1,Q1FrontDown,-43.45748,28.94896,-8.958923,-67.14298,-99.84666,140.7335,-27.24603,202408291727426002,
2-22,A_Baseline,1,Q1FrontDown,-43.45748,28.94896,-8.958923,-67.14298,-99.84666,140.7335,-27.24603,202408291727426224,
2-22,A_Baseline,1,Q1FrontDown,-42.85547,29.32644,-9.030391,-67.10796,-99.84702,140.7729,-27.24336,202408291727426501,
2-22,A_Baseline,1,Q1FrontDown,-42.30179,29.64071,-9.062721,-67.10105,-99.84754,140.7877,-27.2349,202408291727426698,
2-22,A_Baseline,1,Q1FrontDown,-41.73279,29.94371,-9.057606,-67.09382,-99.84743,140.7877,-27.21293,202408291727426965,
2-22,A_Baseline,1,Q1FrontDown,-41.73279,29.94371,-9.057606,-67.09382,-99.84743,140.7877,-27.21293,202408291727427138,
2-22,A_Baseline,1,Q1FrontDown,-41.18334,30.22209,-9.027213,-67.08585,-99.84757,140.7873,-27.20006,202408291727427351,
2-22,A_Baseline,1,Q1FrontDown,-40.66671,30.46072,-8.950723,-67.08199,-99.84761,140.7878,-27.19058,202408291727427644,
2-22,A_Baseline,1,Q1FrontDown,-40.66671,30.46072,-8.950723,-67.08199,-99.84761,140.7878,-27.19058,202408291727427806,
2-22,A_Baseline,1,Q1FrontDown,-40.14518,30.67292,-8.868793,-67.07672,-99.8478,140.7878,-27.18036,202408291727427989,
2-22,A_Baseline,1,Q1FrontDown,-40.14518,30.67292,-8.868793,-67.07672,-99.8478,140.7878,-27.18036,202408291727428198,
2-22,A_Baseline,1,Q1FrontDown,-39.67221,30.84093,-8.809731,-67.06541,-99.84772,140.7881,-27.16842,202408291727428395,
2-22,A_Baseline,1,Q1FrontDown,-39.2285,30.97335,-8.71702,-67.06301,-99.84785,140.7877,-27.15708,202408291727428651,
2-22,A_Baseline,1,Q1FrontDown,-39.2285,30.97335,-8.71702,-67.06301,-99.84785,140.7877,-27.15708,202408291727428855,
2-22,A_Baseline,1,Q1FrontDown,-38.80821,31.07653,-8.586974,-67.06332,-99.84786,140.7877,-27.14321,202408291727429174,
2-22,A_Baseline,1,Q1FrontDown,-38.40524,31.13686,-8.450929,-67.06392,-99.84798,140.7876,-27.13267,202408291727429607,
2-22,A_Baseline,1,Q1FrontDown,-38.40524,31.13686,-8.450929,-67.06392,-99.84798,140.7876,-27.13267,202408291727429779,
2-22,A_Baseline,1,Q1FrontDown,-37.672,31.15621,-8.192607,-67.05822,-99.8479,140.7874,-27.09556,202408291727429995,
2-22,A_Baseline,1,Q1FrontDown,-37.31191,31.13886,-8.049908,-67.04358,-99.84725,140.7884,-27.07683,202408291727430292,
2-22,A_Baseline,1,Q1FrontDown,-37.31191,31.13886,-8.049908,-67.04358,-99.84725,140.7884,-27.07683,202408291727430472,
2-22,A_Baseline,1,Q1FrontDown,-36.97522,31.10452,-7.884096,-67.03007,-99.84721,140.788,-27.06024,202408291727430733,
2-22,A_Baseline,1,Q1FrontDown,-36.6725,31.07093,-7.720816,-67.01055,-99.84715,140.788,-27.04871,202408291727431022,
2-22,A_Baseline,1,Q1FrontDown,-36.6725,31.07093,-7.720816,-67.01055,-99.84715,140.788,-27.04871,202408291727431155,
2-22,A_Baseline,1,Q1FrontDown,-36.40557,31.02499,-7.500374,-66.97398,-99.84373,140.7882,-27.04073,202408291727431543,
2-22,A_Baseline,1,Q1FrontDown,-36.14187,30.99302,-7.286275,-66.91622,-99.83846,140.7887,-27.03966,202408291727431818,
2-22,A_Baseline,1,Q1FrontDown,-35.87461,30.95814,-7.087041,-66.84541,-99.83392,140.7887,-27.03878,202408291727432126,
2-22,A_Baseline,1,Q1FrontDown,-35.67443,30.90901,-6.855803,-66.78584,-99.82807,140.7882,-27.0395,202408291727432309,
2-22,A_Baseline,1,Q1FrontDown,-35.49956,30.84695,-6.613317,-66.7313,-99.82336,140.788,-27.04026,202408291727432640,
2-22,A_Baseline,1,Q1FrontDown,-35.49956,30.84695,-6.613317,-66.7313,-99.82336,140.788,-27.04026,202408291727432881,
2-22,A_Baseline,1,Q1FrontDown,-35.37278,30.77218,-6.338259,-66.66957,-99.82198,140.7889,-27.04165,202408291727433128,
2-22,A_Baseline,1,Q1FrontDown,-35.30972,30.69965,-6.029874,-66.61093,-99.82235,140.7879,-27.02949,202408291727433299,
2-22,A_Baseline,1,Q1FrontDown,-35.30972,30.69965,-6.029874,-66.61093,-99.82235,140.7879,-27.02949,202408291727433501,
2-22,A_Baseline,1,Q1FrontDown,-35.27121,30.6036,-5.727799,-66.56088,-99.82391,140.7878,-26.9942,202408291727433678,
2-22,A_Baseline,1,Q1FrontDown,-35.27121,30.6036,-5.727799,-66.56088,-99.82391,140.7878,-26.9942,202408291727433850,
2-22,A_Baseline,1,Q1FrontDown,-35.27396,30.48502,-5.382793,-66.53389,-99.82427,140.7879,-26.97047,202408291727434140,
2-22,A_Baseline,1,Q1FrontDown,-35.30602,30.3424,-5.032417,-66.49718,-99.8242,140.8128,-26.95242,202408291727434468,
2-22,A_Baseline,1,Q1FrontDown,-35.3382,30.21243,-4.697774,-66.43489,-99.82458,140.8604,-26.94854,202408291727434748,
2-22,A_Baseline,1,Q1FrontDown,-35.3382,30.21243,-4.697774,-66.43489,-99.82458,140.8604,-26.94854,202408291727435019,
2-22,A_Baseline,1,Q1FrontDown,-35.46014,29.88502,-4.052432,-66.26442,-99.82464,140.9539,-26.94054,202408291727435299,
2-22,A_Baseline,1,Q1FrontDown,-35.55851,29.71473,-3.69373,-66.1677,-99.82434,141.0187,-26.94491,202408291727435667,
2-22,A_Baseline,1,Q1FrontDown,-35.55851,29.71473,-3.69373,-66.1677,-99.82434,141.0187,-26.94491,202408291727435818,
2-22,A_Baseline,1,Q1FrontDown,-35.66876,29.5387,-3.347599,-66.04633,-99.82446,141.1495,-26.97363,202408291727436102,
2-22,A_Baseline,1,Q1FrontDown,-35.82902,29.35085,-2.955546,-65.93414,-99.82839,141.2512,-26.98053,202408291727436505,
2-22,A_Baseline,1,Q1FrontDown,-36.00126,29.1533,-2.566267,-65.8484,-99.83195,141.3194,-26.97571,202408291727436816,
2-22,A_Baseline,1,Q1FrontDown,-36.00126,29.1533,-2.566267,-65.8484,-99.83195,141.3194,-26.97571,202408291727437020,
2-22,A_Baseline,1,Q1FrontDown,-36.31713,28.70148,-1.845423,-65.73238,-99.8333,141.47,-26.9652,202408291727437308,
2-22,A_Baseline,1,Q1FrontDown,-36.31713,28.70148,-1.845423,-65.73238,-99.8333,141.47,-26.9652,202408291727437474,
2-22,A_Baseline,1,Q1FrontDown,-36.51103,28.47273,-1.452703,-65.68381,-99.83392,141.5651,-26.96577,202408291727437639,
2-22,A_Baseline,1,Q1FrontDown,-36.51103,28.47273,-1.452703,-65.68381,-99.83392,141.5651,-26.96577,202408291727437907,
2-22,A_Baseline,1,Q1FrontDown,-36.51103,28.47273,-1.452703,-65.68381,-99.83392,141.5651,-26.96577,202408291727438123,
2-22,A_Baseline,1,Q1FrontDown,-36.75415,28.2655,-0.9935986,-65.6079,-99.83358,141.6724,-26.96614,202408291727438305,
2-22,A_Baseline,1,Q1FrontDown,-36.98275,28.05536,-0.5519298,-65.53632,-99.83344,141.7588,-26.9653,202408291727438499,
2-22,A_Baseline,1,Q1FrontDown,-37.20366,27.86488,-0.160238,-65.45569,-99.83625,141.831,-26.96559,202408291727438680,
2-22,A_Baseline,1,Q1FrontDown,-37.4924,27.69103,0.3064025,-65.37973,-99.85168,141.8426,-26.96494,202408291727438991,
2-22,A_Baseline,1,Q1FrontDown,-37.4924,27.69103,0.3064025,-65.37973,-99.85168,141.8426,-26.96494,202408291727439202,
2-22,A_Baseline,1,Q1FrontDown,-37.74336,27.52743,0.7397153,-65.30885,-99.85718,141.8618,-26.96492,202408291727439456,
2-22,A_Baseline,1,Q1FrontDown,-37.74336,27.52743,0.7397153,-65.30885,-99.85718,141.8618,-26.96492,202408291727439636,
2-22,A_Baseline,1,Q1FrontDown,-37.98639,27.37923,1.145139,-65.24196,-99.86018,141.8855,-26.96521,202408291727439814,
2-22,A_Baseline,1,Q1FrontDown,-38.22323,27.22804,1.547368,-65.18909,-99.86163,141.9096,-26.96549,202408291727439963,
2-22,A_Baseline,1,Q1FrontDown,-38.22323,27.22804,1.547368,-65.18909,-99.86163,141.9096,-26.96549,202408291727440142,
2-22,A_Baseline,1,Q1FrontDown,-38.42606,27.09803,1.899465,-65.14504,-99.86219,141.9274,-26.96498,202408291727440411,
2-22,A_Baseline,1,Q1FrontDown,-38.64429,26.98708,2.288908,-65.10799,-99.86301,141.9424,-26.96576,202408291727440648,
2-22,A_Baseline,1,Q1FrontDown,-38.64429,26.98708,2.288908,-65.10799,-99.86301,141.9424,-26.96576,202408291727440858,
2-22,A_Baseline,1,Q1FrontDown,-38.85211,26.90321,2.638999,-65.06057,-99.86514,141.9669,-26.96716,202408291727441073,
2-22,A_Baseline,1,Q1FrontDown,-39.05991,26.83135,2.976213,-65.01176,-99.87086,141.9992,-26.96675,202408291727441348,
2-22,A_Baseline,1,Q1FrontDown,-39.05991,26.83135,2.976213,-65.01176,-99.87086,141.9992,-26.96675,202408291727441532,
2-22,A_Baseline,1,Q1FrontDown,-39.23782,26.79202,3.251343,-64.96598,-99.87601,142.0442,-26.96768,202408291727441823,
2-22,A_Baseline,1,Q1FrontDown,-39.40403,26.76438,3.517633,-64.94271,-99.87708,142.086,-26.97189,202408291727442162,
2-22,A_Baseline,1,Q1FrontDown,-39.53006,26.75939,3.734732,-64.93266,-99.87746,142.149,-26.98032,202408291727442358,
2-22,A_Baseline,1,Q1FrontDown,-39.53006,26.75939,3.734732,-64.93266,-99.87746,142.149,-26.98032,202408291727442568,
2-22,A_Baseline,1,Q1FrontDown,-39.62646,26.76234,3.874917,-64.92976,-99.87728,142.2156,-26.9823,202408291727442861,
2-22,A_Baseline,1,Q1FrontDown,-39.6474,26.77585,3.881866,-64.93681,-99.87745,142.25,-26.99436,202408291727443194,
2-22,A_Baseline,1,Q1FrontDown,-39.66245,26.79551,3.884566,-64.94362,-99.87722,142.2744,-27.00661,202408291727443565,
2-22,A_Baseline,1,Q1FrontDown,-39.66943,26.82414,3.881636,-64.94958,-99.8771,142.2997,-27.01567,202408291727443851,
2-22,A_Baseline,1,Q1FrontDown,-39.63596,26.88532,3.824807,-64.94701,-99.8765,142.3295,-27.02946,202408291727444198,
2-22,A_Baseline,1,Q1FrontDown,-39.53888,26.95354,3.692042,-64.94256,-99.87302,142.3386,-27.03353,202408291727444465,
2-22,A_Baseline,1,Q1FrontDown,-39.39646,27.0336,3.504928,-64.93902,-99.8705,142.314,-27.03181,202408291727444656,
2-22,A_Baseline,1,Q1FrontDown,-39.39646,27.0336,3.504928,-64.93902,-99.8705,142.314,-27.03181,202408291727444902,
2-22,A_Baseline,1,Q1FrontDown,-39.1335,27.15206,3.144318,-64.90505,-99.87143,142.299,-27.03174,202408291727445140,
2-22,A_Baseline,1,Q1FrontDown,-38.88056,27.29676,2.830375,-64.87167,-99.87132,142.282,-27.03166,202408291727445299,
2-22,A_Baseline,1,Q1FrontDown,-38.88056,27.29676,2.830375,-64.87167,-99.87132,142.282,-27.03166,202408291727445507,
2-22,A_Baseline,1,Q1FrontDown,-38.34186,27.66513,2.109507,-64.77193,-99.85696,142.275,-27.03304,202408291727445948,
2-22,A_Baseline,1,Q1FrontDown,-38.34186,27.66513,2.109507,-64.77193,-99.85696,142.275,-27.03304,202408291727446265,
2-22,A_Baseline,1,Q1FrontDown,-38.0139,27.88326,1.650601,-64.68291,-99.85526,142.2757,-27.02887,202408291727446498,
2-22,A_Baseline,1,Q1FrontDown,-37.65037,28.1249,1.150265,-64.58734,-99.85476,142.272,-27.01417,202408291727446796,
2-22,A_Baseline,1,Q1FrontDown,-37.22901,28.40476,0.5397852,-64.47166,-99.8553,142.2485,-27.01039,202408291727446963,
2-22,A_Baseline,1,Q1FrontDown,-37.22901,28.40476,0.5397852,-64.47166,-99.8553,142.2485,-27.01039,202408291727447183,
2-22,A_Baseline,1,Q1FrontDown,-36.77621,28.7355,-0.1385197,-64.36877,-99.85567,142.2008,-26.99992,202408291727447386,
2-22,A_Baseline,1,Q1FrontDown,-36.35657,29.04042,-0.8005109,-64.29827,-99.85564,142.1328,-26.98924,202408291727447654,
2-22,A_Baseline,1,Q1FrontDown,-36.35657,29.04042,-0.8005109,-64.29827,-99.85564,142.1328,-26.98924,202408291727447806,
2-22,A_Baseline,1,Q1FrontDown,-35.94963,29.36455,-1.44346,-64.24076,-99.85574,142.0708,-26.98173,202408291727447989,
2-22,A_Baseline,1,Q1FrontDown,-35.94963,29.36455,-1.44346,-64.24076,-99.85574,142.0708,-26.98173,202408291727448222,
2-22,A_Baseline,1,Q1FrontDown,-35.6012,29.66628,-2.019961,-64.19907,-99.85535,142.0348,-26.98111,202408291727448506,
2-22,A_Baseline,1,Q1FrontDown,-35.25119,30.00904,-2.634343,-64.1703,-99.85529,142.0106,-26.9797,202408291727448821,
2-22,A_Baseline,1,Q1FrontDown,-34.90319,30.33902,-3.231498,-64.14931,-99.85678,142.0078,-26.95881,202408291727449064,
2-22,A_Baseline,1,Q1FrontDown,-34.5734,30.66215,-3.807519,-64.13852,-99.8574,142.0065,-26.94639,202408291727449370,
2-22,A_Baseline,1,Q1FrontDown,-34.27396,30.96673,-4.315796,-64.12224,-99.85734,142.0065,-26.93214,202408291727449641,
2-22,A_Baseline,1,Q1FrontDown,-34.27396,30.96673,-4.315796,-64.12224,-99.85734,142.0065,-26.93214,202408291727449803,
2-22,A_Baseline,1,Q1FrontDown,-33.97914,31.28477,-4.847467,-64.11269,-99.85921,141.9954,-26.91708,202408291727449964,
2-22,A_Baseline,1,Q1FrontDown,-33.97914,31.28477,-4.847467,-64.11269,-99.85921,141.9954,-26.91708,202408291727450139,
2-22,A_Baseline,1,Q1FrontDown,-33.6813,31.60969,-5.404345,-64.11127,-99.86069,141.9861,-26.9069,202408291727450399,
2-22,A_Baseline,1,Q1FrontDown,-33.6813,31.60969,-5.404345,-64.11127,-99.86069,141.9861,-26.9069,202408291727450571,
2-22,A_Baseline,1,Q1FrontDown,-33.4002,31.89891,-5.919075,-64.11327,-99.86073,141.9835,-26.89614,202408291727450800,
2-22,A_Baseline,1,Q1FrontDown,-33.06389,32.20221,-6.502709,-64.11097,-99.86134,141.9793,-26.88967,202408291727450996,
2-22,A_Baseline,1,Q1FrontDown,-32.72421,32.50588,-7.086584,-64.10247,-99.86112,141.9279,-26.88668,202408291727451335,
2-22,A_Baseline,1,Q1FrontDown,-32.72421,32.50588,-7.086584,-64.10247,-99.86112,141.9279,-26.88668,202408291727451523,
2-22,A_Baseline,1,Q1FrontDown,-32.72421,32.50588,-7.086584,-64.10247,-99.86112,141.9279,-26.88668,202408291727451821,
2-22,A_Baseline,1,Q1FrontDown,-32.05149,33.11478,-8.273273,-64.09547,-99.86144,141.7816,-26.88709,202408291727452185,
2-22,A_Baseline,1,Q1FrontDown,-31.71721,33.41373,-8.843797,-64.09528,-99.86153,141.7253,-26.88879,202408291727452474,
2-22,A_Baseline,1,Q1FrontDown,-31.40076,33.70199,-9.338863,-64.08881,-99.86137,141.6741,-26.88902,202408291727452708,
2-22,A_Baseline,1,Q1FrontDown,-31.40076,33.70199,-9.338863,-64.08881,-99.86137,141.6741,-26.88902,202408291727452970,
2-22,A_Baseline,1,Q1FrontDown,-31.06929,34.02482,-9.882275,-64.04891,-99.86118,141.5971,-26.89004,202408291727453165,
2-22,A_Baseline,1,Q1FrontDown,-30.74489,34.36197,-10.42776,-63.99603,-99.86124,141.5259,-26.89451,202408291727453353,
2-22,A_Baseline,1,Q1FrontDown,-30.74489,34.36197,-10.42776,-63.99603,-99.86124,141.5259,-26.89451,202408291727453510,
2-22,A_Baseline,1,Q1FrontDown,-30.74489,34.36197,-10.42776,-63.99603,-99.86124,141.5259,-26.89451,202408291727453735,
2-22,A_Baseline,1,Q1FrontDown,-30.12078,35.11703,-11.44712,-63.75581,-99.85305,141.3989,-26.93671,202408291727453986,
2-22,A_Baseline,1,Q1FrontDown,-29.79427,35.55325,-11.95652,-63.58229,-99.85105,141.3405,-26.95331,202408291727454316,
2-22,A_Baseline,1,Q1FrontDown,-29.49885,36.01436,-12.46683,-63.41834,-99.85111,141.2672,-26.95724,202408291727454659,
2-22,A_Baseline,1,Q1FrontDown,-29.49885,36.01436,-12.46683,-63.41834,-99.85111,141.2672,-26.95724,202408291727454858,
2-22,A_Baseline,1,Q1FrontDown,-29.23038,36.46457,-12.93362,-63.27442,-99.85132,141.198,-26.95987,202408291727455141,
2-22,A_Baseline,1,Q1FrontDown,-28.95632,36.96199,-13.40087,-63.1057,-99.85077,141.1474,-26.97273,202408291727455397,
2-22,A_Baseline,1,Q1FrontDown,-28.71068,37.43201,-13.82371,-62.96738,-99.85057,141.1091,-26.9871,202408291727455669,
2-22,A_Baseline,1,Q1FrontDown,-28.71068,37.43201,-13.82371,-62.96738,-99.85057,141.1091,-26.9871,202408291727455847,
2-22,A_Baseline,1,Q1FrontDown,-28.45461,37.93756,-14.25576,-62.84779,-99.85081,141.0689,-26.98737,202408291727456043,
2-22,A_Baseline,1,Q1FrontDown,-28.22992,38.43833,-14.66866,-62.7392,-99.85072,141.0306,-26.99068,202408291727456304,
2-22,A_Baseline,1,Q1FrontDown,-28.22992,38.43833,-14.66866,-62.7392,-99.85072,141.0306,-26.99068,202408291727456495,
2-22,A_Baseline,1,Q1FrontDown,-28.02797,38.93317,-15.0474,-62.66722,-99.85091,140.9909,-26.99618,202408291727456654,
2-22,A_Baseline,1,Q1FrontDown,-28.02797,38.93317,-15.0474,-62.66722,-99.85091,140.9909,-26.99618,202408291727456844,
2-22,A_Baseline,1,Q1FrontDown,-27.83891,39.45623,-15.39845,-62.59476,-99.85074,140.9484,-27.0052,202408291727457182,
2-22,A_Baseline,1,Q1FrontDown,-27.65569,39.98134,-15.74341,-62.51888,-99.85067,140.9107,-27.00977,202408291727457463,
2-22,A_Baseline,1,Q1FrontDown,-27.65569,39.98134,-15.74341,-62.51888,-99.85067,140.9107,-27.00977,202408291727457635,
2-22,A_Baseline,1,Q1FrontDown,-27.50922,40.47822,-16.05057,-62.46845,-99.85027,140.8833,-27.01506,202408291727457811,
2-22,A_Baseline,1,Q1FrontDown,-27.34355,41.01693,-16.3674,-62.4,-99.85037,140.8732,-27.01687,202408291727458032,
2-22,A_Baseline,1,Q1FrontDown,-27.34355,41.01693,-16.3674,-62.4,-99.85037,140.8732,-27.01687,202408291727458232,
2-22,A_Baseline,1,Q1FrontDown,-27.34355,41.01693,-16.3674,-62.4,-99.85037,140.8732,-27.01687,202408291727458399,
2-22,A_Baseline,1,Q1FrontDown,-27.08182,42.00807,-16.89549,-62.29549,-99.85041,140.8599,-27.01854,202408291727458694,
2-22,A_Baseline,1,Q1FrontDown,-26.93887,42.50571,-17.18557,-62.25084,-99.85064,140.8595,-27.0186,202408291727459001,
2-22,A_Baseline,1,Q1FrontDown,-26.93887,42.50571,-17.18557,-62.25084,-99.85064,140.8595,-27.0186,202408291727459191,
2-22,A_Baseline,1,Q1FrontDown,-26.81315,42.98549,-17.451,-62.19001,-99.8507,140.8601,-27.01811,202408291727459476,
2-22,A_Baseline,1,Q1FrontDown,-26.81315,42.98549,-17.451,-62.19001,-99.8507,140.8601,-27.01811,202408291727459643,
2-22,A_Baseline,1,Q1FrontDown,-26.69217,43.44276,-17.72058,-62.15648,-99.85032,140.8598,-27.01783,202408291727459807,
2-22,A_Baseline,1,Q1FrontDown,-26.55508,43.91838,-18.02991,-62.12978,-99.85059,140.8588,-27.01775,202408291727460065,
2-22,A_Baseline,1,Q1FrontDown,-26.55508,43.91838,-18.02991,-62.12978,-99.85059,140.8588,-27.01775,202408291727460223,
2-22,A_Baseline,1,Q1FrontDown,-26.41297,44.40194,-18.3623,-62.091,-99.85051,140.8575,-27.01809,202408291727460513,
2-22,A_Baseline,1,Q1FrontDown,-26.27566,44.86017,-18.68308,-62.06109,-99.8506,140.8569,-27.01811,202408291727460651,
