mpan31415/robot-x-ar/study2/data/raw_all_participants/Participant_2-16_1.csv
ParticipantID,Condition,Trial,PostureID,J1,J2,J3,J4,J5,J6,J7,Timestamp,
2-16,A_Baseline,1,Q3FrontDown,-26.00948,12.92879,66.16743,-23.84763,-93.9099,146.2001,-56.63563,202408231410262749,
2-16,A_Baseline,1,Q3FrontDown,-26.0109,12.92883,66.17039,-23.84775,-93.90987,146.2001,-56.63574,202408231410263183,
2-16,A_Baseline,1,Q3FrontDown,-26.02312,12.92881,66.18111,-23.84789,-93.91003,146.2002,-56.63562,202408231410263493,
2-16,A_Baseline,1,Q3FrontDown,-26.05279,12.92872,66.20887,-23.8479,-93.91081,146.2004,-56.63548,202408231410263807,
2-16,A_Baseline,1,Q3FrontDown,-26.05279,12.92872,66.20887,-23.8479,-93.91081,146.2004,-56.63548,202408231410263994,
2-16,A_Baseline,1,Q3FrontDown,-26.22204,12.9255,66.37437,-23.87649,-94.01061,146.2023,-56.63443,202408231410264369,
2-16,A_Baseline,1,Q3FrontDown,-26.8693,12.89307,66.88146,-24.05745,-94.22827,146.2024,-56.62171,202408231410264662,
2-16,A_Baseline,1,Q3FrontDown,-27.51513,12.88751,67.3008,-24.18387,-94.42332,146.2016,-56.61178,202408231410264913,
2-16,A_Baseline,1,Q3FrontDown,-27.51513,12.88751,67.3008,-24.18387,-94.42332,146.2016,-56.61178,202408231410265083,
2-16,A_Baseline,1,Q3FrontDown,-28.73209,12.91309,67.97208,-24.32784,-94.80566,146.1996,-56.60048,202408231410265471,
2-16,A_Baseline,1,Q3FrontDown,-28.73209,12.91309,67.97208,-24.32784,-94.80566,146.1996,-56.60048,202408231410265610,
2-16,A_Baseline,1,Q3FrontDown,-28.73209,12.91309,67.97208,-24.32784,-94.80566,146.1996,-56.60048,202408231410265914,
2-16,A_Baseline,1,Q3FrontDown,-29.32208,12.93124,68.25935,-24.35266,-95.00315,146.1996,-56.59438,202408231410266076,
2-16,A_Baseline,1,Q3FrontDown,-29.84248,12.95014,68.50146,-24.40104,-95.19016,146.1992,-56.58984,202408231410266260,
2-16,A_Baseline,1,Q3FrontDown,-29.84248,12.95014,68.50146,-24.40104,-95.19016,146.1992,-56.58984,202408231410266426,
2-16,A_Baseline,1,Q3FrontDown,-30.29379,12.98311,68.71897,-24.45074,-95.34348,146.1992,-56.58421,202408231410266594,
2-16,A_Baseline,1,Q3FrontDown,-30.73867,13.01689,68.94625,-24.49923,-95.4676,146.1987,-56.58229,202408231410266804,
2-16,A_Baseline,1,Q3FrontDown,-31.12915,13.05323,69.13894,-24.53789,-95.59618,146.1986,-56.58071,202408231410267093,
2-16,A_Baseline,1,Q3FrontDown,-31.48294,13.07505,69.29391,-24.57117,-95.72494,146.1987,-56.58014,202408231410267414,
2-16,A_Baseline,1,Q3FrontDown,-31.48294,13.07505,69.29391,-24.57117,-95.72494,146.1987,-56.58014,202408231410267581,
2-16,A_Baseline,1,Q3FrontDown,-31.79424,13.11215,69.44667,-24.59605,-95.84649,146.1985,-56.57919,202408231410267751,
2-16,A_Baseline,1,Q3FrontDown,-31.79424,13.11215,69.44667,-24.59605,-95.84649,146.1985,-56.57919,202408231410267993,
2-16,A_Baseline,1,Q3FrontDown,-32.11787,13.13651,69.60398,-24.62614,-95.97697,146.1986,-56.57941,202408231410268253,
2-16,A_Baseline,1,Q3FrontDown,-32.38172,13.15922,69.7384,-24.64692,-96.09569,146.1985,-56.57854,202408231410268464,
2-16,A_Baseline,1,Q3FrontDown,-32.38172,13.15922,69.7384,-24.64692,-96.09569,146.1985,-56.57854,202408231410268628,
2-16,A_Baseline,1,Q3FrontDown,-32.62732,13.178,69.86414,-24.66493,-96.19585,146.1985,-56.57818,202408231410268782,
2-16,A_Baseline,1,Q3FrontDown,-32.62732,13.178,69.86414,-24.66493,-96.19585,146.1985,-56.57818,202408231410268960,
2-16,A_Baseline,1,Q3FrontDown,-32.85949,13.19479,69.94816,-24.6823,-96.28135,146.1985,-56.57727,202408231410269264,
2-16,A_Baseline,1,Q3FrontDown,-33.06361,13.21061,70.02724,-24.68807,-96.35908,146.1986,-56.57667,202408231410269579,
2-16,A_Baseline,1,Q3FrontDown,-33.06361,13.21061,70.02724,-24.68807,-96.35908,146.1986,-56.57667,202408231410269753,
2-16,A_Baseline,1,Q3FrontDown,-33.06361,13.21061,70.02724,-24.68807,-96.35908,146.1986,-56.57667,202408231410269916,
2-16,A_Baseline,1,Q3FrontDown,-33.42662,13.23051,70.2062,-24.70289,-96.48077,146.1987,-56.57626,202408231410270158,
2-16,A_Baseline,1,Q3FrontDown,-33.42662,13.23051,70.2062,-24.70289,-96.48077,146.1987,-56.57626,202408231410270404,
2-16,A_Baseline,1,Q3FrontDown,-33.60233,13.2377,70.30251,-24.71644,-96.52648,146.1986,-56.57627,202408231410270594,
2-16,A_Baseline,1,Q3FrontDown,-33.75189,13.24608,70.4013,-24.72861,-96.56635,146.1987,-56.576,202408231410270925,
2-16,A_Baseline,1,Q3FrontDown,-33.75189,13.24608,70.4013,-24.72861,-96.56635,146.1987,-56.576,202408231410271116,
2-16,A_Baseline,1,Q3FrontDown,-33.88762,13.25628,70.48968,-24.73393,-96.60105,146.1987,-56.57606,202408231410271303,
2-16,A_Baseline,1,Q3FrontDown,-34.01028,13.26552,70.56855,-24.73646,-96.63011,146.1986,-56.57576,202408231410271580,
2-16,A_Baseline,1,Q3FrontDown,-34.12471,13.26693,70.63794,-24.74137,-96.65965,146.1988,-56.57561,202408231410271761,
2-16,A_Baseline,1,Q3FrontDown,-34.12471,13.26693,70.63794,-24.74137,-96.65965,146.1988,-56.57561,202408231410271970,
2-16,A_Baseline,1,Q3FrontDown,-34.23219,13.26734,70.69027,-24.75207,-96.68896,146.1987,-56.57571,202408231410272253,
2-16,A_Baseline,1,Q3FrontDown,-34.23219,13.26734,70.69027,-24.75207,-96.68896,146.1987,-56.57571,202408231410272475,
2-16,A_Baseline,1,Q3FrontDown,-34.32824,13.26877,70.73203,-24.75735,-96.71975,146.1987,-56.57571,202408231410272754,
2-16,A_Baseline,1,Q3FrontDown,-34.42475,13.27054,70.77917,-24.76515,-96.74758,146.1987,-56.5757,202408231410272932,
2-16,A_Baseline,1,Q3FrontDown,-34.42475,13.27054,70.77917,-24.76515,-96.74758,146.1987,-56.5757,202408231410273086,
2-16,A_Baseline,1,Q3FrontDown,-34.53623,13.27759,70.83861,-24.76732,-96.79761,146.1989,-56.57541,202408231410273431,
2-16,A_Baseline,1,Q3FrontDown,-34.53623,13.27759,70.83861,-24.76732,-96.79761,146.1989,-56.57541,202408231410273649,
2-16,A_Baseline,1,Q3FrontDown,-34.57079,13.28088,70.8628,-24.76809,-96.81813,146.1987,-56.5755,202408231410273945,
2-16,A_Baseline,1,Q3FrontDown,-34.60337,13.28228,70.89248,-24.7711,-96.83595,146.1987,-56.57531,202408231410274124,
2-16,A_Baseline,1,Q3FrontDown,-34.60337,13.28228,70.89248,-24.7711,-96.83595,146.1987,-56.57531,202408231410274332,
2-16,A_Baseline,1,Q3FrontDown,-34.63658,13.28279,70.92995,-24.77681,-96.84968,146.1987,-56.57523,202408231410274642,
2-16,A_Baseline,1,Q3FrontDown,-34.66894,13.2853,70.96963,-24.78462,-96.8632,146.1987,-56.57552,202408231410274930,
2-16,A_Baseline,1,Q3FrontDown,-34.69477,13.28788,71.00831,-24.78694,-96.87388,146.1988,-56.57549,202408231410275096,
2-16,A_Baseline,1,Q3FrontDown,-34.69477,13.28788,71.00831,-24.78694,-96.87388,146.1988,-56.57549,202408231410275318,
2-16,A_Baseline,1,Q3FrontDown,-34.71199,13.2888,71.04237,-24.78708,-96.88587,146.1987,-56.57531,202408231410275594,
2-16,A_Baseline,1,Q3FrontDown,-34.7417,13.28952,71.09488,-24.78844,-96.89967,146.199,-56.57512,202408231410275849,
2-16,A_Baseline,1,Q3FrontDown,-34.76558,13.29057,71.14238,-24.79206,-96.90719,146.1987,-56.57521,202408231410276111,
2-16,A_Baseline,1,Q3FrontDown,-34.76558,13.29057,71.14238,-24.79206,-96.90719,146.1987,-56.57521,202408231410276275,
2-16,A_Baseline,1,Q3FrontDown,-34.78798,13.29054,71.1851,-24.79593,-96.91036,146.1987,-56.57527,202408231410276612,
2-16,A_Baseline,1,Q3FrontDown,-34.81057,13.29064,71.22544,-24.80015,-96.9129,146.1987,-56.57494,202408231410276794,
2-16,A_Baseline,1,Q3FrontDown,-34.81057,13.29064,71.22544,-24.80015,-96.9129,146.1987,-56.57494,202408231410277078,
2-16,A_Baseline,1,Q3FrontDown,-34.8247,13.29034,71.25578,-24.80104,-96.91451,146.1989,-56.57568,202408231410277406,
2-16,A_Baseline,1,Q3FrontDown,-34.8247,13.29034,71.25578,-24.80104,-96.91451,146.1989,-56.57568,202408231410277579,
2-16,A_Baseline,1,Q3FrontDown,-34.8247,13.29034,71.25578,-24.80104,-96.91451,146.1989,-56.57568,202408231410277757,
2-16,A_Baseline,1,Q3FrontDown,-34.82455,13.29055,71.26104,-24.80098,-96.91473,146.199,-56.57519,202408231410277974,
2-16,A_Baseline,1,Q3FrontDown,-34.81946,13.29123,71.26194,-24.80118,-96.915,146.1987,-56.57534,202408231410278276,
2-16,A_Baseline,1,Q3FrontDown,-34.80532,13.292,71.26141,-24.80129,-96.91492,146.1989,-56.57548,202408231410278496,
2-16,A_Baseline,1,Q3FrontDown,-34.8032,13.29217,71.26189,-24.8098,-96.91542,146.1987,-56.57593,202408231410278795,
2-16,A_Baseline,1,Q3FrontDown,-34.8032,13.29217,71.26189,-24.8098,-96.91542,146.1987,-56.57593,202408231410278977,
2-16,A_Baseline,1,Q3FrontDown,-34.80285,13.29213,71.26208,-24.82374,-96.9164,146.1988,-56.5759,202408231410279249,
2-16,A_Baseline,1,Q3FrontDown,-34.80241,13.29209,71.26231,-24.83882,-96.91737,146.1986,-56.57575,202408231410279416,
2-16,A_Baseline,1,Q3FrontDown,-34.80241,13.29209,71.26231,-24.83882,-96.91737,146.1986,-56.57575,202408231410279743,
2-16,A_Baseline,1,Q3FrontDown,-34.79395,13.29318,71.2617,-24.85329,-96.9175,146.1985,-56.57566,202408231410279921,
2-16,A_Baseline,1,Q3FrontDown,-34.7848,13.29422,71.2618,-24.86636,-96.91742,146.1984,-56.57589,202408231410280166,
2-16,A_Baseline,1,Q3FrontDown,-34.7848,13.29422,71.2618,-24.86636,-96.91742,146.1984,-56.57589,202408231410280421,
2-16,A_Baseline,1,Q3FrontDown,-34.7848,13.29422,71.2618,-24.86636,-96.91742,146.1984,-56.57589,202408231410280603,
2-16,A_Baseline,1,Q3FrontDown,-34.75773,13.30299,71.26194,-24.91176,-96.91869,146.1976,-56.57603,202408231410280806,
2-16,A_Baseline,1,Q3FrontDown,-34.72229,13.30943,71.26062,-24.93185,-96.919,146.1967,-56.57666,202408231410281094,
2-16,A_Baseline,1,Q3FrontDown,-34.72229,13.30943,71.26062,-24.93185,-96.919,146.1967,-56.57666,202408231410281314,
2-16,A_Baseline,1,Q3FrontDown,-34.66179,13.32365,71.25882,-24.9415,-96.91914,146.197,-56.57676,202408231410281597,
2-16,A_Baseline,1,Q3FrontDown,-34.66179,13.32365,71.25882,-24.9415,-96.91914,146.197,-56.57676,202408231410281778,
2-16,A_Baseline,1,Q3FrontDown,-34.6058,13.33319,71.25889,-24.95524,-96.91907,146.1972,-56.57668,202408231410282093,
2-16,A_Baseline,1,Q3FrontDown,-34.44728,13.35401,71.22556,-24.98643,-96.91902,146.1973,-56.57706,202408231410282450,
2-16,A_Baseline,1,Q3FrontDown,-34.36814,13.36338,71.20377,-25.00113,-96.91902,146.1971,-56.57687,202408231410282741,
2-16,A_Baseline,1,Q3FrontDown,-34.36814,13.36338,71.20377,-25.00113,-96.91902,146.1971,-56.57687,202408231410282924,
2-16,A_Baseline,1,Q3FrontDown,-34.36814,13.36338,71.20377,-25.00113,-96.91902,146.1971,-56.57687,202408231410283096,
2-16,A_Baseline,1,Q3FrontDown,-34.28926,13.37076,71.17459,-25.01438,-96.91904,146.1971,-56.57725,202408231410283368,
2-16,A_Baseline,1,Q3FrontDown,-34.19503,13.37859,71.1422,-25.02181,-96.91888,146.1971,-56.5776,202408231410283651,
2-16,A_Baseline,1,Q3FrontDown,-34.05776,13.38659,71.06742,-25.0209,-96.91824,146.197,-56.57811,202408231410283921,
2-16,A_Baseline,1,Q3FrontDown,-33.92562,13.39482,70.99657,-25.0213,-96.91801,146.1971,-56.57843,202408231410284249,
2-16,A_Baseline,1,Q3FrontDown,-33.80742,13.39599,70.94382,-25.02347,-96.91826,146.1973,-56.57782,202408231410284440,
2-16,A_Baseline,1,Q3FrontDown,-33.80742,13.39599,70.94382,-25.02347,-96.91826,146.1973,-56.57782,202408231410284613,
2-16,A_Baseline,1,Q3FrontDown,-33.69381,13.3961,70.88958,-25.028,-96.91808,146.1971,-56.57796,202408231410284828,
2-16,A_Baseline,1,Q3FrontDown,-33.56288,13.40062,70.85019,-25.03217,-96.8981,146.1959,-56.57819,202408231410285077,
2-16,A_Baseline,1,Q3FrontDown,-33.56288,13.40062,70.85019,-25.03217,-96.8981,146.1959,-56.57819,202408231410285259,
2-16,A_Baseline,1,Q3FrontDown,-33.56288,13.40062,70.85019,-25.03217,-96.8981,146.1959,-56.57819,202408231410285415,
2-16,A_Baseline,1,Q3FrontDown,-33.41224,13.4035,70.8217,-25.02808,-96.86299,146.1965,-56.57863,202408231410285603,
2-16,A_Baseline,1,Q3FrontDown,-33.21243,13.40417,70.76836,-25.02442,-96.8344,146.1967,-56.57878,202408231410285829,
2-16,A_Baseline,1,Q3FrontDown,-32.95533,13.40068,70.67576,-25.00713,-96.79715,146.1971,-56.57909,202408231410286098,
2-16,A_Baseline,1,Q3FrontDown,-32.95533,13.40068,70.67576,-25.00713,-96.79715,146.1971,-56.57909,202408231410286266,
2-16,A_Baseline,1,Q3FrontDown,-32.6597,13.39603,70.55352,-24.99622,-96.76399,146.1972,-56.5789,202408231410286459,
2-16,A_Baseline,1,Q3FrontDown,-32.40643,13.39549,70.45618,-24.99067,-96.768,146.1977,-56.57894,202408231410286768,
2-16,A_Baseline,1,Q3FrontDown,-32.40643,13.39549,70.45618,-24.99067,-96.768,146.1977,-56.57894,202408231410286985,
2-16,A_Baseline,1,Q3FrontDown,-32.1845,13.39712,70.3738,-24.98788,-96.76965,146.1974,-56.57932,202408231410287246,
2-16,A_Baseline,1,Q3FrontDown,-32.1845,13.39712,70.3738,-24.98788,-96.76965,146.1974,-56.57932,202408231410287406,
2-16,A_Baseline,1,Q3FrontDown,-32.00569,13.39844,70.30901,-24.98972,-96.77036,146.1976,-56.57951,202408231410287581,
2-16,A_Baseline,1,Q3FrontDown,-32.00569,13.39844,70.30901,-24.98972,-96.77036,146.1976,-56.57951,202408231410287743,
2-16,A_Baseline,1,Q3FrontDown,-31.84245,13.4036,70.24311,-24.99051,-96.77024,146.1976,-56.57938,202408231410287944,
2-16,A_Baseline,1,Q3FrontDown,-31.67896,13.41313,70.15835,-24.98833,-96.77045,146.1975,-56.5797,202408231410288159,
2-16,A_Baseline,1,Q3FrontDown,-31.67896,13.41313,70.15835,-24.98833,-96.77045,146.1975,-56.5797,202408231410288460,
2-16,A_Baseline,1,Q3FrontDown,-31.51102,13.42146,70.05534,-24.98424,-96.77022,146.1974,-56.57965,202408231410288649,
2-16,A_Baseline,1,Q3FrontDown,-31.35862,13.42489,69.94912,-24.97784,-96.76981,146.1974,-56.57957,202408231410288983,
2-16,A_Baseline,1,Q3FrontDown,-31.20937,13.42654,69.84205,-24.9734,-96.76997,146.1976,-56.57968,202408231410289251,
2-16,A_Baseline,1,Q3FrontDown,-31.20937,13.42654,69.84205,-24.9734,-96.76997,146.1976,-56.57968,202408231410289407,
2-16,A_Baseline,1,Q3FrontDown,-31.05651,13.43415,69.74824,-24.96415,-96.76997,146.1974,-56.57949,202408231410289593,
2-16,A_Baseline,1,Q3FrontDown,-30.88963,13.45,69.64705,-24.95647,-96.76997,146.1976,-56.57966,202408231410289815,
2-16,A_Baseline,1,Q3FrontDown,-30.88963,13.45,69.64705,-24.95647,-96.76997,146.1976,-56.57966,202408231410290074,
2-16,A_Baseline,1,Q3FrontDown,-30.73243,13.46388,69.55164,-24.9445,-96.7696,146.1974,-56.57991,202408231410290312,
2-16,A_Baseline,1,Q3FrontDown,-30.59697,13.4661,69.45921,-24.93823,-96.76946,146.1977,-56.57957,202408231410290598,
2-16,A_Baseline,1,Q3FrontDown,-30.47646,13.46624,69.36581,-24.93815,-96.76918,146.1977,-56.57966,202408231410290938,
2-16,A_Baseline,1,Q3FrontDown,-30.47646,13.46624,69.36581,-24.93815,-96.76918,146.1977,-56.57966,202408231410291113,
2-16,A_Baseline,1,Q3FrontDown,-30.37152,13.46672,69.2752,-24.93696,-96.76932,146.1977,-56.57976,202408231410291295,
2-16,A_Baseline,1,Q3FrontDown,-30.26817,13.46908,69.18953,-24.93046,-96.76883,146.1976,-56.58015,202408231410291569,
2-16,A_Baseline,1,Q3FrontDown,-30.15711,13.47343,69.10576,-24.90974,-96.76885,146.1976,-56.58026,202408231410291747,
2-16,A_Baseline,1,Q3FrontDown,-30.15711,13.47343,69.10576,-24.90974,-96.76885,146.1976,-56.58026,202408231410291908,
2-16,A_Baseline,1,Q3FrontDown,-30.05259,13.48053,69.04012,-24.88927,-96.76878,146.1976,-56.58002,202408231410292073,
2-16,A_Baseline,1,Q3FrontDown,-30.05259,13.48053,69.04012,-24.88927,-96.76878,146.1976,-56.58002,202408231410292248,
2-16,A_Baseline,1,Q3FrontDown,-29.95487,13.48568,68.98386,-24.87309,-96.76877,146.1977,-56.58038,202408231410292450,
2-16,A_Baseline,1,Q3FrontDown,-29.87844,13.48712,68.93288,-24.86544,-96.76875,146.1976,-56.57997,202408231410292739,
2-16,A_Baseline,1,Q3FrontDown,-29.87844,13.48712,68.93288,-24.86544,-96.76875,146.1976,-56.57997,202408231410292995,
2-16,A_Baseline,1,Q3FrontDown,-29.81473,13.48778,68.8868,-24.85695,-96.76884,146.1978,-56.58006,202408231410293312,
2-16,A_Baseline,1,Q3FrontDown,-29.75871,13.48943,68.85152,-24.84509,-96.7688,146.1975,-56.57997,202408231410293473,
2-16,A_Baseline,1,Q3FrontDown,-29.75871,13.48943,68.85152,-24.84509,-96.7688,146.1975,-56.57997,202408231410293765,
2-16,A_Baseline,1,Q3FrontDown,-29.68552,13.49054,68.82005,-24.8285,-96.76886,146.1976,-56.58024,202408231410294086,
2-16,A_Baseline,1,Q3FrontDown,-29.66359,13.49103,68.81925,-24.82421,-96.76881,146.1976,-56.57982,202408231410294477,
2-16,A_Baseline,1,Q3FrontDown,-29.66359,13.49103,68.81925,-24.82421,-96.76881,146.1976,-56.57982,202408231410294763,
2-16,A_Baseline,1,Q3FrontDown,-29.63314,13.49078,68.80057,-24.81734,-96.76845,146.1978,-56.57967,202408231410295075,
2-16,A_Baseline,1,Q3FrontDown,-29.59888,13.49075,68.76694,-24.80463,-96.7685,146.1978,-56.57978,202408231410295251,
2-16,A_Baseline,1,Q3FrontDown,-29.55832,13.49095,68.71887,-24.7923,-96.76855,146.1979,-56.57985,202408231410295577,
2-16,A_Baseline,1,Q3FrontDown,-29.5036,13.49036,68.63866,-24.77551,-96.76724,146.1981,-56.57925,202408231410295824,
2-16,A_Baseline,1,Q3FrontDown,-29.5036,13.49036,68.63866,-24.77551,-96.76724,146.1981,-56.57925,202408231410296064,
2-16,A_Baseline,1,Q3FrontDown,-29.43329,13.49057,68.54003,-24.75953,-96.75436,146.198,-56.57924,202408231410296259,
2-16,A_Baseline,1,Q3FrontDown,-29.35152,13.49075,68.42625,-24.74253,-96.73128,146.1983,-56.57883,202408231410296439,
2-16,A_Baseline,1,Q3FrontDown,-29.35152,13.49075,68.42625,-24.74253,-96.73128,146.1983,-56.57883,202408231410296592,
2-16,A_Baseline,1,Q3FrontDown,-29.28088,13.49146,68.33489,-24.73507,-96.7159,146.1985,-56.57845,202408231410296803,
2-16,A_Baseline,1,Q3FrontDown,-29.28088,13.49146,68.33489,-24.73507,-96.7159,146.1985,-56.57845,202408231410297074,
2-16,A_Baseline,1,Q3FrontDown,-29.2231,13.49283,68.27608,-24.73253,-96.69764,146.1985,-56.57854,202408231410297235,
2-16,A_Baseline,1,Q3FrontDown,-29.18139,13.49319,68.25426,-24.73286,-96.67611,146.1983,-56.57845,202408231410297404,
2-16,A_Baseline,1,Q3FrontDown,-29.18139,13.49319,68.25426,-24.73286,-96.67611,146.1983,-56.57845,202408231410297669,
2-16,A_Baseline,1,Q3FrontDown,-29.13242,13.49352,68.23501,-24.73254,-96.6433,146.1983,-56.57786,202408231410297830,
2-16,A_Baseline,1,Q3FrontDown,-29.13242,13.49352,68.23501,-24.73254,-96.6433,146.1983,-56.57786,202408231410298094,
2-16,A_Baseline,1,Q3FrontDown,-29.08901,13.49205,68.2147,-24.73232,-96.60526,146.1985,-56.57804,202408231410298267,
2-16,A_Baseline,1,Q3FrontDown,-29.08901,13.49205,68.2147,-24.73232,-96.60526,146.1985,-56.57804,202408231410298442,
2-16,A_Baseline,1,Q3FrontDown,-29.03367,13.49009,68.18839,-24.73136,-96.56203,146.1984,-56.57766,202408231410298612,
2-16,A_Baseline,1,Q3FrontDown,-28.96209,13.48514,68.14073,-24.73125,-96.51247,146.1984,-56.57679,202408231410298773,
2-16,A_Baseline,1,Q3FrontDown,-28.96209,13.48514,68.14073,-24.73125,-96.51247,146.1984,-56.57679,202408231410298994,
2-16,A_Baseline,1,Q3FrontDown,-28.89745,13.47918,68.10416,-24.73208,-96.47368,146.1983,-56.57619,202408231410299181,
2-16,A_Baseline,1,Q3FrontDown,-28.89745,13.47918,68.10416,-24.73208,-96.47368,146.1983,-56.57619,202408231410299418,
2-16,A_Baseline,1,Q3FrontDown,-28.82628,13.47714,68.0699,-24.7338,-96.43795,146.1984,-56.57544,202408231410299588,
2-16,A_Baseline,1,Q3FrontDown,-28.72236,13.47652,68.00546,-24.73349,-96.39812,146.1984,-56.5736,202408231410299746,
2-16,A_Baseline,1,Q3FrontDown,-28.72236,13.47652,68.00546,-24.73349,-96.39812,146.1984,-56.5736,202408231410299913,
2-16,A_Baseline,1,Q3FrontDown,-28.57306,13.47005,67.91669,-24.7361,-96.30763,146.1965,-56.55719,202408231410300149,
2-16,A_Baseline,1,Q3FrontDown,-28.38064,13.46475,67.81339,-24.73492,-96.153,146.1981,-56.52592,202408231410300431,
2-16,A_Baseline,1,Q3FrontDown,-28.19309,13.4428,67.72266,-24.74115,-96.01163,146.1982,-56.50103,202408231410300798,
2-16,A_Baseline,1,Q3FrontDown,-27.97821,13.41932,67.62497,-24.74908,-95.83136,146.1976,-56.47752,202408231410301114,
2-16,A_Baseline,1,Q3FrontDown,-27.97821,13.41932,67.62497,-24.74908,-95.83136,146.1976,-56.47752,202408231410301305,
2-16,A_Baseline,1,Q3FrontDown,-27.73597,13.39451,67.53641,-24.75891,-95.62905,146.1983,-56.42266,202408231410301581,
2-16,A_Baseline,1,Q3FrontDown,-27.73597,13.39451,67.53641,-24.75891,-95.62905,146.1983,-56.42266,202408231410301749,
2-16,A_Baseline,1,Q3FrontDown,-27.63288,13.35378,67.5251,-24.80773,-95.50835,146.2005,-56.33561,202408231410301915,
2-16,A_Baseline,1,Q3FrontDown,-27.63288,13.35378,67.5251,-24.80773,-95.50835,146.2005,-56.33561,202408231410302093,
2-16,A_Baseline,1,Q3FrontDown,-27.58538,13.30131,67.5251,-24.86714,-95.39832,146.2004,-56.24381,202408231410302333,
2-16,A_Baseline,1,Q3FrontDown,-27.55794,13.23299,67.52853,-24.93358,-95.31255,146.2008,-56.15428,202408231410302593,
2-16,A_Baseline,1,Q3FrontDown,-27.54024,13.16261,67.54417,-25.02332,-95.20686,146.2004,-56.02632,202408231410302777,
2-16,A_Baseline,1,Q3FrontDown,-27.54024,13.16261,67.54417,-25.02332,-95.20686,146.2004,-56.02632,202408231410302948,
2-16,A_Baseline,1,Q3FrontDown,-27.53828,13.10048,67.57157,-25.09839,-95.11488,146.2006,-55.90102,202408231410303110,
2-16,A_Baseline,1,Q3FrontDown,-27.53742,13.02237,67.61663,-25.18917,-95.02216,146.204,-55.79044,202408231410303447,
2-16,A_Baseline,1,Q3FrontDown,-27.53742,13.02237,67.61663,-25.18917,-95.02216,146.204,-55.79044,202408231410303672,
2-16,A_Baseline,1,Q3FrontDown,-27.53613,12.92989,67.65093,-25.28956,-94.9444,146.2598,-55.6834,202408231410303942,
2-16,A_Baseline,1,Q3FrontDown,-27.54587,12.85725,67.71333,-25.37559,-94.88301,146.2942,-55.58135,202408231410304243,
2-16,A_Baseline,1,Q3FrontDown,-27.57121,12.79887,67.81201,-25.44214,-94.83374,146.3202,-55.49821,202408231410304407,
2-16,A_Baseline,1,Q3FrontDown,-27.57121,12.79887,67.81201,-25.44214,-94.83374,146.3202,-55.49821,202408231410304588,
2-16,A_Baseline,1,Q3FrontDown,-27.59662,12.72615,67.90862,-25.4994,-94.78242,146.3466,-55.42246,202408231410304816,
2-16,A_Baseline,1,Q3FrontDown,-27.62991,12.66608,68.01971,-25.53555,-94.74776,146.3676,-55.35138,202408231410305102,
2-16,A_Baseline,1,Q3FrontDown,-27.62991,12.66608,68.01971,-25.53555,-94.74776,146.3676,-55.35138,202408231410305282,
2-16,A_Baseline,1,Q3FrontDown,-27.66746,12.62597,68.15998,-25.55958,-94.72481,146.3785,-55.27884,202408231410305495,
2-16,A_Baseline,1,Q3FrontDown,-27.68623,12.58998,68.28697,-25.5907,-94.70908,146.388,-55.20922,202408231410305859,
2-16,A_Baseline,1,Q3FrontDown,-27.69702,12.546,68.4037,-25.62106,-94.69807,146.3988,-55.13287,202408231410306110,
2-16,A_Baseline,1,Q3FrontDown,-27.69702,12.546,68.4037,-25.62106,-94.69807,146.3988,-55.13287,202408231410306284,
2-16,A_Baseline,1,Q3FrontDown,-27.70379,12.50442,68.4966,-25.6504,-94.69446,146.4166,-55.05666,202408231410306593,
2-16,A_Baseline,1,Q3FrontDown,-27.70672,12.4637,68.59505,-25.69494,-94.69144,146.4343,-54.98779,202408231410306950,
2-16,A_Baseline,1,Q3FrontDown,-27.79962,12.41929,68.824,-25.78205,-94.69256,146.4576,-54.9073,202408231410307124,
2-16,A_Baseline,1,Q3FrontDown,-27.79962,12.41929,68.824,-25.78205,-94.69256,146.4576,-54.9073,202408231410307395,
2-16,A_Baseline,1,Q3FrontDown,-28.03619,12.38838,69.27154,-25.93709,-94.69349,146.5084,-54.81082,202408231410307576,
2-16,A_Baseline,1,Q3FrontDown,-28.52321,12.35335,70.03577,-26.16642,-94.74303,146.6229,-54.73598,202408231410307751,
2-16,A_Baseline,1,Q3FrontDown,-28.52321,12.35335,70.03577,-26.16642,-94.74303,146.6229,-54.73598,202408231410307956,
2-16,A_Baseline,1,Q3FrontDown,-29.09643,12.32644,70.90607,-26.41435,-94.81583,146.8015,-54.68099,202408231410308210,
2-16,A_Baseline,1,Q3FrontDown,-29.09643,12.32644,70.90607,-26.41435,-94.81583,146.8015,-54.68099,202408231410308506,
2-16,A_Baseline,1,Q3FrontDown,-30.31934,12.22254,72.68574,-26.99037,-95.01833,147.3013,-54.65705,202408231410308815,
2-16,A_Baseline,1,Q3FrontDown,-30.31934,12.22254,72.68574,-26.99037,-95.01833,147.3013,-54.65705,202408231410309079,
2-16,A_Baseline,1,Q3FrontDown,-30.92125,12.1411,73.52984,-27.30092,-95.10786,147.5215,-54.65636,202408231410309292,
2-16,A_Baseline,1,Q3FrontDown,-31.46397,12.06115,74.27451,-27.59864,-95.1748,147.7087,-54.65718,202408231410309572,
2-16,A_Baseline,1,Q3FrontDown,-32.00738,11.95604,75.09933,-27.93058,-95.22893,147.9193,-54.69515,202408231410309740,
2-16,A_Baseline,1,Q3FrontDown,-32.00738,11.95604,75.09933,-27.93058,-95.22893,147.9193,-54.69515,202408231410309904,
2-16,A_Baseline,1,Q3FrontDown,-32.00738,11.95604,75.09933,-27.93058,-95.22893,147.9193,-54.69515,202408231410310089,
2-16,A_Baseline,1,Q3FrontDown,-32.48976,11.85855,75.82608,-28.2669,-95.26762,148.1204,-54.72833,202408231410310318,
2-16,A_Baseline,1,Q3FrontDown,-32.92923,11.74276,76.5268,-28.57919,-95.30337,148.3371,-54.75718,202408231410310587,
2-16,A_Baseline,1,Q3FrontDown,-33.30692,11.63551,77.13853,-28.90943,-95.33588,148.5107,-54.78386,202408231410310775,
2-16,A_Baseline,1,Q3FrontDown,-33.30692,11.63551,77.13853,-28.90943,-95.33588,148.5107,-54.78386,202408231410310929,
2-16,A_Baseline,1,Q3FrontDown,-33.69837,11.51935,77.74192,-29.24088,-95.33985,148.6532,-54.79789,202408231410311108,
2-16,A_Baseline,1,Q3FrontDown,-33.69837,11.51935,77.74192,-29.24088,-95.33985,148.6532,-54.79789,202408231410311294,
2-16,A_Baseline,1,Q3FrontDown,-34.06387,11.41097,78.32909,-29.51993,-95.32309,148.7638,-54.80208,202408231410311584,
2-16,A_Baseline,1,Q3FrontDown,-34.06387,11.41097,78.32909,-29.51993,-95.32309,148.7638,-54.80208,202408231410311759,
2-16,A_Baseline,1,Q3FrontDown,-34.76447,11.23408,79.70211,-29.94794,-95.10979,148.9045,-54.78296,202408231410312116,
2-16,A_Baseline,1,Q3FrontDown,-34.76447,11.23408,79.70211,-29.94794,-95.10979,148.9045,-54.78296,202408231410312297,
2-16,A_Baseline,1,Q3FrontDown,-35.06035,11.15805,80.35476,-30.10026,-94.99216,148.9612,-54.76502,202408231410312571,
2-16,A_Baseline,1,Q3FrontDown,-35.25307,11.06968,80.8212,-30.23342,-94.92887,148.9817,-54.75014,202408231410312742,
2-16,A_Baseline,1,Q3FrontDown,-35.25307,11.06968,80.8212,-30.23342,-94.92887,148.9817,-54.75014,202408231410312903,
2-16,A_Baseline,1,Q3FrontDown,-35.25307,11.06968,80.8212,-30.23342,-94.92887,148.9817,-54.75014,202408231410313078,
2-16,A_Baseline,1,Q3FrontDown,-35.41813,10.95221,81.25469,-30.3369,-94.87438,148.9874,-54.7395,202408231410313277,
2-16,A_Baseline,1,Q3FrontDown,-35.56833,10.82113,81.63319,-30.43089,-94.82611,148.995,-54.72622,202408231410313495,
2-16,A_Baseline,1,Q3FrontDown,-35.56833,10.82113,81.63319,-30.43089,-94.82611,148.995,-54.72622,202408231410313649,
2-16,A_Baseline,1,Q3FrontDown,-35.56833,10.82113,81.63319,-30.43089,-94.82611,148.995,-54.72622,202408231410313923,
2-16,A_Baseline,1,Q3FrontDown,-35.82883,10.54191,82.24124,-30.61762,-94.80474,148.9951,-54.72904,202408231410314250,
2-16,A_Baseline,1,Q3FrontDown,-35.82883,10.54191,82.24124,-30.61762,-94.80474,148.9951,-54.72904,202408231410314404,
2-16,A_Baseline,1,Q3FrontDown,-35.95081,10.43266,82.59579,-30.73836,-94.80466,148.9939,-54.73385,202408231410314616,
2-16,A_Baseline,1,Q3FrontDown,-36.07661,10.33375,82.93961,-30.87292,-94.80479,148.9928,-54.77033,202408231410314910,
2-16,A_Baseline,1,Q3FrontDown,-36.07661,10.33375,82.93961,-30.87292,-94.80479,148.9928,-54.77033,202408231410315079,
2-16,A_Baseline,1,Q3FrontDown,-36.25467,10.24296,83.35359,-31.02771,-94.8091,148.9928,-54.79768,202408231410315298,
2-16,A_Baseline,1,Q3FrontDown,-36.53985,10.12983,83.77492,-31.22431,-94.81775,148.9923,-54.82682,202408231410315582,
2-16,A_Baseline,1,Q3FrontDown,-36.794,10.03581,84.18327,-31.40858,-94.83041,148.9927,-54.85711,202408231410315846,
2-16,A_Baseline,1,Q3FrontDown,-36.794,10.03581,84.18327,-31.40858,-94.83041,148.9927,-54.85711,202408231410316071,
2-16,A_Baseline,1,Q3FrontDown,-37.01914,9.954447,84.55563,-31.56807,-94.83365,148.9913,-54.88526,202408231410316261,
2-16,A_Baseline,1,Q3FrontDown,-37.27408,9.890092,84.95354,-31.7369,-94.83392,148.9903,-54.92522,202408231410316610,
2-16,A_Baseline,1,Q3FrontDown,-37.53999,9.843255,85.40274,-31.91257,-94.83433,148.9574,-54.9598,202408231410316819,
2-16,A_Baseline,1,Q3FrontDown,-37.78732,9.805906,85.83855,-32.07498,-94.83408,148.9124,-54.999,202408231410317085,
2-16,A_Baseline,1,Q3FrontDown,-37.78732,9.805906,85.83855,-32.07498,-94.83408,148.9124,-54.999,202408231410317237,
2-16,A_Baseline,1,Q3FrontDown,-37.78732,9.805906,85.83855,-32.07498,-94.83408,148.9124,-54.999,202408231410317406,
2-16,A_Baseline,1,Q3FrontDown,-38.03519,9.752756,86.24507,-32.23341,-94.83432,148.8415,-55.03705,202408231410317574,
2-16,A_Baseline,1,Q3FrontDown,-38.03519,9.752756,86.24507,-32.23341,-94.83432,148.8415,-55.03705,202408231410317756,
2-16,A_Baseline,1,Q3FrontDown,-38.24914,9.698104,86.5947,-32.38951,-94.83503,148.7855,-55.07343,202408231410318001,
2-16,A_Baseline,1,Q3FrontDown,-38.44635,9.658662,86.95472,-32.56779,-94.83526,148.7285,-55.10696,202408231410318253,
2-16,A_Baseline,1,Q3FrontDown,-38.65505,9.622583,87.25548,-32.74981,-94.83573,148.6715,-55.13876,202408231410318483,
2-16,A_Baseline,1,Q3FrontDown,-38.86869,9.586023,87.54877,-32.91755,-94.85171,148.6196,-55.17237,202408231410318773,
2-16,A_Baseline,1,Q3FrontDown,-38.86869,9.586023,87.54877,-32.91755,-94.85171,148.6196,-55.17237,202408231410318978,
2-16,A_Baseline,1,Q3FrontDown,-39.07494,9.56272,87.86662,-33.06634,-94.86086,148.587,-55.21183,202408231410319239,
2-16,A_Baseline,1,Q3FrontDown,-39.07494,9.56272,87.86662,-33.06634,-94.86086,148.587,-55.21183,202408231410319407,
2-16,A_Baseline,1,Q3FrontDown,-39.3069,9.551234,88.20269,-33.23306,-94.86407,148.5857,-55.25151,202408231410319580,
2-16,A_Baseline,1,Q3FrontDown,-39.58675,9.550067,88.56096,-33.42606,-94.86425,148.5846,-55.30469,202408231410319917,
2-16,A_Baseline,1,Q3FrontDown,-39.8055,9.546622,88.8139,-33.59618,-94.86429,148.5836,-55.36762,202408231410320161,
2-16,A_Baseline,1,Q3FrontDown,-39.8055,9.546622,88.8139,-33.59618,-94.86429,148.5836,-55.36762,202408231410320414,
2-16,A_Baseline,1,Q3FrontDown,-39.8055,9.546622,88.8139,-33.59618,-94.86429,148.5836,-55.36762,202408231410320583,
2-16,A_Baseline,1,Q3FrontDown,-39.96799,9.536923,89.02426,-33.73775,-94.86437,148.5828,-55.43992,202408231410320745,
2-16,A_Baseline,1,Q3FrontDown,-40.12831,9.529812,89.23714,-33.87326,-94.86423,148.5825,-55.51187,202408231410320955,
2-16,A_Baseline,1,Q3FrontDown,-40.12831,9.529812,89.23714,-33.87326,-94.86423,148.5825,-55.51187,202408231410321129,
2-16,A_Baseline,1,Q3FrontDown,-40.12831,9.529812,89.23714,-33.87326,-94.86423,148.5825,-55.51187,202408231410321402,
2-16,A_Baseline,1,Q3FrontDown,-40.38191,9.528564,89.46497,-34.18968,-94.87,148.5824,-55.56534,202408231410321580,
2-16,A_Baseline,1,Q3FrontDown,-40.38191,9.528564,89.46497,-34.18968,-94.87,148.5824,-55.56534,202408231410321782,
2-16,A_Baseline,1,Q3FrontDown,-40.38191,9.528564,89.46497,-34.18968,-94.87,148.5824,-55.56534,202408231410322082,
2-16,A_Baseline,1,Q3FrontDown,-40.50753,9.529024,89.56541,-34.52583,-94.93208,148.5771,-55.58956,202408231410322273,
2-16,A_Baseline,1,Q3FrontDown,-40.53175,9.530463,89.59234,-34.69814,-94.93301,148.5676,-55.61386,202408231410322553,
2-16,A_Baseline,1,Q3FrontDown,-40.55356,9.534121,89.61359,-34.90565,-94.93301,148.5317,-55.65301,202408231410322728,
2-16,A_Baseline,1,Q3FrontDown,-40.55356,9.534121,89.61359,-34.90565,-94.93301,148.5317,-55.65301,202408231410322895,
2-16,A_Baseline,1,Q3FrontDown,-40.55356,9.534121,89.61359,-34.90565,-94.93301,148.5317,-55.65301,202408231410323055,
2-16,A_Baseline,1,Q3FrontDown,-40.58264,9.53842,89.63718,-35.11282,-94.93735,148.5,-55.68279,202408231410323248,
2-16,A_Baseline,1,Q3FrontDown,-40.61322,9.537199,89.67706,-35.29978,-94.94538,148.4728,-55.69585,202408231410323472,
2-16,A_Baseline,1,Q3FrontDown,-40.65054,9.539227,89.74104,-35.52288,-94.96897,148.4325,-55.70473,202408231410323762,
2-16,A_Baseline,1,Q3FrontDown,-40.65054,9.539227,89.74104,-35.52288,-94.96897,148.4325,-55.70473,202408231410324080,
2-16,A_Baseline,1,Q3FrontDown,-40.69608,9.538664,89.81341,-35.76057,-94.98258,148.3976,-55.70898,202408231410324400,
2-16,A_Baseline,1,Q3FrontDown,-40.75262,9.540239,89.89017,-36.01067,-94.99,148.3647,-55.71764,202408231410324625,
2-16,A_Baseline,1,Q3FrontDown,-40.78434,9.540841,89.90402,-36.34368,-95.04983,148.3455,-55.71677,202408231410324894,
2-16,A_Baseline,1,Q3FrontDown,-40.78434,9.540841,89.90402,-36.34368,-95.04983,148.3455,-55.71677,202408231410325125,
2-16,A_Baseline,1,Q3FrontDown,-40.82141,9.536323,89.90652,-36.68683,-95.09753,148.3198,-55.70998,202408231410325403,
2-16,A_Baseline,1,Q3FrontDown,-40.84731,9.538885,89.90302,-37.05743,-95.13058,148.2858,-55.69932,202408231410325619,
2-16,A_Baseline,1,Q3FrontDown,-40.97337,9.537424,89.94983,-37.51529,-95.13065,148.1852,-55.66376,202408231410325896,
2-16,A_Baseline,1,Q3FrontDown,-40.97337,9.537424,89.94983,-37.51529,-95.13065,148.1852,-55.66376,202408231410326067,
2-16,A_Baseline,1,Q3FrontDown,-41.08886,9.535486,90.00732,-38.01157,-95.12999,148.0572,-55.6338,202408231410326241,
2-16,A_Baseline,1,Q3FrontDown,-41.1973,9.54137,90.03052,-38.48017,-95.13058,147.9343,-55.60535,202408231410326626,
2-16,A_Baseline,1,Q3FrontDown,-41.43222,9.559704,90.16563,-39.10518,-95.11589,147.7262,-55.54578,202408231410326804,
2-16,A_Baseline,1,Q3FrontDown,-41.69611,9.559567,90.28961,-39.79673,-95.11898,147.4689,-55.4522,202408231410327070,
2-16,A_Baseline,1,Q3FrontDown,-41.69611,9.559567,90.28961,-39.79673,-95.11898,147.4689,-55.4522,202408231410327395,
2-16,A_Baseline,1,Q3FrontDown,-41.96097,9.561831,90.36421,-40.51689,-95.14492,147.1898,-55.30756,202408231410327561,
2-16,A_Baseline,1,Q3FrontDown,-42.36908,9.564062,90.6207,-41.39302,-95.21487,146.8649,-55.12191,202408231410327732,
2-16,A_Baseline,1,Q3FrontDown,-42.36908,9.564062,90.6207,-41.39302,-95.21487,146.8649,-55.12191,202408231410327958,
2-16,A_Baseline,1,Q3FrontDown,-42.83376,9.556565,90.8552,-42.37638,-95.26337,146.4773,-54.96163,202408231410328252,
2-16,A_Baseline,1,Q3FrontDown,-42.83376,9.556565,90.8552,-42.37638,-95.26337,146.4773,-54.96163,202408231410328398,
2-16,A_Baseline,1,Q3FrontDown,-43.2396,9.57677,91.02277,-43.4414,-95.28252,146.0797,-54.80263,202408231410328622,
2-16,A_Baseline,1,Q3FrontDown,-43.63992,9.606599,91.17286,-44.59515,-95.3564,145.7111,-54.57425,202408231410328842,
2-16,A_Baseline,1,Q3FrontDown,-43.63992,9.606599,91.17286,-44.59515,-95.3564,145.7111,-54.57425,202408231410329085,
2-16,A_Baseline,1,Q3FrontDown,-44.41085,9.709754,91.42018,-47.06354,-95.39121,144.7959,-54.28698,202408231410329397,
2-16,A_Baseline,1,Q3FrontDown,-44.41085,9.709754,91.42018,-47.06354,-95.39121,144.7959,-54.28698,202408231410329787,
2-16,A_Baseline,1,Q3FrontDown,-45.02472,9.852836,91.55508,-49.52492,-95.39499,143.8511,-54.04782,202408231410330078,
2-16,A_Baseline,1,Q3FrontDown,-45.02472,9.852836,91.55508,-49.52492,-95.39499,143.8511,-54.04782,202408231410330240,
2-16,A_Baseline,1,Q3FrontDown,-45.02472,9.852836,91.55508,-49.52492,-95.39499,143.8511,-54.04782,202408231410330394,
2-16,A_Baseline,1,Q3FrontDown,-45.31503,9.934099,91.59149,-50.72351,-95.39867,143.4011,-53.89008,202408231410330567,
2-16,A_Baseline,1,Q3FrontDown,-45.65391,10.00744,91.65674,-51.99683,-95.33284,142.8772,-53.86065,202408231410330928,
2-16,A_Baseline,1,Q3FrontDown,-45.98225,10.08341,91.73357,-53.21759,-95.31883,142.3764,-53.78448,202408231410331116,
2-16,A_Baseline,1,Q3FrontDown,-45.98225,10.08341,91.73357,-53.21759,-95.31883,142.3764,-53.78448,202408231410331283,
2-16,A_Baseline,1,Q3FrontDown,-46.35155,10.14741,91.86617,-54.43487,-95.32613,141.8318,-53.64769,202408231410331570,
2-16,A_Baseline,1,Q3FrontDown,-46.35155,10.14741,91.86617,-54.43487,-95.32613,141.8318,-53.64769,202408231410331741,
2-16,A_Baseline,1,Q3FrontDown,-46.85485,10.2956,91.91494,-56.90232,-95.37064,140.8071,-53.22894,202408231410332078,
2-16,A_Baseline,1,Q3FrontDown,-46.85485,10.2956,91.91494,-56.90232,-95.37064,140.8071,-53.22894,202408231410332278,
2-16,A_Baseline,1,Q3FrontDown,-47.06024,10.36115,91.90845,-58.09971,-95.37017,140.3623,-53.0518,202408231410332544,
2-16,A_Baseline,1,Q3FrontDown,-47.06024,10.36115,91.90845,-58.09971,-95.37017,140.3623,-53.0518,202408231410332716,
2-16,A_Baseline,1,Q3FrontDown,-47.24,10.41428,91.89091,-59.26881,-95.36986,139.9281,-52.8623,202408231410332949,
2-16,A_Baseline,1,Q3FrontDown,-47.24,10.41428,91.89091,-59.26881,-95.36986,139.9281,-52.8623,202408231410333229,
2-16,A_Baseline,1,Q3FrontDown,-47.34964,10.56343,91.60112,-61.4361,-95.37015,139.1194,-52.52678,202408231410333443,
2-16,A_Baseline,1,Q3FrontDown,-47.34964,10.56343,91.60112,-61.4361,-95.37015,139.1194,-52.52678,202408231410333731,
2-16,A_Baseline,1,Q3FrontDown,-47.36209,10.61152,91.45544,-62.43548,-95.37062,138.7287,-52.37164,202408231410333907,
2-16,A_Baseline,1,Q3FrontDown,-47.36589,10.67344,91.2848,-63.42888,-95.36996,138.3448,-52.21753,202408231410334077,
2-16,A_Baseline,1,Q3FrontDown,-47.36589,10.67344,91.2848,-63.42888,-95.36996,138.3448,-52.21753,202408231410334438,
2-16,A_Baseline,1,Q3FrontDown,-47.26893,10.77878,90.80125,-65.21358,-95.36977,137.6679,-51.93447,202408231410334723,
2-16,A_Baseline,1,Q3FrontDown,-47.26893,10.77878,90.80125,-65.21358,-95.36977,137.6679,-51.93447,202408231410335045,
2-16,A_Baseline,1,Q3FrontDown,-47.18974,10.84097,90.52385,-66.0619,-95.36977,137.3412,-51.79881,202408231410335234,
2-16,A_Baseline,1,Q3FrontDown,-47.10491,10.88453,90.2252,-66.84566,-95.36935,137.0623,-51.66653,202408231410335396,
2-16,A_Baseline,1,Q3FrontDown,-47.10491,10.88453,90.2252,-66.84566,-95.36935,137.0623,-51.66653,202408231410335608,
2-16,A_Baseline,1,Q3FrontDown,-47.05304,10.92227,89.9511,-67.57219,-95.36979,136.8079,-51.54676,202408231410335971,
2-16,A_Baseline,1,Q3FrontDown,-46.97335,10.97551,89.67921,-68.30195,-95.36224,136.5055,-51.42632,202408231410336244,
2-16,A_Baseline,1,Q3FrontDown,-46.87354,11.04983,89.36059,-69.033,-95.35307,136.1907,-51.32742,202408231410336413,
2-16,A_Baseline,1,Q3FrontDown,-46.87354,11.04983,89.36059,-69.033,-95.35307,136.1907,-51.32742,202408231410336626,
2-16,A_Baseline,1,Q3FrontDown,-46.77395,11.12056,89.08871,-69.7161,-95.34869,135.9253,-51.23321,202408231410336905,
2-16,A_Baseline,1,Q3FrontDown,-46.68272,11.19023,88.78288,-70.40639,-95.34335,135.6498,-51.14013,202408231410337231,
2-16,A_Baseline,1,Q3FrontDown,-46.58627,11.22531,88.51382,-71.05346,-95.33974,135.3594,-51.05222,202408231410337393,
2-16,A_Baseline,1,Q3FrontDown,-46.58627,11.22531,88.51382,-71.05346,-95.33974,135.3594,-51.05222,202408231410337642,
2-16,A_Baseline,1,Q3FrontDown,-46.4752,11.29432,88.24233,-71.69383,-95.33942,135.081,-50.97063,202408231410337895,
2-16,A_Baseline,1,Q3FrontDown,-46.37496,11.35198,87.96745,-72.37071,-95.33943,134.8414,-50.87809,202408231410338065,
2-16,A_Baseline,1,Q3FrontDown,-46.37496,11.35198,87.96745,-72.37071,-95.33943,134.8414,-50.87809,202408231410338237,
2-16,A_Baseline,1,Q3FrontDown,-46.31234,11.39581,87.72643,-73.00301,-95.33949,134.637,-50.77601,202408231410338430,
2-16,A_Baseline,1,Q3FrontDown,-46.25044,11.43045,87.49816,-73.63907,-95.33859,134.4096,-50.67974,202408231410338771,
2-16,A_Baseline,1,Q3FrontDown,-46.25044,11.43045,87.49816,-73.63907,-95.33859,134.4096,-50.67974,202408231410338990,
2-16,A_Baseline,1,Q3FrontDown,-46.18978,11.45748,87.29036,-74.24923,-95.33611,134.1859,-50.59296,202408231410339238,
2-16,A_Baseline,1,Q3FrontDown,-46.15512,11.47972,87.11436,-74.85145,-95.33363,133.9661,-50.51861,202408231410339556,
2-16,A_Baseline,1,Q3FrontDown,-46.15512,11.47972,87.11436,-74.85145,-95.33363,133.9661,-50.51861,202408231410339732,
2-16,A_Baseline,1,Q3FrontDown,-46.14859,11.5002,87.00093,-75.46239,-95.31894,133.772,-50.45161,202408231410339913,
2-16,A_Baseline,1,Q3FrontDown,-46.13449,11.54229,86.88112,-76.04176,-95.31658,133.6079,-50.3707,202408231410340140,
2-16,A_Baseline,1,Q3FrontDown,-46.13449,11.54229,86.88112,-76.04176,-95.31658,133.6079,-50.3707,202408231410340406,
2-16,A_Baseline,1,Q3FrontDown,-46.05068,11.59285,86.61753,-77.10741,-95.31622,133.2367,-50.1992,202408231410340793,
2-16,A_Baseline,1,Q3FrontDown,-45.99715,11.61214,86.46558,-77.58143,-95.31606,133.0487,-50.12273,202408231410341059,
2-16,A_Baseline,1,Q3FrontDown,-45.99715,11.61214,86.46558,-77.58143,-95.31606,133.0487,-50.12273,202408231410341278,
2-16,A_Baseline,1,Q3FrontDown,-45.93226,11.62505,86.30664,-78.01885,-95.31578,132.8749,-50.05102,202408231410341590,
2-16,A_Baseline,1,Q3FrontDown,-45.9063,11.64395,86.19923,-78.45305,-95.31516,132.7114,-49.97961,202408231410341903,
2-16,A_Baseline,1,Q3FrontDown,-45.9063,11.64395,86.19923,-78.45305,-95.31516,132.7114,-49.97961,202408231410342069,
2-16,A_Baseline,1,Q3FrontDown,-45.90424,11.65899,86.09882,-78.87888,-95.31461,132.5731,-49.91122,202408231410342272,
2-16,A_Baseline,1,Q3FrontDown,-45.90424,11.65899,86.09882,-78.87888,-95.31461,132.5731,-49.91122,202408231410342574,
2-16,A_Baseline,1,Q3FrontDown,-45.90964,11.69802,85.93845,-79.62824,-95.31472,132.2946,-49.79925,202408231410342742,
2-16,A_Baseline,1,Q3FrontDown,-45.90964,11.69802,85.93845,-79.62824,-95.31472,132.2946,-49.79925,202408231410342905,
2-16,A_Baseline,1,Q3FrontDown,-45.90964,11.69802,85.93845,-79.62824,-95.31472,132.2946,-49.79925,202408231410343073,
2-16,A_Baseline,1,Q3FrontDown,-45.92002,11.71155,85.84993,-79.9858,-95.31551,132.1563,-49.74374,202408231410343254,
2-16,A_Baseline,1,Q3FrontDown,-45.94413,11.73078,85.76133,-80.31963,-95.31609,132.0358,-49.68799,202408231410343482,
2-16,A_Baseline,1,Q3FrontDown,-45.94413,11.73078,85.76133,-80.31963,-95.31609,132.0358,-49.68799,202408231410343753,
2-16,A_Baseline,1,Q3FrontDown,-45.96415,11.76016,85.67591,-80.6253,-95.31656,131.9249,-49.63736,202408231410343955,
2-16,A_Baseline,1,Q3FrontDown,-46.00697,11.80483,85.60973,-80.93162,-95.31616,131.8065,-49.60191,202408231410344233,
2-16,A_Baseline,1,Q3FrontDown,-46.00697,11.80483,85.60973,-80.93162,-95.31616,131.8065,-49.60191,202408231410344393,
2-16,A_Baseline,1,Q3FrontDown,-46.05988,11.85081,85.5762,-81.19767,-95.31593,131.6823,-49.57613,202408231410344606,
2-16,A_Baseline,1,Q3FrontDown,-46.16741,11.9045,85.57353,-81.50053,-95.31597,131.5624,-49.539,202408231410344905,
2-16,A_Baseline,1,Q3FrontDown,-46.16741,11.9045,85.57353,-81.50053,-95.31597,131.5624,-49.539,202408231410345073,
2-16,A_Baseline,1,Q3FrontDown,-46.30478,11.94906,85.59042,-81.784,-95.31615,131.4496,-49.50436,202408231410345241,
2-16,A_Baseline,1,Q3FrontDown,-46.4552,11.99521,85.61395,-82.07392,-95.31646,131.3297,-49.47129,202408231410345424,
2-16,A_Baseline,1,Q3FrontDown,-46.4552,11.99521,85.61395,-82.07392,-95.31646,131.3297,-49.47129,202408231410345643,
2-16,A_Baseline,1,Q3FrontDown,-46.64721,12.04722,85.67651,-82.38931,-95.31663,131.1954,-49.44418,202408231410345928,
2-16,A_Baseline,1,Q3FrontDown,-46.8029,12.08564,85.73165,-82.66566,-95.31633,131.064,-49.4255,202408231410346256,
2-16,A_Baseline,1,Q3FrontDown,-46.94583,12.12439,85.75796,-82.96444,-95.31612,130.9015,-49.4044,202408231410346583,
2-16,A_Baseline,1,Q3FrontDown,-47.08772,12.14318,85.77679,-83.25896,-95.31592,130.7291,-49.38935,202408231410346770,
2-16,A_Baseline,1,Q3FrontDown,-47.08772,12.14318,85.77679,-83.25896,-95.31592,130.7291,-49.38935,202408231410347065,
2-16,A_Baseline,1,Q3FrontDown,-47.08772,12.14318,85.77679,-83.25896,-95.31592,130.7291,-49.38935,202408231410347260,
2-16,A_Baseline,1,Q3FrontDown,-47.3667,12.17971,85.82175,-83.88786,-95.31565,130.3898,-49.34136,202408231410347572,
2-16,A_Baseline,1,Q3FrontDown,-47.3667,12.17971,85.82175,-83.88786,-95.31565,130.3898,-49.34136,202408231410347752,
2-16,A_Baseline,1,Q3FrontDown,-47.3667,12.17971,85.82175,-83.88786,-95.31565,130.3898,-49.34136,202408231410347948,
2-16,A_Baseline,1,Q3FrontDown,-47.6036,12.20907,85.86607,-84.525,-95.31466,130.086,-49.28956,202408231410348240,
2-16,A_Baseline,1,Q3FrontDown,-47.6036,12.20907,85.86607,-84.525,-95.31466,130.086,-49.28956,202408231410348381,
2-16,A_Baseline,1,Q3FrontDown,-47.721,12.21327,85.87611,-84.84972,-95.31432,129.9135,-49.26079,202408231410348577,
2-16,A_Baseline,1,Q3FrontDown,-47.81337,12.22673,85.87441,-85.2037,-95.29872,129.7351,-49.21338,202408231410348809,
2-16,A_Baseline,1,Q3FrontDown,-47.81337,12.22673,85.87441,-85.2037,-95.29872,129.7351,-49.21338,202408231410349079,
2-16,A_Baseline,1,Q3FrontDown,-47.99596,12.24052,85.87562,-86.0261,-95.27454,129.3436,-49.13062,202408231410349403,
2-16,A_Baseline,1,Q3FrontDown,-47.99596,12.24052,85.87562,-86.0261,-95.27454,129.3436,-49.13062,202408231410349572,
2-16,A_Baseline,1,Q3FrontDown,-48.05542,12.24617,85.85452,-86.48022,-95.22031,129.1898,-49.12362,202408231410349739,
2-16,A_Baseline,1,Q3FrontDown,-48.05542,12.24617,85.85452,-86.48022,-95.22031,129.1898,-49.12362,202408231410350006,
2-16,A_Baseline,1,Q3FrontDown,-48.1006,12.25034,85.83635,-86.98258,-95.17556,129.0469,-49.11962,202408231410350295,
2-16,A_Baseline,1,Q3FrontDown,-48.1231,12.25931,85.82334,-87.48371,-95.14331,128.9066,-49.11428,202408231410350448,
2-16,A_Baseline,1,Q3FrontDown,-48.1231,12.25931,85.82334,-87.48371,-95.14331,128.9066,-49.11428,202408231410350713,
2-16,A_Baseline,1,Q3FrontDown,-48.08452,12.26371,85.71593,-87.99216,-95.05639,128.6983,-49.11456,202408231410350901,
2-16,A_Baseline,1,Q3FrontDown,-48.02514,12.26389,85.60938,-88.49376,-94.97184,128.4344,-49.11495,202408231410351076,
2-16,A_Baseline,1,Q3FrontDown,-48.02514,12.26389,85.60938,-88.49376,-94.97184,128.4344,-49.11495,202408231410351293,
2-16,A_Baseline,1,Q3FrontDown,-47.96447,12.26501,85.48705,-89.03207,-94.90569,128.1366,-49.1144,202408231410351584,
2-16,A_Baseline,1,Q3FrontDown,-47.9002,12.26852,85.32892,-89.61281,-94.89007,127.8838,-49.07261,202408231410351913,
2-16,A_Baseline,1,Q3FrontDown,-47.82053,12.26851,85.15482,-90.1972,-94.88508,127.6155,-49.01112,202408231410352155,
2-16,A_Baseline,1,Q3FrontDown,-47.82053,12.26851,85.15482,-90.1972,-94.88508,127.6155,-49.01112,202408231410352395,
2-16,A_Baseline,1,Q3FrontDown,-47.69719,12.28606,84.91193,-90.85272,-94.88495,127.3388,-48.92588,202408231410352584,
2-16,A_Baseline,1,Q3FrontDown,-47.49704,12.301,84.58291,-91.49129,-94.884,127.0647,-48.83525,202408231410352739,
2-16,A_Baseline,1,Q3FrontDown,-47.49704,12.301,84.58291,-91.49129,-94.884,127.0647,-48.83525,202408231410352897,
2-16,A_Baseline,1,Q3FrontDown,-47.49704,12.301,84.58291,-91.49129,-94.884,127.0647,-48.83525,202408231410353076,
2-16,A_Baseline,1,Q3FrontDown,-47.49704,12.301,84.58291,-91.49129,-94.884,127.0647,-48.83525,202408231410353243,
2-16,A_Baseline,1,Q3FrontDown,-46.92275,12.35923,83.77251,-92.80421,-94.88315,126.507,-48.63334,202408231410353476,
2-16,A_Baseline,1,Q3FrontDown,-46.92275,12.35923,83.77251,-92.80421,-94.88315,126.507,-48.63334,202408231410353749,
2-16,A_Baseline,1,Q3FrontDown,-46.63691,12.38501,83.38085,-93.44519,-94.88302,126.2152,-48.52629,202408231410353918,
2-16,A_Baseline,1,Q3FrontDown,-46.33595,12.42993,82.98238,-94.0882,-94.87849,125.9501,-48.41676,202408231410354093,
2-16,A_Baseline,1,Q3FrontDown,-46.33595,12.42993,82.98238,-94.0882,-94.87849,125.9501,-48.41676,202408231410354258,
2-16,A_Baseline,1,Q3FrontDown,-46.03075,12.47816,82.55302,-94.73059,-94.8614,125.7395,-48.31264,202408231410354447,
2-16,A_Baseline,1,Q3FrontDown,-45.70052,12.52953,82.11916,-95.32496,-94.82282,125.5014,-48.21942,202408231410354734,
2-16,A_Baseline,1,Q3FrontDown,-45.70052,12.52953,82.11916,-95.32496,-94.82282,125.5014,-48.21942,202408231410354903,
2-16,A_Baseline,1,Q3FrontDown,-45.70052,12.52953,82.11916,-95.32496,-94.82282,125.5014,-48.21942,202408231410355061,
2-16,A_Baseline,1,Q3FrontDown,-45.34746,12.56062,81.65685,-95.9205,-94.74831,125.2719,-48.11634,202408231410355294,
2-16,A_Baseline,1,Q3FrontDown,-44.89176,12.57114,81.13826,-96.48042,-94.64285,125.0553,-48.02359,202408231410355547,
2-16,A_Baseline,1,Q3FrontDown,-44.89176,12.57114,81.13826,-96.48042,-94.64285,125.0553,-48.02359,202408231410355734,
2-16,A_Baseline,1,Q3FrontDown,-44.54108,12.61601,80.73297,-97.08062,-94.58904,124.8703,-47.94622,202408231410355913,
2-16,A_Baseline,1,Q3FrontDown,-44.20522,12.6569,80.31422,-97.7077,-94.54326,124.7162,-47.86634,202408231410356077,
2-16,A_Baseline,1,Q3FrontDown,-43.92618,12.69191,79.98321,-98.30305,-94.50581,124.5993,-47.78843,202408231410356430,
2-16,A_Baseline,1,Q3FrontDown,-43.92618,12.69191,79.98321,-98.30305,-94.50581,124.5993,-47.78843,202408231410356625,
2-16,A_Baseline,1,Q3FrontDown,-43.5864,12.72774,79.55197,-98.9529,-94.43212,124.4609,-47.69912,202408231410356905,
2-16,A_Baseline,1,Q3FrontDown,-43.5864,12.72774,79.55197,-98.9529,-94.43212,124.4609,-47.69912,202408231410357070,
2-16,A_Baseline,1,Q3FrontDown,-43.5864,12.72774,79.55197,-98.9529,-94.43212,124.4609,-47.69912,202408231410357248,
2-16,A_Baseline,1,Q3FrontDown,-42.93461,12.75175,78.72324,-100.1405,-94.24733,124.1309,-47.54092,202408231410357405,
2-16,A_Baseline,1,Q3FrontDown,-42.93461,12.75175,78.72324,-100.1405,-94.24733,124.1309,-47.54092,202408231410357579,
2-16,A_Baseline,1,Q3FrontDown,-42.93461,12.75175,78.72324,-100.1405,-94.24733,124.1309,-47.54092,202408231410357804,
2-16,A_Baseline,1,Q3FrontDown,-42.60873,12.77961,78.31493,-100.7318,-94.1594,123.9553,-47.46194,202408231410358068,
2-16,A_Baseline,1,Q3FrontDown,-42.24683,12.81557,77.88867,-101.2866,-94.05835,123.8204,-47.38438,202408231410358238,
2-16,A_Baseline,1,Q3FrontDown,-41.81708,12.83833,77.37686,-101.827,-93.93431,123.6859,-47.30869,202408231410358478,
2-16,A_Baseline,1,Q3FrontDown,-41.23408,12.84555,76.73435,-102.3749,-93.6209,123.5106,-47.28972,202408231410358822,
2-16,A_Baseline,1,Q3FrontDown,-41.23408,12.84555,76.73435,-102.3749,-93.6209,123.5106,-47.28972,202408231410359079,
2-16,A_Baseline,1,Q3FrontDown,-40.631,12.84316,76.1086,-102.9065,-93.28755,123.3405,-47.27559,202408231410359244,
2-16,A_Baseline,1,Q3FrontDown,-40.631,12.84316,76.1086,-102.9065,-93.28755,123.3405,-47.27559,202408231410359402,
2-16,A_Baseline,1,Q3FrontDown,-39.20924,12.84856,74.74842,-103.9983,-92.68623,123.0216,-47.21854,202408231410359747,
2-16,A_Baseline,1,Q3FrontDown,-39.20924,12.84856,74.74842,-103.9983,-92.68623,123.0216,-47.21854,202408231410359978,
2-16,A_Baseline,1,Q3FrontDown,-38.4584,12.85159,74.0631,-104.584,-92.43587,122.8803,-47.18236,202408231410360261,
2-16,A_Baseline,1,Q3FrontDown,-37.77798,12.86413,73.45773,-105.1313,-92.20729,122.7693,-47.14839,202408231410360455,
2-16,A_Baseline,1,Q3FrontDown,-37.77798,12.86413,73.45773,-105.1313,-92.20729,122.7693,-47.14839,202408231410360767,
2-16,A_Baseline,1,Q3FrontDown,-37.03133,12.87324,72.80953,-105.682,-91.94103,122.6721,-47.12747,202408231410360912,
2-16,A_Baseline,1,Q3FrontDown,-36.33166,12.87144,72.18459,-106.1849,-91.70631,122.5895,-47.10282,202408231410361167,
2-16,A_Baseline,1,Q3FrontDown,-35.60054,12.87476,71.58498,-106.6942,-91.47236,122.5367,-47.0665,202408231410361434,
2-16,A_Baseline,1,Q3FrontDown,-35.60054,12.87476,71.58498,-106.6942,-91.47236,122.5367,-47.0665,202408231410361610,
2-16,A_Baseline,1,Q3FrontDown,-34.88846,12.88213,70.94412,-107.1761,-91.20299,122.4925,-47.03789,202408231410361907,
2-16,A_Baseline,1,Q3FrontDown,-34.88846,12.88213,70.94412,-107.1761,-91.20299,122.4925,-47.03789,202408231410362078,
2-16,A_Baseline,1,Q3FrontDown,-34.16394,12.88061,70.35319,-107.6439,-90.95014,122.474,-46.99439,202408231410362281,
2-16,A_Baseline,1,Q3FrontDown,-33.4758,12.88789,69.74908,-108.1118,-90.72243,122.474,-46.94123,202408231410362570,
2-16,A_Baseline,1,Q3FrontDown,-33.4758,12.88789,69.74908,-108.1118,-90.72243,122.474,-46.94123,202408231410362746,
2-16,A_Baseline,1,Q3FrontDown,-32.80072,12.90026,69.19737,-108.5878,-90.45557,122.4752,-46.91,202408231410362907,
2-16,A_Baseline,1,Q3FrontDown,-32.20044,12.90205,68.69035,-109.0331,-90.20711,122.473,-46.88162,202408231410363077,
2-16,A_Baseline,1,Q3FrontDown,-32.20044,12.90205,68.69035,-109.0331,-90.20711,122.473,-46.88162,202408231410363308,
2-16,A_Baseline,1,Q3FrontDown,-31.63948,12.90851,68.24417,-109.4532,-89.98382,122.4734,-46.86065,202408231410363476,
2-16,A_Baseline,1,Q3FrontDown,-31.63948,12.90851,68.24417,-109.4532,-89.98382,122.4734,-46.86065,202408231410363755,
2-16,A_Baseline,1,Q3FrontDown,-31.06347,12.94562,67.74227,-109.8628,-89.78918,122.4741,-46.83403,202408231410364104,
2-16,A_Baseline,1,Q3FrontDown,-30.5126,12.96912,67.21035,-110.2206,-89.61301,122.4562,-46.80751,202408231410364417,
2-16,A_Baseline,1,Q3FrontDown,-29.91028,13.00289,66.58427,-110.5391,-89.41296,122.3781,-46.77805,202408231410364631,
2-16,A_Baseline,1,Q3FrontDown,-29.45579,13.05794,66.04604,-110.864,-89.239,122.3511,-46.7664,202408231410364807,
2-16,A_Baseline,1,Q3FrontDown,-29.45579,13.05794,66.04604,-110.864,-89.239,122.3511,-46.7664,202408231410365086,
2-16,A_Baseline,1,Q3FrontDown,-29.06778,13.13535,65.55923,-111.1636,-89.04525,122.2973,-46.75331,202408231410365245,
2-16,A_Baseline,1,Q3FrontDown,-28.74075,13.24562,65.11195,-111.4515,-88.85939,122.2196,-46.7379,202408231410365459,
2-16,A_Baseline,1,Q3FrontDown,-28.74075,13.24562,65.11195,-111.4515,-88.85939,122.2196,-46.7379,202408231410365635,
2-16,A_Baseline,1,Q3FrontDown,-28.42993,13.36746,64.67898,-111.7258,-88.67161,122.1371,-46.71828,202408231410365925,
2-16,A_Baseline,1,Q3FrontDown,-28.13649,13.47597,64.24783,-111.9688,-88.50181,122.0735,-46.69938,202408231410366093,
2-16,A_Baseline,1,Q3FrontDown,-28.13649,13.47597,64.24783,-111.9688,-88.50181,122.0735,-46.69938,202408231410366272,
2-16,A_Baseline,1,Q3FrontDown,-27.82701,13.59638,63.74629,-112.2177,-88.354,122.0247,-46.67342,202408231410366472,
2-16,A_Baseline,1,Q3FrontDown,-27.82701,13.59638,63.74629,-112.2177,-88.354,122.0247,-46.67342,202408231410366638,
2-16,A_Baseline,1,Q3FrontDown,-27.5519,13.69687,63.32355,-112.4549,-88.21993,121.9741,-46.65036,202408231410366914,
2-16,A_Baseline,1,Q3FrontDown,-27.5519,13.69687,63.32355,-112.4549,-88.21993,121.9741,-46.65036,202408231410367078,
2-16,A_Baseline,1,Q3FrontDown,-27.2498,13.8027,62.89087,-112.6709,-88.07696,121.938,-46.63301,202408231410367242,
2-16,A_Baseline,1,Q3FrontDown,-26.90524,13.91571,62.41801,-112.8936,-87.9063,121.8939,-46.63074,202408231410367393,
2-16,A_Baseline,1,Q3FrontDown,-26.90524,13.91571,62.41801,-112.8936,-87.9063,121.8939,-46.63074,202408231410367590,
2-16,A_Baseline,1,Q3FrontDown,-26.5231,13.99387,61.90168,-113.1214,-87.68138,121.8199,-46.63083,202408231410367817,
2-16,A_Baseline,1,Q3FrontDown,-26.5231,13.99387,61.90168,-113.1214,-87.68138,121.8199,-46.63083,202408231410367977,
2-16,A_Baseline,1,Q3FrontDown,-26.09906,14.07731,61.35497,-113.3576,-87.4302,121.7351,-46.63005,202408231410368271,
2-16,A_Baseline,1,Q3FrontDown,-25.67902,14.15307,60.82357,-113.6209,-87.17345,121.6644,-46.62936,202408231410368428,
2-16,A_Baseline,1,Q3FrontDown,-25.67902,14.15307,60.82357,-113.6209,-87.17345,121.6644,-46.62936,202408231410368609,
2-16,A_Baseline,1,Q3FrontDown,-25.2547,14.22552,60.32424,-113.9083,-86.91328,121.592,-46.62867,202408231410368799,
2-16,A_Baseline,1,Q3FrontDown,-25.2547,14.22552,60.32424,-113.9083,-86.91328,121.592,-46.62867,202408231410369105,
2-16,A_Baseline,1,Q3FrontDown,-24.84951,14.31111,59.8624,-114.1844,-86.64209,121.5223,-46.62688,202408231410369277,
2-16,A_Baseline,1,Q3FrontDown,-24.4789,14.38936,59.42398,-114.4839,-86.34868,121.4411,-46.62217,202408231410369654,
2-16,A_Baseline,1,Q3FrontDown,-24.4789,14.38936,59.42398,-114.4839,-86.34868,121.4411,-46.62217,202408231410369820,
2-16,A_Baseline,1,Q3FrontDown,-23.80445,14.47176,58.70473,-115.0693,-85.87909,121.3163,-46.60134,202408231410370093,
2-16,A_Baseline,1,Q3FrontDown,-23.80445,14.47176,58.70473,-115.0693,-85.87909,121.3163,-46.60134,202408231410370255,
2-16,A_Baseline,1,Q3FrontDown,-23.52969,14.49306,58.42786,-115.3811,-85.66214,121.245,-46.59005,202408231410370408,
2-16,A_Baseline,1,Q3FrontDown,-23.52969,14.49306,58.42786,-115.3811,-85.66214,121.245,-46.59005,202408231410370605,
2-16,A_Baseline,1,Q3FrontDown,-23.22477,14.51847,58.13047,-115.6817,-85.44936,121.1894,-46.58106,202408231410370999,
2-16,A_Baseline,1,Q3FrontDown,-22.92445,14.54153,57.8428,-115.9731,-85.23088,121.1479,-46.57749,202408231410371271,
2-16,A_Baseline,1,Q3FrontDown,-22.56455,14.54353,57.50808,-116.2863,-85.00684,121.068,-46.57528,202408231410371585,
2-16,A_Baseline,1,Q3FrontDown,-22.16388,14.5487,57.15507,-116.5513,-84.79224,121.0153,-46.56998,202408231410371914,
2-16,A_Baseline,1,Q3FrontDown,-21.75754,14.5501,56.78057,-116.8472,-84.58158,120.9612,-46.55557,202408231410372115,
2-16,A_Baseline,1,Q3FrontDown,-21.35984,14.56104,56.41587,-117.1217,-84.39909,120.9265,-46.53501,202408231410372402,
2-16,A_Baseline,1,Q3FrontDown,-21.35984,14.56104,56.41587,-117.1217,-84.39909,120.9265,-46.53501,202408231410372575,
2-16,A_Baseline,1,Q3FrontDown,-20.98144,14.58848,56.09309,-117.373,-84.23677,120.8926,-46.51839,202408231410372804,
2-16,A_Baseline,1,Q3FrontDown,-20.62508,14.602,55.78804,-117.6172,-84.06872,120.8671,-46.5043,202408231410373087,
2-16,A_Baseline,1,Q3FrontDown,-20.62508,14.602,55.78804,-117.6172,-84.06872,120.8671,-46.5043,202408231410373323,
2-16,A_Baseline,1,Q3FrontDown,-20.26192,14.61157,55.47366,-117.8499,-83.91406,120.8442,-46.49293,202408231410373572,
2-16,A_Baseline,1,Q3FrontDown,-20.26192,14.61157,55.47366,-117.8499,-83.91406,120.8442,-46.49293,202408231410373763,
2-16,A_Baseline,1,Q3FrontDown,-19.93054,14.63614,55.19445,-118.0449,-83.69289,120.7655,-46.49216,202408231410373916,
2-16,A_Baseline,1,Q3FrontDown,-19.60445,14.64531,54.91377,-118.2243,-83.51174,120.7012,-46.4897,202408231410374292,
2-16,A_Baseline,1,Q3FrontDown,-19.25974,14.6497,54.62732,-118.4222,-83.34021,120.6606,-46.48409,202408231410374574,
2-16,A_Baseline,1,Q3FrontDown,-18.91144,14.67063,54.31259,-118.5876,-83.06944,120.5933,-46.48542,202408231410374914,
2-16,A_Baseline,1,Q3FrontDown,-18.91144,14.67063,54.31259,-118.5876,-83.06944,120.5933,-46.48542,202408231410375089,
2-16,A_Baseline,1,Q3FrontDown,-18.52893,14.67663,53.97137,-118.7709,-82.81102,120.5393,-46.48635,202408231410375259,
2-16,A_Baseline,1,Q3FrontDown,-18.17457,14.67909,53.6498,-118.9622,-82.56886,120.5254,-46.48724,202408231410375442,
2-16,A_Baseline,1,Q3FrontDown,-18.17457,14.67909,53.6498,-118.9622,-82.56886,120.5254,-46.48724,202408231410375630,
2-16,A_Baseline,1,Q3FrontDown,-17.81784,14.68884,53.33249,-119.1594,-82.33884,120.5122,-46.48693,202408231410375827,
2-16,A_Baseline,1,Q3FrontDown,-17.49706,14.72113,53.03782,-119.3542,-82.11903,120.5017,-46.49077,202408231410376093,
2-16,A_Baseline,1,Q3FrontDown,-17.49706,14.72113,53.03782,-119.3542,-82.11903,120.5017,-46.49077,202408231410376270,
2-16,A_Baseline,1,Q3FrontDown,-17.17005,14.7604,52.73496,-119.5346,-81.89827,120.5,-46.49609,202408231410376591,
2-16,A_Baseline,1,Q3FrontDown,-16.89219,14.79538,52.4968,-119.7148,-81.72018,120.4994,-46.49994,202408231410376793,
2-16,A_Baseline,1,Q3FrontDown,-16.64597,14.85546,52.29089,-119.8821,-81.60685,120.498,-46.50088,202408231410377073,
2-16,A_Baseline,1,Q3FrontDown,-16.64597,14.85546,52.29089,-119.8821,-81.60685,120.498,-46.50088,202408231410377255,
2-16,A_Baseline,1,Q3FrontDown,-16.41786,14.93914,52.11854,-120.0077,-81.54352,120.4991,-46.49893,202408231410377493,
2-16,A_Baseline,1,Q3FrontDown,-16.24566,15.01671,51.97775,-120.0952,-81.45409,120.4988,-46.49945,202408231410377768,
2-16,A_Baseline,1,Q3FrontDown,-16.24566,15.01671,51.97775,-120.0952,-81.45409,120.4988,-46.49945,202408231410377974,
2-16,A_Baseline,1,Q3FrontDown,-16.11237,15.09684,51.85234,-120.1386,-81.38855,120.498,-46.50312,202408231410378244,
2-16,A_Baseline,1,Q3FrontDown,-16.11237,15.09684,51.85234,-120.1386,-81.38855,120.498,-46.50312,202408231410378416,
2-16,A_Baseline,1,Q3FrontDown,-16.00827,15.16702,51.75427,-120.1506,-81.32981,120.4971,-46.5198,202408231410378593,
2-16,A_Baseline,1,Q3FrontDown,-15.91819,15.21988,51.65183,-120.1527,-81.27904,120.4962,-46.53142,202408231410378767,
2-16,A_Baseline,1,Q3FrontDown,-15.91819,15.21988,51.65183,-120.1527,-81.27904,120.4962,-46.53142,202408231410378978,
2-16,A_Baseline,1,Q3FrontDown,-15.87534,15.25401,51.58928,-120.1538,-81.25468,120.4959,-46.53496,202408231410379243,
2-16,A_Baseline,1,Q3FrontDown,-15.87536,15.28158,51.57343,-120.1518,-81.25475,120.4967,-46.53448,202408231410379415,
2-16,A_Baseline,1,Q3FrontDown,-15.87536,15.28158,51.57343,-120.1518,-81.25475,120.4967,-46.53448,202408231410379595,
2-16,A_Baseline,1,Q3FrontDown,-15.87536,15.28158,51.57343,-120.1518,-81.25475,120.4967,-46.53448,202408231410379741,
2-16,A_Baseline,1,Q3FrontDown,-15.86637,15.29864,51.53399,-120.1371,-81.25484,120.4964,-46.53471,202408231410379913,
2-16,A_Baseline,1,Q3FrontDown,-15.86534,15.30921,51.48293,-120.1144,-81.25489,120.4963,-46.53503,202408231410380100,
2-16,A_Baseline,1,Q3FrontDown,-15.86534,15.30921,51.48293,-120.1144,-81.25489,120.4963,-46.53503,202408231410380315,
2-16,A_Baseline,1,Q3FrontDown,-15.86517,15.31041,51.4183,-120.0876,-81.25465,120.4964,-46.53482,202408231410380494,
2-16,A_Baseline,1,Q3FrontDown,-15.83735,15.32581,51.31082,-119.995,-81.25443,120.4952,-46.53573,202408231410380767,
2-16,A_Baseline,1,Q3FrontDown,-15.83735,15.32581,51.31082,-119.995,-81.25443,120.4952,-46.53573,202408231410380941,
2-16,A_Baseline,1,Q3FrontDown,-15.81357,15.3577,51.1916,-119.8513,-81.27895,120.4949,-46.5335,202408231410381124,
2-16,A_Baseline,1,Q3FrontDown,-15.81357,15.3577,51.1916,-119.8513,-81.27895,120.4949,-46.5335,202408231410381294,
2-16,A_Baseline,1,Q3FrontDown,-15.80923,15.38485,51.06147,-119.6558,-81.31705,120.4948,-46.51899,202408231410381582,
2-16,A_Baseline,1,Q3FrontDown,-15.87731,15.42038,50.99257,-119.4023,-81.45996,120.495,-46.51377,202408231410381907,
2-16,A_Baseline,1,Q3FrontDown,-16.00852,15.45817,50.98312,-119.1058,-81.60049,120.5008,-46.51134,202408231410382117,
2-16,A_Baseline,1,Q3FrontDown,-16.26121,15.47426,51.04902,-118.7478,-81.76771,120.5353,-46.50859,202408231410382463,
2-16,A_Baseline,1,Q3FrontDown,-16.61653,15.48404,51.18814,-118.3235,-81.91733,120.5376,-46.50344,202408231410382766,
2-16,A_Baseline,1,Q3FrontDown,-16.61653,15.48404,51.18814,-118.3235,-81.91733,120.5376,-46.50344,202408231410382918,
2-16,A_Baseline,1,Q3FrontDown,-16.98124,15.48879,51.32767,-117.8911,-82.04409,120.5379,-46.49662,202408231410383097,
2-16,A_Baseline,1,Q3FrontDown,-16.98124,15.48879,51.32767,-117.8911,-82.04409,120.5379,-46.49662,202408231410383281,
2-16,A_Baseline,1,Q3FrontDown,-17.33723,15.48094,51.44273,-117.4298,-82.16794,120.5386,-46.49358,202408231410383493,
2-16,A_Baseline,1,Q3FrontDown,-17.33723,15.48094,51.44273,-117.4298,-82.16794,120.5386,-46.49358,202408231410383767,
2-16,A_Baseline,1,Q3FrontDown,-18.31788,15.47698,51.92966,-116.4358,-82.50224,120.546,-46.48998,202408231410384082,
2-16,A_Baseline,1,Q3FrontDown,-18.31788,15.47698,51.92966,-116.4358,-82.50224,120.546,-46.48998,202408231410384254,
2-16,A_Baseline,1,Q3FrontDown,-18.31788,15.47698,51.92966,-116.4358,-82.50224,120.546,-46.48998,202408231410384414,
2-16,A_Baseline,1,Q3FrontDown,-18.83956,15.46883,52.20428,-115.9368,-82.67986,120.553,-46.48779,202408231410384616,
2-16,A_Baseline,1,Q3FrontDown,-19.4582,15.46058,52.54963,-115.3671,-82.90431,120.5641,-46.45614,202408231410384909,
2-16,A_Baseline,1,Q3FrontDown,-19.4582,15.46058,52.54963,-115.3671,-82.90431,120.5641,-46.45614,202408231410385075,
2-16,A_Baseline,1,Q3FrontDown,-20.08986,15.45997,52.90646,-114.8345,-83.11003,120.5721,-46.43247,202408231410385310,
2-16,A_Baseline,1,Q3FrontDown,-20.7743,15.44187,53.3725,-114.2696,-83.31876,120.575,-46.41238,202408231410385580,
2-16,A_Baseline,1,Q3FrontDown,-20.7743,15.44187,53.3725,-114.2696,-83.31876,120.575,-46.41238,202408231410385815,
2-16,A_Baseline,1,Q3FrontDown,-22.11581,15.39494,54.19059,-113.1192,-83.74986,120.5747,-46.37305,202408231410386094,
2-16,A_Baseline,1,Q3FrontDown,-22.77134,15.36659,54.58825,-112.5612,-83.94782,120.5759,-46.36389,202408231410386433,
2-16,A_Baseline,1,Q3FrontDown,-23.43251,15.32664,55.02979,-112.0137,-84.16566,120.6011,-46.34058,202408231410386793,
2-16,A_Baseline,1,Q3FrontDown,-23.43251,15.32664,55.02979,-112.0137,-84.16566,120.6011,-46.34058,202408231410387090,
2-16,A_Baseline,1,Q3FrontDown,-24.05846,15.29052,55.4401,-111.4892,-84.34901,120.6145,-46.3144,202408231410387249,
2-16,A_Baseline,1,Q3FrontDown,-24.05846,15.29052,55.4401,-111.4892,-84.34901,120.6145,-46.3144,202408231410387414,
2-16,A_Baseline,1,Q3FrontDown,-24.65438,15.24421,55.81657,-110.9668,-84.51797,120.6182,-46.29812,202408231410387592,
2-16,A_Baseline,1,Q3FrontDown,-25.24757,15.20026,56.25578,-110.4739,-84.73431,120.6343,-46.25133,202408231410387803,
2-16,A_Baseline,1,Q3FrontDown,-25.80643,15.16673,56.64407,-109.9941,-84.94067,120.6618,-46.21569,202408231410388105,
2-16,A_Baseline,1,Q3FrontDown,-25.80643,15.16673,56.64407,-109.9941,-84.94067,120.6618,-46.21569,202408231410388294,
2-16,A_Baseline,1,Q3FrontDown,-26.35315,15.13421,57.06694,-109.5401,-85.13434,120.6961,-46.18463,202408231410388571,
2-16,A_Baseline,1,Q3FrontDown,-26.83235,15.11086,57.42455,-109.1209,-85.31133,120.7373,-46.15709,202408231410388782,
2-16,A_Baseline,1,Q3FrontDown,-26.83235,15.11086,57.42455,-109.1209,-85.31133,120.7373,-46.15709,202408231410388949,
2-16,A_Baseline,1,Q3FrontDown,-27.29108,15.09315,57.77379,-108.7281,-85.46809,120.7567,-46.13961,202408231410389239,
2-16,A_Baseline,1,Q3FrontDown,-27.29108,15.09315,57.77379,-108.7281,-85.46809,120.7567,-46.13961,202408231410389397,
2-16,A_Baseline,1,Q3FrontDown,-27.70811,15.07004,58.10523,-108.394,-85.60796,120.7582,-46.13493,202408231410389573,
2-16,A_Baseline,1,Q3FrontDown,-28.13497,15.0428,58.46116,-108.0556,-85.76816,120.7583,-46.11853,202408231410389742,
2-16,A_Baseline,1,Q3FrontDown,-28.13497,15.0428,58.46116,-108.0556,-85.76816,120.7583,-46.11853,202408231410389955,
2-16,A_Baseline,1,Q3FrontDown,-28.60251,15.03035,58.8302,-107.7525,-85.93772,120.757,-46.10313,202408231410390160,
2-16,A_Baseline,1,Q3FrontDown,-28.60251,15.03035,58.8302,-107.7525,-85.93772,120.757,-46.10313,202408231410390401,
2-16,A_Baseline,1,Q3FrontDown,-28.60251,15.03035,58.8302,-107.7525,-85.93772,120.757,-46.10313,202408231410390582,
2-16,A_Baseline,1,Q3FrontDown,-29.15149,15.01263,59.33045,-107.4898,-86.11196,120.758,-46.08955,202408231410390738,
2-16,A_Baseline,1,Q3FrontDown,-29.74327,14.98444,59.89845,-107.2057,-86.29715,120.7562,-46.07344,202408231410390925,
2-16,A_Baseline,1,Q3FrontDown,-30.32113,14.95293,60.39925,-106.9396,-86.4342,120.7559,-46.06155,202408231410391104,
2-16,A_Baseline,1,Q3FrontDown,-30.32113,14.95293,60.39925,-106.9396,-86.4342,120.7559,-46.06155,202408231410391310,
2-16,A_Baseline,1,Q3FrontDown,-30.86786,14.89194,60.91865,-106.6861,-86.55423,120.7565,-46.05606,202408231410391475,
2-16,A_Baseline,1,Q3FrontDown,-30.86786,14.89194,60.91865,-106.6861,-86.55423,120.7565,-46.05606,202408231410391745,
2-16,A_Baseline,1,Q3FrontDown,-31.37887,14.8363,61.39704,-106.4188,-86.67498,120.7554,-46.05165,202408231410391904,
2-16,A_Baseline,1,Q3FrontDown,-31.37887,14.8363,61.39704,-106.4188,-86.67498,120.7554,-46.05165,202408231410392071,
2-16,A_Baseline,1,Q3FrontDown,-31.81491,14.77207,61.77759,-106.2004,-86.78024,120.7573,-46.04498,202408231410392265,
2-16,A_Baseline,1,Q3FrontDown,-32.19954,14.69056,62.13551,-106.0199,-86.87873,120.7569,-46.03789,202408231410392481,
2-16,A_Baseline,1,Q3FrontDown,-32.45054,14.64396,62.36083,-105.8458,-86.96738,120.758,-46.03656,202408231410392855,
2-16,A_Baseline,1,Q3FrontDown,-32.60777,14.59032,62.50192,-105.712,-87.04234,120.7607,-46.03611,202408231410393153,
2-16,A_Baseline,1,Q3FrontDown,-32.70358,14.53232,62.57138,-105.609,-87.08489,120.7673,-46.03617,202408231410393480,
2-16,A_Baseline,1,Q3FrontDown,-32.78219,14.50292,62.6354,-105.5609,-87.12859,120.7872,-46.03624,202408231410393757,
2-16,A_Baseline,1,Q3FrontDown,-32.78219,14.50292,62.6354,-105.5609,-87.12859,120.7872,-46.03624,202408231410393918,
2-16,A_Baseline,1,Q3FrontDown,-32.81354,14.49438,62.67047,-105.5495,-87.15199,120.796,-46.03625,202408231410394071,
2-16,A_Baseline,1,Q3FrontDown,-32.81354,14.49438,62.67047,-105.5495,-87.15199,120.796,-46.03625,202408231410394253,
2-16,A_Baseline,1,Q3FrontDown,-32.79141,14.49629,62.67067,-105.5643,-87.15417,120.7953,-46.0362,202408231410394436,
2-16,A_Baseline,1,Q3FrontDown,-32.79141,14.49629,62.67067,-105.5643,-87.15417,120.7953,-46.0362,202408231410394683,
2-16,A_Baseline,1,Q3FrontDown,-32.76869,14.50469,62.67028,-105.5879,-87.15569,120.7951,-46.03623,202408231410394923,
2-16,A_Baseline,1,Q3FrontDown,-32.76869,14.50469,62.67028,-105.5879,-87.15569,120.7951,-46.03623,202408231410395078,
2-16,A_Baseline,1,Q3FrontDown,-32.67711,14.52365,62.6008,-105.625,-87.15646,120.7956,-46.03633,202408231410395247,
2-16,A_Baseline,1,Q3FrontDown,-32.47429,14.55506,62.4231,-105.7071,-87.1564,120.7946,-46.0367,202408231410395421,
2-16,A_Baseline,1,Q3FrontDown,-32.47429,14.55506,62.4231,-105.7071,-87.1564,120.7946,-46.0367,202408231410395593,
2-16,A_Baseline,1,Q3FrontDown,-32.26987,14.60273,62.2878,-105.8124,-87.15613,120.7947,-46.03648,202408231410395865,
2-16,A_Baseline,1,Q3FrontDown,-32.02878,14.6791,62.12334,-105.9638,-87.15337,120.7963,-46.03685,202408231410396106,
2-16,A_Baseline,1,Q3FrontDown,-32.02878,14.6791,62.12334,-105.9638,-87.15337,120.7963,-46.03685,202408231410396324,
2-16,A_Baseline,1,Q3FrontDown,-31.69675,14.73772,61.87964,-106.1544,-87.1487,120.7954,-46.03677,202408231410396581,
2-16,A_Baseline,1,Q3FrontDown,-31.24632,14.84621,61.56606,-106.4088,-87.12893,120.7952,-46.03685,202408231410396757,
2-16,A_Baseline,1,Q3FrontDown,-31.24632,14.84621,61.56606,-106.4088,-87.12893,120.7952,-46.03685,202408231410396954,
2-16,A_Baseline,1,Q3FrontDown,-30.78831,14.96484,61.22304,-106.6996,-87.09372,120.7952,-46.03669,202408231410397252,
2-16,A_Baseline,1,Q3FrontDown,-30.18913,15.07223,60.73669,-107.0637,-87.04442,120.7928,-46.03707,202408231410397406,
2-16,A_Baseline,1,Q3FrontDown,-30.18913,15.07223,60.73669,-107.0637,-87.04442,120.7928,-46.03707,202408231410397753,
2-16,A_Baseline,1,Q3FrontDown,-29.52759,15.20472,60.22108,-107.4391,-86.98177,120.7846,-46.03766,202408231410397987,
2-16,A_Baseline,1,Q3FrontDown,-28.85664,15.32419,59.68763,-107.8355,-86.89783,120.7693,-46.03722,202408231410398243,
2-16,A_Baseline,1,Q3FrontDown,-28.05643,15.50284,59.07074,-108.2821,-86.7941,120.7572,-46.03814,202408231410398438,
2-16,A_Baseline,1,Q3FrontDown,-27.2502,15.70053,58.45087,-108.776,-86.66221,120.7595,-46.04319,202408231410398756,
2-16,A_Baseline,1,Q3FrontDown,-27.2502,15.70053,58.45087,-108.776,-86.66221,120.7595,-46.04319,202408231410398921,
2-16,A_Baseline,1,Q3FrontDown,-26.51053,15.85616,57.90417,-109.3009,-86.54375,120.7609,-46.05246,202408231410399305,
2-16,A_Baseline,1,Q3FrontDown,-25.7949,16.06699,57.38327,-109.8497,-86.42215,120.7613,-46.05838,202408231410399581,
2-16,A_Baseline,1,Q3FrontDown,-25.7949,16.06699,57.38327,-109.8497,-86.42215,120.7613,-46.05838,202408231410399743,
2-16,A_Baseline,1,Q3FrontDown,-25.7949,16.06699,57.38327,-109.8497,-86.42215,120.7613,-46.05838,202408231410399914,
2-16,A_Baseline,1,Q3FrontDown,-24.95755,16.27456,56.78102,-110.4047,-86.23326,120.7892,-46.07758,202408231410400098,
2-16,A_Baseline,1,Q3FrontDown,-24.1638,16.44937,56.17932,-110.9701,-86.02937,120.7904,-46.09208,202408231410400305,
2-16,A_Baseline,1,Q3FrontDown,-23.32637,16.65523,55.5802,-111.6092,-85.78948,120.7897,-46.10629,202408231410400586,
2-16,A_Baseline,1,Q3FrontDown,-23.32637,16.65523,55.5802,-111.6092,-85.78948,120.7897,-46.10629,202408231410400761,
2-16,A_Baseline,1,Q3FrontDown,-22.48547,16.83568,54.98748,-112.2494,-85.60924,120.7901,-46.09126,202408231410400936,
2-16,A_Baseline,1,Q3FrontDown,-21.6761,17.03226,54.44102,-112.9043,-85.40218,120.7894,-46.07452,202408231410401149,
2-16,A_Baseline,1,Q3FrontDown,-21.6761,17.03226,54.44102,-112.9043,-85.40218,120.7894,-46.07452,202408231410401317,
2-16,A_Baseline,1,Q3FrontDown,-20.89816,17.28371,53.97241,-113.5486,-85.15441,120.7888,-46.064,202408231410401573,
2-16,A_Baseline,1,Q3FrontDown,-20.20734,17.52902,53.60216,-114.2335,-84.83522,120.7847,-46.06337,202408231410401746,
2-16,A_Baseline,1,Q3FrontDown,-20.20734,17.52902,53.60216,-114.2335,-84.83522,120.7847,-46.06337,202408231410401906,
2-16,A_Baseline,1,Q3FrontDown,-20.20734,17.52902,53.60216,-114.2335,-84.83522,120.7847,-46.06337,202408231410402081,
2-16,A_Baseline,1,Q3FrontDown,-19.57505,17.77173,53.30359,-114.8637,-84.50599,120.7836,-46.0633,202408231410402257,
2-16,A_Baseline,1,Q3FrontDown,-18.98177,18.01546,53.05838,-115.4946,-84.16959,120.7834,-46.06308,202408231410402483,
2-16,A_Baseline,1,Q3FrontDown,-18.98177,18.01546,53.05838,-115.4946,-84.16959,120.7834,-46.06308,202408231410402638,
2-16,A_Baseline,1,Q3FrontDown,-18.43773,18.23016,52.84097,-116.0719,-83.86687,120.785,-46.0633,202408231410402941,
2-16,A_Baseline,1,Q3FrontDown,-18.43773,18.23016,52.84097,-116.0719,-83.86687,120.785,-46.0633,202408231410403257,
2-16,A_Baseline,1,Q3FrontDown,-17.38845,18.55512,52.45076,-117.1044,-83.31931,120.7836,-46.06357,202408231410403479,
2-16,A_Baseline,1,Q3FrontDown,-17.38845,18.55512,52.45076,-117.1044,-83.31931,120.7836,-46.06357,202408231410403636,
2-16,A_Baseline,1,Q3FrontDown,-17.38845,18.55512,52.45076,-117.1044,-83.31931,120.7836,-46.06357,202408231410403938,
2-16,A_Baseline,1,Q3FrontDown,-16.52387,18.82006,52.16831,-117.9127,-82.88692,120.7843,-46.06022,202408231410404306,
2-16,A_Baseline,1,Q3FrontDown,-16.14274,18.91446,52.04873,-118.2537,-82.73804,120.7843,-46.04797,202408231410404581,
2-16,A_Baseline,1,Q3FrontDown,-15.83046,18.99667,51.96497,-118.5709,-82.51315,120.781,-46.05387,202408231410404797,
2-16,A_Baseline,1,Q3FrontDown,-15.83046,18.99667,51.96497,-118.5709,-82.51315,120.781,-46.05387,202408231410405084,
2-16,A_Baseline,1,Q3FrontDown,-15.83046,18.99667,51.96497,-118.5709,-82.51315,120.781,-46.05387,202408231410405251,
2-16,A_Baseline,1,Q3FrontDown,-15.40678,19.1057,51.92411,-119.0998,-82.26357,120.782,-46.05005,202408231410405441,
2-16,A_Baseline,1,Q3FrontDown,-15.40678,19.1057,51.92411,-119.0998,-82.26357,120.782,-46.05005,202408231410405606,
2-16,A_Baseline,1,Q3FrontDown,-15.25212,19.13217,51.91468,-119.2973,-82.19717,120.7817,-46.04206,202408231410405840,
2-16,A_Baseline,1,Q3FrontDown,-15.11487,19.16774,51.90999,-119.4787,-82.12392,120.782,-46.03698,202408231410406121,
2-16,A_Baseline,1,Q3FrontDown,-15.11487,19.16774,51.90999,-119.4787,-82.12392,120.782,-46.03698,202408231410406443,
2-16,A_Baseline,1,Q3FrontDown,-14.97274,19.19786,51.9223,-119.7616,-81.95736,120.7791,-46.0387,202408231410406759,
2-16,A_Baseline,1,Q3FrontDown,-14.97274,19.19786,51.9223,-119.7616,-81.95736,120.7791,-46.0387,202408231410406978,
2-16,A_Baseline,1,Q3FrontDown,-14.95703,19.21894,51.94461,-119.8606,-81.91563,120.7777,-46.03719,202408231410407252,
2-16,A_Baseline,1,Q3FrontDown,-14.96176,19.2411,51.97198,-119.9199,-81.9156,120.7798,-46.02971,202408231410407473,
2-16,A_Baseline,1,Q3FrontDown,-14.99003,19.25554,52.00607,-119.95,-81.87839,120.7789,-46.03405,202408231410407743,
2-16,A_Baseline,1,Q3FrontDown,-14.99003,19.25554,52.00607,-119.95,-81.87839,120.7789,-46.03405,202408231410407915,
2-16,A_Baseline,1,Q3FrontDown,-15.02507,19.26214,52.04287,-119.9585,-81.8625,120.7785,-46.03545,202408231410408138,
2-16,A_Baseline,1,Q3FrontDown,-15.06274,19.26442,52.08276,-119.9576,-81.86282,120.7791,-46.03185,202408231410408439,
2-16,A_Baseline,1,Q3FrontDown,-15.12039,19.2649,52.13424,-119.9383,-81.85809,120.7333,-46.03179,202408231410408769,
2-16,A_Baseline,1,Q3FrontDown,-15.12039,19.2649,52.13424,-119.9383,-81.85809,120.7333,-46.03179,202408231410408977,
2-16,A_Baseline,1,Q3FrontDown,-15.17982,19.26463,52.18336,-119.9064,-81.85433,120.6881,-46.03196,202408231410409156,
2-16,A_Baseline,1,Q3FrontDown,-15.17982,19.26463,52.18336,-119.9064,-81.85433,120.6881,-46.03196,202408231410409402,
2-16,A_Baseline,1,Q3FrontDown,-15.23798,19.26369,52.22951,-119.8726,-81.85088,120.6463,-46.0318,202408231410409595,
2-16,A_Baseline,1,Q3FrontDown,-15.3193,19.26372,52.29561,-119.8553,-81.84962,120.6262,-46.03352,202408231410409750,
2-16,A_Baseline,1,Q3FrontDown,-15.3193,19.26372,52.29561,-119.8553,-81.84962,120.6262,-46.03352,202408231410409926,
2-16,A_Baseline,1,Q3FrontDown,-15.3193,19.26372,52.29561,-119.8553,-81.84962,120.6262,-46.03352,202408231410410093,
2-16,A_Baseline,1,Q3FrontDown,-15.4149,19.26413,52.3646,-119.8562,-81.84982,120.6168,-46.0335,202408231410410318,
2-16,A_Baseline,1,Q3FrontDown,-15.4149,19.26413,52.3646,-119.8562,-81.84982,120.6168,-46.0335,202408231410410493,
2-16,A_Baseline,1,Q3FrontDown,-15.52537,19.26467,52.43835,-119.8585,-81.85074,120.6174,-46.03282,202408231410410761,
2-16,A_Baseline,1,Q3FrontDown,-15.62999,19.26449,52.50072,-119.8582,-81.86277,120.6177,-46.0327,202408231410410937,
2-16,A_Baseline,1,Q3FrontDown,-15.71883,19.26391,52.54123,-119.8545,-81.86533,120.6182,-46.03598,202408231410411106,
2-16,A_Baseline,1,Q3FrontDown,-15.71883,19.26391,52.54123,-119.8545,-81.86533,120.6182,-46.03598,202408231410411316,
2-16,A_Baseline,1,Q3FrontDown,-15.78945,19.26391,52.55846,-119.8542,-81.86475,120.6181,-46.04828,202408231410411577,
2-16,A_Baseline,1,Q3FrontDown,-15.78945,19.26391,52.55846,-119.8542,-81.86475,120.6181,-46.04828,202408231410411750,
2-16,A_Baseline,1,Q3FrontDown,-15.85345,19.26423,52.57046,-119.8542,-81.86445,120.618,-46.06295,202408231410411914,
2-16,A_Baseline,1,Q3FrontDown,-15.91048,19.26676,52.57324,-119.8537,-81.86825,120.6208,-46.06797,202408231410412126,
2-16,A_Baseline,1,Q3FrontDown,-15.96276,19.27053,52.57176,-119.8534,-81.87618,120.6328,-46.06793,202408231410412395,
2-16,A_Baseline,1,Q3FrontDown,-15.96276,19.27053,52.57176,-119.8534,-81.87618,120.6328,-46.06793,202408231410412564,
2-16,A_Baseline,1,Q3FrontDown,-15.96276,19.27053,52.57176,-119.8534,-81.87618,120.6328,-46.06793,202408231410412739,
2-16,A_Baseline,1,Q3FrontDown,-15.99759,19.27136,52.55262,-119.8465,-81.8763,120.6433,-46.08298,202408231410412922,
2-16,A_Baseline,1,Q3FrontDown,-16.04571,19.27186,52.54974,-119.8367,-81.87624,120.6572,-46.10518,202408231410413085,
2-16,A_Baseline,1,Q3FrontDown,-16.04571,19.27186,52.54974,-119.8367,-81.87624,120.6572,-46.10518,202408231410413274,
2-16,A_Baseline,1,Q3FrontDown,-16.12197,19.27196,52.56597,-119.8177,-81.87621,120.68,-46.12746,202408231410413492,
2-16,A_Baseline,1,Q3FrontDown,-16.19302,19.27221,52.56617,-119.7668,-81.89085,120.6822,-46.13788,202408231410413752,
2-16,A_Baseline,1,Q3FrontDown,-16.19302,19.27221,52.56617,-119.7668,-81.89085,120.6822,-46.13788,202408231410413922,
2-16,A_Baseline,1,Q3FrontDown,-16.26739,19.27417,52.56466,-119.6945,-81.89683,120.6817,-46.15052,202408231410414245,
2-16,A_Baseline,1,Q3FrontDown,-16.3485,19.27359,52.56202,-119.5837,-81.89684,120.681,-46.16255,202408231410414416,
2-16,A_Baseline,1,Q3FrontDown,-16.3485,19.27359,52.56202,-119.5837,-81.89684,120.681,-46.16255,202408231410414642,
2-16,A_Baseline,1,Q3FrontDown,-16.42684,19.27238,52.55864,-119.4598,-81.89663,120.6806,-46.1811,202408231410414951,
2-16,A_Baseline,1,Q3FrontDown,-16.42684,19.27238,52.55864,-119.4598,-81.89663,120.6806,-46.1811,202408231410415129,
2-16,A_Baseline,1,Q3FrontDown,-16.50503,19.27279,52.56396,-119.3277,-81.91877,120.682,-46.18589,202408231410415373,
2-16,A_Baseline,1,Q3FrontDown,-16.5915,19.27267,52.56917,-119.1942,-81.95224,120.6824,-46.18498,202408231410415601,
2-16,A_Baseline,1,Q3FrontDown,-16.68577,19.27127,52.57455,-119.0703,-81.97995,120.6825,-46.18476,202408231410415844,
2-16,A_Baseline,1,Q3FrontDown,-16.79111,19.2697,52.59145,-118.9752,-82.01188,120.6957,-46.1848,202408231410416114,
2-16,A_Baseline,1,Q3FrontDown,-16.79111,19.2697,52.59145,-118.9752,-82.01188,120.6957,-46.1848,202408231410416434,
2-16,A_Baseline,1,Q3FrontDown,-17.07737,19.27174,52.66232,-118.8787,-82.05866,120.7551,-46.18782,202408231410416764,
2-16,A_Baseline,1,Q3FrontDown,-17.07737,19.27174,52.66232,-118.8787,-82.05866,120.7551,-46.18782,202408231410416961,
2-16,A_Baseline,1,Q3FrontDown,-17.22794,19.2762,52.70427,-118.8353,-82.06339,120.7564,-46.19601,202408231410417255,
2-16,A_Baseline,1,Q3FrontDown,-17.36621,19.28315,52.74088,-118.7526,-82.06338,120.7488,-46.20848,202408231410417412,
2-16,A_Baseline,1,Q3FrontDown,-17.36621,19.28315,52.74088,-118.7526,-82.06338,120.7488,-46.20848,202408231410417596,
2-16,A_Baseline,1,Q3FrontDown,-17.48469,19.28843,52.76258,-118.6433,-82.063,120.722,-46.22604,202408231410417922,
2-16,A_Baseline,1,Q3FrontDown,-17.60988,19.28969,52.80006,-118.5147,-82.06313,120.7065,-46.23936,202408231410418156,
2-16,A_Baseline,1,Q3FrontDown,-17.75281,19.29047,52.85013,-118.3864,-82.06342,120.6975,-46.2557,202408231410418436,
2-16,A_Baseline,1,Q3FrontDown,-17.75281,19.29047,52.85013,-118.3864,-82.06342,120.6975,-46.2557,202408231410418678,
2-16,A_Baseline,1,Q3FrontDown,-17.90166,19.29018,52.90537,-118.2744,-82.06709,120.6961,-46.26577,202408231410418919,
2-16,A_Baseline,1,Q3FrontDown,-17.90166,19.29018,52.90537,-118.2744,-82.06709,120.6961,-46.26577,202408231410419093,
2-16,A_Baseline,1,Q3FrontDown,-18.04193,19.29004,52.96101,-118.1788,-82.09066,120.6957,-46.27632,202408231410419288,
2-16,A_Baseline,1,Q3FrontDown,-18.18109,19.29035,53.02308,-118.083,-82.14197,120.696,-46.27723,202408231410419582,
2-16,A_Baseline,1,Q3FrontDown,-18.18109,19.29035,53.02308,-118.083,-82.14197,120.696,-46.27723,202408231410419753,
2-16,A_Baseline,1,Q3FrontDown,-18.18109,19.29035,53.02308,-118.083,-82.14197,120.696,-46.27723,202408231410419909,
2-16,A_Baseline,1,Q3FrontDown,-18.43236,19.29148,53.16042,-117.9141,-82.20803,120.6964,-46.27844,202408231410420079,
2-16,A_Baseline,1,Q3FrontDown,-18.43236,19.29148,53.16042,-117.9141,-82.20803,120.6964,-46.27844,202408231410420346,
2-16,A_Baseline,1,Q3FrontDown,-18.56206,19.29363,53.23467,-117.8316,-82.23571,120.6964,-46.27813,202408231410420609,
2-16,A_Baseline,1,Q3FrontDown,-18.71279,19.29351,53.33107,-117.7619,-82.28614,120.6978,-46.2784,202408231410420939,
2-16,A_Baseline,1,Q3FrontDown,-18.71279,19.29351,53.33107,-117.7619,-82.28614,120.6978,-46.2784,202408231410421121,
2-16,A_Baseline,1,Q3FrontDown,-18.84871,19.29331,53.41696,-117.6989,-82.32647,120.6985,-46.27801,202408231410421446,
2-16,A_Baseline,1,Q3FrontDown,-18.988,19.29419,53.51137,-117.636,-82.36613,120.6985,-46.27802,202408231410421622,
2-16,A_Baseline,1,Q3FrontDown,-19.17152,19.29385,53.65967,-117.59,-82.4111,120.6984,-46.27842,202408231410421801,
2-16,A_Baseline,1,Q3FrontDown,-19.17152,19.29385,53.65967,-117.59,-82.4111,120.6984,-46.27842,202408231410422076,
2-16,A_Baseline,1,Q3FrontDown,-19.36018,19.29422,53.81462,-117.5467,-82.45905,120.6977,-46.27821,202408231410422239,
2-16,A_Baseline,1,Q3FrontDown,-19.53401,19.2945,53.94949,-117.5055,-82.51449,120.6979,-46.27851,202408231410422418,
2-16,A_Baseline,1,Q3FrontDown,-19.53401,19.2945,53.94949,-117.5055,-82.51449,120.6979,-46.27851,202408231410422597,
2-16,A_Baseline,1,Q3FrontDown,-19.67978,19.292,54.06521,-117.4702,-82.55945,120.6977,-46.27869,202408231410422829,
2-16,A_Baseline,1,Q3FrontDown,-19.79529,19.29153,54.16442,-117.433,-82.59569,120.6982,-46.27855,202408231410423087,
2-16,A_Baseline,1,Q3FrontDown,-19.79529,19.29153,54.16442,-117.433,-82.59569,120.6982,-46.27855,202408231410423254,
2-16,A_Baseline,1,Q3FrontDown,-19.8907,19.29211,54.24386,-117.3949,-82.62524,120.6984,-46.27887,202408231410423484,
2-16,A_Baseline,1,Q3FrontDown,-19.97883,19.29259,54.30887,-117.3553,-82.64764,120.6975,-46.27951,202408231410423762,
2-16,A_Baseline,1,Q3FrontDown,-19.97883,19.29259,54.30887,-117.3553,-82.64764,120.6975,-46.27951,202408231410423980,
2-16,A_Baseline,1,Q3FrontDown,-20.05913,19.2954,54.36224,-117.3138,-82.66603,120.6974,-46.28073,202408231410424249,
2-16,A_Baseline,1,Q3FrontDown,-20.05913,19.2954,54.36224,-117.3138,-82.66603,120.6974,-46.28073,202408231410424408,
2-16,A_Baseline,1,Q3FrontDown,-20.05913,19.2954,54.36224,-117.3138,-82.66603,120.6974,-46.28073,202408231410424593,
2-16,A_Baseline,1,Q3FrontDown,-20.17154,19.29463,54.42831,-117.206,-82.68688,120.6969,-46.28086,202408231410424745,
2-16,A_Baseline,1,Q3FrontDown,-20.17154,19.29463,54.42831,-117.206,-82.68688,120.6969,-46.28086,202408231410424923,
2-16,A_Baseline,1,Q3FrontDown,-20.17154,19.29463,54.42831,-117.206,-82.68688,120.6969,-46.28086,202408231410425161,
2-16,A_Baseline,1,Q3FrontDown,-20.2099,19.29515,54.45145,-117.0769,-82.69122,120.6966,-46.2813,202408231410425413,
2-16,A_Baseline,1,Q3FrontDown,-20.2099,19.29515,54.45145,-117.0769,-82.69122,120.6966,-46.2813,202408231410425585,
2-16,A_Baseline,1,Q3FrontDown,-20.26013,19.29735,54.514,-117.0257,-82.71001,120.6969,-46.28185,202408231410425796,
2-16,A_Baseline,1,Q3FrontDown,-20.30685,19.30346,54.5774,-116.9804,-82.72565,120.6968,-46.28236,202408231410426146,
2-16,A_Baseline,1,Q3FrontDown,-20.30685,19.30346,54.5774,-116.9804,-82.72565,120.6968,-46.28236,202408231410426438,
2-16,A_Baseline,1,Q3FrontDown,-20.35287,19.3052,54.64267,-116.9371,-82.74284,120.697,-46.28318,202408231410426636,
2-16,A_Baseline,1,Q3FrontDown,-20.37571,19.30413,54.6814,-116.8999,-82.75262,120.6967,-46.28284,202408231410426916,
2-16,A_Baseline,1,Q3FrontDown,-20.37571,19.30413,54.6814,-116.8999,-82.75262,120.6967,-46.28284,202408231410427082,
2-16,A_Baseline,1,Q3FrontDown,-20.39192,19.30394,54.72672,-116.8666,-82.76371,120.6966,-46.28299,202408231410427305,
2-16,A_Baseline,1,Q3FrontDown,-20.40562,19.30508,54.77362,-116.837,-82.77354,120.6968,-46.28292,202408231410427573,
2-16,A_Baseline,1,Q3FrontDown,-20.40562,19.30508,54.77362,-116.837,-82.77354,120.6968,-46.28292,202408231410427756,
2-16,A_Baseline,1,Q3FrontDown,-20.41549,19.30536,54.81138,-116.8188,-82.78789,120.6964,-46.2832,202408231410427911,
2-16,A_Baseline,1,Q3FrontDown,-20.42557,19.30553,54.84737,-116.8066,-82.79661,120.6958,-46.28323,202408231410428099,
2-16,A_Baseline,1,Q3FrontDown,-20.42557,19.30553,54.84737,-116.8066,-82.79661,120.6958,-46.28323,202408231410428301,
2-16,A_Baseline,1,Q3FrontDown,-20.43849,19.30523,54.88548,-116.7962,-82.79738,120.6946,-46.28382,202408231410428596,
2-16,A_Baseline,1,Q3FrontDown,-20.45378,19.30449,54.92533,-116.7859,-82.79697,120.6647,-46.32026,202408231410428764,
2-16,A_Baseline,1,Q3FrontDown,-20.45378,19.30449,54.92533,-116.7859,-82.79697,120.6647,-46.32026,202408231410428925,
2-16,A_Baseline,1,Q3FrontDown,-20.47605,19.3047,54.96757,-116.7753,-82.79944,120.6504,-46.33844,202408231410429260,
2-16,A_Baseline,1,Q3FrontDown,-20.49909,19.30527,55.00745,-116.7697,-82.81541,120.6505,-46.33839,202408231410429460,
2-16,A_Baseline,1,Q3FrontDown,-20.51783,19.30537,55.03596,-116.7684,-82.82356,120.6505,-46.33968,202408231410429745,
2-16,A_Baseline,1,Q3FrontDown,-20.51783,19.30537,55.03596,-116.7684,-82.82356,120.6505,-46.33968,202408231410429981,
2-16,A_Baseline,1,Q3FrontDown,-20.53654,19.30495,55.06036,-116.7675,-82.83167,120.6505,-46.34327,202408231410430265,
2-16,A_Baseline,1,Q3FrontDown,-20.53654,19.30495,55.06036,-116.7675,-82.83167,120.6505,-46.34327,202408231410430485,
2-16,A_Baseline,1,Q3FrontDown,-20.55514,19.30485,55.08194,-116.7674,-82.84107,120.6504,-46.34668,202408231410430759,
2-16,A_Baseline,1,Q3FrontDown,-20.5748,19.30463,55.10557,-116.7667,-82.85788,120.6507,-46.3504,202408231410430946,
2-16,A_Baseline,1,Q3FrontDown,-20.59011,19.30482,55.12119,-116.7661,-82.8701,120.6512,-46.35865,202408231410431104,
2-16,A_Baseline,1,Q3FrontDown,-20.59728,19.30506,55.12184,-116.7671,-82.87232,120.6515,-46.37743,202408231410431496,
2-16,A_Baseline,1,Q3FrontDown,-20.6035,19.30513,55.12202,-116.7672,-82.87369,120.6515,-46.39771,202408231410431744,
2-16,A_Baseline,1,Q3FrontDown,-20.6035,19.30513,55.12202,-116.7672,-82.87369,120.6515,-46.39771,202408231410431921,
2-16,A_Baseline,1,Q3FrontDown,-20.6035,19.30513,55.12202,-116.7672,-82.87369,120.6515,-46.39771,202408231410432084,
2-16,A_Baseline,1,Q3FrontDown,-20.6082,19.30529,55.12143,-116.766,-82.87979,120.6512,-46.4079,202408231410432248,
2-16,A_Baseline,1,Q3FrontDown,-20.60751,19.30508,55.12191,-116.7555,-82.89778,120.6513,-46.40999,202408231410432415,
2-16,A_Baseline,1,Q3FrontDown,-20.60751,19.30508,55.12191,-116.7555,-82.89778,120.6513,-46.40999,202408231410432597,
2-16,A_Baseline,1,Q3FrontDown,-20.60724,19.30488,55.12201,-116.7448,-82.91153,120.6512,-46.41055,202408231410432834,
2-16,A_Baseline,1,Q3FrontDown,-20.60582,19.30498,55.12181,-116.7312,-82.92498,120.6512,-46.41131,202408231410433076,
2-16,A_Baseline,1,Q3FrontDown,-20.60582,19.30498,55.12181,-116.7312,-82.92498,120.6512,-46.41131,202408231410433244,
2-16,A_Baseline,1,Q3FrontDown,-20.60382,19.3052,55.12155,-116.7112,-82.94426,120.651,-46.41149,202408231410433434,
2-16,A_Baseline,1,Q3FrontDown,-20.60289,19.30526,55.11986,-116.6859,-82.96326,120.6509,-46.41112,202408231410433784,
2-16,A_Baseline,1,Q3FrontDown,-20.60289,19.30526,55.11986,-116.6859,-82.96326,120.6509,-46.41112,202408231410433982,
2-16,A_Baseline,1,Q3FrontDown,-20.59289,19.30525,55.10907,-116.6496,-82.97993,120.6509,-46.41113,202408231410434239,
2-16,A_Baseline,1,Q3FrontDown,-20.59289,19.30525,55.10907,-116.6496,-82.97993,120.6509,-46.41113,202408231410434415,
2-16,A_Baseline,1,Q3FrontDown,-20.57152,19.30516,55.08437,-116.6043,-82.99142,120.6503,-46.41158,202408231410434628,
2-16,A_Baseline,1,Q3FrontDown,-20.49892,19.30449,54.99715,-116.5493,-82.99905,120.6505,-46.41091,202408231410434927,
2-16,A_Baseline,1,Q3FrontDown,-20.49892,19.30449,54.99715,-116.5493,-82.99905,120.6505,-46.41091,202408231410435148,
2-16,A_Baseline,1,Q3FrontDown,-20.33698,19.30425,54.79036,-116.4472,-83.00365,120.6505,-46.41457,202408231410435439,
2-16,A_Baseline,1,Q3FrontDown,-20.33698,19.30425,54.79036,-116.4472,-83.00365,120.6505,-46.41457,202408231410435596,
2-16,A_Baseline,1,Q3FrontDown,-20.21775,19.30481,54.62877,-116.3893,-83.00366,120.6509,-46.42487,202408231410435794,
2-16,A_Baseline,1,Q3FrontDown,-20.11718,19.30511,54.47264,-116.331,-83.00349,120.6515,-46.42858,202408231410436107,
2-16,A_Baseline,1,Q3FrontDown,-20.11718,19.30511,54.47264,-116.331,-83.00349,120.6515,-46.42858,202408231410436328,
2-16,A_Baseline,1,Q3FrontDown,-20.03696,19.3047,54.31762,-116.2711,-83.00378,120.6504,-46.43452,202408231410436570,
2-16,A_Baseline,1,Q3FrontDown,-19.95287,19.29526,54.13219,-116.2163,-83.034,120.6831,-46.43459,202408231410436746,
2-16,A_Baseline,1,Q3FrontDown,-19.95287,19.29526,54.13219,-116.2163,-83.034,120.6831,-46.43459,202408231410436915,
2-16,A_Baseline,1,Q3FrontDown,-19.95287,19.29526,54.13219,-116.2163,-83.034,120.6831,-46.43459,202408231410437080,
2-16,A_Baseline,1,Q3FrontDown,-19.87693,19.27089,53.92344,-116.1626,-83.05795,120.7313,-46.43446,202408231410437256,
2-16,A_Baseline,1,Q3FrontDown,-19.80441,19.23623,53.68064,-116.1101,-83.07932,120.7718,-46.43474,202408231410437469,
2-16,A_Baseline,1,Q3FrontDown,-19.68975,19.17917,53.33382,-116.0443,-83.19822,120.8782,-46.41867,202408231410437756,
2-16,A_Baseline,1,Q3FrontDown,-19.68975,19.17917,53.33382,-116.0443,-83.19822,120.8782,-46.41867,202408231410437987,
2-16,A_Baseline,1,Q3FrontDown,-19.58202,19.10821,52.94484,-115.9588,-83.354,121.0057,-46.39425,202408231410438421,
2-16,A_Baseline,1,Q3FrontDown,-19.58202,19.10821,52.94484,-115.9588,-83.354,121.0057,-46.39425,202408231410438655,
2-16,A_Baseline,1,Q3FrontDown,-19.4194,18.93085,52.09526,-115.6657,-83.69241,121.4274,-46.35083,202408231410438924,
2-16,A_Baseline,1,Q3FrontDown,-19.40659,18.8598,51.67728,-115.4491,-83.84065,121.6293,-46.32473,202408231410439260,
2-16,A_Baseline,1,Q3FrontDown,-19.41871,18.77381,51.25557,-115.1962,-83.98546,121.835,-46.29375,202408231410439472,
2-16,A_Baseline,1,Q3FrontDown,-19.41871,18.77381,51.25557,-115.1962,-83.98546,121.835,-46.29375,202408231410439742,
2-16,A_Baseline,1,Q3FrontDown,-19.41871,18.77381,51.25557,-115.1962,-83.98546,121.835,-46.29375,202408231410439906,
2-16,A_Baseline,1,Q3FrontDown,-19.44633,18.68741,50.8623,-114.9556,-84.10322,122.026,-46.25991,202408231410440092,
2-16,A_Baseline,1,Q3FrontDown,-19.51111,18.62098,50.4834,-114.6715,-84.183,122.214,-46.24732,202408231410440282,
2-16,A_Baseline,1,Q3FrontDown,-19.61016,18.53912,50.09786,-114.3704,-84.25412,122.4238,-46.24733,202408231410440428,
2-16,A_Baseline,1,Q3FrontDown,-19.61016,18.53912,50.09786,-114.3704,-84.25412,122.4238,-46.24733,202408231410440605,
2-16,A_Baseline,1,Q3FrontDown,-19.82813,18.45186,49.81388,-114.0278,-84.37636,122.6061,-46.24876,202408231410440858,
2-16,A_Baseline,1,Q3FrontDown,-20.13776,18.38166,49.60939,-113.6635,-84.49802,122.7815,-46.24874,202408231410441097,
2-16,A_Baseline,1,Q3FrontDown,-20.13776,18.38166,49.60939,-113.6635,-84.49802,122.7815,-46.24874,202408231410441285,
2-16,A_Baseline,1,Q3FrontDown,-20.55888,18.30028,49.48461,-113.2615,-84.63344,122.9425,-46.24846,202408231410441591,
2-16,A_Baseline,1,Q3FrontDown,-21.13338,18.20241,49.47765,-112.8416,-84.80565,123.1136,-46.24879,202408231410441765,
2-16,A_Baseline,1,Q3FrontDown,-21.13338,18.20241,49.47765,-112.8416,-84.80565,123.1136,-46.24879,202408231410441957,
2-16,A_Baseline,1,Q3FrontDown,-21.752,18.12427,49.52198,-112.384,-84.95609,123.3176,-46.24888,202408231410442240,
2-16,A_Baseline,1,Q3FrontDown,-21.752,18.12427,49.52198,-112.384,-84.95609,123.3176,-46.24888,202408231410442410,
2-16,A_Baseline,1,Q3FrontDown,-22.47122,18.00714,49.60581,-111.8956,-85.12489,123.6011,-46.24879,202408231410442648,
2-16,A_Baseline,1,Q3FrontDown,-23.12767,17.88166,49.63458,-111.412,-85.27727,123.8165,-46.24879,202408231410442955,
2-16,A_Baseline,1,Q3FrontDown,-23.75752,17.75397,49.6582,-110.9178,-85.40532,124.0258,-46.24883,202408231410443152,
2-16,A_Baseline,1,Q3FrontDown,-24.4101,17.61226,49.6593,-110.4399,-85.54227,124.2045,-46.24865,202408231410443440,
2-16,A_Baseline,1,Q3FrontDown,-24.4101,17.61226,49.6593,-110.4399,-85.54227,124.2045,-46.24865,202408231410443776,
2-16,A_Baseline,1,Q3FrontDown,-25.12824,17.50422,49.76643,-109.9573,-85.71957,124.3982,-46.24989,202408231410443923,
2-16,A_Baseline,1,Q3FrontDown,-25.8163,17.38846,49.80849,-109.4395,-85.86549,124.5977,-46.2498,202408231410444142,
2-16,A_Baseline,1,Q3FrontDown,-25.8163,17.38846,49.80849,-109.4395,-85.86549,124.5977,-46.2498,202408231410444412,
2-16,A_Baseline,1,Q3FrontDown,-27.08918,17.15935,49.8371,-108.5006,-86.1332,124.9586,-46.25005,202408231410444744,
2-16,A_Baseline,1,Q3FrontDown,-27.08918,17.15935,49.8371,-108.5006,-86.1332,124.9586,-46.25005,202408231410444909,
2-16,A_Baseline,1,Q3FrontDown,-27.08918,17.15935,49.8371,-108.5006,-86.1332,124.9586,-46.25005,202408231410445078,
2-16,A_Baseline,1,Q3FrontDown,-27.77203,17.0646,49.86617,-107.9948,-86.26929,125.1361,-46.25073,202408231410445308,
2-16,A_Baseline,1,Q3FrontDown,-28.37584,16.93068,49.85045,-107.5491,-86.37126,125.2665,-46.25086,202408231410445594,
2-16,A_Baseline,1,Q3FrontDown,-29.03667,16.87286,49.86175,-107.1056,-86.50568,125.4148,-46.25117,202408231410445841,
2-16,A_Baseline,1,Q3FrontDown,-29.03667,16.87286,49.86175,-107.1056,-86.50568,125.4148,-46.25117,202408231410446093,
2-16,A_Baseline,1,Q3FrontDown,-29.75071,16.80165,49.8807,-106.6372,-86.65361,125.5742,-46.25104,202408231410446263,
2-16,A_Baseline,1,Q3FrontDown,-30.4855,16.72017,49.8964,-106.2007,-86.79031,125.715,-46.25113,202408231410446458,
2-16,A_Baseline,1,Q3FrontDown,-31.16193,16.65573,49.90891,-105.8012,-86.92251,125.8535,-46.25144,202408231410446751,
2-16,A_Baseline,1,Q3FrontDown,-31.16193,16.65573,49.90891,-105.8012,-86.92251,125.8535,-46.25144,202408231410446910,
2-16,A_Baseline,1,Q3FrontDown,-31.16193,16.65573,49.90891,-105.8012,-86.92251,125.8535,-46.25144,202408231410447077,
2-16,A_Baseline,1,Q3FrontDown,-31.87712,16.61958,49.91457,-105.3936,-87.06259,125.9552,-46.25153,202408231410447251,
2-16,A_Baseline,1,Q3FrontDown,-32.56777,16.57583,49.96596,-105.0162,-87.17522,126.0266,-46.25126,202408231410447479,
2-16,A_Baseline,1,Q3FrontDown,-32.56777,16.57583,49.96596,-105.0162,-87.17522,126.0266,-46.25126,202408231410447647,
2-16,A_Baseline,1,Q3FrontDown,-33.27654,16.52948,50.03563,-104.6533,-87.28806,126.1013,-46.2512,202408231410447937,
2-16,A_Baseline,1,Q3FrontDown,-33.92665,16.50741,50.10478,-104.3109,-87.39289,126.1758,-46.25163,202408231410448275,
2-16,A_Baseline,1,Q3FrontDown,-34.52809,16.48126,50.12528,-103.9854,-87.48278,126.2129,-46.25232,202408231410448617,
2-16,A_Baseline,1,Q3FrontDown,-35.12165,16.44002,50.15322,-103.659,-87.57429,126.2444,-46.25766,202408231410448828,
2-16,A_Baseline,1,Q3FrontDown,-35.12165,16.44002,50.15322,-103.659,-87.57429,126.2444,-46.25766,202408231410449104,
2-16,A_Baseline,1,Q3FrontDown,-35.63934,16.42248,50.18135,-103.3315,-87.65726,126.279,-46.2605,202408231410449414,
2-16,A_Baseline,1,Q3FrontDown,-36.16961,16.40843,50.1899,-103.0232,-87.74274,126.2955,-46.2624,202408231410449586,
2-16,A_Baseline,1,Q3FrontDown,-36.16961,16.40843,50.1899,-103.0232,-87.74274,126.2955,-46.2624,202408231410449758,
2-16,A_Baseline,1,Q3FrontDown,-36.6431,16.40005,50.20186,-102.7267,-87.82214,126.3085,-46.26352,202408231410449994,
2-16,A_Baseline,1,Q3FrontDown,-37.07532,16.39732,50.22272,-102.4609,-87.91121,126.3245,-46.26368,202408231410450259,
2-16,A_Baseline,1,Q3FrontDown,-37.52909,16.3949,50.25314,-102.1939,-88.00531,126.3366,-46.26391,202408231410450434,
2-16,A_Baseline,1,Q3FrontDown,-37.52909,16.3949,50.25314,-102.1939,-88.00531,126.3366,-46.26391,202408231410450658,
2-16,A_Baseline,1,Q3FrontDown,-37.95899,16.39311,50.30676,-101.9385,-88.07883,126.3621,-46.26799,202408231410450995,
2-16,A_Baseline,1,Q3FrontDown,-38.35072,16.39062,50.36541,-101.7268,-88.14653,126.3916,-46.27721,202408231410451255,
2-16,A_Baseline,1,Q3FrontDown,-38.70376,16.37336,50.40765,-101.5234,-88.20842,126.4026,-46.27935,202408231410451606,
2-16,A_Baseline,1,Q3FrontDown,-38.99948,16.36019,50.42137,-101.3361,-88.24619,126.4103,-46.2801,202408231410451918,
2-16,A_Baseline,1,Q3FrontDown,-39.2418,16.33908,50.41908,-101.1551,-88.27727,126.4132,-46.28067,202408231410452126,
2-16,A_Baseline,1,Q3FrontDown,-39.2418,16.33908,50.41908,-101.1551,-88.27727,126.4132,-46.28067,202408231410452295,
2-16,A_Baseline,1,Q3FrontDown,-39.44157,16.29705,50.42019,-101.0058,-88.29961,126.4192,-46.28093,202408231410452587,
2-16,A_Baseline,1,Q3FrontDown,-39.612,16.24918,50.42144,-100.8809,-88.32317,126.434,-46.28159,202408231410452761,
2-16,A_Baseline,1,Q3FrontDown,-39.612,16.24918,50.42144,-100.8809,-88.32317,126.434,-46.28159,202408231410452931,
2-16,A_Baseline,1,Q3FrontDown,-39.71657,16.2015,50.39742,-100.7621,-88.34492,126.451,-46.28161,202408231410453112,
2-16,A_Baseline,1,Q3FrontDown,-39.71657,16.2015,50.39742,-100.7621,-88.34492,126.451,-46.28161,202408231410453335,
2-16,A_Baseline,1,Q3FrontDown,-39.7662,16.15365,50.35394,-100.6488,-88.36494,126.4748,-46.2811,202408231410453620,
2-16,A_Baseline,1,Q3FrontDown,-39.7155,16.0868,50.19941,-100.522,-88.3748,126.5187,-46.28083,202408231410453983,
2-16,A_Baseline,1,Q3FrontDown,-39.62581,15.99593,50.01695,-100.4118,-88.38216,126.5552,-46.281,202408231410454257,
2-16,A_Baseline,1,Q3FrontDown,-39.62581,15.99593,50.01695,-100.4118,-88.38216,126.5552,-46.281,202408231410454472,
2-16,A_Baseline,1,Q3FrontDown,-39.34665,15.80751,49.54787,-100.2218,-88.38596,126.646,-46.28088,202408231410454752,
2-16,A_Baseline,1,Q3FrontDown,-39.34665,15.80751,49.54787,-100.2218,-88.38596,126.646,-46.28088,202408231410454917,
2-16,A_Baseline,1,Q3FrontDown,-39.25154,15.71038,49.36101,-100.1513,-88.38624,126.6712,-46.28086,202408231410455086,
2-16,A_Baseline,1,Q3FrontDown,-39.25154,15.71038,49.36101,-100.1513,-88.38624,126.6712,-46.28086,202408231410455251,
2-16,A_Baseline,1,Q3FrontDown,-39.21655,15.63531,49.23707,-100.0668,-88.38636,126.7046,-46.281,202408231410455494,
2-16,A_Baseline,1,Q3FrontDown,-39.21655,15.63531,49.23707,-100.0668,-88.38636,126.7046,-46.281,202408231410455739,
2-16,A_Baseline,1,Q3FrontDown,-39.18355,15.55997,49.12052,-99.96992,-88.38624,126.7396,-46.28066,202408231410455927,
2-16,A_Baseline,1,Q3FrontDown,-39.18388,15.47857,49.03789,-99.87676,-88.38675,126.7708,-46.28058,202408231410456264,
2-16,A_Baseline,1,Q3FrontDown,-39.18388,15.47857,49.03789,-99.87676,-88.38675,126.7708,-46.28058,202408231410456435,
2-16,A_Baseline,1,Q3FrontDown,-39.22507,15.41382,49.01012,-99.76382,-88.38686,126.7933,-46.28043,202408231410456598,
2-16,A_Baseline,1,Q3FrontDown,-39.26962,15.3392,48.99807,-99.63846,-88.38717,126.8051,-46.28091,202408231410456806,
2-16,A_Baseline,1,Q3FrontDown,-39.32127,15.24694,48.98149,-99.52357,-88.38691,126.8232,-46.28101,202408231410457093,
2-16,A_Baseline,1,Q3FrontDown,-39.32127,15.24694,48.98149,-99.52357,-88.38691,126.8232,-46.28101,202408231410457254,
2-16,A_Baseline,1,Q3FrontDown,-39.32127,15.24694,48.98149,-99.52357,-88.38691,126.8232,-46.28101,202408231410457411,
2-16,A_Baseline,1,Q3FrontDown,-39.38112,15.15558,48.96864,-99.3964,-88.387,126.861,-46.28082,202408231410457592,
2-16,A_Baseline,1,Q3FrontDown,-39.41046,15.06716,48.92654,-99.23717,-88.3869,126.9034,-46.2813,202408231410457763,
2-16,A_Baseline,1,Q3FrontDown,-39.41046,15.06716,48.92654,-99.23717,-88.3869,126.9034,-46.2813,202408231410457982,
2-16,A_Baseline,1,Q3FrontDown,-39.43675,14.97801,48.87459,-99.06135,-88.38833,126.9454,-46.28138,202408231410458268,
2-16,A_Baseline,1,Q3FrontDown,-39.47179,14.91449,48.82595,-98.86122,-88.39461,126.9885,-46.28107,202408231410458448,
2-16,A_Baseline,1,Q3FrontDown,-39.47179,14.91449,48.82595,-98.86122,-88.39461,126.9885,-46.28107,202408231410458645,
2-16,A_Baseline,1,Q3FrontDown,-39.47529,14.85515,48.72934,-98.68163,-88.39589,127.0586,-46.28064,202408231410458992,
